; generated by PrusaSlicer 2.3.1+win64 on 2021-07-28 at 17:06:47 UTC

; 

; external perimeters extrusion width = 0.45mm
; perimeters extrusion width = 0.45mm
; infill extrusion width = 0.45mm
; solid infill extrusion width = 0.45mm
; top infill extrusion width = 0.40mm
; support material extrusion width = 0.35mm
; first layer extrusion width = 0.42mm

M73 P0 R66
M73 Q0 S67
M201 X1000 Y1000 Z1000 E5000 ; sets maximum accelerations, mm/sec^2
M203 X200 Y200 Z12 E120 ; sets maximum feedrates, mm/sec
M204 P1250 R1250 T1250 ; sets acceleration (P, T) and retract acceleration (R), mm/sec^2
M205 X8.00 Y8.00 Z0.40 E1.50 ; sets the jerk limits, mm/sec
M205 S0 T0 ; sets the minimum extruding and travel feed rate, mm/sec
M107
;TYPE:Custom
M862.3 P "MK3S" ; printer model check
M862.1 P0.4 ; nozzle diameter check
M115 U3.8.0 ; tell printer latest fw version
G90 ; use absolute coordinates
M83 ; extruder relative mode
M104 S215 ; set extruder temp
M140 S60 ; set bed temp
M190 S60 ; wait for bed temp
M109 S215 ; wait for extruder temp
G28 W ; home all without mesh bed level
G80 ; mesh bed leveling
G1 Y-3.0 F1000.0 ; go outside print area
G92 E0.0
G1 X60.0 E9.0 F1000.0 ; intro line
G1 X100.0 E12.5 F1000.0 ; intro line
G92 E0.0
M221 S95
G21 ; set units to millimeters
G90 ; use absolute coordinates
M83 ; use relative distances for extrusion
M900 K0.06 ; Filament gcode LA 1.5
M900 K30 ; Filament gcode LA 1.0
;LAYER_CHANGE
;Z:0.2
;HEIGHT:0.2
;BEFORE_LAYER_CHANGE
G92 E0.0
;0.2


G1 E-0.80000 F2100.000
G1 Z0.600 F10800.000
;AFTER_LAYER_CHANGE
;0.2
G1 X124.472 Y86.368
G1 Z0.200
G1 E0.80000 F2100.000
M204 S1000
;TYPE:Perimeter
;WIDTH:0.42
G1 F1200.000
G1 X125.297 Y86.442 E0.02597
G1 X126.145 Y86.642 E0.02731
G1 X126.932 Y86.957 E0.02659
G1 X127.666 Y87.384 E0.02662
G1 X128.330 Y87.914 E0.02662
G1 X128.909 Y88.534 E0.02662
G1 X129.393 Y89.233 E0.02662
G1 X129.760 Y89.975 E0.02597
G1 X130.031 Y90.803 E0.02731
G1 X130.171 Y91.639 E0.02659
G1 X130.189 Y92.488 E0.02662
G1 X130.083 Y93.331 E0.02662
G1 X129.855 Y94.149 E0.02662
G1 X129.511 Y94.925 E0.02662
G1 X129.057 Y95.643 E0.02662
G1 X128.504 Y96.287 E0.02662
G1 X127.863 Y96.843 E0.02662
G1 X127.147 Y97.301 E0.02662
G1 X126.373 Y97.649 E0.02662
G1 X125.556 Y97.881 E0.02662
G1 X124.714 Y97.991 E0.02662
G1 X123.865 Y97.978 E0.02662
G1 X123.027 Y97.841 E0.02662
G1 X122.217 Y97.584 E0.02662
G1 X121.454 Y97.211 E0.02662
G1 X120.754 Y96.732 E0.02662
G1 X120.130 Y96.155 E0.02662
G1 X119.597 Y95.494 E0.02662
G1 X119.166 Y94.762 E0.02662
G1 X118.847 Y93.975 E0.02662
G1 X118.650 Y93.171 E0.02597
G1 X118.565 Y92.304 E0.02731
G1 X118.610 Y91.457 E0.02659
G1 X118.777 Y90.625 E0.02662
G1 X119.064 Y89.825 E0.02662
G1 X119.464 Y89.076 E0.02662
G1 X119.969 Y88.394 E0.02662
G1 X120.568 Y87.792 E0.02662
G1 X121.248 Y87.283 E0.02662
G1 X121.976 Y86.889 E0.02597
G1 X122.794 Y86.588 E0.02731
G1 X123.624 Y86.417 E0.02659
G1 X124.412 Y86.372 E0.02474
G1 E-0.80000 F2100.000
G1 Z0.800 F10800.000
G1 X124.735 Y98.369
G1 Z0.200
G1 E0.80000 F2100.000
;TYPE:External perimeter
G1 F1200.000
G1 X123.831 Y98.354 E0.02836
G1 X122.939 Y98.209 E0.02836
G1 X122.077 Y97.935 E0.02836
G1 X121.264 Y97.538 E0.02836
G1 X120.518 Y97.027 E0.02836
G1 X119.854 Y96.413 E0.02836
G1 X119.286 Y95.709 E0.02836
G1 X118.827 Y94.930 E0.02836
G1 X118.487 Y94.092 E0.02836
G1 X118.277 Y93.234 E0.02768
G1 X118.187 Y92.313 E0.02904
G1 X118.234 Y91.410 E0.02834
G1 X118.413 Y90.523 E0.02836
G1 X118.718 Y89.672 E0.02836
G1 X119.144 Y88.874 E0.02836
G1 X119.682 Y88.147 E0.02836
G1 X120.320 Y87.506 E0.02836
G1 X121.044 Y86.965 E0.02836
G1 X121.821 Y86.545 E0.02768
G1 X122.690 Y86.225 E0.02904
G1 X123.575 Y86.042 E0.02834
G1 X124.478 Y85.990 E0.02836
G1 X125.357 Y86.069 E0.02768
G1 X126.259 Y86.281 E0.02904
G1 X127.098 Y86.617 E0.02834
G1 X127.879 Y87.072 E0.02836
G1 X128.586 Y87.636 E0.02836
G1 X129.204 Y88.297 E0.02836
G1 X129.718 Y89.041 E0.02836
G1 X130.110 Y89.832 E0.02768
G1 X130.398 Y90.712 E0.02904
G1 X130.548 Y91.604 E0.02834
G1 X130.567 Y92.508 E0.02836
G1 X130.454 Y93.405 E0.02836
G1 X130.211 Y94.276 E0.02836
G1 X129.844 Y95.103 E0.02836
G1 X129.361 Y95.867 E0.02836
G1 X128.772 Y96.553 E0.02836
G1 X128.089 Y97.146 E0.02836
G1 X127.327 Y97.633 E0.02836
G1 X126.502 Y98.004 E0.02836
G1 X125.632 Y98.251 E0.02836
G1 X124.795 Y98.361 E0.02647
G1 X124.516 Y98.034 F10800.000
G1 E-0.80000 F2100.000
G1 Z0.800 F10800.000
G1 X129.277 Y89.264
G1 Z0.200
G1 E0.80000 F2100.000
;TYPE:Solid infill
;WIDTH:0.424133
G1 F1200.000
G1 X128.125 Y88.112 E0.05163
G1 X127.506 Y87.618 E0.02511
G1 X126.808 Y87.212 E0.02560
G1 X126.604 Y87.130 E0.00695
G1 X129.440 Y89.966 E0.12712
G1 X129.497 Y90.082 E0.00410
G1 X129.731 Y90.797 E0.02382
G1 X125.781 Y86.847 E0.17707
G1 X125.252 Y86.722 E0.01724
G1 X125.104 Y86.709 E0.00470
G1 X129.854 Y91.459 E0.21295
G1 X129.889 Y91.666 E0.00664
G1 X129.897 Y92.041 E0.01189
G1 X124.512 Y86.656 E0.24139
G1 X123.996 Y86.679 E0.01637
G1 X129.893 Y92.576 E0.26435
M73 Q0 S66
G1 X129.833 Y93.055 E0.01530
G1 X123.508 Y86.730 E0.28353
G1 X123.061 Y86.822 E0.01446
G1 X129.741 Y93.503 E0.29948
G1 X129.624 Y93.924 E0.01388
G1 X122.644 Y86.945 E0.31288
G1 X122.250 Y87.090 E0.01331
G1 X129.473 Y94.313 E0.32378
G1 X129.307 Y94.686 E0.01295
G1 X121.883 Y87.261 E0.33283
G1 X121.533 Y87.451 E0.01261
G1 X129.111 Y95.029 E0.33970
G1 X128.902 Y95.359 E0.01239
G1 X121.209 Y87.666 E0.34487
G1 X120.900 Y87.896 E0.01221
G1 X128.667 Y95.663 E0.34816
G1 X128.418 Y95.953 E0.01212
G1 X120.613 Y88.148 E0.34989
G1 X120.344 Y88.418 E0.01208
G1 X128.147 Y96.222 E0.34983
G1 X127.859 Y96.472 E0.01211
G1 X120.091 Y88.704 E0.34822
G1 X119.862 Y89.014 E0.01222
G1 X127.553 Y96.706 E0.34479
G1 X127.224 Y96.916 E0.01237
G1 X119.645 Y89.337 E0.33975
G1 X119.458 Y89.688 E0.01263
G1 X126.880 Y97.111 E0.33273
G1 X126.508 Y97.278 E0.01292
G1 X119.283 Y90.052 E0.32390
G1 X119.140 Y90.449 E0.01336
G1 X126.118 Y97.427 E0.31281
G1 X125.698 Y97.546 E0.01384
G1 X119.017 Y90.865 E0.29951
G1 X118.927 Y91.314 E0.01451
G1 X125.249 Y97.636 E0.28340
G1 X124.772 Y97.698 E0.01524
G1 X118.875 Y91.801 E0.26437
G1 X118.850 Y92.316 E0.01634
G1 X124.236 Y97.701 E0.24140
G1 X123.890 Y97.695 E0.01096
G1 X123.652 Y97.657 E0.00763
G1 X118.909 Y92.913 E0.21264
G1 X118.929 Y93.123 E0.00670
G1 X119.042 Y93.586 E0.01509
G1 X122.989 Y97.532 E0.17690
G1 X122.323 Y97.320 E0.02215
G1 X122.157 Y97.239 E0.00586
G1 X119.329 Y94.412 E0.12674
G1 X119.421 Y94.636 E0.00768
G1 X119.830 Y95.332 E0.02560
G1 X120.328 Y95.949 E0.02511
G1 X121.448 Y97.070 E0.05023
G1 E-0.80000 F2100.000
G1 Z0.800 F10800.000
G1 X125.863 Y123.626
G1 Z0.200
G1 E0.80000 F2100.000
;TYPE:Perimeter
;WIDTH:0.42
G1 F1200.000
G1 X124.992 Y123.598 E0.02731
G1 X124.158 Y123.446 E0.02659
G1 X123.354 Y123.173 E0.02662
G1 X122.598 Y122.786 E0.02662
G1 X121.906 Y122.293 E0.02662
G1 X121.294 Y121.705 E0.02662
G1 X120.787 Y121.050 E0.02597
G1 X120.357 Y120.293 E0.02731
G1 X120.052 Y119.501 E0.02659
G1 X119.866 Y118.672 E0.02662
G1 X119.805 Y117.847 E0.02597
G1 X119.864 Y116.978 E0.02731
G1 X120.047 Y116.149 E0.02659
G1 X120.349 Y115.356 E0.02662
G1 X120.763 Y114.615 E0.02662
G1 X121.268 Y113.958 E0.02597
G1 X121.892 Y113.351 E0.02731
G1 X122.581 Y112.856 E0.02659
G1 X123.336 Y112.466 E0.02663
G1 X124.139 Y112.191 E0.02662
G1 X124.974 Y112.035 E0.02662
G1 X125.822 Y112.003 E0.02662
G1 X126.645 Y112.092 E0.02597
G1 X127.489 Y112.308 E0.02731
G1 X128.270 Y112.638 E0.02659
G1 X128.996 Y113.079 E0.02662
G1 X129.633 Y113.608 E0.02597
G1 X130.218 Y114.254 E0.02731
G1 X130.687 Y114.960 E0.02659
G1 X131.049 Y115.729 E0.02662
G1 X131.289 Y116.521 E0.02597
G1 X131.420 Y117.382 E0.02731
G1 X131.421 Y118.231 E0.02659
G1 X131.299 Y119.071 E0.02662
G1 X131.062 Y119.864 E0.02597
G1 X130.696 Y120.655 E0.02731
G1 X130.229 Y121.363 E0.02659
G1 X129.664 Y121.996 E0.02662
G1 X129.012 Y122.541 E0.02662
G1 X128.288 Y122.984 E0.02662
G1 X127.507 Y123.318 E0.02662
G1 X126.686 Y123.534 E0.02663
G1 X125.922 Y123.619 E0.02408
G1 X125.878 Y124.003 F10800.000
;TYPE:External perimeter
G1 F1200.000
G1 X124.952 Y123.974 E0.02904
G1 X124.063 Y123.812 E0.02834
G1 X123.206 Y123.521 E0.02836
G1 X122.401 Y123.109 E0.02836
G1 X121.665 Y122.584 E0.02836
G1 X121.013 Y121.957 E0.02836
G1 X120.472 Y121.260 E0.02768
G1 X120.015 Y120.454 E0.02904
G1 X119.691 Y119.610 E0.02834
G1 X119.492 Y118.728 E0.02836
G1 X119.427 Y117.848 E0.02768
G1 X119.489 Y116.924 E0.02904
G1 X119.685 Y116.041 E0.02834
G1 X120.006 Y115.196 E0.02836
G1 X120.447 Y114.406 E0.02836
G1 X120.986 Y113.707 E0.02768
G1 X121.649 Y113.061 E0.02904
G1 X122.384 Y112.533 E0.02834
G1 X123.187 Y112.119 E0.02836
G1 X124.043 Y111.825 E0.02836
G1 X124.932 Y111.659 E0.02836
G1 X125.835 Y111.625 E0.02836
G1 X126.713 Y111.720 E0.02768
G1 X127.610 Y111.950 E0.02904
G1 X128.443 Y112.302 E0.02834
G1 X129.215 Y112.772 E0.02836
G1 X129.895 Y113.335 E0.02768
G1 X130.516 Y114.022 E0.02904
G1 X131.016 Y114.775 E0.02834
G1 X131.402 Y115.593 E0.02836
G1 X131.657 Y116.438 E0.02768
G1 X131.797 Y117.353 E0.02904
G1 X131.798 Y118.258 E0.02834
G1 X131.668 Y119.152 E0.02836
G1 X131.415 Y119.998 E0.02768
G1 X131.026 Y120.839 E0.02904
G1 X130.529 Y121.593 E0.02834
G1 X129.927 Y122.268 E0.02836
G1 X129.232 Y122.848 E0.02836
G1 X128.461 Y123.320 E0.02836
G1 X127.630 Y123.675 E0.02836
G1 X126.755 Y123.905 E0.02836
G1 X125.937 Y123.997 E0.02580
G1 X125.664 Y123.665 F10800.000
G1 E-0.80000 F2100.000
G1 Z0.800 F10800.000
G1 X130.489 Y114.867
G1 Z0.200
G1 E0.80000 F2100.000
;TYPE:Solid infill
;WIDTH:0.424018
G1 F1200.000
G1 X129.424 Y113.802 E0.04775
G1 X128.831 Y113.310 E0.02439
G1 X128.141 Y112.891 E0.02560
G1 X127.851 Y112.768 E0.00997
G1 X130.669 Y115.586 E0.12627
G1 X130.784 Y115.830 E0.00857
G1 X130.962 Y116.418 E0.01944
G1 X127.025 Y112.481 E0.17642
G1 X126.595 Y112.371 E0.01408
G1 X126.350 Y112.344 E0.00782
G1 X131.088 Y117.083 E0.21236
G1 X131.137 Y117.404 E0.01029
G1 X131.138 Y117.671 E0.00847
G1 X125.755 Y112.288 E0.24123
G1 X125.235 Y112.308 E0.01646
G1 X131.138 Y118.211 E0.26453
G1 X131.070 Y118.682 E0.01507
G1 X124.752 Y112.364 E0.28311
G1 X124.298 Y112.449 E0.01464
G1 X130.985 Y119.135 E0.29965
G1 X130.861 Y119.550 E0.01372
G1 X123.887 Y112.576 E0.31253
G1 X123.485 Y112.714 E0.01344
G1 X130.714 Y119.943 E0.32394
G1 X130.544 Y120.311 E0.01287
G1 X123.126 Y112.893 E0.33243
G1 X122.770 Y113.077 E0.01268
G1 X130.354 Y120.660 E0.33986
G1 X130.140 Y120.985 E0.01233
G1 X122.452 Y113.297 E0.34453
G1 X122.138 Y113.522 E0.01224
G1 X129.911 Y121.295 E0.34833
G1 X129.657 Y121.580 E0.01210
G1 X121.857 Y113.780 E0.34955
G1 X121.584 Y114.046 E0.01208
G1 X129.392 Y121.855 E0.34994
G1 X129.099 Y122.100 E0.01213
G1 X121.335 Y114.336 E0.34794
G1 X121.100 Y114.640 E0.01218
G1 X128.799 Y122.339 E0.34502
G1 X128.465 Y122.544 E0.01242
G1 X120.889 Y114.968 E0.33950
G1 X120.696 Y115.314 E0.01255
G1 X128.127 Y122.745 E0.33302
M73 P1 R66
M73 Q1 S66
G1 X127.750 Y122.907 E0.01301
G1 X120.527 Y115.684 E0.32369
G1 X120.378 Y116.074 E0.01324
G1 X127.366 Y123.062 E0.31317
G1 X126.940 Y123.174 E0.01398
G1 X120.260 Y116.495 E0.29934
G1 X120.162 Y116.936 E0.01432
G1 X126.496 Y123.270 E0.28385
G1 X126.012 Y123.325 E0.01546
G1 X120.116 Y117.429 E0.26419
G1 X120.096 Y117.947 E0.01643
G1 X125.479 Y123.331 E0.24124
G1 X125.022 Y123.316 E0.01448
G1 X124.904 Y123.295 E0.00381
G1 X120.139 Y118.530 E0.21352
G1 X120.147 Y118.631 E0.00319
G1 X120.276 Y119.206 E0.01868
G1 X124.244 Y123.174 E0.17784
G1 X123.421 Y122.890 E0.02761
G1 X120.557 Y120.026 E0.12833
G1 X120.613 Y120.171 E0.00494
G1 X121.023 Y120.893 E0.02629
G1 X121.497 Y121.504 E0.02451
G1 X122.707 Y122.715 E0.05425
M106 S255
;LAYER_CHANGE
;Z:0.4
;HEIGHT:0.2
;BEFORE_LAYER_CHANGE
G92 E0.0
;0.4


G1 E-0.80000 F2100.000
G1 Z0.800 F10800.000
;AFTER_LAYER_CHANGE
;0.4
M104 S210 ; set temperature
G1 X124.714 Y98.000
G1 Z0.400
G1 E0.80000 F2100.000
M204 S800
;TYPE:Perimeter
;WIDTH:0.45
G1 F1500.000
G1 X123.864 Y97.986 E0.02879
G1 X123.025 Y97.849 E0.02879
G1 X122.214 Y97.592 E0.02878
G1 X121.450 Y97.218 E0.02879
G1 X120.748 Y96.738 E0.02879
G1 X120.124 Y96.161 E0.02879
G1 X119.590 Y95.499 E0.02879
G1 X119.159 Y94.766 E0.02878
G1 X118.839 Y93.978 E0.02879
G1 X118.651 Y93.213 E0.02665
G1 X118.557 Y92.302 E0.03100
G1 X118.601 Y91.456 E0.02868
G1 X118.769 Y90.622 E0.02879
G1 X119.056 Y89.822 E0.02878
G1 X119.457 Y89.072 E0.02879
G1 X119.962 Y88.388 E0.02878
G1 X120.562 Y87.785 E0.02879
G1 X121.243 Y87.276 E0.02878
G1 X121.936 Y86.902 E0.02665
G1 X122.793 Y86.580 E0.03100
G1 X123.623 Y86.409 E0.02868
G1 X124.472 Y86.360 E0.02878
G1 X125.256 Y86.430 E0.02665
G1 X126.149 Y86.634 E0.03100
G1 X126.936 Y86.950 E0.02868
G1 X127.671 Y87.377 E0.02878
G1 X128.286 Y87.868 E0.02665
G1 X128.918 Y88.532 E0.03100
G1 X129.400 Y89.228 E0.02868
G1 X129.749 Y89.934 E0.02665
G1 X130.039 Y90.803 E0.03100
G1 X130.180 Y91.638 E0.02868
G1 X130.198 Y92.489 E0.02879
G1 X130.091 Y93.332 E0.02878
G1 X129.863 Y94.152 E0.02879
G1 X129.544 Y94.871 E0.02665
G1 X129.062 Y95.650 E0.03100
G1 X128.510 Y96.293 E0.02868
G1 X127.868 Y96.850 E0.02878
G1 X127.151 Y97.308 E0.02878
G1 X126.375 Y97.657 E0.02878
G1 X125.557 Y97.889 E0.02878
G1 X124.774 Y97.992 E0.02675
M204 S1000
G1 X124.738 Y98.407 F10800.000
M204 S800
;TYPE:External perimeter
G1 F1500.000
G1 X123.828 Y98.393 E0.03080
G1 X122.930 Y98.246 E0.03080
G1 X122.062 Y97.970 E0.03080
G1 X121.245 Y97.571 E0.03080
G1 X120.494 Y97.057 E0.03080
G1 X119.826 Y96.439 E0.03080
G1 X119.255 Y95.731 E0.03080
G1 X118.793 Y94.947 E0.03080
G1 X118.450 Y94.104 E0.03080
G1 X118.249 Y93.283 E0.02860
G1 X118.149 Y92.313 E0.03301
G1 X118.196 Y91.405 E0.03077
G1 X118.376 Y90.513 E0.03080
G1 X118.683 Y89.656 E0.03080
G1 X119.112 Y88.854 E0.03080
G1 X119.653 Y88.122 E0.03080
G1 X120.295 Y87.477 E0.03080
G1 X121.023 Y86.932 E0.03080
G1 X121.767 Y86.530 E0.02860
G1 X122.680 Y86.188 E0.03301
G1 X123.570 Y86.004 E0.03077
G1 X124.479 Y85.952 E0.03080
G1 X125.320 Y86.027 E0.02860
G1 X126.271 Y86.245 E0.03301
G1 X127.115 Y86.583 E0.03077
G1 X127.901 Y87.041 E0.03080
G1 X128.562 Y87.567 E0.02860
G1 X129.234 Y88.274 E0.03301
G1 X129.752 Y89.021 E0.03077
G1 X130.126 Y89.779 E0.02860
G1 X130.435 Y90.704 E0.03301
G1 X130.586 Y91.600 E0.03077
G1 X130.605 Y92.510 E0.03080
G1 X130.491 Y93.413 E0.03080
G1 X130.247 Y94.289 E0.03080
G1 X129.905 Y95.062 E0.02860
G1 X129.391 Y95.891 E0.03301
G1 X128.799 Y96.581 E0.03077
G1 X128.112 Y97.177 E0.03080
G1 X127.345 Y97.667 E0.03080
G1 X126.515 Y98.040 E0.03080
G1 X125.640 Y98.289 E0.03080
G1 X124.797 Y98.399 E0.02877
M204 S1000
G1 X124.518 Y98.073 F10800.000
G1 E-0.80000 F2100.000
G1 Z1.000 F10800.000
G1 X119.466 Y89.314
G1 Z0.400
G1 E0.80000 F2100.000
M204 S1250
;TYPE:Solid infill
;WIDTH:0.451196
G1 F2281
G1 X120.766 Y88.014 E0.06242
G1 X121.408 Y87.534 E0.02723
G1 X122.063 Y87.180 E0.02526
G1 X122.246 Y87.111 E0.00664
G1 X119.294 Y90.064 E0.14175
G1 X119.064 Y90.704 E0.02311
G1 X119.022 Y90.913 E0.00722
G1 X123.108 Y86.827 E0.19619
G1 X123.663 Y86.712 E0.01923
G1 X123.808 Y86.704 E0.00494
G1 X118.899 Y91.614 E0.23571
G1 X118.867 Y92.223 E0.02071
G1 X124.421 Y86.669 E0.26665
G1 X124.957 Y86.710 E0.01826
G1 X118.911 Y92.756 E0.29029
G1 X118.979 Y93.266 E0.01746
G1 X125.456 Y86.789 E0.31097
G1 X125.925 Y86.896 E0.01636
G1 X119.092 Y93.730 E0.32807
G1 X119.130 Y93.884 E0.00539
G1 X119.241 Y94.158 E0.01004
G1 X126.354 Y87.045 E0.34148
G1 X126.766 Y87.210 E0.01508
G1 X119.408 Y94.568 E0.35326
G1 X119.615 Y94.939 E0.01441
G1 X127.135 Y87.419 E0.36104
G1 X127.500 Y87.632 E0.01433
G1 X119.829 Y95.302 E0.36827
G1 X120.084 Y95.625 E0.01395
G1 X127.821 Y87.888 E0.37145
G1 X128.079 Y88.094 E0.01123
G1 X128.134 Y88.152 E0.00270
G1 X120.342 Y95.944 E0.37413
G1 X120.641 Y96.223 E0.01387
G1 X128.416 Y88.447 E0.37330
G1 X128.695 Y88.746 E0.01387
G1 X120.941 Y96.500 E0.37227
G1 X121.284 Y96.735 E0.01410
G1 X128.931 Y89.087 E0.36715
G1 X129.161 Y89.434 E0.01414
G1 X121.629 Y96.966 E0.36160
G1 X122.017 Y97.156 E0.01466
G1 X129.352 Y89.821 E0.35215
G1 X129.466 Y90.051 E0.00871
G1 X129.524 Y90.226 E0.00627
G1 X122.415 Y97.335 E0.34131
G1 X122.853 Y97.474 E0.01561
G1 X129.669 Y90.659 E0.32722
G1 X129.742 Y90.877 E0.00781
