; generated by PrusaSlicer 2.5.0-rc2+win64 on 2023-01-31 at 17:44:28 UTC

; 

; external perimeters extrusion width = 0.45mm
; perimeters extrusion width = 0.45mm
; infill extrusion width = 0.45mm
; solid infill extrusion width = 0.45mm
; top infill extrusion width = 0.40mm
; support material extrusion width = 0.35mm
; first layer extrusion width = 0.42mm

; external perimeters extrusion width = 0.45mm
; perimeters extrusion width = 0.45mm
; infill extrusion width = 0.45mm
; solid infill extrusion width = 0.45mm
; top infill extrusion width = 0.40mm
; support material extrusion width = 0.35mm
; first layer extrusion width = 0.42mm

M73 P0 R67
M73 Q0 S68
M107
;TYPE:Custom
M862.3 P "MK3S" ; printer model check
M862.1 P0.4 ; nozzle diameter check
G90 ; use absolute coordinates
M83 ; extruder relative mode
M104 S215 ; set extruder temp
M140 S60 ; set bed temp
M190 S60 ; wait for bed temp
M109 S215 ; wait for extruder temp
G28 W ; home all without mesh bed level
G80 ; mesh bed leveling
G1 Y-3.0 F1000.0 ; go outside print area
G92 E0.0
G1 X60.0 E9.0 F1000.0 ; intro line
G1 X100.0 E12.5 F1000.0 ; intro line
G92 E0.0
M221 S95

; Don't change E values below. Excessive value can damage the printer.
M907 E430 ; set extruder motor current
G21 ; set units to millimeters
G90 ; use absolute coordinates
M83 ; use relative distances for extrusion
M900 K30 ; Filament gcode
M107
;LAYER_CHANGE
;Z:0.2
;HEIGHT:0.2
;BEFORE_LAYER_CHANGE
G92 E0.0
;0.2


G1 E-.8 F2100
G1 Z.4 F720
;AFTER_LAYER_CHANGE
;0.2
G1 X95.502 Y72.93 F10800
G1 Z.2 F720
G1 E.8 F2100
M204 S800
;TYPE:Skirt/Brim
;WIDTH:0.42
G1 F1200
G1 X96.547 Y72.054 E.04278
G1 X97.487 Y71.86 E.03008
G1 X152.513 Y71.86 E1.72529
G1 X153.82 Y72.252 E.04278
G1 X154.696 Y73.298 E.04278
G1 X154.89 Y74.237 E.03008
G1 X154.89 Y135.763 E1.92908
G1 X154.498 Y137.07 E.04278
G1 X153.453 Y137.946 E.04278
G1 X152.513 Y138.14 E.03008
G1 X97.487 Y138.14 E1.72529
G1 X96.18 Y137.748 E.04278
G1 X95.304 Y136.702 E.04278
G1 X95.11 Y135.763 E.03008
G1 X95.11 Y74.237 E1.92908
G1 X95.484 Y72.988 E.0409
M204 S1000
; printing object LPlatform.stl id:0 copy 0
;WIPE_START
G1 F8640
G1 X96.547 Y72.054 E-.32671
G1 X97.487 Y71.86 E-.22155
G1 X98.404 Y71.86 E-.21174
;WIPE_END
G1 E-.04 F2100
G1 Z.6 F720
G1 X124.245 Y89.406 F10800
G1 Z.2 F720
G1 E.8 F2100
M204 S800
;TYPE:Support material
G1 F1200
G1 X120.548 Y89.406 E.11593
G1 X120.548 Y85.799 E.1131
G1 X120.227 Y85.479 E.01422
G1 X119.082 Y85.479 E.03591
G1 X119.082 Y78.647 E.2142
G1 X118.761 Y78.326 E.01422
G1 X102.951 Y78.326 E.4957
G1 X102.63 Y78.647 E.01422
G1 X102.63 Y131.353 E1.65255
G1 X102.951 Y131.674 E.01422
G1 X120.227 Y131.674 E.54166
G1 X120.548 Y131.353 E.01422
G1 X120.548 Y127.547 E.11933
G1 X124.245 Y127.547 E.11593
G1 X124.245 Y135.763 E.25759
G1 X97.487 Y135.763 E.83898
G1 X97.487 Y74.237 E1.92908
G1 X124.245 Y74.237 E.83898
G1 X124.245 Y89.35 E.47384
M204 S1000
;WIPE_START
M73 Q0 S67
G1 F8640
G1 X124.245 Y86.058 E-.76
;WIPE_END
G1 E-.04 F2100
G1 Z.6 F720
G1 X123.756 Y135.593 F10800
G1 Z.2 F720
G1 E.8 F2100
M204 S800
G1 F1200
G1 X123.756 Y127.886 E.24163
G1 X123.337 Y127.886 E.01314
G1 X123.337 Y135.423 E.23631
G1 X122.918 Y135.423 E.01314
G1 X122.918 Y127.886 E.23631
G1 X122.499 Y127.886 E.01314
G1 X122.499 Y135.423 E.23631
G1 X122.08 Y135.423 E.01314
G1 X122.08 Y127.886 E.23631
G1 X121.661 Y127.886 E.01314
G1 X121.661 Y135.423 E.23631
G1 X121.242 Y135.423 E.01314
G1 X121.242 Y127.886 E.23631
G1 X120.887 Y127.886 E.01115
G1 X120.887 Y131.493 E.11309
G1 X120.824 Y131.557 E.00281
G1 X120.824 Y135.423 E.12123
G1 X120.405 Y135.423 E.01314
G1 X120.405 Y131.976 E.10809
G1 X120.367 Y132.013 E.00165
G1 X119.986 Y132.013 E.01197
G1 X119.986 Y135.423 E.10692
G1 X119.567 Y135.423 E.01314
G1 X119.567 Y132.013 E.10692
G1 X119.148 Y132.013 E.01314
G1 X119.148 Y135.423 E.10692
G1 X118.729 Y135.423 E.01314
G1 X118.729 Y132.013 E.10692
G1 X118.31 Y132.013 E.01314
G1 X118.31 Y135.423 E.10692
G1 X117.891 Y135.423 E.01314
G1 X117.891 Y132.013 E.10692
G1 X117.472 Y132.013 E.01314
G1 X117.472 Y135.423 E.10692
G1 X117.053 Y135.423 E.01314
G1 X117.053 Y132.013 E.10692
G1 X116.634 Y132.013 E.01314
G1 X116.634 Y135.423 E.10692
G1 X116.215 Y135.423 E.01314
G1 X116.215 Y132.013 E.10692
G1 X115.796 Y132.013 E.01314
G1 X115.796 Y135.423 E.10692
G1 X115.377 Y135.423 E.01314
G1 X115.377 Y132.013 E.10692
G1 X114.958 Y132.013 E.01314
G1 X114.958 Y135.423 E.10692
G1 X114.539 Y135.423 E.01314
G1 X114.539 Y132.013 E.10692
G1 X114.12 Y132.013 E.01314
G1 X114.12 Y135.423 E.10692
G1 X113.701 Y135.423 E.01314
G1 X113.701 Y132.013 E.10692
G1 X113.282 Y132.013 E.01314
G1 X113.282 Y135.423 E.10692
G1 X112.863 Y135.423 E.01314
G1 X112.863 Y132.013 E.10692
G1 X112.444 Y132.013 E.01314
G1 X112.444 Y135.423 E.10692
M73 Q1 S67
G1 X112.025 Y135.423 E.01314
M73 P1 R67
G1 X112.025 Y132.013 E.10692
G1 X111.606 Y132.013 E.01314
G1 X111.606 Y135.423 E.10692
G1 X111.187 Y135.423 E.01314
G1 X111.187 Y132.013 E.10692
G1 X110.768 Y132.013 E.01314
G1 X110.768 Y135.423 E.10692
G1 X110.349 Y135.423 E.01314
G1 X110.349 Y132.013 E.10692
G1 X109.93 Y132.013 E.01314
G1 X109.93 Y135.423 E.10692
G1 X109.511 Y135.423 E.01314
G1 X109.511 Y132.013 E.10692
G1 X109.092 Y132.013 E.01314
G1 X109.092 Y135.423 E.10692
G1 X108.673 Y135.423 E.01314
G1 X108.673 Y132.013 E.10692
G1 X108.254 Y132.013 E.01314
G1 X108.254 Y135.423 E.10692
G1 X107.835 Y135.423 E.01314
G1 X107.835 Y132.013 E.10692
G1 X107.416 Y132.013 E.01314
G1 X107.416 Y135.423 E.10692
G1 X106.997 Y135.423 E.01314
G1 X106.997 Y132.013 E.10692
G1 X106.578 Y132.013 E.01314
G1 X106.578 Y135.423 E.10692
G1 X106.159 Y135.423 E.01314
G1 X106.159 Y132.013 E.10692
G1 X105.74 Y132.013 E.01314
G1 X105.74 Y135.423 E.10692
G1 X105.321 Y135.423 E.01314
G1 X105.321 Y132.013 E.10692
G1 X104.902 Y132.013 E.01314
G1 X104.902 Y135.423 E.10692
G1 X104.483 Y135.423 E.01314
G1 X104.483 Y132.013 E.10692
G1 X104.064 Y132.013 E.01314
G1 X104.064 Y135.423 E.10692
G1 X103.645 Y135.423 E.01314
G1 X103.645 Y132.013 E.10692
G1 X103.226 Y132.013 E.01314
G1 X103.226 Y135.423 E.10692
G1 X102.808 Y135.423 E.01314
G1 X102.808 Y131.77 E.11455
M204 S1000
;WIPE_START
G1 F8640
G1 X102.808 Y135.061 E-.76
;WIPE_END
G1 E-.04 F2100
G1 Z.6 F720
G1 X123.756 Y89.237 F10800
G1 Z.2 F720
G1 E.8 F2100
M204 S800
G1 F1200
G1 X123.756 Y74.577 E.45965
G1 X123.337 Y74.577 E.01314
G1 X123.337 Y89.067 E.45433
G1 X122.918 Y89.067 E.01314
G1 X122.918 Y74.577 E.45433
G1 X122.499 Y74.577 E.01314
G1 X122.499 Y89.067 E.45433
G1 X122.08 Y89.067 E.01314
M73 P1 R66
G1 X122.08 Y74.577 E.45433
G1 X121.661 Y74.577 E.01314
G1 X121.661 Y89.067 E.45433
G1 X121.242 Y89.067 E.01314
G1 X121.242 Y74.577 E.45433
G1 X120.824 Y74.577 E.01314
G1 X120.824 Y85.595 E.34548
G1 X120.405 Y85.176 E.01858
G1 X120.405 Y74.577 E.33234
G1 X119.986 Y74.577 E.01314
G1 X119.986 Y85.139 E.33118
G1 X119.567 Y85.139 E.01314
G1 X119.567 Y74.577 E.33118
G1 X119.148 Y74.577 E.01314
G1 X119.148 Y78.233 E.11464
G1 X118.901 Y77.987 E.01092
G1 X118.729 Y77.987 E.00542
G1 X118.729 Y74.577 E.10692
G1 X118.31 Y74.577 E.01314
G1 X118.31 Y77.987 E.10692
G1 X117.891 Y77.987 E.01314
G1 X117.891 Y74.577 E.10692
G1 X117.472 Y74.577 E.01314
G1 X117.472 Y77.987 E.10692
G1 X117.053 Y77.987 E.01314
G1 X117.053 Y74.577 E.10692
G1 X116.634 Y74.577 E.01314
G1 X116.634 Y77.987 E.10692
G1 X116.215 Y77.987 E.01314
G1 X116.215 Y74.577 E.10692
G1 X115.796 Y74.577 E.01314
G1 X115.796 Y77.987 E.10692
G1 X115.377 Y77.987 E.01314
G1 X115.377 Y74.577 E.10692
G1 X114.958 Y74.577 E.01314
G1 X114.958 Y77.987 E.10692
G1 X114.539 Y77.987 E.01314
G1 X114.539 Y74.577 E.10692
G1 X114.12 Y74.577 E.01314
G1 X114.12 Y77.987 E.10692
G1 X113.701 Y77.987 E.01314
G1 X113.701 Y74.577 E.10692
G1 X113.282 Y74.577 E.01314
G1 X113.282 Y77.987 E.10692
G1 X112.863 Y77.987 E.01314
G1 X112.863 Y74.577 E.10692
G1 X112.444 Y74.577 E.01314
G1 X112.444 Y77.987 E.10692
G1 X112.025 Y77.987 E.01314
G1 X112.025 Y74.577 E.10692
G1 X111.606 Y74.577 E.01314
G1 X111.606 Y77.987 E.10692
G1 X111.187 Y77.987 E.01314
G1 X111.187 Y74.577 E.10692
G1 X110.768 Y74.577 E.01314
G1 X110.768 Y77.987 E.10692
G1 X110.349 Y77.987 E.01314
G1 X110.349 Y74.577 E.10692
G1 X109.93 Y74.577 E.01314
G1 X109.93 Y77.987 E.10692
G1 X109.511 Y77.987 E.01314
G1 X109.511 Y74.577 E.10692
G1 X109.092 Y74.577 E.01314
G1 X109.092 Y77.987 E.10692
G1 X108.673 Y77.987 E.01314
G1 X108.673 Y74.577 E.10692
G1 X108.254 Y74.577 E.01314
G1 X108.254 Y77.987 E.10692
G1 X107.835 Y77.987 E.01314
G1 X107.835 Y74.577 E.10692
G1 X107.416 Y74.577 E.01314
G1 X107.416 Y77.987 E.10692
G1 X106.997 Y77.987 E.01314
G1 X106.997 Y74.577 E.10692
G1 X106.578 Y74.577 E.01314
G1 X106.578 Y77.987 E.10692
G1 X106.159 Y77.987 E.01314
G1 X106.159 Y74.577 E.10692
G1 X105.74 Y74.577 E.01314
G1 X105.74 Y77.987 E.10692
G1 X105.321 Y77.987 E.01314
G1 X105.321 Y74.577 E.10692
G1 X104.902 Y74.577 E.01314
G1 X104.902 Y77.987 E.10692
G1 X104.483 Y77.987 E.01314
G1 X104.483 Y74.577 E.10692
G1 X104.064 Y74.577 E.01314
G1 X104.064 Y77.987 E.10692
G1 X103.645 Y77.987 E.01314
G1 X103.645 Y74.577 E.10692
G1 X103.226 Y74.577 E.01314
G1 X103.226 Y77.987 E.10692
G1 X102.808 Y77.99 E.01314
G1 X102.808 Y74.577 E.10702
G1 X102.389 Y74.577 E.01314
G1 X102.389 Y135.423 E1.90779
G1 X101.97 Y135.423 E.01314
G1 X101.97 Y74.577 E1.90779
G1 X101.551 Y74.577 E.01314
G1 X101.551 Y135.423 E1.90779
G1 X101.132 Y135.423 E.01314
G1 X101.132 Y74.577 E1.90779
G1 X100.713 Y74.577 E.01314
G1 X100.713 Y135.423 E1.90779
G1 X100.294 Y135.423 E.01314
G1 X100.294 Y74.577 E1.90779
G1 X99.875 Y74.577 E.01314
G1 X99.875 Y135.423 E1.90779
G1 X99.456 Y135.423 E.01314
M73 P2 R66
M73 Q2 S67
G1 X99.456 Y74.577 E1.90779
G1 X99.037 Y74.577 E.01314
G1 X99.037 Y135.423 E1.90779
G1 X98.618 Y135.423 E.01314
G1 X98.618 Y74.577 E1.90779
G1 X98.199 Y74.577 E.01314
M73 Q2 S66
G1 X98.199 Y135.593 E1.91311
M204 S1000
;WIPE_START
G1 F8640
G1 X98.199 Y132.301 E-.76
;WIPE_END
G1 E-.04 F2100
G1 Z.6 F720
G1 X118.235 Y86.797 F10800
G1 Z.2 F720
G1 E.8 F2100
M204 S800
;TYPE:Perimeter
;WIDTH:0.419999
G1 F1200
G1 X118.313 Y86.813 E.00248
G1 X119.213 Y86.813 E.02823
G1 X119.213 Y92.523 E.17901
G1 X119.221 Y92.62 E.00308
G1 X119.333 Y92.871 E.00862
G1 X119.573 Y93.05 E.00937
G1 X119.779 Y93.088 E.00655
G1 X121.213 Y93.088 E.04497
G1 X121.213 Y101.514 E.26419
G1 X119.779 Y101.514 E.04497
G1 X119.573 Y101.553 E.00655
G1 X119.453 Y101.617 E.00427
G1 X119.276 Y101.82 E.00844
G1 X119.213 Y102.08 E.00838
G1 X119.221 Y115.17 E.41045
G1 X119.337 Y115.426 E.00878
G1 X119.573 Y115.6 E.00921
G1 X119.779 Y115.638 E.00655
G1 X121.213 Y115.638 E.04497
G1 X121.213 Y124.064 E.26419
G1 X119.779 Y124.064 E.04497
G1 X119.573 Y124.103 E.00655
G1 X119.453 Y124.167 E.00427
G1 X119.267 Y124.389 E.00909
G1 X119.213 Y124.63 E.00773
G1 X119.213 Y130.339 E.17901
G1 X103.965 Y130.339 E.47808
G1 X103.965 Y79.661 E1.58897
G1 X117.747 Y79.661 E.43212
G1 X117.747 Y86.248 E.20652
G1 X117.754 Y86.337 E.0028
G1 X117.848 Y86.57 E.00791
G1 X118.08 Y86.763 E.00946
G1 X118.176 Y86.784 E.00309
M204 S1000
G1 X118.313 Y86.436 F10800
M204 S800
;TYPE:External perimeter
G1 F1200
G1 X119.59 Y86.436 E.04005
G1 X119.59 Y92.523 E.19084
G1 X119.63 Y92.639 E.00386
G1 X119.779 Y92.711 E.00518
G1 X121.59 Y92.711 E.0568
G1 X121.59 Y101.891 E.28783
G1 X119.779 Y101.891 E.0568
G1 X119.646 Y101.945 E.00448
G1 X119.59 Y102.08 E.00456
G1 X119.59 Y115.073 E.40738
G1 X119.631 Y115.19 E.00391
G1 X119.779 Y115.261 E.00513
G1 X121.59 Y115.261 E.0568
G1 X121.59 Y124.441 E.28783
G1 X119.779 Y124.441 E.0568
G1 X119.646 Y124.495 E.00448
G1 X119.59 Y124.63 E.00456
G1 X119.59 Y130.716 E.19084
G1 X103.588 Y130.716 E.50173
G1 X103.588 Y79.284 E1.61262
G1 X118.124 Y79.284 E.45577
M73 P2 R65
G1 X118.124 Y86.248 E.21834
G1 X118.171 Y86.372 E.00419
G1 X118.258 Y86.411 E.00298
M204 S1000
G1 X118.416 Y86.822 F10800
;WIPE_START
G1 F8640
G1 X119.59 Y86.436 E-.30765
G1 X119.59 Y88.395 E-.45235
;WIPE_END
G1 E-.04 F2100
G1 Z.6 F720
G1 X105.145 Y123.28 F10800
G1 Z.2 F720
G1 E.8 F2100
M204 S800
;TYPE:Perimeter
G1 F1200
G1 X105.181 Y123.171 E.00361
G1 X105.416 Y122.989 E.00933
G1 X105.634 Y122.945 E.00696
G1 X107.086 Y122.945 E.04554
G1 X107.348 Y123.009 E.00845
G1 X107.558 Y123.199 E.00889
G1 X107.649 Y123.453 E.00845
G1 X107.652 Y127.062 E.11314
G1 X109.596 Y127.062 E.06097
G1 X109.883 Y127.14 E.00931
G1 X110.072 Y127.321 E.0082
G1 X110.148 Y127.505 E.00625
G1 X110.162 Y127.627 E.00387
G1 X110.162 Y128.913 E.0403
G1 X110.049 Y129.252 E.01122
G1 X109.694 Y129.47 E.01305
G1 X109.596 Y129.478 E.00308
G1 X105.634 Y129.478 E.12425
G1 X105.182 Y129.254 E.0158
G1 X105.068 Y128.913 E.01128
G1 X105.068 Y123.511 E.16938
G1 X105.126 Y123.337 E.00573
M204 S1000
G1 X105.634 Y123.322 F10800
M204 S800
;TYPE:External perimeter
G1 F1200
G1 X107.086 Y123.322 E.04554
G1 X107.234 Y123.394 E.00516
G1 X107.275 Y123.511 E.00387
G1 X107.275 Y127.439 E.12316
G1 X109.596 Y127.439 E.0728
G1 X109.744 Y127.51 E.00514
G1 X109.785 Y127.627 E.00389
G1 X109.785 Y128.913 E.0403
G1 X109.747 Y129.026 E.00374
G1 X109.596 Y129.101 E.00529
G1 X105.634 Y129.101 E.12425
G1 X105.483 Y129.026 E.00527
G1 X105.445 Y128.913 E.00376
G1 X105.445 Y123.511 E.16938
G1 X105.483 Y123.398 E.00374
G1 X105.58 Y123.349 E.00341
M204 S1000
G1 X105.737 Y122.936 F10800
;WIPE_START
G1 F8640
G1 X107.086 Y123.322 E-.34783
G1 X107.234 Y123.394 E-.038
G1 X107.275 Y123.511 E-.02852
G1 X107.275 Y125.008 E-.34565
;WIPE_END
G1 E-.04 F2100
G1 Z.6 F720
G1 X119.1 Y87.344 F10800
G1 Z.2 F720
G1 E.8 F2100
M204 S800
;TYPE:Solid infill
;WIDTH:0.420531
G1 F1200
G1 X118.682 Y86.926 E.01854
M204 S1000
;WIPE_START
G1 F8640
G1 X119.1 Y87.344 E-.13631
;WIPE_END
G1 E-.66369 F2100
G1 Z.6 F720
G1 X117.634 Y80.537 F10800
G1 Z.2 F720
G1 E.8 F2100
M204 S800
G1 F1200
G1 X117.04 Y79.944 E.02636
G1 X116.506 Y79.944 E.01677
G1 X117.464 Y80.902 E.04254
G1 X117.464 Y81.436 E.01677
G1 X115.972 Y79.944 E.06625
G1 X115.438 Y79.944 E.01677
G1 X117.464 Y81.97 E.08997
G1 X117.464 Y82.504 E.01677
G1 X114.904 Y79.944 E.11368
G1 X114.37 Y79.944 E.01677
G1 X117.464 Y83.038 E.13739
G1 X117.464 Y83.572 E.01677
G1 X113.836 Y79.944 E.16111
G1 X113.302 Y79.944 E.01677
G1 X117.464 Y84.106 E.18482
G1 X117.464 Y84.64 E.01677
G1 X112.768 Y79.944 E.20853
G1 X112.234 Y79.944 E.01677
G1 X117.464 Y85.174 E.23224
G1 X117.464 Y85.708 E.01677
G1 X111.7 Y79.944 E.25596
G1 X111.166 Y79.944 E.01677
G1 X117.464 Y86.242 E.27967
G1 X117.495 Y86.479 E.00749
G1 X117.614 Y86.732 E.00878
G1 X117.778 Y86.908 E.00754
G1 X117.967 Y87.024 E.00697
G1 X118.318 Y87.096 E.01125
G1 X118.93 Y87.708 E.02718
G1 X118.93 Y88.242 E.01677
G1 X110.632 Y79.944 E.36848
G1 X110.098 Y79.944 E.01677
G1 X118.93 Y88.776 E.39219
G1 X118.93 Y89.31 E.01677
G1 X109.564 Y79.944 E.4159
G1 X109.03 Y79.944 E.01677
G1 X118.93 Y89.844 E.43962
G1 X118.93 Y90.378 E.01677
G1 X108.496 Y79.944 E.46333
G1 X107.962 Y79.944 E.01677
M73 P3 R65
G1 X118.93 Y90.912 E.48704
G1 X118.93 Y91.446 E.01677
M73 Q3 S66
G1 X107.428 Y79.944 E.51076
G1 X106.894 Y79.944 E.01677
G1 X119.1 Y92.15 E.542
M204 S1000
;WIPE_START
G1 F8640
G1 X116.772 Y89.823 E-.76
;WIPE_END
G1 E-.04 F2100
G1 Z.6 F720
G1 X120.685 Y93.201 F10800
G1 Z.2 F720
G1 E.8 F2100
M204 S800
G1 F1200
G1 X120.93 Y93.446 E.01088
G1 X120.93 Y93.98 E.01677
G1 X120.151 Y93.201 E.03459
M204 S1000
;WIPE_START
G1 F8640
G1 X120.93 Y93.98 E-.25436
G1 X120.93 Y93.446 E-.12331
G1 X120.685 Y93.201 E-.07998
;WIPE_END
G1 E-.34236 F2100
G1 Z.6 F720
G1 X121.1 Y94.684 F10800
G1 Z.2 F720
G1 E.8 F2100
M204 S800
G1 F1200
G1 X119.787 Y93.371 E.0583
G1 X119.473 Y93.315 E.01001
G1 X119.292 Y93.218 E.00646
G1 X119.18 Y93.125 E.00456
G1 X119.024 Y92.913 E.00825
G1 X118.946 Y92.688 E.00748
G1 X118.93 Y92.514 E.00548
G1 X106.36 Y79.944 E.55818
G1 X105.826 Y79.944 E.01677
G1 X120.93 Y95.048 E.6707
G1 X120.93 Y95.582 E.01677
G1 X105.292 Y79.944 E.69442
G1 X104.758 Y79.944 E.01677
G1 X120.93 Y96.116 E.71813
G1 X120.93 Y96.65 E.01677
G1 X104.248 Y79.968 E.74076
G1 X104.248 Y80.502 E.01677
G1 X120.93 Y97.184 E.74076
G1 X120.93 Y97.718 E.01677
G1 X104.248 Y81.036 E.74076
G1 X104.248 Y81.57 E.01677
G1 X120.93 Y98.252 E.74076
G1 X120.93 Y98.786 E.01677
G1 X104.248 Y82.104 E.74076
