; generated by PrusaSlicer 2.5.0-rc2+win64 on 2023-01-31 at 17:45:10 UTC

; 

; external perimeters extrusion width = 0.45mm
; perimeters extrusion width = 0.45mm
; infill extrusion width = 0.45mm
; solid infill extrusion width = 0.45mm
; top infill extrusion width = 0.40mm
; support material extrusion width = 0.35mm
; first layer extrusion width = 0.42mm

M73 P0 R34
M73 Q0 S34
M107
;TYPE:Custom
M862.3 P "MK3S" ; printer model check
M862.1 P0.4 ; nozzle diameter check
G90 ; use absolute coordinates
M83 ; extruder relative mode
M104 S215 ; set extruder temp
M140 S60 ; set bed temp
M190 S60 ; wait for bed temp
M109 S215 ; wait for extruder temp
G28 W ; home all without mesh bed level
G80 ; mesh bed leveling
G1 Y-3.0 F1000.0 ; go outside print area
G92 E0.0
G1 X60.0 E9.0 F1000.0 ; intro line
G1 X100.0 E12.5 F1000.0 ; intro line
G92 E0.0
M221 S95

; Don't change E values below. Excessive value can damage the printer.
M907 E430 ; set extruder motor current
G21 ; set units to millimeters
G90 ; use absolute coordinates
M83 ; use relative distances for extrusion
M900 K30 ; Filament gcode
M107
;LAYER_CHANGE
;Z:0.2
;HEIGHT:0.2
;BEFORE_LAYER_CHANGE
G92 E0.0
;0.2


G1 E-.8 F2100
G1 Z.4 F720
;AFTER_LAYER_CHANGE
;0.2
G1 X110.794 Y72.93 F10800
G1 Z.2 F720
G1 E.8 F2100
M204 S800
;TYPE:Skirt/Brim
;WIDTH:0.42
G1 F1200
G1 X111.84 Y72.054 E.04278
G1 X112.78 Y71.86 E.03008
G1 X139.538 Y71.86 E.83898
G1 X140.845 Y72.252 E.04278
G1 X141.721 Y73.298 E.04278
G1 X141.915 Y74.237 E.03008
G1 X141.915 Y135.763 E1.92908
G1 X141.523 Y137.07 E.04278
G1 X140.478 Y137.946 E.04278
G1 X139.538 Y138.14 E.03008
G1 X112.78 Y138.14 E.83898
G1 X111.473 Y137.748 E.04278
G1 X110.597 Y136.702 E.04278
G1 X110.403 Y135.763 E.03008
G1 X110.403 Y74.237 E1.92908
G1 X110.777 Y72.988 E.0409
M204 S1000
; printing object RPlatform.stl id:0 copy 0
;WIPE_START
G1 F8640
G1 X111.84 Y72.054 E-.32671
G1 X112.78 Y71.86 E-.22155
G1 X113.697 Y71.86 E-.21174
;WIPE_END
G1 E-.04 F2100
G1 Z.6 F720
G1 X128.779 Y124.26 F10800
G1 Z.2 F720
G1 E.8 F2100
M204 S800
;TYPE:Support material
G1 F1200
G1 X129.274 Y124.277 E.01551
G1 X129.517 Y124.316 E.00773
G1 X129.723 Y124.365 E.00664
G1 X129.891 Y124.461 E.00606
G1 X129.96 Y124.532 E.00309
G1 X130.026 Y124.618 E.00342
G1 X130.128 Y124.85 E.00792
G1 X130.161 Y125.11 E.00823
G1 X130.113 Y125.427 E.01004
G1 X129.973 Y125.668 E.00874
G1 X129.696 Y125.861 E.01058
G1 X129.523 Y125.918 E.00573
G1 X128.917 Y126.044 E.0194
G1 X128.862 Y126.349 E.00972
G1 X128.692 Y126.241 E.00631
G1 X128.491 Y126.153 E.00687
G1 X128.161 Y126.09 E.01053
G1 X127.975 Y126.078 E.00584
G1 X127.403 Y126.077 E.01794
G1 X127.168 Y126.312 E.01043
G1 X127.168 Y124.259 E.06437
G1 X128.723 Y124.259 E.04875
M204 S1000
G1 X129.609 Y125.711 F10800
M204 S800
G1 F1200
G1 X129.609 Y124.687 E.0321
G1 X129.19 Y124.612 E.01334
G1 X129.19 Y125.641 E.03225
G1 X128.771 Y125.728 E.01342
G1 X128.771 Y124.599 E.03539
G1 X128.352 Y124.599 E.01314
G1 X128.352 Y125.776 E.03691
G1 X127.933 Y125.738 E.01319
G1 X127.933 Y124.599 E.03574
G1 X127.514 Y124.599 E.01314
G1 X127.514 Y125.907 E.04103
M204 S1000
;WIPE_START
G1 F8640
G1 X127.514 Y124.599 E-.30217
G1 X127.933 Y124.599 E-.09674
G1 X127.933 Y125.738 E-.2632
G1 X128.352 Y125.776 E-.09713
G1 X128.352 Y125.773 E-.00076
;WIPE_END
G1 E-.04 F2100
G1 Z.6 F720
G1 X139.538 Y135.763 F10800
G1 Z.2 F720
G1 E.8 F2100
M204 S800
G1 F1200
G1 X112.78 Y135.763 E.83898
G1 X112.78 Y127.547 E.25759
G1 X116.478 Y127.547 E.11593
M73 P1 R34
M73 Q1 S34
G1 X116.478 Y131.353 E.11933
G1 X116.798 Y131.674 E.01422
G1 X134.074 Y131.674 E.54166
G1 X134.395 Y131.353 E.01422
G1 X134.395 Y78.647 E1.65255
G1 X134.074 Y78.326 E.01422
M73 P1 R33
G1 X118.264 Y78.326 E.4957
G1 X117.944 Y78.647 E.01422
G1 X117.944 Y85.479 E.2142
G1 X116.798 Y85.479 E.03591
G1 X116.478 Y85.799 E.01422
G1 X116.478 Y89.406 E.1131
G1 X112.78 Y89.406 E.11593
G1 X112.78 Y74.237 E.47561
G1 X139.538 Y74.237 E.83898
G1 X139.538 Y135.706 E1.9273
M204 S1000
G1 X138.826 Y135.593 F10800
M204 S800
G1 F1200
G1 X138.826 Y74.577 E1.91311
G1 X138.407 Y74.577 E.01314
G1 X138.407 Y135.423 E1.90779
G1 X137.988 Y135.423 E.01314
G1 X137.988 Y74.577 E1.90779
G1 X137.569 Y74.577 E.01314
G1 X137.569 Y135.423 E1.90779
G1 X137.15 Y135.423 E.01314
M73 P2 R33
M73 Q2 S33
G1 X137.15 Y74.577 E1.90779
G1 X136.731 Y74.577 E.01314
G1 X136.731 Y135.423 E1.90779
G1 X136.312 Y135.423 E.01314
G1 X136.312 Y74.577 E1.90779
G1 X135.893 Y74.577 E.01314
G1 X135.893 Y135.423 E1.90779
G1 X135.474 Y135.423 E.01314
G1 X135.474 Y74.577 E1.90779
G1 X135.055 Y74.577 E.01314
G1 X135.055 Y135.423 E1.90779
G1 X134.636 Y135.423 E.01314
M73 P3 R33
M73 Q3 S33
G1 X134.636 Y74.577 E1.90779
G1 X134.217 Y74.577 E.01314
G1 X134.217 Y77.99 E.10702
G1 X133.799 Y77.987 E.01314
G1 X133.799 Y74.577 E.10692
G1 X133.38 Y74.577 E.01314
G1 X133.38 Y77.987 E.10692
G1 X132.961 Y77.987 E.01314
G1 X132.961 Y74.577 E.10692
G1 X132.542 Y74.577 E.01314
G1 X132.542 Y77.987 E.10692
G1 X132.123 Y77.987 E.01314
G1 X132.123 Y74.577 E.10692
G1 X131.704 Y74.577 E.01314
G1 X131.704 Y77.987 E.10692
G1 X131.285 Y77.987 E.01314
G1 X131.285 Y74.577 E.10692
G1 X130.866 Y74.577 E.01314
G1 X130.866 Y77.987 E.10692
G1 X130.447 Y77.987 E.01314
G1 X130.447 Y74.577 E.10692
G1 X130.028 Y74.577 E.01314
G1 X130.028 Y77.987 E.10692
G1 X129.609 Y77.987 E.01314
G1 X129.609 Y74.577 E.10692
G1 X129.19 Y74.577 E.01314
G1 X129.19 Y77.987 E.10692
G1 X128.771 Y77.987 E.01314
G1 X128.771 Y74.577 E.10692
G1 X128.352 Y74.577 E.01314
G1 X128.352 Y77.987 E.10692
G1 X127.933 Y77.987 E.01314
G1 X127.933 Y74.577 E.10692
G1 X127.514 Y74.577 E.01314
G1 X127.514 Y77.987 E.10692
G1 X127.095 Y77.987 E.01314
G1 X127.095 Y74.577 E.10692
G1 X126.676 Y74.577 E.01314
G1 X126.676 Y77.987 E.10692
G1 X126.257 Y77.987 E.01314
G1 X126.257 Y74.577 E.10692
G1 X125.838 Y74.577 E.01314
G1 X125.838 Y77.987 E.10692
G1 X125.419 Y77.987 E.01314
G1 X125.419 Y74.577 E.10692
G1 X125 Y74.577 E.01314
G1 X125 Y77.987 E.10692
G1 X124.581 Y77.987 E.01314
G1 X124.581 Y74.577 E.10692
G1 X124.162 Y74.577 E.01314
G1 X124.162 Y77.987 E.10692
G1 X123.743 Y77.987 E.01314
G1 X123.743 Y74.577 E.10692
G1 X123.324 Y74.577 E.01314
G1 X123.324 Y77.987 E.10692
G1 X122.905 Y77.987 E.01314
G1 X122.905 Y74.577 E.10692
G1 X122.486 Y74.577 E.01314
G1 X122.486 Y77.987 E.10692
G1 X122.067 Y77.987 E.01314
G1 X122.067 Y74.577 E.10692
G1 X121.648 Y74.577 E.01314
G1 X121.648 Y77.987 E.10692
G1 X121.229 Y77.987 E.01314
G1 X121.229 Y74.577 E.10692
G1 X120.81 Y74.577 E.01314
G1 X120.81 Y77.987 E.10692
G1 X120.391 Y77.987 E.01314
G1 X120.391 Y74.577 E.10692
G1 X119.972 Y74.577 E.01314
G1 X119.972 Y77.987 E.10692
G1 X119.553 Y77.987 E.01314
G1 X119.553 Y74.577 E.10692
G1 X119.134 Y74.577 E.01314
G1 X119.134 Y77.987 E.10692
G1 X118.715 Y77.987 E.01314
G1 X118.715 Y74.577 E.10692
G1 X118.296 Y74.577 E.01314
G1 X118.296 Y77.987 E.10692
G1 X118.124 Y77.987 E.00542
G1 X117.877 Y78.233 E.01092
G1 X117.877 Y74.577 E.11464
G1 X117.458 Y74.577 E.01314
G1 X117.458 Y85.139 E.33118
G1 X117.039 Y85.139 E.01314
G1 X117.039 Y74.577 E.33118
G1 X116.62 Y74.577 E.01314
G1 X116.62 Y85.176 E.33234
G1 X116.201 Y85.595 E.01858
G1 X116.201 Y74.577 E.34548
G1 X115.783 Y74.577 E.01314
G1 X115.783 Y89.067 E.45433
G1 X115.364 Y89.067 E.01314
G1 X115.364 Y74.577 E.45433
G1 X114.945 Y74.577 E.01314
G1 X114.945 Y89.067 E.45433
G1 X114.526 Y89.067 E.01314
G1 X114.526 Y74.577 E.45433
G1 X114.107 Y74.577 E.01314
G1 X114.107 Y89.067 E.45433
G1 X113.688 Y89.067 E.01314
G1 X113.688 Y74.577 E.45433
G1 X113.269 Y74.577 E.01314
G1 X113.269 Y89.237 E.45965
M204 S1000
;WIPE_START
G1 F8640
G1 X113.269 Y85.945 E-.76
;WIPE_END
G1 E-.04 F2100
G1 Z.6 F720
G1 X134.217 Y135.593 F10800
G1 Z.2 F720
G1 E.8 F2100
M204 S800
G1 F1200
G1 X134.217 Y132.01 E.11234
G1 X133.799 Y132.013 E.01314
M73 P4 R33
G1 X133.799 Y135.423 E.10692
G1 X133.38 Y135.423 E.01314
M73 Q4 S33
G1 X133.38 Y132.013 E.10692
G1 X132.961 Y132.013 E.01314
G1 X132.961 Y135.423 E.10692
G1 X132.542 Y135.423 E.01314
G1 X132.542 Y132.013 E.10692
G1 X132.123 Y132.013 E.01314
M73 P4 R32
G1 X132.123 Y135.423 E.10692
G1 X131.704 Y135.423 E.01314
G1 X131.704 Y132.013 E.10692
G1 X131.285 Y132.013 E.01314
G1 X131.285 Y135.423 E.10692
G1 X130.866 Y135.423 E.01314
G1 X130.866 Y132.013 E.10692
G1 X130.447 Y132.013 E.01314
G1 X130.447 Y135.423 E.10692
G1 X130.028 Y135.423 E.01314
G1 X130.028 Y132.013 E.10692
G1 X129.609 Y132.013 E.01314
G1 X129.609 Y135.423 E.10692
G1 X129.19 Y135.423 E.01314
G1 X129.19 Y132.013 E.10692
G1 X128.771 Y132.013 E.01314
G1 X128.771 Y135.423 E.10692
G1 X128.352 Y135.423 E.01314
G1 X128.352 Y132.013 E.10692
G1 X127.933 Y132.013 E.01314
G1 X127.933 Y135.423 E.10692
G1 X127.514 Y135.423 E.01314
G1 X127.514 Y132.013 E.10692
G1 X127.095 Y132.013 E.01314
G1 X127.095 Y135.423 E.10692
G1 X126.676 Y135.423 E.01314
G1 X126.676 Y132.013 E.10692
G1 X126.257 Y132.013 E.01314
G1 X126.257 Y135.423 E.10692
G1 X125.838 Y135.423 E.01314
G1 X125.838 Y132.013 E.10692
G1 X125.419 Y132.013 E.01314
G1 X125.419 Y135.423 E.10692
G1 X125 Y135.423 E.01314
G1 X125 Y132.013 E.10692
G1 X124.581 Y132.013 E.01314
G1 X124.581 Y135.423 E.10692
G1 X124.162 Y135.423 E.01314
G1 X124.162 Y132.013 E.10692
G1 X123.743 Y132.013 E.01314
G1 X123.743 Y135.423 E.10692
G1 X123.324 Y135.423 E.01314
G1 X123.324 Y132.013 E.10692
G1 X122.905 Y132.013 E.01314
G1 X122.905 Y135.423 E.10692
G1 X122.486 Y135.423 E.01314
G1 X122.486 Y132.013 E.10692
G1 X122.067 Y132.013 E.01314
G1 X122.067 Y135.423 E.10692
G1 X121.648 Y135.423 E.01314
G1 X121.648 Y132.013 E.10692
G1 X121.229 Y132.013 E.01314
G1 X121.229 Y135.423 E.10692
G1 X120.81 Y135.423 E.01314
G1 X120.81 Y132.013 E.10692
G1 X120.391 Y132.013 E.01314
G1 X120.391 Y135.423 E.10692
G1 X119.972 Y135.423 E.01314
G1 X119.972 Y132.013 E.10692
G1 X119.553 Y132.013 E.01314
G1 X119.553 Y135.423 E.10692
G1 X119.134 Y135.423 E.01314
G1 X119.134 Y132.013 E.10692
G1 X118.715 Y132.013 E.01314
G1 X118.715 Y135.423 E.10692
G1 X118.296 Y135.423 E.01314
G1 X118.296 Y132.013 E.10692
G1 X117.877 Y132.013 E.01314
G1 X117.877 Y135.423 E.10692
G1 X117.458 Y135.423 E.01314
G1 X117.458 Y132.013 E.10692
G1 X117.039 Y132.013 E.01314
G1 X117.039 Y135.423 E.10692
G1 X116.62 Y135.423 E.01314
G1 X116.62 Y131.976 E.10809
G1 X116.201 Y131.557 E.01858
G1 X116.201 Y135.423 E.12123
G1 X115.783 Y135.423 E.01314
G1 X115.783 Y127.886 E.23631
G1 X115.364 Y127.886 E.01314
G1 X115.364 Y135.423 E.23631
G1 X114.945 Y135.423 E.01314
G1 X114.945 Y127.886 E.23631
G1 X114.526 Y127.886 E.01314
G1 X114.526 Y135.423 E.23631
G1 X114.107 Y135.423 E.01314
G1 X114.107 Y127.886 E.23631
G1 X113.688 Y127.886 E.01314
G1 X113.688 Y135.423 E.23631
G1 X113.269 Y135.423 E.01314
G1 X113.269 Y127.717 E.24163
M204 S1000
;WIPE_START
G1 F8640
G1 X113.269 Y131.008 E-.76
;WIPE_END
G1 E-.04 F2100
G1 Z.6 F720
G1 X118.785 Y86.798 F10800
G1 Z.2 F720
G1 E.8 F2100
M204 S800
;TYPE:Perimeter
;WIDTH:0.419999
G1 F1200
G1 X118.945 Y86.763 E.00513
G1 X119.068 Y86.687 E.00454
G1 X119.209 Y86.518 E.0069
G1 X119.278 Y86.248 E.00876
G1 X119.278 Y79.661 E.20652
G1 X133.06 Y79.661 E.43212
G1 X133.06 Y130.339 E1.58897
G1 X117.812 Y130.339 E.47808
G1 X117.812 Y124.63 E.17901
G1 X117.795 Y124.491 E.00438
G1 X117.719 Y124.319 E.0059
G1 X117.553 Y124.155 E.00731
G1 X117.246 Y124.064 E.01003
G1 X115.812 Y124.064 E.04497
G1 X115.812 Y115.638 E.26419
G1 X117.246 Y115.638 E.04497
G1 X117.558 Y115.545 E.01021
G1 X117.749 Y115.333 E.00892
G1 X117.812 Y115.073 E.00841
G1 X117.804 Y101.982 E.41045
G1 X117.692 Y101.731 E.00862
G1 X117.452 Y101.553 E.00937
G1 X117.246 Y101.514 E.00655
G1 X115.812 Y101.514 E.04497
G1 X115.812 Y93.088 E.26419
G1 X117.246 Y93.088 E.04497
G1 X117.452 Y93.05 E.00655
G1 X117.572 Y92.985 E.00427
G1 X117.749 Y92.782 E.00844
G1 X117.812 Y92.523 E.00838
G1 X117.812 Y86.813 E.17901
G1 X118.726 Y86.81 E.02866
M204 S1000
G1 X118.712 Y86.436 F10800
M204 S800
;TYPE:External perimeter
G1 F1200
G1 X118.831 Y86.394 E.00394
G1 X118.901 Y86.248 E.00509
G1 X118.901 Y79.284 E.21834
G1 X133.437 Y79.284 E.45577
M73 Q4 S32
G1 X133.437 Y130.716 E1.61262
M73 P5 R32
G1 X117.435 Y130.716 E.50173
M73 Q5 S32
G1 X117.435 Y124.63 E.19084
G1 X117.388 Y124.505 E.00416
G1 X117.246 Y124.441 E.00488
G1 X115.435 Y124.441 E.0568
G1 X115.435 Y115.261 E.28783
G1 X117.246 Y115.261 E.0568
G1 X117.375 Y115.211 E.00431
G1 X117.435 Y115.073 E.00473
G1 X117.435 Y102.08 E.40738
G1 X117.395 Y101.963 E.00386
G1 X117.246 Y101.891 E.00518
G1 X115.435 Y101.891 E.0568
G1 X115.435 Y92.711 E.28783
G1 X117.246 Y92.711 E.0568
G1 X117.379 Y92.657 E.00448
G1 X117.435 Y92.523 E.00456
G1 X117.435 Y86.436 E.19084
G1 X118.652 Y86.436 E.03817
M204 S1000
G1 X118.83 Y86.481 F10800
;WIPE_START
G1 F8640
G1 X118.831 Y86.394 E-.04235
G1 X118.901 Y86.248 E-.03751
G1 X118.901 Y83.302 E-.68014
;WIPE_END
G1 E-.04 F2100
G1 Z.6 F720
G1 X130.605 Y126.719 F10800
G1 Z.2 F720
G1 E.8 F2100
M204 S800
;TYPE:Perimeter
G1 F1200
G1 X130.803 Y126.881 E.00804
G1 X131.279 Y127.503 E.02455
G1 X131.85 Y128.402 E.03339
G1 X131.938 Y128.705 E.0099
G1 X131.868 Y128.979 E.00887
G1 X131.726 Y129.233 E.00914
G1 X131.344 Y129.49 E.01442
G1 X129.79 Y129.499 E.04872
G1 X129.32 Y129.248 E.0167
G1 X128.417 Y127.9 E.05088
G1 X128.417 Y128.933 E.03241
G1 X128.299 Y129.279 E.01144
G1 X127.949 Y129.49 E.01283
G1 X126.399 Y129.499 E.04861
G1 X125.947 Y129.273 E.01586
G1 X125.833 Y128.933 E.01122
G1 X125.833 Y123.49 E.17066
G1 X125.895 Y123.233 E.00828
G1 X126.046 Y123.048 E.00749
G1 X126.248 Y122.945 E.00712
G1 X126.399 Y122.925 E.00477
G1 X128.747 Y122.925 E.07361
G1 X129.378 Y122.947 E.01982
G1 X130.095 Y123.082 E.02287
G1 X130.665 Y123.375 E.02008
G1 X131.107 Y123.836 E.02004
G1 X131.39 Y124.417 E.02025
G1 X131.493 Y125.044 E.01993
G1 X131.392 Y125.778 E.02324
G1 X131.191 Y126.153 E.01335
G1 X130.839 Y126.596 E.01774
G1 X130.658 Y126.691 E.00639
M204 S1000
G1 X129.865 Y126.589 F10800
M204 S800
;TYPE:External perimeter
G1 F1200
G1 X130.261 Y126.97 E.01723
G1 X130.505 Y127.111 E.00883
G1 X130.961 Y127.705 E.02348
G1 X131.532 Y128.604 E.03339
G1 X131.558 Y128.737 E.00427
G1 X131.406 Y129.033 E.01044
G1 X131.246 Y129.122 E.00573
G1 X129.79 Y129.122 E.04565
G1 X129.634 Y129.038 E.00557
G1 X128.716 Y127.668 E.05171
G1 X128.35 Y127.176 E.01922
G1 X128.173 Y127.071 E.00646
G1 X128.04 Y127.056 E.00418
G1 X128.04 Y128.933 E.05884
G1 X128.001 Y129.048 E.00381
G1 X127.852 Y129.122 E.00522
G1 X126.399 Y129.122 E.04554
G1 X126.248 Y129.046 E.00529
G1 X126.211 Y128.933 E.00374
G1 X126.211 Y123.49 E.17066
G1 X126.281 Y123.343 E.00512
G1 X126.399 Y123.302 E.00391
G1 X128.747 Y123.302 E.07361
G1 X129.365 Y123.324 E.0194
G1 X130.022 Y123.452 E.02099
G1 X130.477 Y123.702 E.01628
G1 X130.822 Y124.084 E.01614
G1 X131.045 Y124.569 E.01673
G1 X131.119 Y125.091 E.01655
G1 X131.02 Y125.715 E.01979
G1 X130.641 Y126.264 E.02094
G1 X130.506 Y126.343 E.00488
G1 X130.214 Y126.427 E.00952
G1 X129.919 Y126.563 E.01019
M204 S1000
G1 X130.235 Y126.74 F10800
;WIPE_START
G1 F8640
G1 X130.261 Y126.97 E-.12257
G1 X130.505 Y127.111 E-.06505
G1 X130.961 Y127.705 E-.17291
G1 X131.532 Y128.604 E-.24588
G1 X131.558 Y128.737 E-.03146
G1 X131.406 Y129.033 E-.07686
G1 X131.246 Y129.122 E-.04217
G1 X131.233 Y129.122 E-.0031
;WIPE_END
G1 E-.04 F2100
G1 Z.6 F720
G1 X132.947 Y80.542 F10800
G1 Z.2 F720
G1 E.8 F2100
M204 S800
;TYPE:Solid infill
;WIDTH:0.422838
G1 F1200
G1 X132.348 Y79.944 E.02674
G1 X131.811 Y79.944 E.01697
G1 X132.777 Y80.91 E.04317
G1 X132.777 Y81.447 E.01697
G1 X131.274 Y79.944 E.06717
G1 X130.736 Y79.944 E.01697
G1 X132.777 Y81.985 E.09117
G1 X132.777 Y82.522 E.01697
G1 X130.199 Y79.944 E.11518
G1 X129.662 Y79.944 E.01697
G1 X132.777 Y83.059 E.13918
G1 X132.777 Y83.596 E.01697
G1 X129.124 Y79.944 E.16318
G1 X128.587 Y79.944 E.01697
G1 X132.777 Y84.134 E.18719
G1 X132.777 Y84.671 E.01697
G1 X128.05 Y79.944 E.21119
G1 X127.513 Y79.944 E.01697
G1 X132.777 Y85.208 E.23519
G1 X132.777 Y85.746 E.01697
G1 X126.975 Y79.944 E.2592
G1 X126.438 Y79.944 E.01697
G1 X132.777 Y86.283 E.2832
G1 X132.777 Y86.82 E.01697
G1 X125.901 Y79.944 E.3072
G1 X125.363 Y79.944 E.01697
G1 X132.777 Y87.357 E.33121
G1 X132.777 Y87.895 E.01697
