; generated by PrusaSlicer 2.5.0-rc2+win64 on 2023-01-31 at 17:36:39 UTC

; 

; external perimeters extrusion width = 0.45mm
; perimeters extrusion width = 0.45mm
; infill extrusion width = 0.45mm
; solid infill extrusion width = 0.45mm
; top infill extrusion width = 0.40mm
; first layer extrusion width = 0.42mm

M73 P0 R38
M73 Q0 S39
M107
;TYPE:Custom
M862.3 P "MK3S" ; printer model check
M862.1 P0.4 ; nozzle diameter check
G90 ; use absolute coordinates
M83 ; extruder relative mode
M104 S215 ; set extruder temp
M140 S60 ; set bed temp
M190 S60 ; wait for bed temp
M109 S215 ; wait for extruder temp
G28 W ; home all without mesh bed level
G80 ; mesh bed leveling
G1 Y-3.0 F1000.0 ; go outside print area
G92 E0.0
G1 X60.0 E9.0 F1000.0 ; intro line
G1 X100.0 E12.5 F1000.0 ; intro line
G92 E0.0
M221 S95

; Don't change E values below. Excessive value can damage the printer.

M907 E538 ; set extruder motor current
G21 ; set units to millimeters
G90 ; use absolute coordinates
M83 ; use relative distances for extrusion
M900 K30 ; Filament gcode
M107
;LAYER_CHANGE
;Z:0.2
;HEIGHT:0.2
;BEFORE_LAYER_CHANGE
G92 E0.0
;0.2


G1 E-.8 F2100
G1 Z.4 F720
;AFTER_LAYER_CHANGE
;0.2
G1 X101.34 Y34.201 F10800
G1 Z.2 F720
G1 E.8 F2100
M204 S800
;TYPE:Skirt/Brim
;WIDTH:0.42
G1 F1200
G1 X102.385 Y33.325 E.04278
G1 X103.325 Y33.131 E.03008
G1 X146.675 Y33.131 E1.35921
G1 X147.982 Y33.523 E.04278
G1 X148.858 Y34.568 E.04278
G1 X149.052 Y35.508 E.03008
G1 X149.052 Y174.492 E4.35775
G1 X148.66 Y175.799 E.04278
G1 X147.615 Y176.675 E.04278
G1 X146.675 Y176.869 E.03008
G1 X103.325 Y176.869 E1.35921
G1 X102.018 Y176.477 E.04278
G1 X101.142 Y175.432 E.04278
G1 X100.948 Y174.492 E.03008
G1 X100.948 Y35.508 E4.35775
G1 X101.322 Y34.258 E.0409
M204 S1000
; printing object R.stl id:0 copy 0
;WIPE_START
M73 P1 R38
M73 Q1 S38
G1 F8640
G1 X102.385 Y33.325 E-.32671
G1 X103.325 Y33.131 E-.22155
G1 X104.242 Y33.131 E-.21174
;WIPE_END
G1 E-.04 F2100
G1 Z.6 F720
G1 X111.463 Y38.58 F10800
G1 Z.2 F720
G1 E.8 F2100
M204 S800
;TYPE:Perimeter
;WIDTH:0.419999
G1 F1200
G1 X104.112 Y38.58 E.23048
G1 X104.112 Y36.295 E.07164
G1 X110.862 Y36.295 E.21165
;WIDTH:0.463686
G1 X111.927 Y36.317 E.03725
G1 X111.463 Y36.896 E.02595
;WIDTH:0.419999
G1 X111.463 Y38.52 E.05093
M204 S1000
;WIPE_START
G1 F8640
G1 X108.172 Y38.547 E-.76
;WIPE_END
G1 E-.04 F2100
G1 Z.6 F720
G1 X124.763 Y39.869 F10800
G1 Z.2 F720
G1 E.8 F2100
M204 S800
;TYPE:External perimeter
;WIDTH:0.503464
G1 F1200
G1 X124.802 Y39.867 E.00153
;WIDTH:0.5
G1 X126.792 Y39.867 E.07563
;WIDTH:0.545318
G1 X126.894 Y39.89 E.00436
;WIDTH:0.590636
G1 X126.996 Y39.912 E.00475
G1 X127.098 Y39.89 E.00475
;WIDTH:0.545318
G1 X127.199 Y39.867 E.00436
;WIDTH:0.5
G1 X129.192 Y39.867 E.07574
;WIDTH:0.545318
G1 X129.294 Y39.89 E.00436
;WIDTH:0.590636
G1 X129.396 Y39.912 E.00475
G1 X129.498 Y39.89 E.00475
;WIDTH:0.545318
G1 X129.599 Y39.867 E.00436
;WIDTH:0.5
G1 X131.592 Y39.867 E.07574
;WIDTH:0.545318
G1 X131.694 Y39.89 E.00436
;WIDTH:0.590636
G1 X131.796 Y39.912 E.00475
G1 X131.898 Y39.89 E.00475
;WIDTH:0.545318
G1 X131.999 Y39.867 E.00436
;WIDTH:0.5
G1 X134.296 Y39.867 E.0873
;WIDTH:0.545318
G1 X134.398 Y39.89 E.00436
;WIDTH:0.590636
G1 X134.5 Y39.912 E.00475
G1 X134.602 Y39.89 E.00475
;WIDTH:0.545318
G1 X134.703 Y39.867 E.00436
;WIDTH:0.5
G1 X136.696 Y39.867 E.07574
;WIDTH:0.545318
G1 X136.798 Y39.89 E.00436
;WIDTH:0.590636
G1 X136.9 Y39.912 E.00475
G1 X136.999 Y39.89 E.00464
;WIDTH:0.545343
G1 X137.099 Y39.867 E.00426
;WIDTH:0.50005
G1 X137.766 Y39.86 E.02539
;WIDTH:0.489598
G1 X137.81 Y39.858 E.0016
M204 S1000
;WIPE_START
G1 F8640
G1 X137.766 Y39.86 E-.00997
G1 X137.099 Y39.867 E-.15423
G1 X136.999 Y39.89 E-.02354
G1 X136.9 Y39.912 E-.02354
G1 X136.798 Y39.89 E-.02407
G1 X136.696 Y39.867 E-.02407
G1 X134.703 Y39.867 E-.46017
G1 X134.602 Y39.89 E-.02407
G1 X134.533 Y39.905 E-.01632
;WIPE_END
G1 E-.04 F2100
G1 Z.6 F720
G1 X139.3 Y40.097 F10800
G1 Z.2 F720
G1 E.8 F2100
M204 S800
;WIDTH:0.450034
G1 F1200
G1 X139.3 Y42.788 E.09112
;WIDTH:0.492153
G1 X139.3 Y42.839 E.0019
;WIDTH:0.534308
G1 X139.3 Y42.89 E.00208
;WIDTH:0.576463
G1 X139.3 Y42.941 E.00226
;WIDTH:0.618618
G1 X139.3 Y42.992 E.00244
G1 X139.351 Y42.992 E.00244
;WIDTH:0.576465
G1 X139.402 Y42.992 E.00226
;WIDTH:0.534311
G1 X139.452 Y42.992 E.00208
;WIDTH:0.492158
G1 X139.503 Y42.992 E.0019
;WIDTH:0.450004
G1 X141.493 Y42.992 E.06736
M204 S1000
;WIPE_START
G1 F8640
G1 X139.503 Y42.992 E-.45947
G1 X139.452 Y42.992 E-.01175
G1 X139.402 Y42.992 E-.01175
G1 X139.351 Y42.992 E-.01175
G1 X139.3 Y42.992 E-.01175
G1 X139.3 Y42.941 E-.01175
G1 X139.3 Y42.89 E-.01175
G1 X139.3 Y42.839 E-.01175
G1 X139.3 Y42.788 E-.01175
G1 X139.3 Y41.894 E-.20654
;WIPE_END
G1 E-.04 F2100
G1 Z.6 F720
G1 X141.493 Y46.092 F10800
G1 Z.2 F720
G1 E.8 F2100
M204 S800
;WIDTH:0.449996
G1 F1200
G1 X139.503 Y46.092 E.06735
;WIDTH:0.492151
G1 X139.452 Y46.092 E.0019
;WIDTH:0.534305
G1 X139.402 Y46.092 E.00208
;WIDTH:0.57646
G1 X139.351 Y46.092 E.00226
;WIDTH:0.618614
G1 X139.3 Y46.092 E.00244
G1 X139.3 Y46.143 E.00244
;WIDTH:0.57646
G1 X139.3 Y46.194 E.00226
;WIDTH:0.534306
G1 X139.3 Y46.245 E.00208
;WIDTH:0.492152
G1 X139.3 Y46.296 E.0019
;WIDTH:0.449998
G1 X139.3 Y48.988 E.09115
;WIDTH:0.492152
G1 X139.3 Y49.039 E.0019
;WIDTH:0.534306
G1 X139.3 Y49.09 E.00208
;WIDTH:0.57646
G1 X139.3 Y49.141 E.00226
;WIDTH:0.618614
G1 X139.3 Y49.192 E.00244
G1 X139.249 Y49.192 E.00244
;WIDTH:0.57646
G1 X139.198 Y49.192 E.00226
;WIDTH:0.534305
G1 X139.147 Y49.192 E.00208
;WIDTH:0.492151
G1 X139.096 Y49.192 E.0019
;WIDTH:0.449996
G1 X137.103 Y49.192 E.06746
;WIDTH:0.492151
G1 X137.052 Y49.192 E.0019
;WIDTH:0.534306
G1 X137.002 Y49.192 E.00208
;WIDTH:0.576461
G1 X136.951 Y49.192 E.00226
;WIDTH:0.618616
G1 X136.9 Y49.192 E.00244
G1 X136.9 Y49.141 E.00244
;WIDTH:0.576462
G1 X136.9 Y49.09 E.00226
;WIDTH:0.534308
G1 X136.9 Y49.039 E.00208
;WIDTH:0.492154
G1 X136.9 Y48.988 E.0019
;WIDTH:0.45
G1 X136.9 Y46.296 E.09115
;WIDTH:0.492154
G1 X136.9 Y46.245 E.0019
;WIDTH:0.534308
G1 X136.9 Y46.194 E.00208
;WIDTH:0.576462
G1 X136.9 Y46.143 E.00226
;WIDTH:0.618616
G1 X136.9 Y46.092 E.00244
G1 X136.951 Y46.092 E.00244
;WIDTH:0.576461
G1 X137.002 Y46.092 E.00226
;WIDTH:0.534306
G1 X137.052 Y46.092 E.00208
;WIDTH:0.492151
G1 X137.103 Y46.092 E.0019
;WIDTH:0.449996
G1 X139.096 Y46.092 E.06746
;WIDTH:0.492151
G1 X139.147 Y46.092 E.0019
;WIDTH:0.534305
G1 X139.198 Y46.092 E.00208
;WIDTH:0.57646
G1 X139.249 Y46.092 E.00226
;WIDTH:0.618614
G1 X139.3 Y46.092 E.00244
G1 X139.3 Y46.041 E.00244
;WIDTH:0.57646
G1 X139.3 Y45.99 E.00226
;WIDTH:0.534306
G1 X139.3 Y45.939 E.00208
;WIDTH:0.492152
G1 X139.3 Y45.888 E.0019
;WIDTH:0.449998
G1 X139.3 Y43.196 E.09115
;WIDTH:0.492153
G1 X139.3 Y43.145 E.0019
;WIDTH:0.534308
G1 X139.3 Y43.094 E.00208
;WIDTH:0.576463
G1 X139.3 Y43.043 E.00226
;WIDTH:0.618618
G1 X139.3 Y42.992 E.00244
G1 X139.249 Y42.992 E.00244
;WIDTH:0.576465
G1 X139.198 Y42.992 E.00226
;WIDTH:0.534311
G1 X139.147 Y42.992 E.00208
;WIDTH:0.492158
G1 X139.096 Y42.992 E.0019
;WIDTH:0.450004
G1 X137.103 Y42.992 E.06746
;WIDTH:0.492158
G1 X137.052 Y42.992 E.0019
;WIDTH:0.534312
G1 X137.002 Y42.992 E.00208
;WIDTH:0.576466
G1 X136.951 Y42.992 E.00226
;WIDTH:0.61862
G1 X136.9 Y42.992 E.00244
G1 X136.9 Y42.941 E.00244
;WIDTH:0.576465
G1 X136.9 Y42.89 E.00226
;WIDTH:0.53431
G1 X136.9 Y42.839 E.00208
;WIDTH:0.492155
G1 X136.9 Y42.788 E.0019
;WIDTH:0.45
G1 X136.9 Y40.096 E.09115
;WIDTH:0.496879
G1 X136.9 Y40.034 E.00231
;WIDTH:0.543758
G1 X136.9 Y39.973 E.00254
;WIDTH:0.590636
G1 X136.9 Y39.912 E.00278
M204 S1000
;WIPE_START
G1 F8640
G1 X136.9 Y39.973 E-.0141
G1 X136.9 Y40.034 E-.0141
G1 X136.9 Y40.096 E-.0141
G1 X136.9 Y42.788 E-.6218
G1 X136.9 Y42.839 E-.01175
G1 X136.9 Y42.89 E-.01175
G1 X136.9 Y42.941 E-.01175
G1 X136.9 Y42.992 E-.01175
G1 X136.951 Y42.992 E-.01175
G1 X137.002 Y42.992 E-.01175
G1 X137.052 Y42.992 E-.01175
G1 X137.103 Y42.992 E-.01175
G1 X137.111 Y42.992 E-.0019
;WIPE_END
G1 E-.04 F2100
G1 Z.6 F720
G1 X134.5 Y39.912 F10800
G1 Z.2 F720
G1 E.8 F2100
M204 S800
G1 F1200
G1 X134.5 Y39.973 E.00278
;WIDTH:0.543758
G1 X134.5 Y40.034 E.00254
;WIDTH:0.496879
G1 X134.5 Y40.096 E.00231
;WIDTH:0.45
G1 X134.5 Y42.788 E.09115
;WIDTH:0.492155
G1 X134.5 Y42.839 E.0019
;WIDTH:0.53431
G1 X134.5 Y42.89 E.00208
;WIDTH:0.576465
G1 X134.5 Y42.941 E.00226
;WIDTH:0.61862
G1 X134.5 Y42.992 E.00244
G1 X134.551 Y42.992 E.00244
;WIDTH:0.576466
G1 X134.602 Y42.992 E.00226
;WIDTH:0.534312
G1 X134.652 Y42.992 E.00208
;WIDTH:0.492158
G1 X134.703 Y42.992 E.0019
;WIDTH:0.450004
G1 X136.696 Y42.992 E.06746
;WIDTH:0.492158
G1 X136.747 Y42.992 E.0019
;WIDTH:0.534312
G1 X136.798 Y42.992 E.00208
;WIDTH:0.576466
G1 X136.849 Y42.992 E.00226
;WIDTH:0.61862
G1 X136.9 Y42.992 E.00244
G1 X136.9 Y43.043 E.00244
;WIDTH:0.576465
G1 X136.9 Y43.094 E.00226
;WIDTH:0.53431
G1 X136.9 Y43.145 E.00208
;WIDTH:0.492155
G1 X136.9 Y43.196 E.0019
;WIDTH:0.45
G1 X136.9 Y45.888 E.09115
;WIDTH:0.492154
G1 X136.9 Y45.939 E.0019
;WIDTH:0.534308
G1 X136.9 Y45.99 E.00208
;WIDTH:0.576462
G1 X136.9 Y46.041 E.00226
;WIDTH:0.618616
G1 X136.9 Y46.092 E.00244
G1 X136.849 Y46.092 E.00244
;WIDTH:0.576461
G1 X136.798 Y46.092 E.00226
;WIDTH:0.534306
G1 X136.747 Y46.092 E.00208
;WIDTH:0.492151
G1 X136.696 Y46.092 E.0019
;WIDTH:0.449996
G1 X134.703 Y46.092 E.06746
;WIDTH:0.492151
G1 X134.652 Y46.092 E.0019
;WIDTH:0.534305
G1 X134.602 Y46.092 E.00208
;WIDTH:0.57646
G1 X134.551 Y46.092 E.00226
;WIDTH:0.618614
G1 X134.5 Y46.092 E.00244
G1 X134.5 Y46.143 E.00244
;WIDTH:0.576461
G1 X134.5 Y46.194 E.00226
;WIDTH:0.534307
G1 X134.5 Y46.245 E.00208
;WIDTH:0.492154
G1 X134.5 Y46.296 E.0019
;WIDTH:0.45
G1 X134.5 Y48.988 E.09115
;WIDTH:0.492154
G1 X134.5 Y49.039 E.0019
;WIDTH:0.534307
G1 X134.5 Y49.09 E.00208
;WIDTH:0.576461
G1 X134.5 Y49.141 E.00226
;WIDTH:0.618614
G1 X134.5 Y49.192 E.00244
G1 X134.551 Y49.192 E.00244
;WIDTH:0.57646
G1 X134.602 Y49.192 E.00226
;WIDTH:0.534305
G1 X134.652 Y49.192 E.00208
;WIDTH:0.492151
G1 X134.703 Y49.192 E.0019
;WIDTH:0.449996
G1 X136.696 Y49.192 E.06746
;WIDTH:0.492151
G1 X136.747 Y49.192 E.0019
;WIDTH:0.534306
G1 X136.798 Y49.192 E.00208
;WIDTH:0.576461
G1 X136.849 Y49.192 E.00226
;WIDTH:0.618616
G1 X136.9 Y49.192 E.00244
G1 X136.9 Y49.243 E.00244
;WIDTH:0.576462
G1 X136.9 Y49.294 E.00226
;WIDTH:0.534308
G1 X136.9 Y49.345 E.00208
;WIDTH:0.492154
G1 X136.9 Y49.396 E.0019
;WIDTH:0.45
G1 X136.9 Y54.042 E.15729
;WIDTH:0.492154
G1 X136.9 Y54.093 E.0019
;WIDTH:0.534308
G1 X136.9 Y54.144 E.00208
;WIDTH:0.576462
G1 X136.9 Y54.195 E.00226
;WIDTH:0.618616
G1 X136.9 Y54.246 E.00244
G1 X136.849 Y54.246 E.00244
;WIDTH:0.576461
G1 X136.798 Y54.246 E.00226
;WIDTH:0.534306
G1 X136.747 Y54.246 E.00208
;WIDTH:0.492151
G1 X136.696 Y54.246 E.0019
;WIDTH:0.449996
G1 X134.703 Y54.246 E.06746
;WIDTH:0.492151
G1 X134.652 Y54.246 E.0019
;WIDTH:0.534305
G1 X134.602 Y54.246 E.00208
;WIDTH:0.57646
G1 X134.551 Y54.246 E.00226
;WIDTH:0.618614
G1 X134.5 Y54.246 E.00244
G1 X134.5 Y54.297 E.00244
;WIDTH:0.576461
G1 X134.5 Y54.348 E.00226
;WIDTH:0.534307
G1 X134.5 Y54.399 E.00208
;WIDTH:0.492154
G1 X134.5 Y54.45 E.0019
;WIDTH:0.45
G1 X134.5 Y58.692 E.14362
;WIDTH:0.492156
G1 X134.5 Y58.743 E.0019
;WIDTH:0.534311
G1 X134.5 Y58.794 E.00208
;WIDTH:0.576467
G1 X134.5 Y58.845 E.00226
;WIDTH:0.618622
G1 X134.5 Y58.896 E.00244
G1 X134.551 Y58.896 E.00244
;WIDTH:0.576469
G1 X134.602 Y58.896 E.00226
;WIDTH:0.534315
G1 X134.652 Y58.896 E.00208
;WIDTH:0.492162
G1 X134.703 Y58.896 E.0019
;WIDTH:0.450008
G1 X136.696 Y58.896 E.06746
;WIDTH:0.492162
G1 X136.747 Y58.896 E.0019
;WIDTH:0.534315
G1 X136.798 Y58.896 E.00208
;WIDTH:0.576469
G1 X136.849 Y58.896 E.00226
;WIDTH:0.618622
G1 X136.9 Y58.896 E.00244
G1 X136.9 Y58.947 E.00244
;WIDTH:0.576467
G1 X136.9 Y58.998 E.00226
;WIDTH:0.534311
G1 X136.9 Y59.049 E.00208
;WIDTH:0.492156
G1 X136.9 Y59.1 E.0019
;WIDTH:0.45
G1 X136.9 Y61.787 E.09098
;WIDTH:0.451556
G1 X136.9 Y61.805 E.00061
M204 S1000
;WIPE_START
G1 F8640
G1 X136.9 Y61.787 E-.00411
G1 X136.9 Y59.1 E-.62063
G1 X136.9 Y59.049 E-.01175
G1 X136.9 Y58.998 E-.01175
G1 X136.9 Y58.947 E-.01175
G1 X136.9 Y58.896 E-.01175
G1 X136.849 Y58.896 E-.01175
G1 X136.798 Y58.896 E-.01175
G1 X136.747 Y58.896 E-.01175
G1 X136.696 Y58.896 E-.01175
G1 X136.518 Y58.896 E-.04126
;WIPE_END
G1 E-.04 F2100
G1 Z.6 F720
G1 X136.9 Y58.896 F10800
G1 Z.2 F720
G1 E.8 F2100
M204 S800
;WIDTH:0.618622
G1 F1200
G1 X136.9 Y58.845 E.00244
;WIDTH:0.576467
G1 X136.9 Y58.794 E.00226
;WIDTH:0.534311
G1 X136.9 Y58.743 E.00208
;WIDTH:0.492156
G1 X136.9 Y58.692 E.0019
;WIDTH:0.45
G1 X136.9 Y54.45 E.14362
;WIDTH:0.492154
G1 X136.9 Y54.399 E.0019
;WIDTH:0.534308
G1 X136.9 Y54.348 E.00208
;WIDTH:0.576462
G1 X136.9 Y54.297 E.00226
;WIDTH:0.618616
G1 X136.9 Y54.246 E.00244
G1 X136.951 Y54.246 E.00244
;WIDTH:0.576461
G1 X137.002 Y54.246 E.00226
;WIDTH:0.534306
G1 X137.052 Y54.246 E.00208
;WIDTH:0.492151
G1 X137.103 Y54.246 E.0019
;WIDTH:0.449996
G1 X139.096 Y54.246 E.06746
;WIDTH:0.492151
G1 X139.147 Y54.246 E.0019
;WIDTH:0.534305
G1 X139.198 Y54.246 E.00208
;WIDTH:0.57646
G1 X139.249 Y54.246 E.00226
;WIDTH:0.618614
G1 X139.3 Y54.246 E.00244
G1 X139.3 Y54.297 E.00244
;WIDTH:0.57646
G1 X139.3 Y54.348 E.00226
;WIDTH:0.534306
G1 X139.3 Y54.399 E.00208
;WIDTH:0.492152
G1 X139.3 Y54.45 E.0019
;WIDTH:0.449998
G1 X139.3 Y58.692 E.14362
;WIDTH:0.492154
G1 X139.3 Y58.743 E.0019
;WIDTH:0.53431
G1 X139.3 Y58.794 E.00208
;WIDTH:0.576466
G1 X139.3 Y58.845 E.00226
;WIDTH:0.618622
G1 X139.3 Y58.896 E.00244
G1 X139.249 Y58.896 E.00244
;WIDTH:0.576469
G1 X139.198 Y58.896 E.00226
;WIDTH:0.534315
G1 X139.147 Y58.896 E.00208
;WIDTH:0.492162
G1 X139.096 Y58.896 E.0019
;WIDTH:0.450008
G1 X137.103 Y58.896 E.06746
;WIDTH:0.492162
G1 X137.052 Y58.896 E.0019
;WIDTH:0.534315
G1 X137.002 Y58.896 E.00208
;WIDTH:0.576469
G1 X136.96 Y58.896 E.00185
M204 S1000
;WIPE_START
G1 F8640
G1 X136.9 Y58.845 E-.01817
G1 X136.9 Y58.794 E-.01175
G1 X136.9 Y58.743 E-.01175
G1 X136.9 Y58.692 E-.01175
G1 X136.9 Y55.632 E-.70658
;WIPE_END
G1 E-.04 F2100
G1 Z.6 F720
G1 X141.565 Y58.896 F10800
G1 Z.2 F720
G1 E.8 F2100
M204 S800
;WIDTH:0.474882
G1 F1200
G1 X141.493 Y58.896 E.0026
;WIDTH:0.450008
G1 X139.503 Y58.896 E.06736
;WIDTH:0.492162
G1 X139.452 Y58.896 E.0019
;WIDTH:0.534315
G1 X139.402 Y58.896 E.00208
;WIDTH:0.576469
G1 X139.351 Y58.896 E.00226
;WIDTH:0.618622
G1 X139.3 Y58.896 E.00244
G1 X139.3 Y58.947 E.00244
;WIDTH:0.576466
G1 X139.3 Y58.998 E.00226
;WIDTH:0.53431
G1 X139.3 Y59.049 E.00208
;WIDTH:0.492154
G1 X139.3 Y59.1 E.0019
;WIDTH:0.449998
G1 X139.3 Y61.787 E.09098
;WIDTH:0.451556
G1 X139.3 Y61.805 E.0006
M204 S1000
;WIPE_START
G1 F8640
G1 X139.3 Y61.787 E-.00411
G1 X139.3 Y59.1 E-.62063
G1 X139.3 Y59.049 E-.01175
G1 X139.3 Y58.998 E-.01175
G1 X139.3 Y58.947 E-.01175
G1 X139.3 Y58.896 E-.01175
G1 X139.351 Y58.896 E-.01175
G1 X139.402 Y58.896 E-.01175
G1 X139.452 Y58.896 E-.01175
G1 X139.503 Y58.896 E-.01175
G1 X139.682 Y58.896 E-.04126
;WIPE_END
G1 E-.04 F2100
G1 Z.6 F720
G1 X109.926 Y65.608 F10800
G1 Z.2 F720
G1 E.8 F2100
M204 S800
;TYPE:Perimeter
;WIDTH:0.419999
G1 F1200
G1 X104.112 Y65.608 E.1823
G1 X104.112 Y63.308 E.07211
G1 X109.851 Y63.308 E.17995
G1 X110.138 Y63.23 E.00932
G1 X110.327 Y63.049 E.00818
G1 X110.487 Y62.692 E.01228
G1 X110.527 Y62.398 E.0093
G1 X110.371 Y62.078 E.01116
G1 X104.111 Y55.642 E.2815
G1 X104.106 Y54.265 E.04318
G1 X104.074 Y53.648 E.01936
G1 X104.5 Y54.142 E.02044
G1 X113.243 Y63.137 E.3933
G1 X113.42 Y63.26 E.00675
G1 X113.648 Y63.308 E.00733
G1 X122.821 Y63.308 E.28761
G1 X124.029 Y63.28 E.03787
G1 X124.277 Y63.217 E.00803
G1 X124.419 Y63.112 E.00554
G1 X124.519 Y62.974 E.00535
G1 X124.58 Y62.668 E.00978
G1 X124.557 Y62.389 E.00879
G1 X124.636 Y62.454 E.0032
G1 X125.287 Y62.524 E.02053
G1 X125.855 Y62.539 E.01782
G1 X126.436 Y62.471 E.01836
G1 X126.941 Y62.333 E.0164
G1 X127.05 Y62.333 E.00344
G1 X127.652 Y62.488 E.01948
G1 X128.248 Y62.534 E.01875
G1 X128.836 Y62.471 E.01853
G1 X129.341 Y62.333 E.01642
G1 X129.45 Y62.333 E.00343
G1 X130.052 Y62.488 E.01948
G1 X130.648 Y62.534 E.01875
G1 X131.287 Y62.457 E.02018
G1 X131.839 Y62.329 E.01774
G1 X132.318 Y62.471 E.01569
