; G-Code generated by Simplify3D(R) Version 4.1.1
; Apr 26, 2019 at 12:12:46 PM
; Settings Summary
;   processName,Process1
;   applyToModels,orbV1R1,orbV1R1(2),orbV1R1(3),orbV1R1(4),orbV1R1(5),orbV1R1(6)
;   profileName,Prusa Research Original Prusa i3 MK3
;   profileVersion,2019-04-25 10:10:47
;   baseProfile,
;   printMaterial,PLA
;   printQuality,Medium
;   printExtruders,
;   extruderName,Primary Extruder
;   extruderToolheadNumber,0
;   extruderDiameter,0.4
;   extruderAutoWidth,0
;   extruderWidth,0.4
;   extrusionMultiplier,1
;   extruderUseRetract,1
;   extruderRetractionDistance,1
;   extruderExtraRestartDistance,0
;   extruderRetractionZLift,0
;   extruderRetractionSpeed,2400
;   extruderUseCoasting,1
;   extruderCoastingDistance,0.2
;   extruderUseWipe,1
;   extruderWipeDistance,2
;   primaryExtruder,0
;   layerHeight,0.2
;   topSolidLayers,3
;   bottomSolidLayers,3
;   perimeterOutlines,2
;   printPerimetersInsideOut,1
;   startPointOption,2
;   startPointOriginX,0
;   startPointOriginY,0
;   sequentialIslands,0
;   spiralVaseMode,0
;   firstLayerHeightPercentage,150
;   firstLayerWidthPercentage,100
;   firstLayerUnderspeed,0.5
;   useRaft,0
;   raftExtruder,0
;   raftTopLayers,3
;   raftBaseLayers,2
;   raftOffset,3
;   raftSeparationDistance,0.14
;   raftTopInfill,100
;   aboveRaftSpeedMultiplier,0.3
;   useSkirt,1
;   skirtExtruder,0
;   skirtLayers,1
;   skirtOutlines,2
;   skirtOffset,4
;   usePrimePillar,0
;   primePillarExtruder,999
;   primePillarWidth,12
;   primePillarLocation,7
;   primePillarSpeedMultiplier,1
;   useOozeShield,0
;   oozeShieldExtruder,999
;   oozeShieldOffset,2
;   oozeShieldOutlines,1
;   oozeShieldSidewallShape,1
;   oozeShieldSidewallAngle,30
;   oozeShieldSpeedMultiplier,1
;   infillExtruder,0
;   internalInfillPattern,Rectilinear
;   externalInfillPattern,Rectilinear
;   infillPercentage,20
;   outlineOverlapPercentage,20
;   infillExtrusionWidthPercentage,100
;   minInfillLength,5
;   infillLayerInterval,1
;   internalInfillAngles,45,-45
;   overlapInternalInfillAngles,0
;   externalInfillAngles,45,-45
;   generateSupport,0
;   supportExtruder,0
;   supportInfillPercentage,30
;   supportExtraInflation,0
;   supportBaseLayers,0
;   denseSupportExtruder,0
;   denseSupportLayers,0
;   denseSupportInfillPercentage,70
;   supportLayerInterval,1
;   supportHorizontalPartOffset,0.3
;   supportUpperSeparationLayers,1
;   supportLowerSeparationLayers,1
;   supportType,0
;   supportGridSpacing,4
;   maxOverhangAngle,45
;   supportAngles,0
;   temperatureName,Primary Extruder,Heated Bed
;   temperatureNumber,0,0
;   temperatureSetpointCount,1,1
;   temperatureSetpointLayers,1,1
;   temperatureSetpointTemperatures,200,60
;   temperatureStabilizeAtStartup,1,1
;   temperatureHeatedBed,0,1
;   fanLayers,1,2
;   fanSpeeds,0,100
;   blipFanToFullPower,0
;   adjustSpeedForCooling,1
;   minSpeedLayerTime,15
;   minCoolingSpeedSlowdown,20
;   increaseFanForCooling,0
;   minFanLayerTime,45
;   maxCoolingFanSpeed,100
;   increaseFanForBridging,0
;   bridgingFanSpeed,100
;   use5D,1
;   relativeEdistances,0
;   allowEaxisZeroing,1
;   independentExtruderAxes,0
;   includeM10123,0
;   stickySupport,1
;   applyToolheadOffsets,0
;   gcodeXoffset,0
;   gcodeYoffset,0
;   gcodeZoffset,0
;   overrideMachineDefinition,1
;   machineTypeOverride,0
;   strokeXoverride,250
;   strokeYoverride,210
;   strokeZoverride,210
;   originOffsetXoverride,0
;   originOffsetYoverride,0
;   originOffsetZoverride,0
;   homeXdirOverride,-1
;   homeYdirOverride,-1
;   homeZdirOverride,-1
;   flipXoverride,1
;   flipYoverride,-1
;   flipZoverride,1
;   toolheadOffsets,0,0|0,0|0,0|0,0|0,0|0,0
;   overrideFirmwareConfiguration,1
;   firmwareTypeOverride,RepRap (Marlin/Repetier/Sprinter)
;   GPXconfigOverride,r2
;   baudRateOverride,115200
;   overridePrinterModels,1
;   printerModelsOverride
;   startingGcode,M115 U3.0.7 ; use the latest firmware version,G28 W ; home all axes without mesh bed leveling,G80 ; run mesh bed leveling routine,G1 Y-3.0 F1000.0 ; prepare to prime,G92 E0 ; reset extrusion distance,G1 X60.0 E9.0  F1000.0 ; priming,G1 X100.0 E12.5  F1000.0 ; priming
;   layerChangeGcode,
;   retractionGcode,
;   toolChangeGcode,
;   endingGcode,G4 ; wait,M106 S0 ; turn off cooling fan,M104 S0 ; turn off extruder,M140 S0 ; turn off bed,G1 X0 Y200 ; part removal,M84 ; disable motors
;   exportFileFormat,gcode
;   celebration,0
;   celebrationSong,Random Song
;   postProcessing,
;   defaultSpeed,4800
;   outlineUnderspeed,0.5
;   solidInfillUnderspeed,0.8
;   supportUnderspeed,0.8
;   rapidXYspeed,12000
;   rapidZspeed,1002
;   minBridgingArea,50
;   bridgingExtraInflation,0
;   bridgingExtrusionMultiplier,1
;   bridgingSpeedMultiplier,1
;   useFixedBridgingAngle,0
;   fixedBridgingAngle,0
;   applyBridgingToPerimeters,0
;   filamentDiameters,1.75|1.75|1.75|1.75|1.75|1.75
;   filamentPricesPerKg,46|46|46|46|46|46
;   filamentDensities,1.25|1.25|1.25|1.25|1.25|1.25
;   useMinPrintHeight,0
;   minPrintHeight,0
;   useMaxPrintHeight,0
;   maxPrintHeight,0
;   useDiaphragm,0
;   diaphragmLayerInterval,20
;   robustSlicing,1
;   mergeAllIntoSolid,0
;   onlyRetractWhenCrossingOutline,1
;   retractBetweenLayers,1
;   useRetractionMinTravel,0
;   retractionMinTravel,3
;   retractWhileWiping,1
;   onlyWipeOutlines,1
;   avoidCrossingOutline,0
;   maxMovementDetourFactor,3
;   toolChangeRetractionDistance,12
;   toolChangeExtraRestartDistance,-0.5
;   toolChangeRetractionSpeed,600
;   externalThinWallType,0
;   internalThinWallType,2
;   thinWallAllowedOverlapPercentage,25
;   singleExtrusionMinLength,1
;   singleExtrusionMinPrintingWidthPercentage,50
;   singleExtrusionMaxPrintingWidthPercentage,200
;   singleExtrusionEndpointExtension,0.2
;   horizontalSizeCompensation,0
G90
M82
M106 S0
M140 S60
M190 S60
M104 S200 T0
M109 S200 T0
M115 U3.0.7 ; use the latest firmware version
G28 W ; home all axes without mesh bed leveling
G80 ; run mesh bed leveling routine
G1 Y-3.0 F1000.0 ; prepare to prime
G92 E0 ; reset extrusion distance
G1 X60.0 E9.0  F1000.0 ; priming
G1 X100.0 E12.5  F1000.0 ; priming
; process Process1
; layer 1, Z = 0.300
T0
G92 E0.0000
G1 E-1.0000 F2400
; feature skirt
; tool H0.300 W0.400
G1 Z0.300 F1002
G1 X87.782 Y77.100 F12000
G1 E0.0000 F2400
G92 E0.0000
G1 X88.594 Y76.406 E0.0533 F2400
G1 X88.886 Y76.194 E0.0713
G1 X89.796 Y75.636 E0.1246
G1 X90.119 Y75.472 E0.1426
G1 X91.105 Y75.063 E0.1959
G1 X91.449 Y74.952 E0.2139
G1 X92.487 Y74.703 E0.2672
G1 X92.844 Y74.646 E0.2852
G1 X93.895 Y74.563 E0.3378
G1 X94.229 Y74.561 E0.3545
G1 X95.812 Y74.667 E0.4336
G1 X95.994 Y74.687 E0.4428
G1 X97.112 Y74.852 E0.4991
G1 X97.331 Y74.895 E0.5102
G1 X98.368 Y75.153 E0.5636
G1 X98.588 Y75.220 E0.5751
G1 X99.525 Y75.555 E0.6247
G1 X99.699 Y75.625 E0.6340
G1 X102.361 Y76.831 E0.7798
G1 X103.367 Y77.242 E0.8341
G1 X104.232 Y77.543 E0.8798
G1 X104.901 Y77.727 E0.9144
G1 X105.456 Y77.830 E0.9425
G1 X105.742 Y77.855 E0.9569
G1 X106.015 Y77.847 E0.9705
G1 X106.284 Y77.810 E0.9840
G1 X106.622 Y77.728 E1.0014
G1 X107.060 Y77.579 E1.0245
G1 X107.665 Y77.320 E1.0573
G1 X110.269 Y76.015 E1.2026
G1 X110.358 Y75.972 E1.2076
G1 X111.383 Y75.512 E1.2636
G1 X111.532 Y75.452 E1.2716
G1 X112.571 Y75.070 E1.3268
G1 X112.796 Y75.000 E1.3386
G1 X114.319 Y74.611 E1.4170
G1 X115.076 Y74.547 E1.4549
G1 X116.353 Y74.648 E1.5188
G1 X116.722 Y74.708 E1.5375
G1 X117.784 Y74.970 E1.5921
G1 X118.118 Y75.080 E1.6096
G1 X119.065 Y75.475 E1.6608
G1 X119.383 Y75.637 E1.6786
G1 X120.295 Y76.196 E1.7320
G1 X120.595 Y76.415 E1.7505
G1 X121.425 Y77.129 E1.8051
G1 X121.676 Y77.382 E1.8229
G1 X122.347 Y78.171 E1.8746
G1 X122.556 Y78.458 E1.8923
G1 X123.105 Y79.351 E1.9446
G1 X123.269 Y79.671 E1.9625
G1 X123.544 Y80.333 E1.9983
G1 X123.810 Y79.692 E2.0329
G1 X123.974 Y79.370 E2.0509
G1 X124.532 Y78.460 E2.1042
G1 X124.744 Y78.167 E2.1222
G1 X125.437 Y77.355 E2.1755
G1 X125.693 Y77.100 E2.1935
G1 X126.505 Y76.406 E2.2468
G1 X126.797 Y76.194 E2.2648
G1 X127.708 Y75.636 E2.3181
G1 X128.030 Y75.472 E2.3361
G1 X129.016 Y75.063 E2.3894
G1 X129.360 Y74.952 E2.4074
G1 X130.398 Y74.703 E2.4607
G1 X130.755 Y74.646 E2.4787
G1 X131.806 Y74.563 E2.5313
G1 X132.140 Y74.561 E2.5480
G1 X133.723 Y74.667 E2.6271
G1 X133.906 Y74.687 E2.6363
G1 X135.023 Y74.852 E2.6926
G1 X135.242 Y74.895 E2.7038
G1 X136.279 Y75.153 E2.7571
G1 X136.500 Y75.220 E2.7686
G1 X137.436 Y75.555 E2.8182
G1 X137.610 Y75.625 E2.8276
G1 X140.272 Y76.831 E2.9734
G1 X141.278 Y77.242 E3.0276
G1 X142.144 Y77.543 E3.0733
G1 X142.812 Y77.727 E3.1079
G1 X143.367 Y77.830 E3.1361
G1 X143.654 Y77.855 E3.1504
G1 X143.926 Y77.847 E3.1640
G1 X144.195 Y77.810 E3.1776
G1 X144.533 Y77.728 E3.1949
G1 X144.971 Y77.579 E3.2180
G1 X145.577 Y77.320 E3.2508
G1 X148.180 Y76.015 E3.3962
G1 X148.270 Y75.972 E3.4011
G1 X149.294 Y75.512 E3.4571
G1 X149.443 Y75.452 E3.4651
G1 X150.482 Y75.070 E3.5204
G1 X150.707 Y75.000 E3.5321
G1 X152.230 Y74.611 E3.6106
G1 X152.987 Y74.547 E3.6485
G1 X154.264 Y74.648 E3.7124
G1 X154.633 Y74.708 E3.7310
G1 X155.695 Y74.970 E3.7856
G1 X156.029 Y75.080 E3.8031
G1 X156.976 Y75.475 E3.8543
G1 X157.294 Y75.637 E3.8721
G1 X158.206 Y76.196 E3.9255
G1 X158.506 Y76.415 E3.9440
G1 X159.336 Y77.129 E3.9987
G1 X159.587 Y77.382 E4.0164
G1 X160.259 Y78.171 E4.0681
G1 X160.467 Y78.458 E4.0858
G1 X161.016 Y79.351 E4.1381
G1 X161.180 Y79.671 E4.1561
G1 X161.596 Y80.672 E4.2101
G1 X161.710 Y81.020 E4.2284
G1 X161.960 Y82.060 E4.2818
G1 X162.016 Y82.417 E4.2998
G1 X162.093 Y83.391 E4.3485
G1 X162.100 Y83.572 E4.3576
G1 X162.100 Y84.753 E4.4165
G1 X162.093 Y84.933 E4.4255
G1 X162.016 Y85.907 E4.4742
G1 X161.960 Y86.264 E4.4923
G1 X161.710 Y87.302 E4.5455
G1 X161.599 Y87.646 E4.5636
G1 X161.190 Y88.633 E4.6168
G1 X161.026 Y88.955 E4.6349
G1 X160.468 Y89.865 E4.6881
G1 X160.256 Y90.157 E4.7062
G1 X159.562 Y90.969 E4.7594
G1 X159.307 Y91.225 E4.7774
G1 X158.495 Y91.918 E4.8307
G1 X158.203 Y92.131 E4.8487
G1 X157.292 Y92.688 E4.9020
G1 X156.970 Y92.852 E4.9200
G1 X155.984 Y93.261 E4.9733
G1 X155.640 Y93.373 E4.9913
G1 X154.602 Y93.622 E5.0446
G1 X154.245 Y93.678 E5.0626
G1 X152.984 Y93.778 E5.1258
G1 X152.229 Y93.713 E5.1635
G1 X150.707 Y93.324 E5.2419
G1 X150.482 Y93.255 E5.2537
G1 X149.443 Y92.873 E5.3089
G1 X149.294 Y92.812 E5.3169
G1 X148.265 Y92.350 E5.3732
G1 X148.176 Y92.308 E5.3781
G1 X145.552 Y90.992 E5.5245
G1 X144.974 Y90.746 E5.5559
G1 X144.533 Y90.596 E5.5791
G1 X144.195 Y90.514 E5.5965
G1 X143.926 Y90.477 E5.6100
G1 X143.653 Y90.470 E5.6236
G1 X143.367 Y90.494 E5.6380
G1 X142.812 Y90.598 E5.6661
G1 X142.144 Y90.782 E5.7007
G1 X141.278 Y91.082 E5.7464
G1 X140.272 Y91.493 E5.8007
G1 X137.610 Y92.699 E5.9465
G1 X137.436 Y92.769 E5.9558
G1 X136.500 Y93.105 E6.0054
G1 X136.279 Y93.171 E6.0169
G1 X135.242 Y93.429 E6.0703
G1 X135.023 Y93.473 E6.0814
G1 X133.906 Y93.638 E6.1377
G1 X133.723 Y93.657 E6.1469
G1 X132.140 Y93.763 E6.2260
G1 X131.806 Y93.761 E6.2427
G1 X130.755 Y93.678 E6.2953
G1 X130.398 Y93.622 E6.3134
G1 X129.360 Y93.373 E6.3666
G1 X129.016 Y93.261 E6.3847
G1 X128.030 Y92.852 E6.4379
G1 X127.708 Y92.688 E6.4560
G1 X126.797 Y92.131 E6.5092
G1 X126.505 Y91.918 E6.5272
G1 X125.693 Y91.225 E6.5805
G1 X125.437 Y90.969 E6.5985
G1 X124.744 Y90.157 E6.6518
G1 X124.532 Y89.865 E6.6698
G1 X123.974 Y88.955 E6.7231
G1 X123.810 Y88.633 E6.7411
G1 X123.544 Y87.992 E6.7757
G1 X123.279 Y88.633 E6.8103
G1 X123.115 Y88.955 E6.8284
G1 X122.557 Y89.865 E6.8816
G1 X122.345 Y90.157 E6.8997
G1 X121.651 Y90.969 E6.9529
G1 X121.396 Y91.225 E6.9710
G1 X120.584 Y91.918 E7.0242
G1 X120.291 Y92.131 E7.0423
G1 X119.381 Y92.688 E7.0955
G1 X119.059 Y92.852 E7.1136
G1 X118.073 Y93.261 E7.1668
G1 X117.729 Y93.373 E7.1849
G1 X116.691 Y93.622 E7.2381
G1 X116.334 Y93.678 E7.2561
G1 X115.072 Y93.778 E7.3193
G1 X114.318 Y93.713 E7.3571
G1 X112.796 Y93.324 E7.4354
G1 X112.571 Y93.255 E7.4472
G1 X111.532 Y92.873 E7.5024
G1 X111.383 Y92.812 E7.5104
G1 X110.353 Y92.350 E7.5667
G1 X110.264 Y92.308 E7.5716
G1 X107.641 Y90.992 E7.7181
G1 X107.063 Y90.746 E7.7494
G1 X106.622 Y90.596 E7.7727
G1 X106.284 Y90.514 E7.7900
G1 X106.015 Y90.477 E7.8035
G1 X105.742 Y90.470 E7.8171
G1 X105.456 Y90.494 E7.8315
G1 X104.901 Y90.598 E7.8596
G1 X104.232 Y90.782 E7.8942
G1 X103.367 Y91.082 E7.9399
G1 X102.361 Y91.493 E7.9942
G1 X99.699 Y92.699 E8.1400
G1 X99.525 Y92.769 E8.1493
G1 X98.588 Y93.105 E8.1990
G1 X98.368 Y93.171 E8.2105
G1 X97.331 Y93.429 E8.2638
G1 X97.112 Y93.473 E8.2749
G1 X95.994 Y93.638 E8.3313
G1 X95.812 Y93.657 E8.3404
G1 X94.229 Y93.763 E8.4196
G1 X93.895 Y93.761 E8.4362
G1 X92.844 Y93.678 E8.4888
G1 X92.487 Y93.622 E8.5069
G1 X91.449 Y93.373 E8.5601
G1 X91.105 Y93.261 E8.5782
G1 X90.119 Y92.852 E8.6314
G1 X89.796 Y92.688 E8.6495
G1 X88.886 Y92.130 E8.7027
G1 X88.594 Y91.918 E8.7208
G1 X87.782 Y91.225 E8.7740
G1 X87.526 Y90.969 E8.7921
G1 X86.833 Y90.157 E8.8453
G1 X86.620 Y89.865 E8.8634
G1 X86.063 Y88.955 E8.9166
G1 X85.899 Y88.632 E8.9346
G1 X85.490 Y87.646 E8.9879
G1 X85.378 Y87.302 E9.0059
G1 X85.129 Y86.264 E9.0592
G1 X85.073 Y85.907 E9.0772
G1 X84.996 Y84.933 E9.1260
G1 X84.989 Y84.753 E9.1350
G1 X84.989 Y83.572 E9.1939
G1 X84.996 Y83.391 E9.2029
G1 X85.073 Y82.417 E9.2517
G1 X85.129 Y82.060 E9.2697
G1 X85.378 Y81.022 E9.3230
G1 X85.490 Y80.678 E9.3410
G1 X85.899 Y79.692 E9.3943
G1 X86.063 Y79.370 E9.4123
G1 X86.620 Y78.460 E9.4656
G1 X86.833 Y78.167 E9.4836
G1 X87.526 Y77.355 E9.5369
G1 X87.782 Y77.100 E9.5549
G92 E0.0000
G1 E-1.0000 F2400
G1 X88.054 Y77.394 F12000
G1 E0.0000 F2400
G92 E0.0000
G1 X88.842 Y76.721 E0.0517 F2400
G1 X89.109 Y76.527 E0.0682
G1 X89.992 Y75.985 E0.1199
G1 X90.286 Y75.836 E0.1363
G1 X91.243 Y75.439 E0.1880
G1 X91.557 Y75.337 E0.2045
G1 X92.565 Y75.095 E0.2562
G1 X92.891 Y75.044 E0.2726
G1 X93.911 Y74.963 E0.3237
G1 X94.217 Y74.961 E0.3390
G1 X95.777 Y75.066 E0.4170
G1 X95.944 Y75.084 E0.4253
G1 X97.043 Y75.246 E0.4808
G1 X97.244 Y75.286 E0.4910
G1 X98.262 Y75.539 E0.5433
G1 X98.463 Y75.600 E0.5538
G1 X99.382 Y75.929 E0.6025
G1 X99.541 Y75.993 E0.6111
G1 X102.203 Y77.199 E0.7568
G1 X103.226 Y77.616 E0.8120
G1 X104.114 Y77.925 E0.8589
G1 X104.811 Y78.117 E0.8950
G1 X105.402 Y78.227 E0.9249
G1 X105.731 Y78.255 E0.9414
G1 X106.048 Y78.247 E0.9572
G1 X106.358 Y78.204 E0.9729
G1 X106.733 Y78.113 E0.9921
G1 X107.203 Y77.953 E1.0169
G1 X107.834 Y77.683 E1.0511
G1 X110.445 Y76.374 E1.1968
G1 X110.526 Y76.335 E1.2013
G1 X111.541 Y75.880 E1.2568
G1 X111.676 Y75.825 E1.2641
G1 X112.699 Y75.449 E1.3185
G1 X112.904 Y75.385 E1.3292
G1 X114.386 Y75.007 E1.4055
G1 X115.077 Y74.948 E1.4401
G1 X116.305 Y75.046 E1.5015
G1 X116.642 Y75.101 E1.5186
G1 X117.673 Y75.355 E1.5716
G1 X117.978 Y75.455 E1.5876
G1 X118.897 Y75.838 E1.6372
G1 X119.187 Y75.986 E1.6535
G1 X120.073 Y76.529 E1.7053
G1 X120.346 Y76.728 E1.7222
G1 X121.152 Y77.422 E1.7753
G1 X121.382 Y77.653 E1.7915
G1 X122.033 Y78.418 E1.8416
G1 X122.223 Y78.680 E1.8578
G1 X122.756 Y79.547 E1.9085
G1 X122.905 Y79.840 E1.9249
G1 X123.310 Y80.811 E1.9774
G1 X123.414 Y81.129 E1.9941
G1 X123.544 Y81.674 E2.0221
G1 X123.675 Y81.131 E2.0499
G1 X123.777 Y80.817 E2.0664
G1 X124.173 Y79.860 E2.1181
G1 X124.323 Y79.565 E2.1346
G1 X124.865 Y78.682 E2.1862
G1 X125.058 Y78.415 E2.2027
G1 X125.731 Y77.627 E2.2544
G1 X125.965 Y77.394 E2.2709
G1 X126.753 Y76.721 E2.3226
G1 X127.020 Y76.527 E2.3390
G1 X127.903 Y75.985 E2.3907
G1 X128.197 Y75.836 E2.4072
G1 X129.155 Y75.439 E2.4589
G1 X129.469 Y75.337 E2.4754
G1 X130.476 Y75.095 E2.5271
G1 X130.802 Y75.044 E2.5435
G1 X131.823 Y74.963 E2.5946
G1 X132.128 Y74.961 E2.6098
G1 X133.688 Y75.066 E2.6879
G1 X133.855 Y75.084 E2.6962
G1 X134.955 Y75.246 E2.7517
G1 X135.155 Y75.286 E2.7618
G1 X136.173 Y75.539 E2.8142
G1 X136.374 Y75.600 E2.8247
G1 X137.294 Y75.929 E2.8734
G1 X137.452 Y75.993 E2.8819
G1 X140.114 Y77.199 E3.0277
G1 X141.137 Y77.616 E3.0828
G1 X142.025 Y77.925 E3.1297
G1 X142.722 Y78.117 E3.1658
G1 X143.313 Y78.227 E3.1958
G1 X143.642 Y78.255 E3.2123
G1 X143.959 Y78.247 E3.2281
G1 X144.270 Y78.204 E3.2437
G1 X144.645 Y78.113 E3.2630
G1 X145.114 Y77.953 E3.2878
G1 X145.745 Y77.683 E3.3220
G1 X148.356 Y76.374 E3.4677
