; generated by PrusaSlicer 2.5.2+win64 on 2023-05-18 at 17:09:23 UTC

; 

; external perimeters extrusion width = 0.45mm
; perimeters extrusion width = 0.45mm
; infill extrusion width = 0.45mm
; solid infill extrusion width = 0.45mm
; top infill extrusion width = 0.40mm
; first layer extrusion width = 0.42mm

M73 P0 R78
M73 C32
M73 Q0 S78
M73 D32
M107
;TYPE:Custom
M862.3 P "MK3S" ; printer model check
M862.1 P0.4 ; nozzle diameter check
G90 ; use absolute coordinates
M83 ; extruder relative mode
M104 S215 ; set extruder temp
M140 S60 ; set bed temp
M190 S60 ; wait for bed temp
M109 S215 ; wait for extruder temp
G28 W ; home all without mesh bed level
G80 ; mesh bed leveling
G1 Y-3.0 F1000.0 ; go outside print area
G92 E0.0
G1 X60.0 E9.0 F1000.0 ; intro line
G1 X100.0 E12.5 F1000.0 ; intro line
G92 E0.0
M221 S95

; Don't change E values below. Excessive value can damage the printer.
M907 E430 ; set extruder motor current
G21 ; set units to millimeters
G90 ; use absolute coordinates
M83 ; use relative distances for extrusion
M900 K0.05 ; Filament gcode LA 1.5
M900 K30 ; Filament gcode LA 1.0
M107
;LAYER_CHANGE
;Z:0.2
;HEIGHT:0.2
;BEFORE_LAYER_CHANGE
G92 E0.0
;0.2


M73 C31
G1 E-.8 F2100
G1 Z.4 F720
;AFTER_LAYER_CHANGE
;0.2
G1 X89.639 Y64.892 F10800
G1 Z.2 F720
G1 E.8 F2100
M204 S800
;TYPE:Skirt/Brim
;WIDTH:0.42
G1 F1200
G1 X90.402 Y64.201 E.03228
G1 X103.729 Y55.519 E.4987
G1 X105.027 Y55.134 E.04244
M73 D31
G1 X144.973 Y55.134 E1.25249
G1 X146.271 Y55.519 E.04244
G1 X159.598 Y64.201 E.4987
G1 X160.361 Y64.892 E.03228
G1 X160.869 Y65.738 E.03093
G1 X161.118 Y66.736 E.03228
G1 X164.211 Y102.084 E1.11252
G1 X164.051 Y103.17 E.03441
G1 X144.078 Y153.368 E1.69394
G1 X143.231 Y154.437 E.04278
G1 X141.87 Y154.866 E.04476
G1 X108.13 Y154.866 E1.05787
G1 X106.823 Y154.474 E.04278
G1 X105.922 Y153.368 E.04476
G1 X85.949 Y103.17 E1.69394
G1 X85.789 Y102.084 E.03441
G1 X88.882 Y66.736 E1.11252
G1 X89.131 Y65.738 E.03228
G1 X89.608 Y64.943 E.02905
M204 S1000
; printing object Sign.stl id:0 copy 2
;WIPE_START
G1 F8640
G1 X90.402 Y64.201 E-.25103
G1 X92.249 Y62.998 E-.50897
;WIPE_END
G1 E-.04 F2100
G1 Z.6 F720
G1 X141.011 Y151.702 F10800
G1 Z.2 F720
G1 E.8 F2100
M204 S800
;TYPE:Perimeter
;WIDTH:0.419999
G1 F1200
G1 X108.989 Y151.702 E1.004
G1 X111.996 Y117.339 E1.08153
G1 X112.051 Y117.128 E.00684
G1 X112.166 Y117.009 E.0052
G1 X125 Y108.649 E.48025
G1 X137.789 Y116.98 E.47857
G1 X137.949 Y117.128 E.00684
G1 X138.004 Y117.339 E.00684
G1 X141.005 Y151.642 E1.07965
M204 S1000
G1 X141.422 Y152.079 F10800
M204 S800
;TYPE:External perimeter
M73 P0 R77
G1 F1200
G1 X108.578 Y152.079 E1.02981
G1 X111.62 Y117.306 E1.09443
G1 X111.719 Y116.929 E.01223
G1 X111.925 Y116.716 E.00929
G1 X125 Y108.199 E.48927
G1 X137.995 Y116.664 E.48627
G1 X138.281 Y116.929 E.01223
G1 X138.38 Y117.306 E.01223
G1 X141.417 Y152.019 E1.09255
M204 S1000
G1 X141.07 Y151.889 F10800
;WIPE_START
G1 F8640
G1 X138.125 Y152.025 E-.76
;WIPE_END
G1 E-.04 F2100
G1 Z.6 F720
G1 X137.036 Y116.692 F10800
G1 Z.2 F720
G1 E.8 F2100
M204 S800
;TYPE:Solid infill
;WIDTH:0.42049
G1 F1200
G1 X137.65 Y117.307 E.02731
G1 X137.713 Y117.903 E.01881
G1 X136.085 Y116.275 E.0723
G1 X134.553 Y115.277 E.0574
G1 X137.764 Y118.488 E.14259
G1 X137.815 Y119.074 E.01844
G1 X133.021 Y114.279 E.21288
G1 X131.489 Y113.281 E.0574
G1 X137.867 Y119.659 E.28318
G1 X137.918 Y120.244 E.01844
G1 X129.957 Y112.283 E.35347
G1 X128.425 Y111.285 E.0574
G1 X137.969 Y120.829 E.42376
G1 X138.02 Y121.414 E.01844
G1 X126.893 Y110.287 E.49406
G1 X125.361 Y109.289 E.0574
G1 X138.071 Y121.999 E.56435
G1 X138.123 Y122.584 E.01844
G1 X124.753 Y109.215 E.59361
G1 X124.429 Y109.425 E.01211
G1 X138.174 Y123.17 E.61024
G1 X138.225 Y123.755 E.01844
G1 X124.106 Y109.636 E.62687
G1 X123.783 Y109.847 E.01211
G1 X138.276 Y124.34 E.64349
G1 X138.327 Y124.925 E.01844
G1 X123.459 Y110.057 E.66012
G1 X123.136 Y110.268 E.01211
M73 Q1 S78
G1 X138.379 Y125.51 E.67675
G1 X138.43 Y126.095 E.01844
M73 P1 R77
G1 X122.813 Y110.479 E.69338
G1 X122.489 Y110.689 E.01211
G1 X138.481 Y126.681 E.71001
G1 X138.532 Y127.266 E.01844
G1 X122.166 Y110.9 E.72664
G1 X121.843 Y111.11 E.01211
G1 X138.583 Y127.851 E.74327
G1 X138.634 Y128.436 E.01844
M73 Q1 S77
G1 X121.519 Y111.321 E.75989
G1 X121.196 Y111.532 E.01211
G1 X138.686 Y129.021 E.77652
G1 X138.737 Y129.606 E.01844
G1 X120.873 Y111.742 E.79315
G1 X120.55 Y111.953 E.01211
G1 X138.788 Y130.192 E.80978
G1 X138.839 Y130.777 E.01844
G1 X120.226 Y112.164 E.82641
G1 X119.903 Y112.374 E.01211
G1 X138.89 Y131.362 E.84304
G1 X138.942 Y131.947 E.01844
G1 X119.58 Y112.585 E.85967
G1 X119.256 Y112.796 E.01211
G1 X138.993 Y132.532 E.8763
G1 X139.044 Y133.117 E.01844
G1 X118.933 Y113.006 E.89292
G1 X118.61 Y113.217 E.01211
M73 C30
G1 X139.095 Y133.702 E.90955
G1 X139.146 Y134.288 E.01844
G1 X118.286 Y113.427 E.92618
G1 X117.963 Y113.638 E.01211
M73 D30
G1 X139.198 Y134.873 E.94281
G1 X139.249 Y135.458 E.01844
G1 X117.64 Y113.849 E.95944
G1 X117.316 Y114.059 E.01211
G1 X139.3 Y136.043 E.97607
G1 X139.351 Y136.628 E.01844
G1 X116.993 Y114.27 E.9927
G1 X116.67 Y114.481 E.01211
G1 X139.402 Y137.213 E1.00932
G1 X139.454 Y137.799 E.01844
G1 X116.346 Y114.691 E1.02595
G1 X116.023 Y114.902 E.01211
G1 X139.505 Y138.384 E1.04258
G1 X139.556 Y138.969 E.01844
G1 X115.7 Y115.112 E1.05921
G1 X115.376 Y115.323 E.01211
G1 X139.607 Y139.554 E1.07584
G1 X139.658 Y140.139 E.01844
G1 X115.053 Y115.534 E1.09247
G1 X114.73 Y115.744 E.01211
G1 X139.71 Y140.724 E1.1091
G1 X139.761 Y141.31 E.01844
G1 X114.406 Y115.955 E1.12572
G1 X114.083 Y116.166 E.01211
G1 X139.812 Y141.895 E1.14235
G1 X139.863 Y142.48 E.01844
M73 P1 R76
G1 X113.76 Y116.376 E1.15898
G1 X113.436 Y116.587 E.01211
G1 X139.914 Y143.065 E1.17561
G1 X139.966 Y143.65 E.01844
G1 X113.113 Y116.798 E1.19224
G1 X112.79 Y117.008 E.01211
M73 P2 R76
M73 Q2 S77
G1 X140.017 Y144.235 E1.20887
G1 X140.068 Y144.821 E.01844
G1 X112.466 Y117.219 E1.2255
G1 X112.35 Y117.307 E.00459
G1 X112.314 Y117.6 E.00926
G1 X140.119 Y145.406 E1.23455
G1 X140.17 Y145.991 E.01844
G1 X112.271 Y118.091 E1.23873
G1 X112.228 Y118.582 E.01547
G1 X140.222 Y146.576 E1.24291
G1 X140.273 Y147.161 E.01844
G1 X112.185 Y119.073 E1.24709
G1 X112.142 Y119.564 E.01547
G1 X140.324 Y147.746 E1.25127
G1 X140.375 Y148.331 E.01844
G1 X112.099 Y120.055 E1.25545
G1 X112.056 Y120.546 E.01547
G1 X140.426 Y148.917 E1.25963
G1 X140.478 Y149.502 E.01844
M73 Q2 S76
G1 X112.013 Y121.037 E1.26381
G1 X111.97 Y121.528 E.01547
G1 X140.529 Y150.087 E1.26799
G1 X140.58 Y150.672 E.01844
G1 X111.927 Y122.019 E1.27217
G1 X111.884 Y122.51 E.01547
G1 X140.631 Y151.257 E1.27635
G1 X140.64 Y151.363 E.00332
G1 X140.202 Y151.363 E.01375
G1 X111.841 Y123.001 E1.25923
G1 X111.798 Y123.492 E.01547
M73 C29
G1 X139.668 Y151.363 E1.23743
G1 X139.134 Y151.363 E.01676
G1 X111.755 Y123.983 E1.21563
G1 X111.712 Y124.474 E.01547
M73 D29
G1 X138.6 Y151.363 E1.19382
G1 X138.067 Y151.363 E.01676
G1 X111.669 Y124.965 E1.17202
G1 X111.626 Y125.456 E.01547
G1 X137.533 Y151.363 E1.15022
G1 X136.999 Y151.363 E.01676
G1 X111.583 Y125.947 E1.12842
G1 X111.54 Y126.438 E.01547
G1 X136.465 Y151.363 E1.10662
G1 X135.931 Y151.363 E.01676
G1 X111.497 Y126.929 E1.08482
G1 X111.454 Y127.42 E.01547
G1 X135.397 Y151.363 E1.06302
G1 X134.863 Y151.363 E.01676
G1 X111.411 Y127.911 E1.04122
G1 X111.368 Y128.402 E.01547
M73 P3 R76
M73 Q3 S76
G1 X134.329 Y151.363 E1.01942
G1 X133.795 Y151.363 E.01676
G1 X111.326 Y128.893 E.99762
G1 X111.283 Y129.384 E.01547
G1 X133.261 Y151.363 E.97582
G1 X132.727 Y151.363 E.01676
G1 X111.24 Y129.875 E.95402
G1 X111.197 Y130.366 E.01547
M73 P3 R75
G1 X132.193 Y151.363 E.93222
G1 X131.659 Y151.363 E.01676
G1 X111.154 Y130.857 E.91042
G1 X111.111 Y131.348 E.01547
G1 X131.125 Y151.363 E.88862
G1 X130.591 Y151.363 E.01676
G1 X111.068 Y131.839 E.86682
G1 X111.025 Y132.33 E.01547
G1 X130.057 Y151.363 E.84502
G1 X129.523 Y151.363 E.01676
G1 X110.982 Y132.821 E.82322
G1 X110.939 Y133.312 E.01547
G1 X128.989 Y151.363 E.80142
G1 X128.455 Y151.363 E.01676
G1 X110.896 Y133.803 E.77962
G1 X110.853 Y134.294 E.01547
G1 X127.921 Y151.363 E.75782
G1 X127.387 Y151.363 E.01676
G1 X110.81 Y134.785 E.73602
G1 X110.767 Y135.276 E.01547
G1 X126.853 Y151.363 E.71422
G1 X126.319 Y151.363 E.01676
G1 X110.724 Y135.767 E.69242
G1 X110.681 Y136.258 E.01547
G1 X125.785 Y151.363 E.67062
G1 X125.251 Y151.363 E.01676
G1 X110.638 Y136.749 E.64882
G1 X110.595 Y137.24 E.01547
G1 X124.717 Y151.363 E.62701
G1 X124.183 Y151.363 E.01676
G1 X110.552 Y137.731 E.60521
G1 X110.509 Y138.222 E.01547
G1 X123.649 Y151.363 E.58341
G1 X123.116 Y151.363 E.01676
G1 X110.466 Y138.713 E.56161
G1 X110.423 Y139.204 E.01547
G1 X122.582 Y151.363 E.53981
G1 X122.048 Y151.363 E.01676
G1 X110.38 Y139.695 E.51801
G1 X110.337 Y140.186 E.01547
M73 Q3 S75
G1 X121.514 Y151.363 E.49621
G1 X120.98 Y151.363 E.01676
G1 X110.295 Y140.677 E.47441
G1 X110.252 Y141.168 E.01547
G1 X120.446 Y151.363 E.45261
G1 X119.912 Y151.363 E.01676
G1 X110.209 Y141.659 E.43081
G1 X110.166 Y142.15 E.01547
G1 X119.378 Y151.363 E.40901
G1 X118.844 Y151.363 E.01676
G1 X110.123 Y142.641 E.38721
G1 X110.08 Y143.132 E.01547
G1 X118.31 Y151.363 E.36541
G1 X117.776 Y151.363 E.01676
G1 X110.037 Y143.623 E.34361
G1 X109.994 Y144.114 E.01547
G1 X117.242 Y151.363 E.32181
G1 X116.708 Y151.363 E.01676
G1 X109.951 Y144.605 E.30001
G1 X109.908 Y145.096 E.01547
G1 X116.174 Y151.363 E.27821
G1 X115.64 Y151.363 E.01676
G1 X109.865 Y145.587 E.25641
G1 X109.822 Y146.078 E.01547
G1 X115.106 Y151.363 E.23461
G1 X114.572 Y151.363 E.01676
G1 X109.779 Y146.569 E.21281
G1 X109.736 Y147.06 E.01547
G1 X114.038 Y151.363 E.19101
G1 X113.504 Y151.363 E.01676
G1 X109.693 Y147.552 E.16921
G1 X109.65 Y148.043 E.01547
G1 X112.97 Y151.363 E.14741
G1 X112.436 Y151.363 E.01676
G1 X109.607 Y148.534 E.12561
G1 X109.564 Y149.025 E.01547
G1 X111.902 Y151.363 E.10381
G1 X111.368 Y151.363 E.01676
G1 X109.521 Y149.516 E.08201
G1 X109.478 Y150.007 E.01547
G1 X110.834 Y151.363 E.0602
G1 X110.3 Y151.363 E.01676
G1 X109.435 Y150.498 E.0384
G1 X109.392 Y150.989 E.01547
G1 X109.936 Y151.532 E.02414
M204 S1000
; stop printing object Sign.stl id:0 copy 2
; printing object Sign.stl id:0 copy 1
;WIPE_START
G1 F8640
G1 X109.392 Y150.989 E-.17753
G1 X109.435 Y150.498 E-.11381
G1 X110.3 Y151.363 E-.28245
G1 X110.834 Y151.363 E-.12329
G1 X110.642 Y151.17 E-.06292
;WIPE_END
G1 E-.04 F2100
G1 Z.6 F720
G1 X160.984 Y101.504 F10800
M73 C28
G1 Z.2 F720
G1 E.8 F2100
M204 S800
;TYPE:Perimeter
;WIDTH:0.419999
G1 F1200
G1 X128.963 Y101.504 E1.004
G1 X131.969 Y67.141 E1.08153
G1 X132.024 Y66.93 E.00684
M73 D28
G1 X132.14 Y66.811 E.0052
G1 X144.973 Y58.45 E.48025
G1 X157.762 Y66.782 E.47857
M73 P4 R75
G1 X157.922 Y66.93 E.00684
M73 Q4 S75
G1 X157.978 Y67.141 E.00684
G1 X160.979 Y101.444 E1.07965
M204 S1000
G1 X161.395 Y101.881 F10800
M204 S800
;TYPE:External perimeter
G1 F1200
G1 X128.551 Y101.881 E1.02981
G1 X131.593 Y67.108 E1.09443
G1 X131.692 Y66.731 E.01223
G1 X131.898 Y66.518 E.00929
G1 X144.973 Y58 E.48927
G1 X157.968 Y66.466 E.48627
G1 X158.254 Y66.731 E.01223
G1 X158.353 Y67.108 E.01223
G1 X161.39 Y101.821 E1.09255
M204 S1000
G1 X161.043 Y101.691 F10800
;WIPE_START
G1 F8640
G1 X158.099 Y101.827 E-.76
;WIPE_END
G1 E-.04 F2100
G1 Z.6 F720
G1 X157.009 Y66.494 F10800
G1 Z.2 F720
G1 E.8 F2100
M204 S800
;TYPE:Solid infill
;WIDTH:0.42049
G1 F1200
G1 X157.623 Y67.109 E.02731
G1 X157.686 Y67.705 E.01881
G1 X156.058 Y66.077 E.0723
G1 X154.526 Y65.079 E.0574
G1 X157.737 Y68.29 E.14259
G1 X157.789 Y68.875 E.01844
G1 X152.994 Y64.081 E.21288
G1 X151.462 Y63.083 E.0574
G1 X157.84 Y69.46 E.28318
G1 X157.891 Y70.046 E.01844
G1 X149.93 Y62.084 E.35347
G1 X148.398 Y61.086 E.0574
G1 X157.942 Y70.631 E.42376
G1 X157.993 Y71.216 E.01844
G1 X146.866 Y60.088 E.49406
G1 X145.334 Y59.09 E.0574
G1 X158.045 Y71.801 E.56435
G1 X158.096 Y72.386 E.01844
G1 X144.726 Y59.016 E.59361
G1 X144.403 Y59.227 E.01211
G1 X158.147 Y72.971 E.61024
G1 X158.198 Y73.557 E.01844
G1 X144.079 Y59.438 E.62687
G1 X143.756 Y59.648 E.01211
G1 X158.249 Y74.142 E.64349
G1 X158.301 Y74.727 E.01844
G1 X143.433 Y59.859 E.66012
G1 X143.109 Y60.07 E.01211
G1 X158.352 Y75.312 E.67675
G1 X158.403 Y75.897 E.01844
M73 P4 R74
G1 X142.786 Y60.28 E.69338
G1 X142.463 Y60.491 E.01211
G1 X158.454 Y76.482 E.71001
G1 X158.505 Y77.068 E.01844
G1 X142.139 Y60.702 E.72664
G1 X141.816 Y60.912 E.01211
G1 X158.557 Y77.653 E.74327
G1 X158.608 Y78.238 E.01844
G1 X141.493 Y61.123 E.75989
G1 X141.169 Y61.333 E.01211
G1 X158.659 Y78.823 E.77652
G1 X158.71 Y79.408 E.01844
G1 X140.846 Y61.544 E.79315
G1 X140.523 Y61.755 E.01211
G1 X158.761 Y79.993 E.80978
G1 X158.812 Y80.578 E.01844
G1 X140.199 Y61.965 E.82641
G1 X139.876 Y62.176 E.01211
G1 X158.864 Y81.164 E.84304
G1 X158.915 Y81.749 E.01844
G1 X139.553 Y62.387 E.85967
G1 X139.229 Y62.597 E.01211
G1 X158.966 Y82.334 E.8763
G1 X159.017 Y82.919 E.01844
G1 X138.906 Y62.808 E.89292
G1 X138.583 Y63.019 E.01211
G1 X159.068 Y83.504 E.90955
G1 X159.12 Y84.089 E.01844
G1 X138.259 Y63.229 E.92618
G1 X137.936 Y63.44 E.01211
G1 X159.171 Y84.675 E.94281
G1 X159.222 Y85.26 E.01844
G1 X137.613 Y63.65 E.95944
G1 X137.289 Y63.861 E.01211
M73 Q4 S74
G1 X159.273 Y85.845 E.97607
G1 X159.324 Y86.43 E.01844
G1 X136.966 Y64.072 E.9927
G1 X136.643 Y64.282 E.01211
M73 P5 R74
G1 X159.376 Y87.015 E1.00932
G1 X159.427 Y87.6 E.01844
M73 Q5 S74
G1 X136.319 Y64.493 E1.02595
G1 X135.996 Y64.704 E.01211
G1 X159.478 Y88.186 E1.04258
G1 X159.529 Y88.771 E.01844
G1 X135.673 Y64.914 E1.05921
G1 X135.349 Y65.125 E.01211
G1 X159.58 Y89.356 E1.07584
G1 X159.632 Y89.941 E.01844
M73 C27
G1 X135.026 Y65.336 E1.09247
G1 X134.703 Y65.546 E.01211
G1 X159.683 Y90.526 E1.1091
G1 X159.734 Y91.111 E.01844
M73 D27
G1 X134.379 Y65.757 E1.12572
G1 X134.056 Y65.967 E.01211
G1 X159.785 Y91.697 E1.14235
G1 X159.836 Y92.282 E.01844
G1 X133.733 Y66.178 E1.15898
G1 X133.409 Y66.389 E.01211
G1 X159.888 Y92.867 E1.17561
G1 X159.939 Y93.452 E.01844
G1 X133.086 Y66.599 E1.19224
G1 X132.763 Y66.81 E.01211
G1 X159.99 Y94.037 E1.20887
G1 X160.041 Y94.622 E.01844
G1 X132.44 Y67.021 E1.2255
G1 X132.323 Y67.109 E.00459
G1 X132.287 Y67.402 E.00926
G1 X160.092 Y95.207 E1.23455
G1 X160.144 Y95.793 E.01844
G1 X132.244 Y67.893 E1.23873
G1 X132.201 Y68.384 E.01547
G1 X160.195 Y96.378 E1.24291
G1 X160.246 Y96.963 E.01844
G1 X132.158 Y68.875 E1.24709
G1 X132.115 Y69.366 E.01547
G1 X160.297 Y97.548 E1.25127
G1 X160.348 Y98.133 E.01844
M73 P5 R73
G1 X132.072 Y69.857 E1.25545
G1 X132.029 Y70.348 E.01547
G1 X160.4 Y98.718 E1.25963
G1 X160.451 Y99.304 E.01844
G1 X131.986 Y70.839 E1.26381
G1 X131.943 Y71.33 E.01547
G1 X160.502 Y99.889 E1.26799
G1 X160.553 Y100.474 E.01844
G1 X131.9 Y71.821 E1.27217
G1 X131.857 Y72.312 E.01547
G1 X160.604 Y101.059 E1.27635
G1 X160.614 Y101.164 E.00332
M73 P6 R73
M73 Q6 S74
G1 X160.176 Y101.164 E.01375
G1 X131.814 Y72.803 E1.25923
G1 X131.771 Y73.294 E.01547
G1 X159.642 Y101.164 E1.23743
G1 X159.108 Y101.164 E.01676
G1 X131.728 Y73.785 E1.21563
G1 X131.685 Y74.276 E.01547
G1 X158.574 Y101.164 E1.19382
G1 X158.04 Y101.164 E.01676
G1 X131.642 Y74.767 E1.17202
G1 X131.599 Y75.258 E.01547
M73 Q6 S73
G1 X157.506 Y101.164 E1.15022
G1 X156.972 Y101.164 E.01676
G1 X131.556 Y75.749 E1.12842
G1 X131.514 Y76.24 E.01547
G1 X156.438 Y101.164 E1.10662
G1 X155.904 Y101.164 E.01676
G1 X131.471 Y76.731 E1.08482
G1 X131.428 Y77.222 E.01547
G1 X155.37 Y101.164 E1.06302
G1 X154.836 Y101.164 E.01676
G1 X131.385 Y77.713 E1.04122
G1 X131.342 Y78.204 E.01547
M73 C26
G1 X154.302 Y101.164 E1.01942
G1 X153.768 Y101.164 E.01676
G1 X131.299 Y78.695 E.99762
G1 X131.256 Y79.186 E.01547
M73 D26
G1 X153.234 Y101.164 E.97582
G1 X152.7 Y101.164 E.01676
G1 X131.213 Y79.677 E.95402
G1 X131.17 Y80.168 E.01547
G1 X152.166 Y101.164 E.93222
G1 X151.632 Y101.164 E.01676
G1 X131.127 Y80.659 E.91042
G1 X131.084 Y81.15 E.01547
G1 X151.098 Y101.164 E.88862
G1 X150.564 Y101.164 E.01676
G1 X131.041 Y81.641 E.86682
G1 X130.998 Y82.132 E.01547
G1 X150.03 Y101.164 E.84502
G1 X149.496 Y101.164 E.01676
G1 X130.955 Y82.623 E.82322
G1 X130.912 Y83.114 E.01547
G1 X148.962 Y101.164 E.80142
