; generated by PrusaSlicer 2.2.0+win64 on 2020-07-29 at 17:26:37 UTC

; 

; external perimeters extrusion width = 0.60mm
; perimeters extrusion width = 0.50mm
; infill extrusion width = 0.50mm
; solid infill extrusion width = 0.50mm
; top infill extrusion width = 0.45mm
; first layer extrusion width = 0.42mm

M73 P0 R11
M73 Q0 S11
M201 X1000 Y1000 Z1000 E5000 ; sets maximum accelerations, mm/sec^2
M203 X200 Y200 Z12 E120 ; sets maximum feedrates, mm/sec
M204 P1250 R1250 T1250 ; sets acceleration (P, T) and retract acceleration (R), mm/sec^2
M205 X8.00 Y8.00 Z0.40 E1.50 ; sets the jerk limits, mm/sec
M205 S0 T0 ; sets the minimum extruding and travel feed rate, mm/sec
M107
M862.3 P "MK3S" ; printer model check
M862.1 P0.4 ; nozzle diameter check
M115 U3.8.0 ; tell printer latest fw version
G90 ; use absolute coordinates
M83 ; extruder relative mode
M104 S215 ; set extruder temp
M140 S60 ; set bed temp
M190 S60 ; wait for bed temp
M109 S215 ; wait for extruder temp
G28 W ; home all without mesh bed level
G80 ; mesh bed leveling
G1 Y-3.0 F1000.0 ; go outside print area
G92 E0.0
G1 X60.0 E9.0 F1000.0 ; intro line
M73 Q0 S11
M73 P0 R11
G1 X100.0 E12.5 F1000.0 ; intro line
G92 E0.0
M221 S95
G21 ; set units to millimeters
G90 ; use absolute coordinates
M83 ; use relative distances for extrusion
M900 K0.06 ; Filament gcode LA 1.5
M900 K30 ; Filament gcode LA 1.0
;BEFORE_LAYER_CHANGE
G92 E0.0
;0.2


G1 E-0.80000 F2100.00000
G1 Z0.600 F10800.000
;AFTER_LAYER_CHANGE
;0.2
G1 X109.708 Y91.872
G1 Z0.200
G1 E0.80000 F2100.00000
M204 S1000
G1 F1200.000
G1 X111.114 Y90.393 E0.06401
G1 X112.663 Y89.063 E0.06401
G1 X114.339 Y87.896 E0.06401
G1 X116.124 Y86.906 E0.06401
G1 X117.993 Y86.103 E0.06376
G1 X119.948 Y85.489 E0.06427
G1 X121.940 Y85.080 E0.06376
G1 X123.971 Y84.872 E0.06401
G1 X125.885 Y84.868 E0.06003
G1 X128.040 Y85.076 E0.06786
G1 X130.032 Y85.484 E0.06376
G1 X131.992 Y86.098 E0.06440
G1 X133.749 Y86.847 E0.05990
G1 X135.640 Y87.883 E0.06760
G1 X137.097 Y88.892 E0.05558
G1 X138.984 Y90.491 E0.07755
G1 X140.297 Y91.878 E0.05989
G1 X141.549 Y93.497 E0.06414
G1 X142.624 Y95.223 E0.06376
G1 X143.529 Y97.071 E0.06453
G1 X144.231 Y98.970 E0.06350
G1 X144.744 Y100.955 E0.06427
G1 X145.052 Y102.973 E0.06401
G1 X145.151 Y105.131 E0.06773
G1 X145.050 Y107.047 E0.06016
G1 X144.740 Y109.065 E0.06401
G1 X144.230 Y111.033 E0.06376
G1 X143.518 Y112.955 E0.06427
G1 X142.622 Y114.781 E0.06376
G1 X141.542 Y116.513 E0.06401
G1 X140.292 Y118.128 E0.06401
G1 X138.880 Y119.613 E0.06427
G1 X137.337 Y120.937 E0.06376
G1 X135.661 Y122.104 E0.06401
G1 X133.876 Y123.094 E0.06401
G1 X132.000 Y123.900 E0.06401
G1 X130.052 Y124.511 E0.06401
G1 X128.052 Y124.922 E0.06401
G1 X126.021 Y125.128 E0.06401
G1 X123.992 Y125.129 E0.06363
G1 X121.948 Y124.922 E0.06440
G1 X119.948 Y124.511 E0.06401
G1 X118.000 Y123.900 E0.06401
G1 X116.132 Y123.098 E0.06376
G1 X114.339 Y122.104 E0.06427
G1 X112.670 Y120.943 E0.06376
G1 X111.121 Y119.613 E0.06401
G1 X109.796 Y118.225 E0.06016
G1 X108.468 Y116.527 E0.06760
G1 X107.449 Y114.901 E0.06016
G1 X106.427 Y112.818 E0.07274
G1 X105.768 Y111.026 E0.05989
G1 X105.254 Y109.037 E0.06440
G1 X104.948 Y107.027 E0.06376
G1 X104.849 Y104.869 E0.06773
G1 X104.950 Y102.953 E0.06016
G1 X105.260 Y100.935 E0.06401
G1 X105.770 Y98.967 E0.06376
G1 X106.482 Y97.045 E0.06427
G1 X107.378 Y95.219 E0.06375
G1 X108.458 Y93.487 E0.06401
G1 X109.671 Y91.920 E0.06213
G1 X109.969 Y92.150 F10800.000
G1 F1200.000
G1 X111.375 Y90.665 E0.06414
G1 X112.895 Y89.360 E0.06281
G1 X114.540 Y88.216 E0.06281
G1 X116.292 Y87.243 E0.06281
G1 X118.126 Y86.456 E0.06258
G1 X120.041 Y85.855 E0.06293
G1 X121.999 Y85.452 E0.06270
G1 X123.992 Y85.249 E0.06281
G1 X125.885 Y85.245 E0.05935
G1 X127.985 Y85.449 E0.06615
G1 X129.944 Y85.851 E0.06270
G1 X131.863 Y86.452 E0.06305
G1 X133.600 Y87.194 E0.05923
G1 X135.443 Y88.205 E0.06591
G1 X136.882 Y89.201 E0.05487
G1 X138.711 Y90.751 E0.07516
G1 X140.009 Y92.122 E0.05920
G1 X141.237 Y93.709 E0.06293
G1 X142.293 Y95.403 E0.06258
G1 X143.179 Y97.213 E0.06317
G1 X143.871 Y99.081 E0.06246
G1 X144.374 Y101.028 E0.06305
G1 X144.677 Y103.008 E0.06281
G1 X144.774 Y105.112 E0.06603
G1 X144.675 Y107.006 E0.05947
G1 X144.371 Y108.986 E0.06281
G1 X143.870 Y110.922 E0.06270
G1 X143.172 Y112.804 E0.06293
G1 X142.291 Y114.599 E0.06270
G1 X141.231 Y116.299 E0.06282
G1 X140.005 Y117.883 E0.06281
G1 X138.622 Y119.338 E0.06293
G1 X137.105 Y120.640 E0.06270
G1 X135.460 Y121.784 E0.06281
G1 X133.708 Y122.757 E0.06281
G1 X131.867 Y123.547 E0.06282
G1 X129.956 Y124.146 E0.06281
G1 X127.993 Y124.549 E0.06281
G1 X126.000 Y124.752 E0.06281
G1 X124.004 Y124.752 E0.06258
G1 X122.004 Y124.549 E0.06305
G1 X120.045 Y124.146 E0.06270
G1 X118.130 Y123.545 E0.06293
G1 X116.296 Y122.759 E0.06258
G1 X114.541 Y121.785 E0.06293
G1 X112.899 Y120.643 E0.06270
G1 X111.379 Y119.339 E0.06281
G1 X110.069 Y117.966 E0.05947
G1 X108.776 Y116.309 E0.06591
G1 X107.769 Y114.702 E0.05947
G1 X106.781 Y112.687 E0.07035
G1 X106.128 Y110.916 E0.05920
G1 X105.625 Y108.968 E0.06305
G1 X105.323 Y106.992 E0.06270
G1 X105.226 Y104.888 E0.06603
G1 X105.325 Y102.994 E0.05947
G1 X105.629 Y101.014 E0.06281
G1 X106.130 Y99.078 E0.06270
G1 X106.828 Y97.196 E0.06293
G1 X107.709 Y95.401 E0.06269
G1 X108.769 Y93.701 E0.06282
G1 X109.932 Y92.198 E0.05960
G1 E-0.80000 F2100.00000
G1 Z0.800 F10800.000
G1 X112.396 Y94.179
G1 Z0.200
G1 E0.80000 F2100.00000
G1 F1200.000
G1 X113.555 Y92.960 E0.05276
G1 X114.832 Y91.864 E0.05276
G1 X116.213 Y90.902 E0.05276
G1 X117.684 Y90.086 E0.05276
G1 X119.231 Y89.422 E0.05276
G1 X120.836 Y88.918 E0.05276
G1 X122.484 Y88.580 E0.05276
G1 X124.159 Y88.409 E0.05276
G1 X125.841 Y88.409 E0.05276
G1 X127.516 Y88.580 E0.05276
G1 X129.164 Y88.918 E0.05276
G1 X130.769 Y89.422 E0.05276
G1 X132.316 Y90.086 E0.05276
G1 X133.787 Y90.902 E0.05276
G1 X135.168 Y91.864 E0.05276
G1 X136.445 Y92.960 E0.05276
G1 X137.604 Y94.179 E0.05276
G1 X138.634 Y95.510 E0.05276
G1 X139.525 Y96.938 E0.05276
G1 X140.266 Y98.449 E0.05276
G1 X140.850 Y100.027 E0.05276
G1 X141.272 Y101.656 E0.05276
G1 X141.527 Y103.319 E0.05276
G1 X141.612 Y105.000 E0.05276
G1 X141.527 Y106.681 E0.05276
G1 X141.272 Y108.344 E0.05276
G1 X140.850 Y109.973 E0.05276
G1 X140.266 Y111.551 E0.05276
G1 X139.525 Y113.062 E0.05276
G1 X138.634 Y114.490 E0.05276
G1 X137.604 Y115.821 E0.05276
G1 X136.445 Y117.040 E0.05276
G1 X135.168 Y118.136 E0.05276
G1 X133.787 Y119.098 E0.05276
G1 X132.316 Y119.914 E0.05276
G1 X130.769 Y120.578 E0.05276
G1 X129.164 Y121.082 E0.05276
G1 X127.516 Y121.420 E0.05276
G1 X125.841 Y121.591 E0.05276
G1 X124.159 Y121.591 E0.05276
G1 X122.484 Y121.420 E0.05276
G1 X120.836 Y121.082 E0.05276
G1 X119.231 Y120.578 E0.05276
G1 X117.684 Y119.914 E0.05276
G1 X116.213 Y119.098 E0.05276
G1 X114.832 Y118.136 E0.05276
G1 X113.555 Y117.040 E0.05276
G1 X112.396 Y115.821 E0.05276
G1 X111.386 Y114.516 E0.05172
G1 X110.475 Y113.061 E0.05382
G1 X109.734 Y111.551 E0.05274
G1 X109.150 Y109.973 E0.05276
G1 X108.728 Y108.344 E0.05276
G1 X108.473 Y106.681 E0.05276
G1 X108.388 Y105.000 E0.05276
G1 X108.473 Y103.319 E0.05276
G1 X108.728 Y101.656 E0.05276
G1 X109.150 Y100.027 E0.05276
G1 X109.734 Y98.449 E0.05276
G1 X110.475 Y96.938 E0.05276
G1 X111.366 Y95.510 E0.05276
G1 X112.359 Y94.227 E0.05088
G1 X112.061 Y93.996 F10800.000
G1 F1200.000
G1 X113.295 Y92.686 E0.05643
G1 X114.601 Y91.565 E0.05396
G1 X116.013 Y90.582 E0.05396
G1 X117.518 Y89.747 E0.05396
G1 X119.099 Y89.068 E0.05396
G1 X120.742 Y88.553 E0.05396
G1 X122.427 Y88.206 E0.05396
G1 X124.139 Y88.032 E0.05396
G1 X125.861 Y88.032 E0.05396
G1 X127.573 Y88.206 E0.05396
G1 X129.258 Y88.553 E0.05396
G1 X130.901 Y89.068 E0.05396
G1 X132.482 Y89.747 E0.05396
G1 X133.987 Y90.582 E0.05396
G1 X135.399 Y91.565 E0.05396
G1 X136.705 Y92.686 E0.05396
G1 X137.891 Y93.934 E0.05396
G1 X138.944 Y95.294 E0.05396
G1 X139.855 Y96.755 E0.05396
G1 X140.613 Y98.300 E0.05396
G1 X141.210 Y99.914 E0.05396
G1 X141.642 Y101.580 E0.05396
G1 X141.902 Y103.281 E0.05396
G1 X141.989 Y105.000 E0.05396
G1 X141.902 Y106.719 E0.05396
G1 X141.642 Y108.420 E0.05396
G1 X141.210 Y110.086 E0.05396
G1 X140.613 Y111.700 E0.05396
G1 X139.855 Y113.245 E0.05396
G1 X138.944 Y114.706 E0.05396
G1 X137.891 Y116.066 E0.05396
G1 X136.705 Y117.314 E0.05396
G1 X135.399 Y118.435 E0.05396
G1 X133.987 Y119.418 E0.05396
G1 X132.482 Y120.253 E0.05396
G1 X130.901 Y120.932 E0.05396
G1 X129.258 Y121.447 E0.05396
G1 X127.573 Y121.794 E0.05396
G1 X125.861 Y121.968 E0.05396
G1 X124.139 Y121.968 E0.05396
G1 X122.427 Y121.794 E0.05396
G1 X120.742 Y121.447 E0.05396
G1 X119.099 Y120.932 E0.05396
G1 X117.518 Y120.253 E0.05396
G1 X116.013 Y119.418 E0.05396
G1 X114.601 Y118.435 E0.05396
G1 X113.295 Y117.314 E0.05396
G1 X112.109 Y116.066 E0.05396
G1 X111.076 Y114.732 E0.05290
G1 X110.145 Y113.245 E0.05502
G1 X109.387 Y111.700 E0.05395
G1 X108.790 Y110.086 E0.05396
G1 X108.358 Y108.420 E0.05396
G1 X108.098 Y106.719 E0.05396
G1 X108.011 Y105.000 E0.05396
G1 X108.098 Y103.281 E0.05396
G1 X108.358 Y101.580 E0.05396
G1 X108.790 Y99.914 E0.05396
G1 X109.387 Y98.300 E0.05396
G1 X110.145 Y96.755 E0.05396
G1 X111.056 Y95.294 E0.05396
G1 X112.024 Y94.044 E0.04960
G1 X112.454 Y94.069 F10800.000
G1 E-0.80000 F2100.00000
G1 Z0.800 F10800.000
G1 X138.142 Y95.058
G1 Z0.200
G1 E0.80000 F2100.00000
G1 F1200.000
G1 X136.239 Y93.155 E0.08494
G1 X134.995 Y92.088 E0.05174
G1 X133.808 Y91.262 E0.04564
G1 X138.706 Y96.159 E0.21862
G1 X139.277 Y97.076 E0.03408
G1 X139.462 Y97.452 E0.01323
G1 X132.547 Y90.538 E0.30862
G1 X132.191 Y90.340 E0.01287
G1 X131.529 Y90.056 E0.02276
G1 X139.978 Y98.506 E0.37718
G1 X140.305 Y99.369 E0.02912
G1 X130.602 Y89.666 E0.43309
G1 X129.820 Y89.421 E0.02588
G1 X140.604 Y100.205 E0.48137
G1 X140.792 Y100.929 E0.02362
G1 X129.045 Y89.183 E0.52433
G1 X128.369 Y89.044 E0.02177
G1 X140.979 Y101.654 E0.56286
G1 X141.084 Y102.295 E0.02051
G1 X127.694 Y88.905 E0.59768
G1 X127.473 Y88.860 E0.00713
G1 X127.071 Y88.819 E0.01275
G1 X141.181 Y102.929 E0.62983
G1 X141.245 Y103.348 E0.01339
G1 X141.255 Y103.540 E0.00605
G1 X126.473 Y88.758 E0.65981
G1 X125.875 Y88.697 E0.01896
G1 X141.283 Y104.105 E0.68776
G1 X141.312 Y104.671 E0.01787
G1 X125.334 Y88.692 E0.71323
G1 X124.797 Y88.692 E0.01694
G1 X141.318 Y105.213 E0.73745
G1 X141.292 Y105.724 E0.01615
G1 X124.260 Y88.692 E0.76026
G1 X123.765 Y88.734 E0.01569
G1 X141.266 Y106.235 E0.78121
G1 X141.232 Y106.738 E0.01590
G1 X123.277 Y88.783 E0.80143
G1 X122.790 Y88.833 E0.01546
G1 X141.161 Y107.203 E0.82000
G1 X141.089 Y107.669 E0.01486
G1 X122.322 Y88.902 E0.83770
G1 X121.877 Y88.993 E0.01435
G1 X141.018 Y108.134 E0.85440
G1 X140.920 Y108.573 E0.01420
G1 X121.432 Y89.085 E0.86992
G1 X120.986 Y89.176 E0.01435
G1 X140.810 Y109.000 E0.88487
G1 X140.700 Y109.426 E0.01390
G1 X120.571 Y89.298 E0.89847
G1 X120.163 Y89.426 E0.01352
G1 X140.589 Y109.853 E0.91178
G1 X140.447 Y110.247 E0.01324
G1 X119.754 Y89.554 E0.92367
G1 X119.345 Y89.683 E0.01352
G1 X140.302 Y110.639 E0.93544
G1 X140.157 Y111.031 E0.01319
G1 X118.968 Y89.842 E0.94579
G1 X118.593 Y90.004 E0.01290
G1 X140.012 Y111.423 E0.95608
G1 X139.836 Y111.784 E0.01268
G1 X118.217 Y90.165 E0.96502
M73 Q10 S10
M73 P10 R10
G1 X117.841 Y90.326 E0.01290
G1 X139.660 Y112.144 E0.97390
G1 X139.483 Y112.504 E0.01266
G1 X117.494 Y90.515 E0.98154
G1 X117.148 Y90.707 E0.01246
G1 X139.306 Y112.865 E0.98906
G1 X139.105 Y113.200 E0.01235
G1 X116.803 Y90.898 E0.99549
G1 X116.458 Y91.090 E0.01246
G1 X138.899 Y113.531 E1.00170
G1 X138.693 Y113.862 E0.01230
G1 X116.134 Y91.302 E1.00698
G1 X115.817 Y91.522 E0.01217
G1 X138.487 Y114.192 E1.01191
G1 X138.264 Y114.506 E0.01215
G1 X115.501 Y91.743 E1.01610
G1 X115.184 Y91.963 E0.01217
G1 X138.030 Y114.809 E1.01977
G1 X137.796 Y115.112 E0.01208
G1 X114.879 Y92.195 E1.02291
G1 X114.591 Y92.443 E0.01202
G1 X137.561 Y115.414 E1.02534
G1 X137.320 Y115.709 E0.01204
G1 X114.302 Y92.691 E1.02746
G1 X114.013 Y92.939 E0.01202
G1 X137.058 Y115.985 E1.02867
G1 X136.797 Y116.260 E0.01198
G1 X113.727 Y93.190 E1.02978
G1 X113.465 Y93.465 E0.01198
G1 X136.535 Y116.535 E1.02978
G1 X136.273 Y116.810 E0.01198
G1 X113.203 Y93.740 E1.02978
G1 X112.942 Y94.015 E0.01198
G1 X135.987 Y117.061 E1.02867
G1 X135.698 Y117.309 E0.01202
G1 X112.680 Y94.291 E1.02746
G1 X112.439 Y94.586 E0.01204
G1 X135.409 Y117.557 E1.02534
G1 X135.120 Y117.805 E0.01202
G1 X112.204 Y94.889 E1.02291
G1 X111.970 Y95.191 E0.01208
G1 X134.816 Y118.037 E1.01977
G1 X134.499 Y118.257 E0.01217
G1 X111.736 Y95.494 E1.01610
G1 X111.513 Y95.808 E0.01215
G1 X134.183 Y118.478 E1.01191
G1 X133.866 Y118.698 E0.01217
G1 X111.307 Y96.139 E1.00698
G1 X111.101 Y96.469 E0.01230
G1 X133.542 Y118.910 E1.00170
G1 X133.197 Y119.102 E0.01246
G1 X110.895 Y96.800 E0.99549
G1 X110.694 Y97.136 E0.01235
G1 X132.852 Y119.293 E0.98906
G1 X132.506 Y119.485 E0.01246
G1 X110.517 Y97.496 E0.98154
G1 X110.340 Y97.856 E0.01266
G1 X132.158 Y119.674 E0.97390
G1 X131.783 Y119.835 E0.01290
G1 X110.164 Y98.216 E0.96502
G1 X109.988 Y98.578 E0.01268
G1 X131.407 Y119.996 E0.95607
G1 X131.032 Y120.158 E0.01290
G1 X109.843 Y98.969 E0.94578
G1 X109.698 Y99.361 E0.01319
G1 X130.655 Y120.317 E0.93543
G1 X130.246 Y120.446 E0.01352
G1 X109.553 Y99.753 E0.92367
G1 X109.411 Y100.147 E0.01324
G1 X129.837 Y120.574 E0.91178
G1 X129.429 Y120.702 E0.01352
G1 X109.300 Y100.574 E0.89847
G1 X109.190 Y101.000 E0.01390
G1 X129.014 Y120.824 E0.88486
G1 X128.568 Y120.915 E0.01435
G1 X109.080 Y101.427 E0.86991
M73 Q19 S9
M73 P19 R9
G1 X108.982 Y101.866 E0.01420
G1 X128.123 Y121.007 E0.85439
G1 X127.678 Y121.098 E0.01435
G1 X108.911 Y102.331 E0.83770
G1 X108.839 Y102.797 E0.01486
G1 X127.210 Y121.167 E0.81999
G1 X126.722 Y121.217 E0.01546
G1 X108.768 Y103.262 E0.80143
G1 X108.734 Y103.765 E0.01590
G1 X126.235 Y121.266 E0.78121
G1 X125.740 Y121.308 E0.01569
G1 X108.708 Y104.276 E0.76025
G1 X108.682 Y104.787 E0.01615
G1 X125.203 Y121.308 E0.73745
G1 X124.666 Y121.308 E0.01694
G1 X108.688 Y105.330 E0.71322
G1 X108.717 Y105.895 E0.01787
G1 X124.124 Y121.303 E0.68776
G1 X123.527 Y121.242 E0.01896
G1 X108.745 Y106.461 E0.65980
G1 X108.755 Y106.652 E0.00605
G1 X108.819 Y107.071 E0.01339
G1 X122.929 Y121.181 E0.62983
G1 X122.527 Y121.140 E0.01275
G1 X122.306 Y121.095 E0.00713
G1 X108.916 Y107.705 E0.59768
G1 X109.021 Y108.347 E0.02051
G1 X121.630 Y120.956 E0.56285
G1 X120.955 Y120.817 E0.02177
G1 X109.209 Y109.071 E0.52432
G1 X109.396 Y109.795 E0.02362
G1 X120.180 Y120.579 E0.48136
G1 X119.398 Y120.334 E0.02588
G1 X109.695 Y110.632 E0.43309
G1 X110.022 Y111.495 E0.02913
G1 X118.471 Y119.944 E0.37717
G1 X117.809 Y119.660 E0.02275
G1 X117.452 Y119.462 E0.01287
G1 X110.539 Y112.548 E0.30861
G1 X110.723 Y112.924 E0.01319
G1 X111.301 Y113.848 E0.03441
G1 X116.192 Y118.738 E0.21830
G1 X115.005 Y117.912 E0.04563
G1 X113.761 Y116.844 E0.05177
G1 X111.859 Y114.942 E0.08490
M106 S255
;BEFORE_LAYER_CHANGE
G92 E0.0
;0.5


G1 E-0.80000 F2100.00000
G1 Z0.800 F10800.000
;AFTER_LAYER_CHANGE
;0.5
M104 S210 ; set temperature
G1 X108.468 Y116.527
G1 Z0.500
G1 E0.80000 F2100.00000
G1 F2700.000
G1 X107.449 Y114.901 E0.08510
G1 X106.427 Y112.818 E0.10290
G1 X105.768 Y111.026 E0.08472
G1 X105.254 Y109.037 E0.09110
G1 X104.948 Y107.027 E0.09019
G1 X104.849 Y104.869 E0.09581
G1 X104.950 Y102.953 E0.08510
G1 X105.260 Y100.935 E0.09055
G1 X105.770 Y98.967 E0.09019
G1 X106.482 Y97.045 E0.09092
G1 X107.378 Y95.219 E0.09019
G1 X108.458 Y93.487 E0.09056
G1 X109.708 Y91.872 E0.09055
G1 X111.114 Y90.393 E0.09055
G1 X112.663 Y89.063 E0.09055
G1 X114.339 Y87.896 E0.09055
G1 X116.124 Y86.906 E0.09055
G1 X117.993 Y86.103 E0.09019
G1 X119.948 Y85.489 E0.09092
G1 X121.940 Y85.080 E0.09019
G1 X123.971 Y84.872 E0.09055
G1 X125.885 Y84.868 E0.08492
G1 X128.040 Y85.076 E0.09599
G1 X130.032 Y85.484 E0.09019
G1 X131.992 Y86.098 E0.09110
G1 X133.749 Y86.847 E0.08474
G1 X135.640 Y87.883 E0.09563
G1 X137.097 Y88.892 E0.07862
G1 X138.984 Y90.491 E0.10970
G1 X140.297 Y91.878 E0.08472
G1 X141.549 Y93.497 E0.09074
G1 X142.624 Y95.223 E0.09019
G1 X143.529 Y97.071 E0.09128
G1 X144.231 Y98.970 E0.08983
G1 X144.744 Y100.955 E0.09092
G1 X145.052 Y102.973 E0.09055
