; generated by PrusaSlicer 2.1.1+win64 on 2020-07-15 at 18:00:19 UTC

; 

; external perimeters extrusion width = 0.45mm
; perimeters extrusion width = 0.45mm
; infill extrusion width = 0.45mm
; solid infill extrusion width = 0.45mm
; top infill extrusion width = 0.40mm
; first layer extrusion width = 0.42mm

M73 P0 R11
M73 Q0 S11
M201 X1000 Y1000 Z1000 E5000 ; sets maximum accelerations, mm/sec^2
M203 X200 Y200 Z12 E120 ; sets maximum feedrates, mm/sec
M204 P1250 R1250 T1250 ; sets acceleration (P, T) and retract acceleration (R), mm/sec^2
M205 X8.00 Y8.00 Z0.40 E1.50 ; sets the jerk limits, mm/sec
M205 S0 T0 ; sets the minimum extruding and travel feed rate, mm/sec
M107
M862.3 P "MK3S" ; printer model check
M862.1 P0.4 ; nozzle diameter check
M115 U3.8.0 ; tell printer latest fw version
G90 ; use absolute coordinates
M83 ; extruder relative mode
M104 S215 ; set extruder temp
M140 S60 ; set bed temp
M190 S60 ; wait for bed temp
M109 S215 ; wait for extruder temp
G28 W ; home all without mesh bed level
G80 ; mesh bed leveling
G1 Y-3.0 F1000.0 ; go outside print area
G92 E0.0
G1 X60.0 E9.0 F1000.0 ; intro line
M73 Q0 S11
M73 P0 R11
G1 X100.0 E12.5 F1000.0 ; intro line
G92 E0.0
M221 S95
G21 ; set units to millimeters
G90 ; use absolute coordinates
M83 ; use relative distances for extrusion
M900 K30 ; Filament gcode
;BEFORE_LAYER_CHANGE
G92 E0.0
;0.2


G1 E-0.80000 F2100.00000
G1 Z0.600 F10800.000
;AFTER_LAYER_CHANGE
;0.2
G1 X125.000 Y121.791
G1 Z0.200
G1 E0.80000 F2100.00000
M204 S1000
G1 F1200
G1 X124.148 Y121.791 E0.02670
G1 X122.454 Y121.618 E0.05340
G1 X120.786 Y121.275 E0.05340
G1 X119.161 Y120.766 E0.05340
G1 X117.596 Y120.094 E0.05340
G1 X116.107 Y119.268 E0.05340
G1 X114.709 Y118.295 E0.05340
G1 X113.417 Y117.185 E0.05340
G1 X112.244 Y115.951 E0.05340
G1 X111.201 Y114.604 E0.05340
G1 X110.300 Y113.159 E0.05340
G1 X109.550 Y111.630 E0.05340
G1 X108.959 Y110.033 E0.05340
G1 X108.532 Y108.384 E0.05340
G1 X108.274 Y106.701 E0.05340
G1 X108.188 Y105.000 E0.05340
G1 X108.274 Y103.299 E0.05340
G1 X108.532 Y101.616 E0.05340
G1 X108.959 Y99.967 E0.05340
G1 X109.550 Y98.370 E0.05340
G1 X110.300 Y96.841 E0.05340
G1 X111.201 Y95.396 E0.05340
G1 X112.244 Y94.049 E0.05340
G1 X113.417 Y92.815 E0.05340
G1 X114.709 Y91.705 E0.05340
G1 X116.107 Y90.732 E0.05340
G1 X117.596 Y89.906 E0.05340
G1 X119.161 Y89.234 E0.05340
G1 X120.786 Y88.725 E0.05340
G1 X122.454 Y88.382 E0.05340
G1 X124.148 Y88.209 E0.05340
G1 X125.852 Y88.209 E0.05340
G1 X127.503 Y88.377 E0.05204
G1 X129.215 Y88.725 E0.05477
G1 X130.839 Y89.234 E0.05337
G1 X132.404 Y89.906 E0.05340
G1 X133.893 Y90.732 E0.05340
G1 X135.291 Y91.705 E0.05340
G1 X136.583 Y92.815 E0.05340
G1 X137.756 Y94.049 E0.05340
G1 X138.799 Y95.396 E0.05340
G1 X139.700 Y96.841 E0.05340
G1 X140.450 Y98.370 E0.05340
G1 X141.041 Y99.967 E0.05340
G1 X141.468 Y101.616 E0.05340
G1 X141.726 Y103.299 E0.05340
G1 X141.812 Y105.000 E0.05340
G1 X141.726 Y106.701 E0.05340
G1 X141.468 Y108.384 E0.05340
G1 X141.041 Y110.033 E0.05340
G1 X140.450 Y111.630 E0.05340
G1 X139.700 Y113.159 E0.05340
G1 X138.799 Y114.604 E0.05340
G1 X137.756 Y115.951 E0.05340
G1 X136.583 Y117.185 E0.05340
G1 X135.291 Y118.295 E0.05340
G1 X133.893 Y119.268 E0.05340
G1 X132.404 Y120.094 E0.05340
G1 X130.839 Y120.766 E0.05340
G1 X129.214 Y121.275 E0.05340
G1 X127.546 Y121.618 E0.05340
G1 X125.852 Y121.791 E0.05340
G1 X125.060 Y121.791 E0.02482
G1 X125.000 Y122.168 F10800.000
G1 F1200
G1 X124.129 Y122.168 E0.02730
G1 X122.397 Y121.992 E0.05460
G1 X120.691 Y121.641 E0.05460
G1 X119.030 Y121.120 E0.05460
G1 X117.430 Y120.433 E0.05460
G1 X115.907 Y119.588 E0.05460
G1 X114.478 Y118.593 E0.05460
G1 X113.157 Y117.459 E0.05460
G1 X111.957 Y116.197 E0.05460
G1 X110.891 Y114.820 E0.05460
G1 X109.970 Y113.342 E0.05460
G1 X109.203 Y111.779 E0.05460
G1 X108.599 Y110.146 E0.05460
G1 X108.162 Y108.460 E0.05460
G1 X107.898 Y106.739 E0.05460
G1 X107.810 Y105.000 E0.05460
G1 X107.898 Y103.261 E0.05460
G1 X108.162 Y101.540 E0.05460
G1 X108.599 Y99.854 E0.05460
G1 X109.203 Y98.221 E0.05460
G1 X109.970 Y96.658 E0.05460
G1 X110.891 Y95.180 E0.05460
G1 X111.957 Y93.803 E0.05460
G1 X113.157 Y92.541 E0.05460
G1 X114.478 Y91.407 E0.05460
G1 X115.907 Y90.412 E0.05460
G1 X117.430 Y89.567 E0.05460
G1 X119.030 Y88.880 E0.05460
G1 X120.691 Y88.359 E0.05460
G1 X122.397 Y88.008 E0.05460
G1 X124.129 Y87.832 E0.05460
G1 X125.871 Y87.832 E0.05460
G1 X127.559 Y88.004 E0.05322
G1 X129.309 Y88.359 E0.05597
G1 X130.970 Y88.880 E0.05459
G1 X132.570 Y89.567 E0.05460
G1 X134.093 Y90.412 E0.05460
G1 X135.522 Y91.407 E0.05460
G1 X136.843 Y92.541 E0.05460
G1 X138.043 Y93.803 E0.05460
G1 X139.109 Y95.180 E0.05460
G1 X140.030 Y96.658 E0.05460
G1 X140.797 Y98.221 E0.05460
G1 X141.401 Y99.854 E0.05460
G1 X141.838 Y101.540 E0.05460
G1 X142.102 Y103.261 E0.05460
G1 X142.190 Y105.000 E0.05460
G1 X142.102 Y106.739 E0.05460
G1 X141.838 Y108.460 E0.05460
G1 X141.401 Y110.146 E0.05460
G1 X140.797 Y111.779 E0.05460
G1 X140.030 Y113.342 E0.05460
G1 X139.109 Y114.820 E0.05460
G1 X138.043 Y116.197 E0.05460
G1 X136.843 Y117.459 E0.05460
G1 X135.522 Y118.593 E0.05460
G1 X134.093 Y119.588 E0.05460
G1 X132.570 Y120.433 E0.05460
G1 X130.970 Y121.120 E0.05460
G1 X129.309 Y121.641 E0.05460
G1 X127.603 Y121.992 E0.05460
G1 X125.871 Y122.168 E0.05460
G1 X125.060 Y122.168 E0.02542
G1 X124.792 Y121.826 F10800.000
G1 E-0.80000 F2100.00000
G1 Z0.800 F10800.000
G1 X118.682 Y120.437
G1 Z0.200
G1 E0.80000 F2100.00000
G1 F1200
G1 X109.856 Y111.611 E0.39423
G1 X109.522 Y110.740 E0.02945
G1 X119.293 Y120.511 E0.43641
G1 X120.076 Y120.756 E0.02591
G1 X109.216 Y109.896 E0.48507
G1 X109.028 Y109.171 E0.02365
G1 X120.858 Y121.002 E0.52840
G1 X121.534 Y121.141 E0.02180
G1 X108.840 Y108.446 E0.56698
G1 X108.728 Y107.797 E0.02081
G1 X122.210 Y121.280 E0.60218
G1 X122.497 Y121.338 E0.00924
G1 X122.842 Y121.373 E0.01094
G1 X108.631 Y107.163 E0.63471
G1 X108.549 Y106.544 E0.01971
G1 X123.439 Y121.434 E0.66507
G1 X124.037 Y121.495 E0.01898
G1 X108.521 Y105.978 E0.69306
G1 X108.492 Y105.412 E0.01789
G1 X124.587 Y121.508 E0.71890
G1 X125.125 Y121.508 E0.01696
G1 X108.478 Y104.861 E0.74351
G1 X108.504 Y104.350 E0.01617
G1 X125.662 Y121.508 E0.76635
G1 X126.165 Y121.474 E0.01595
G1 X108.530 Y103.839 E0.78769
G1 X108.556 Y103.328 E0.01617
G1 X126.653 Y121.425 E0.80831
G1 X127.141 Y121.375 E0.01548
G1 X108.627 Y102.862 E0.82690
G1 X108.699 Y102.396 E0.01488
G1 X127.617 Y121.315 E0.84501
G1 X128.063 Y121.223 E0.01437
G1 X108.770 Y101.930 E0.86172
G1 X108.859 Y101.482 E0.01443
G1 X128.509 Y121.132 E0.87765
G1 X128.954 Y121.040 E0.01437
G1 X108.969 Y101.055 E0.89262
G1 X109.080 Y100.629 E0.01392
G1 X129.379 Y120.927 E0.90665
G1 X129.787 Y120.799 E0.01353
G1 X109.190 Y100.202 E0.91997
G1 X109.323 Y99.798 E0.01344
G1 X130.196 Y120.671 E0.93230
G1 X130.605 Y120.543 E0.01353
G1 X109.468 Y99.406 E0.94407
G1 X109.613 Y99.014 E0.01320
G1 X130.992 Y120.392 E0.95487
G1 X131.368 Y120.231 E0.01292
G1 X109.759 Y98.622 E0.96517
G1 X109.924 Y98.250 E0.01285
G1 X131.744 Y120.070 E0.97457
G1 X132.120 Y119.908 E0.01292
G1 X110.101 Y97.890 E0.98346
G1 X110.278 Y97.529 E0.01268
G1 X132.478 Y119.730 E0.99157
G1 X132.823 Y119.538 E0.01248
G1 X110.454 Y97.169 E0.99910
G1 X110.645 Y96.822 E0.01249
G1 X133.169 Y119.346 E1.00601
G1 X133.514 Y119.154 E0.01248
G1 X110.851 Y96.492 E1.01223
G1 X111.058 Y96.161 E0.01231
G1 X133.850 Y118.953 E1.01801
G1 X134.167 Y118.733 E0.01219
G1 X111.264 Y95.830 E1.02295
G1 X111.475 Y95.504 E0.01227
G1 X134.483 Y118.512 E1.02766
M73 Q9 S10
G1 X134.800 Y118.292 E0.01219
G1 X111.710 Y95.201 E1.03134
M73 P9 R10
G1 X111.944 Y94.898 E0.01209
G1 X135.117 Y118.071 E1.03501
G1 X135.406 Y117.823 E0.01203
G1 X112.178 Y94.595 E1.03746
G1 X112.413 Y94.293 E0.01209
G1 X135.695 Y117.575 E1.03990
G1 X135.984 Y117.327 E0.01203
G1 X112.669 Y94.012 E1.04136
G1 X112.931 Y93.737 E0.01200
G1 X136.273 Y117.079 E1.04257
G1 X136.546 Y116.814 E0.01200
G1 X113.193 Y93.461 E1.04306
G1 X113.454 Y93.186 E0.01200
G1 X136.807 Y116.539 E1.04306
G1 X137.069 Y116.263 E0.01200
G1 X113.727 Y92.921 E1.04257
G1 X114.016 Y92.673 E0.01203
G1 X137.331 Y115.988 E1.04136
G1 X137.587 Y115.707 E0.01201
G1 X114.305 Y92.425 E1.03990
G1 X114.594 Y92.177 E0.01203
G1 X137.822 Y115.405 E1.03746
G1 X138.056 Y115.102 E0.01209
G1 X114.883 Y91.929 E1.03501
G1 X115.200 Y91.708 E0.01219
G1 X138.290 Y114.799 E1.03134
G1 X138.525 Y114.496 E0.01209
G1 X115.517 Y91.488 E1.02766
G1 X115.833 Y91.267 E0.01219
G1 X138.736 Y114.170 E1.02295
G1 X138.942 Y113.839 E0.01231
G1 X116.150 Y91.047 E1.01801
G1 X116.486 Y90.846 E0.01237
G1 X139.149 Y113.508 E1.01223
G1 X139.355 Y113.178 E0.01231
G1 X116.831 Y90.654 E1.00601
G1 X117.177 Y90.462 E0.01248
G1 X139.546 Y112.831 E0.99910
G1 X139.722 Y112.471 E0.01268
G1 X117.522 Y90.270 E0.99157
G1 X117.880 Y90.092 E0.01265
G1 X139.899 Y112.110 E0.98346
G1 X140.076 Y111.750 E0.01268
G1 X118.256 Y89.930 E0.97457
G1 X118.632 Y89.769 E0.01292
G1 X140.241 Y111.378 E0.96517
G1 X140.387 Y110.986 E0.01320
G1 X119.008 Y89.608 E0.95487
G1 X119.395 Y89.457 E0.01311
G1 X140.532 Y110.594 E0.94407
G1 X140.677 Y110.202 E0.01320
G1 X119.804 Y89.329 E0.93230
G1 X120.213 Y89.201 E0.01353
G1 X140.810 Y109.798 E0.91997
G1 X140.920 Y109.371 E0.01392
G1 X120.621 Y89.073 E0.90665
G1 X121.046 Y88.960 E0.01387
G1 X141.031 Y108.945 E0.89262
G1 X141.141 Y108.518 E0.01392
G1 X121.491 Y88.868 E0.87766
G1 X121.937 Y88.777 E0.01437
G1 X141.230 Y108.070 E0.86172
G1 X141.301 Y107.604 E0.01488
G1 X122.383 Y88.685 E0.84501
G1 X122.859 Y88.625 E0.01518
G1 X141.373 Y107.138 E0.82690
G1 X141.444 Y106.672 E0.01488
G1 X123.347 Y88.575 E0.80831
G1 X123.835 Y88.526 E0.01548
G1 X141.470 Y106.161 E0.78769
G1 X141.496 Y105.650 E0.01617
G1 X124.338 Y88.492 E0.76635
G1 X124.875 Y88.492 E0.01696
G1 X141.522 Y105.139 E0.74351
G1 X141.508 Y104.588 E0.01741
G1 X125.413 Y88.492 E0.71890
M73 Q18 S9
G1 X125.963 Y88.505 E0.01737
G1 X141.479 Y104.022 E0.69306
G1 X141.451 Y103.456 E0.01789
G1 X126.560 Y88.566 E0.66507
M73 P18 R9
G1 X127.158 Y88.627 E0.01898
G1 X141.369 Y102.837 E0.63471
G1 X141.272 Y102.203 E0.02027
G1 X127.794 Y88.725 E0.60198
G1 X128.468 Y88.862 E0.02172
G1 X141.160 Y101.554 E0.56688
G1 X140.972 Y100.829 E0.02365
G1 X129.142 Y88.999 E0.52840
G1 X129.924 Y89.244 E0.02590
G1 X140.784 Y100.104 E0.48507
G1 X140.478 Y99.260 E0.02836
G1 X130.707 Y89.489 E0.43641
G1 X131.641 Y89.886 E0.03206
G1 X140.449 Y98.694 E0.39341
G1 E-0.80000 F2100.00000
G1 Z0.800 F10800.000
G1 X139.998 Y97.706
G1 Z0.200
G1 E0.80000 F2100.00000
G1 F1200
G1 X132.259 Y89.967 E0.34567
G1 E-0.80000 F2100.00000
G1 Z0.800 F10800.000
G1 X133.439 Y90.610
G1 Z0.200
G1 E0.80000 F2100.00000
G1 F1200
G1 X139.395 Y96.566 E0.26601
G1 E-0.80000 F2100.00000
G1 Z0.800 F10800.000
G1 X138.292 Y94.925
G1 Z0.200
G1 E0.80000 F2100.00000
G1 F1200
G1 X135.023 Y91.657 E0.14599
G1 E-0.80000 F2100.00000
G1 Z0.800 F10800.000
G1 X110.002 Y112.294
G1 Z0.200
G1 E0.80000 F2100.00000
G1 F1200
G1 X117.741 Y120.033 E0.34567
G1 E-0.80000 F2100.00000
G1 Z0.800 F10800.000
G1 X116.561 Y119.390
G1 Z0.200
G1 E0.80000 F2100.00000
G1 F1200
G1 X110.605 Y113.435 E0.26601
G1 E-0.80000 F2100.00000
G1 Z0.800 F10800.000
G1 X111.708 Y115.075
G1 Z0.200
G1 E0.80000 F2100.00000
G1 F1200
G1 X114.977 Y118.343 E0.14599
M106 S255
;BEFORE_LAYER_CHANGE
G92 E0.0
;0.4


G1 E-0.80000 F2100.00000
G1 Z0.800 F10800.000
;AFTER_LAYER_CHANGE
;0.4
M104 S210 ; set temperature
G1 X125.000 Y121.746
G1 Z0.400
G1 E0.80000 F2100.00000
M204 S800
G1 F3600
G1 X124.151 Y121.746 E0.02875
G1 X122.461 Y121.574 E0.05749
G1 X120.797 Y121.232 E0.05749
G1 X119.177 Y120.723 E0.05749
G1 X117.616 Y120.054 E0.05749
G1 X116.131 Y119.229 E0.05749
G1 X114.737 Y118.259 E0.05749
G1 X113.448 Y117.153 E0.05749
G1 X112.278 Y115.922 E0.05749
G1 X111.238 Y114.579 E0.05749
G1 X110.340 Y113.137 E0.05749
G1 X109.592 Y111.612 E0.05749
G1 X109.002 Y110.019 E0.05749
G1 X108.576 Y108.375 E0.05749
G1 X108.319 Y106.696 E0.05749
G1 X108.233 Y105.000 E0.05749
G1 X108.319 Y103.304 E0.05749
G1 X108.576 Y101.625 E0.05749
G1 X109.002 Y99.981 E0.05749
G1 X109.592 Y98.388 E0.05749
G1 X110.340 Y96.863 E0.05749
G1 X111.238 Y95.421 E0.05749
G1 X112.278 Y94.078 E0.05749
G1 X113.448 Y92.847 E0.05749
G1 X114.737 Y91.741 E0.05749
G1 X116.131 Y90.771 E0.05749
G1 X117.616 Y89.946 E0.05749
G1 X119.177 Y89.277 E0.05749
G1 X120.797 Y88.768 E0.05749
G1 X122.461 Y88.426 E0.05749
G1 X124.151 Y88.254 E0.05749
G1 X125.849 Y88.254 E0.05749
G1 X127.410 Y88.413 E0.05309
G1 X129.205 Y88.769 E0.06194
G1 X130.823 Y89.277 E0.05742
G1 X132.384 Y89.946 E0.05749
G1 X133.869 Y90.771 E0.05749
G1 X135.263 Y91.741 E0.05749
G1 X136.552 Y92.847 E0.05749
G1 X137.722 Y94.078 E0.05749
G1 X138.762 Y95.421 E0.05749
G1 X139.660 Y96.863 E0.05749
G1 X140.408 Y98.388 E0.05749
G1 X140.998 Y99.981 E0.05749
G1 X141.424 Y101.625 E0.05749
G1 X141.681 Y103.304 E0.05749
G1 X141.767 Y105.000 E0.05749
G1 X141.681 Y106.696 E0.05749
G1 X141.424 Y108.375 E0.05749
G1 X140.998 Y110.019 E0.05749
G1 X140.408 Y111.612 E0.05749
G1 X139.660 Y113.137 E0.05749
G1 X138.762 Y114.579 E0.05749
G1 X137.722 Y115.922 E0.05749
G1 X136.552 Y117.153 E0.05749
G1 X135.263 Y118.259 E0.05749
G1 X133.869 Y119.229 E0.05749
G1 X132.384 Y120.054 E0.05749
G1 X130.823 Y120.723 E0.05749
G1 X129.203 Y121.232 E0.05749
G1 X127.539 Y121.574 E0.05749
G1 X125.849 Y121.746 E0.05749
G1 X125.060 Y121.746 E0.02671
M204 S1000
G1 X125.000 Y122.153 F10800.000
M204 S800
G1 F2100
G1 X124.130 Y122.153 E0.02944
G1 X122.399 Y121.977 E0.05889
G1 X120.695 Y121.626 E0.05889
G1 X119.035 Y121.106 E0.05889
G1 X117.436 Y120.420 E0.05889
G1 X115.915 Y119.575 E0.05889
G1 X114.487 Y118.581 E0.05889
G1 X113.167 Y117.448 E0.05889
G1 X111.969 Y116.187 E0.05889
G1 X110.904 Y114.811 E0.05889
G1 X109.983 Y113.335 E0.05889
G1 X109.217 Y111.773 E0.05889
G1 X108.613 Y110.141 E0.05889
G1 X108.177 Y108.457 E0.05889
G1 X107.913 Y106.738 E0.05889
G1 X107.825 Y105.000 E0.05889
G1 X107.913 Y103.262 E0.05889
G1 X108.177 Y101.543 E0.05889
G1 X108.613 Y99.859 E0.05889
G1 X109.217 Y98.227 E0.05889
G1 X109.983 Y96.665 E0.05889
G1 X110.904 Y95.189 E0.05889
G1 X111.969 Y93.813 E0.05889
G1 X113.167 Y92.552 E0.05889
G1 X114.487 Y91.419 E0.05889
G1 X115.915 Y90.425 E0.05889
G1 X117.436 Y89.580 E0.05889
G1 X119.035 Y88.894 E0.05889
G1 X120.695 Y88.374 E0.05889
G1 X122.399 Y88.023 E0.05889
G1 X124.130 Y87.847 E0.05889
G1 X125.870 Y87.847 E0.05889
G1 X127.470 Y88.010 E0.05444
G1 X129.306 Y88.374 E0.06334
G1 X130.965 Y88.894 E0.05886
G1 X132.564 Y89.580 E0.05889
G1 X134.085 Y90.425 E0.05889
G1 X135.513 Y91.419 E0.05889
G1 X136.833 Y92.552 E0.05889
G1 X138.031 Y93.813 E0.05889
G1 X139.096 Y95.189 E0.05889
G1 X140.017 Y96.665 E0.05889
G1 X140.783 Y98.227 E0.05889
G1 X141.387 Y99.859 E0.05889
G1 X141.823 Y101.543 E0.05889
G1 X142.087 Y103.262 E0.05889
G1 X142.175 Y105.000 E0.05889
G1 X142.087 Y106.738 E0.05889
G1 X141.823 Y108.457 E0.05889
G1 X141.387 Y110.141 E0.05889
G1 X140.783 Y111.773 E0.05889
G1 X140.017 Y113.335 E0.05889
G1 X139.096 Y114.811 E0.05889
G1 X138.031 Y116.187 E0.05889
G1 X136.833 Y117.448 E0.05889
G1 X135.513 Y118.581 E0.05889
G1 X134.085 Y119.575 E0.05889
G1 X132.564 Y120.420 E0.05889
G1 X130.965 Y121.106 E0.05889
G1 X129.305 Y121.626 E0.05889
G1 X127.601 Y121.977 E0.05889
G1 X125.870 Y122.153 E0.05889
G1 X125.060 Y122.153 E0.02741
M204 S1000
G1 X124.792 Y121.811 F10800.000
G1 E-0.80000 F2100.00000
G1 Z1.000 F10800.000
G1 X131.017 Y120.507
G1 Z0.400
G1 E0.80000 F2100.00000
M204 S1250
G1 F8788
G1 X140.183 Y111.341 E0.44337
G1 X140.525 Y110.418 E0.03370
G1 X130.409 Y120.533 E0.48932
G1 X129.562 Y120.799 E0.03039
G1 X140.802 Y109.559 E0.54372
G1 X141.005 Y108.774 E0.02774
G1 X128.770 Y121.009 E0.59184
G1 X128.038 Y121.160 E0.02557
G1 X141.168 Y108.029 E0.63513
G1 X141.273 Y107.343 E0.02377
G1 X127.327 Y121.288 E0.67459
G1 X126.680 Y121.354 E0.02226
G1 X141.377 Y106.657 E0.71096
G1 X141.408 Y106.044 E0.02099
G1 X126.032 Y121.420 E0.74379
G1 X125.834 Y121.440 E0.00682
G1 X125.430 Y121.440 E0.01380
G1 X141.440 Y105.431 E0.77441
G1 X141.453 Y104.836 E0.02037
G1 X124.848 Y121.440 E0.80320
G1 X124.267 Y121.440 E0.01990
G1 X141.425 Y104.282 E0.82998
