; generated by PrusaSlicer 2.1.1+win64 on 2020-04-23 at 22:05:17 UTC

; 

; external perimeters extrusion width = 0.90mm
; perimeters extrusion width = 0.90mm
; infill extrusion width = 0.90mm
; solid infill extrusion width = 0.90mm
; top infill extrusion width = 0.90mm
; first layer extrusion width = 0.90mm

M73 P0 R6
M73 Q0 S6
M201 X1000 Y1000 Z1000 E5000 ; sets maximum accelerations, mm/sec^2
M203 X200 Y200 Z12 E120 ; sets maximum feedrates, mm/sec
M204 P1250 R1250 T1250 ; sets acceleration (P, T) and retract acceleration (R), mm/sec^2
M205 X8.00 Y8.00 Z0.40 E1.50 ; sets the jerk limits, mm/sec
M205 S0 T0 ; sets the minimum extruding and travel feed rate, mm/sec
M107
M862.3 P "MK3S" ; printer model check
M862.1 P0.8 ; nozzle diameter check
M115 U3.8.0 ; tell printer latest fw version
G90 ; use absolute coordinates
M83 ; extruder relative mode
M104 S220 ; set extruder temp
M140 S70 ; set bed temp
M190 S70 ; wait for bed temp
M109 S220 ; wait for extruder temp
G28 W ; home all without mesh bed level
G80 ; mesh bed leveling
G1 Y-3.0 F1000.0 ; go outside print area
G92 E0.0
G1 X60.0 E9.0 F1000.0 ; intro line
M73 Q0 S6
M73 P0 R6
G1 X100.0 E12.5 F1000.0 ; intro line
G92 E0.0
M221 S95
G21 ; set units to millimeters
G90 ; use absolute coordinates
M83 ; use relative distances for extrusion
M900 K30 ; Filament gcode
;BEFORE_LAYER_CHANGE
G92 E0.0
;0.5


G1 E-0.80000 F2100.00000
G1 Z0.600 F7800.000
;AFTER_LAYER_CHANGE
;0.5
G1 X109.739 Y92.959
G1 Z0.500
G1 E0.80000 F2100.00000
G1 F1800
G1 X110.084 Y92.848 E0.05968
G1 X110.497 Y92.788 E0.06873
G1 X139.799 Y92.790 E4.82849
G1 X140.290 Y92.856 E0.08163
G1 X140.822 Y93.071 E0.09451
G1 X141.249 Y93.389 E0.08783
G1 X141.499 Y93.662 E0.06106
G1 X141.759 Y94.095 E0.08317
G1 X144.741 Y102.448 E1.46150
G1 X144.824 Y102.969 E0.08692
G1 X144.770 Y103.541 E0.09476
G1 X144.586 Y104.043 E0.08809
G1 X144.393 Y104.365 E0.06174
G1 X144.031 Y104.756 E0.08792
G1 X143.589 Y105.049 E0.08732
G1 X143.242 Y105.191 E0.06184
G1 X142.753 Y105.284 E0.08193
G1 X107.568 Y105.290 E5.79795
G1 X107.043 Y105.186 E0.08823
G1 X106.568 Y104.958 E0.08676
G1 X106.265 Y104.737 E0.06178
G1 X105.929 Y104.362 E0.08304
G1 X105.767 Y104.091 E0.05200
G1 X105.630 Y103.793 E0.05406
G1 X105.511 Y103.264 E0.08925
G1 X105.528 Y102.733 E0.08753
G1 X105.598 Y102.418 E0.05331
G1 X108.576 Y94.089 E1.45760
G1 X108.856 Y93.626 E0.08916
G1 X109.269 Y93.226 E0.09470
G1 X109.635 Y93.019 E0.06927
G1 F6240
G1 X110.084 Y92.848 E-0.15356
G1 X110.497 Y92.788 E-0.13335
G1 X111.977 Y92.788 E-0.47310
G1 E-0.04000 F2100.00000
G1 Z1.100 F7800.000
G1 X109.481 Y94.124
G1 Z0.500
G1 E0.80000 F2100.00000
G1 F1800
G1 X109.748 Y93.866 E0.06120
G1 X110.060 Y93.689 E0.05908
G1 X110.264 Y93.623 E0.03531
G1 X110.554 Y93.581 E0.04830
G1 X139.746 Y93.583 E4.81035
G1 X140.086 Y93.628 E0.05650
G1 X140.430 Y93.767 E0.06120
G1 X140.715 Y93.980 E0.05855
G1 X140.861 Y94.139 E0.03550
G1 X141.039 Y94.436 E0.05708
G1 X143.970 Y102.645 E1.43641
G1 X144.025 Y102.994 E0.05829
G1 X143.991 Y103.365 E0.06134
G1 X143.868 Y103.700 E0.05877
G1 X143.756 Y103.886 E0.03584
G1 X143.514 Y104.148 E0.05876
G1 X143.217 Y104.345 E0.05862
G1 X143.016 Y104.427 E0.03578
G1 X142.679 Y104.491 E0.05663
G1 X107.646 Y104.497 E5.77279
G1 X107.295 Y104.427 E0.05895
G1 X106.976 Y104.275 E0.05822
G1 X106.800 Y104.146 E0.03591
G1 X106.570 Y103.889 E0.05687
G1 X106.385 Y103.538 E0.06543
G1 X106.306 Y103.188 E0.05904
G1 X106.318 Y102.833 E0.05862
G1 X106.361 Y102.638 E0.03287
G1 X109.296 Y94.431 E1.43627
G1 X109.419 Y94.227 E0.03930
G1 X109.338 Y93.781 F7800.000
G1 F6240
G1 X109.748 Y93.866 E-0.15615
G1 X110.060 Y93.689 E-0.11462
G1 X110.264 Y93.623 E-0.06850
G1 X110.554 Y93.581 E-0.09371
G1 X111.577 Y93.581 E-0.32702
G1 E-0.04000 F2100.00000
G1 Z1.100 F7800.000
G1 X146.831 Y94.932
G1 Z0.500
G1 E0.80000 F2100.00000
G1 F1800
G1 X168.356 Y97.759 E3.57749
G1 X168.810 Y94.306 E0.57390
G1 X167.159 Y93.865 E0.28168
G1 X166.763 Y93.636 E0.07535
G1 X166.441 Y93.315 E0.07495
G1 X166.215 Y92.921 E0.07483
G1 X166.097 Y92.478 E0.07551
G1 X166.097 Y92.022 E0.07516
G1 X166.214 Y91.581 E0.07519
G1 X166.441 Y91.187 E0.07489
G1 X166.763 Y90.866 E0.07495
G1 X167.159 Y90.637 E0.07535
G1 X167.599 Y90.520 E0.07510
G1 X168.057 Y90.520 E0.07542
G1 X168.496 Y90.637 E0.07496
G1 X168.891 Y90.865 E0.07506
G1 X169.213 Y91.187 E0.07508
G1 X169.440 Y91.583 E0.07515
G1 X169.559 Y92.024 E0.07528
G1 X169.559 Y92.560 E0.08833
G1 X168.868 Y97.825 E0.87511
G1 X180.253 Y99.321 E1.89218
G1 X180.709 Y95.877 E0.57246
G1 X179.058 Y95.431 E0.28170
G1 X178.662 Y95.203 E0.07541
G1 X178.341 Y94.881 E0.07495
G1 X178.112 Y94.485 E0.07525
G1 X177.995 Y94.046 E0.07497
G1 X177.995 Y93.590 E0.07515
G1 X178.112 Y93.148 E0.07528
G1 X178.341 Y92.753 E0.07518
G1 X178.662 Y92.431 E0.07495
G1 X179.057 Y92.203 E0.07516
G1 X179.497 Y92.086 E0.07510
G1 X179.953 Y92.086 E0.07516
G1 X180.395 Y92.203 E0.07528
G1 X180.789 Y92.431 E0.07499
G1 X181.112 Y92.754 E0.07531
G1 X181.340 Y93.148 E0.07499
G1 X181.457 Y93.590 E0.07528
G1 X181.457 Y94.127 E0.08859
G1 X180.763 Y99.387 E0.87424
G1 X192.153 Y100.883 E1.89294
G1 X192.603 Y97.438 E0.57257
G1 X190.954 Y96.997 E0.28127
G1 X190.560 Y96.768 E0.07515
G1 X190.237 Y96.447 E0.07508
G1 X190.010 Y96.052 E0.07506
G1 X189.891 Y95.610 E0.07541
G1 X189.891 Y95.157 E0.07464
G1 X190.010 Y94.714 E0.07560
G1 X190.237 Y94.320 E0.07490
G1 X190.561 Y93.997 E0.07545
G1 X190.954 Y93.769 E0.07496
G1 X191.393 Y93.652 E0.07483
G1 X191.853 Y93.652 E0.07575
G1 X192.292 Y93.769 E0.07483
G1 X192.684 Y93.997 E0.07478
G1 X193.008 Y94.320 E0.07545
G1 X193.236 Y94.716 E0.07525
G1 X193.355 Y95.157 E0.07537
G1 X193.355 Y95.694 E0.08837
G1 X192.664 Y100.949 E0.87351
G1 X204.052 Y102.445 E1.89278
G1 X204.504 Y99.003 E0.57202
G1 X202.850 Y98.562 E0.28208
G1 X202.456 Y98.336 E0.07483
G1 X202.134 Y98.014 E0.07508
G1 X201.906 Y97.620 E0.07499
G1 X201.789 Y97.178 E0.07528
G1 X201.789 Y96.722 E0.07516
G1 X201.906 Y96.282 E0.07510
G1 X202.134 Y95.887 E0.07516
G1 X202.457 Y95.565 E0.07518
G1 X202.851 Y95.336 E0.07509
G1 X203.291 Y95.220 E0.07497
G1 X203.750 Y95.220 E0.07567
G1 X204.189 Y95.336 E0.07478
G1 X204.584 Y95.565 E0.07526
G1 X204.905 Y95.886 E0.07481
G1 X205.134 Y96.282 E0.07534
G1 X205.251 Y96.722 E0.07510
G1 X205.251 Y97.260 E0.08856
G1 X202.528 Y117.947 E3.43832
G1 X202.390 Y118.468 E0.08882
G1 X202.162 Y118.862 E0.07499
G1 X201.839 Y119.185 E0.07531
G1 X201.446 Y119.412 E0.07473
G1 X201.005 Y119.528 E0.07520
G1 X200.546 Y119.528 E0.07567
G1 X200.106 Y119.412 E0.07501
G1 X199.712 Y119.185 E0.07490
G1 X199.391 Y118.863 E0.07495
G1 X199.162 Y118.468 E0.07518
G1 X199.045 Y118.026 E0.07528
G1 X199.045 Y117.569 E0.07542
G1 X199.162 Y117.130 E0.07478
G1 X199.391 Y116.734 E0.07542
G1 X199.712 Y116.413 E0.07481
G1 X200.107 Y116.184 E0.07525
G1 X200.546 Y116.068 E0.07478
G1 X202.254 Y116.068 E0.28151
G1 X202.758 Y112.285 E0.62888
G1 X191.369 Y110.791 E1.89292
G1 X190.631 Y116.380 E0.92893
G1 X190.492 Y116.900 E0.08867
G1 X190.264 Y117.295 E0.07516
G1 X189.942 Y117.616 E0.07495
G1 X189.546 Y117.845 E0.07525
G1 X189.107 Y117.962 E0.07496
G1 X188.651 Y117.962 E0.07515
G1 X188.209 Y117.845 E0.07528
G1 X187.814 Y117.616 E0.07518
G1 X187.492 Y117.295 E0.07495
G1 X187.264 Y116.900 E0.07516
G1 X187.147 Y116.460 E0.07510
G1 X187.147 Y116.004 E0.07516
G1 X187.264 Y115.562 E0.07528
G1 X187.492 Y115.168 E0.07499
G1 X187.815 Y114.845 E0.07531
G1 X188.209 Y114.617 E0.07499
G1 X188.651 Y114.500 E0.07528
G1 X190.359 Y114.500 E0.28147
G1 X190.859 Y110.723 E0.62785
G1 X179.468 Y109.229 E1.89324
G1 X178.735 Y114.813 E0.92801
G1 X178.594 Y115.333 E0.08878
G1 X178.367 Y115.728 E0.07497
G1 X178.043 Y116.051 E0.07545
G1 X177.649 Y116.280 E0.07515
G1 X177.208 Y116.398 E0.07523
G1 X176.753 Y116.398 E0.07498
G1 X176.313 Y116.280 E0.07505
G1 X175.917 Y116.051 E0.07532
G1 X175.595 Y115.729 E0.07508
G1 X175.368 Y115.333 E0.07515
G1 X175.249 Y114.892 E0.07528
G1 X175.249 Y114.439 E0.07464
G1 X175.368 Y113.996 E0.07560
G1 X175.595 Y113.601 E0.07509
G1 X175.917 Y113.279 E0.07508
G1 X176.312 Y113.051 E0.07506
G1 X176.751 Y112.934 E0.07496
G1 X178.462 Y112.934 E0.28192
G1 X178.958 Y109.161 E0.62708
G1 X167.570 Y107.665 E1.89265
G1 X166.834 Y113.250 E0.92824
G1 X166.697 Y113.769 E0.08842
G1 X166.470 Y114.162 E0.07480
G1 X166.147 Y114.485 E0.07531
G1 X165.753 Y114.713 E0.07499
G1 X165.311 Y114.830 E0.07528
G1 X164.854 Y114.830 E0.07542
G1 X164.415 Y114.713 E0.07478
G1 X164.020 Y114.485 E0.07523
G1 X163.699 Y114.163 E0.07495
G1 X163.469 Y113.766 E0.07551
G1 X163.351 Y113.326 E0.07505
G1 X163.351 Y112.872 E0.07490
G1 X163.469 Y112.432 E0.07505
G1 X163.699 Y112.035 E0.07551
G1 X164.020 Y111.713 E0.07495
G1 X164.415 Y111.485 E0.07523
G1 X164.854 Y111.368 E0.07478
G1 X166.564 Y111.368 E0.28178
G1 X167.061 Y107.599 E0.62644
G1 X149.049 Y105.234 E2.99346
G1 X148.901 Y106.928 E0.28024
G1 X148.863 Y107.055 E0.02185
G1 X148.748 Y107.132 E0.02286
G1 X148.599 Y107.197 E0.02684
G1 X148.160 Y107.273 E0.07334
G1 X147.820 Y107.288 E0.05605
G1 X101.980 Y107.282 E7.55370
G1 X101.701 Y107.257 E0.04623
G1 X101.348 Y107.175 E0.05959
G1 X101.228 Y107.122 E0.02159
G1 X101.155 Y107.063 E0.01556
G1 X101.118 Y106.993 E0.01302
G1 X101.072 Y106.738 E0.04269
G1 X101.056 Y105.220 E0.25006
G1 X82.939 Y107.599 E3.01085
G1 X83.436 Y111.368 E0.62644
G1 X85.145 Y111.368 E0.28152
G1 X85.585 Y111.485 E0.07510
G1 X85.981 Y111.714 E0.07535
G1 X86.304 Y112.036 E0.07518
G1 X86.532 Y112.431 E0.07506
G1 X86.649 Y112.870 E0.07496
G1 X86.649 Y113.328 E0.07542
G1 X86.532 Y113.767 E0.07496
G1 X86.304 Y114.162 E0.07506
G1 X85.981 Y114.484 E0.07518
G1 X85.585 Y114.713 E0.07535
G1 X85.145 Y114.830 E0.07510
G1 X84.689 Y114.830 E0.07509
G1 X84.249 Y114.713 E0.07510
G1 X83.854 Y114.485 E0.07516
G1 X83.532 Y114.162 E0.07518
G1 X83.303 Y113.767 E0.07516
G1 X83.166 Y113.250 E0.08819
G1 X82.430 Y107.665 E0.92824
G1 X71.042 Y109.161 E1.89265
G1 X71.538 Y112.934 E0.62708
G1 X73.249 Y112.934 E0.28191
G1 X73.688 Y113.051 E0.07496
G1 X74.083 Y113.279 E0.07506
G1 X74.405 Y113.601 E0.07508
G1 X74.632 Y113.996 E0.07508
G1 X74.751 Y114.439 E0.07560
G1 X74.751 Y114.892 E0.07464
G1 X74.632 Y115.333 E0.07528
G1 X74.405 Y115.729 E0.07515
G1 X74.083 Y116.051 E0.07508
G1 X73.687 Y116.280 E0.07532
G1 X73.247 Y116.398 E0.07505
G1 X72.792 Y116.398 E0.07497
G1 X72.351 Y116.280 E0.07523
G1 X71.957 Y116.051 E0.07515
G1 X71.633 Y115.728 E0.07545
G1 X71.406 Y115.333 E0.07497
G1 X71.265 Y114.813 E0.08878
G1 X70.532 Y109.229 E0.92802
G1 X59.144 Y110.722 E1.89264
G1 X59.640 Y114.500 E0.62777
G1 X61.349 Y114.500 E0.28172
G1 X61.791 Y114.617 E0.07528
G1 X62.185 Y114.845 E0.07499
G1 X62.508 Y115.168 E0.07531
G1 X62.736 Y115.562 E0.07499
G1 X62.853 Y116.004 E0.07528
G1 X62.853 Y116.460 E0.07516
G1 X62.736 Y116.900 E0.07510
G1 X62.508 Y117.295 E0.07516
G1 X62.186 Y117.616 E0.07495
G1 X61.791 Y117.845 E0.07518
G1 X61.349 Y117.962 E0.07528
G1 X60.893 Y117.962 E0.07516
G1 X60.454 Y117.845 E0.07496
G1 X60.058 Y117.616 E0.07525
G1 X59.736 Y117.295 E0.07495
G1 X59.508 Y116.899 E0.07541
G1 X59.367 Y116.379 E0.08872
G1 X58.632 Y110.791 E0.92868
G1 X47.243 Y112.285 E1.89273
G1 X47.743 Y116.068 E0.62881
G1 X49.454 Y116.068 E0.28209
G1 X49.892 Y116.184 E0.07465
G1 X50.287 Y116.413 E0.07516
G1 X50.610 Y116.735 E0.07518
G1 X50.839 Y117.132 E0.07548
G1 X50.957 Y117.570 E0.07486
G1 X50.957 Y118.025 E0.07490
G1 X50.838 Y118.466 E0.07537
G1 X50.610 Y118.862 E0.07525
G1 X50.287 Y119.185 E0.07531
G1 X49.894 Y119.412 E0.07480
G1 X49.454 Y119.528 E0.07488
G1 X48.994 Y119.528 E0.07593
G1 X48.554 Y119.412 E0.07488
G1 X48.161 Y119.185 E0.07480
G1 X47.838 Y118.862 E0.07531
G1 X47.610 Y118.468 E0.07499
G1 X47.472 Y117.947 E0.08881
G1 X44.749 Y97.260 E3.43832
G1 X44.749 Y96.722 E0.08856
G1 X44.866 Y96.282 E0.07510
G1 X45.095 Y95.886 E0.07535
G1 X45.416 Y95.565 E0.07481
G1 X45.811 Y95.336 E0.07525
G1 X46.250 Y95.220 E0.07478
G1 X46.709 Y95.220 E0.07567
G1 X47.149 Y95.336 E0.07497
G1 X47.543 Y95.565 E0.07509
G1 X47.866 Y95.887 E0.07518
G1 X48.094 Y96.282 E0.07516
G1 X48.211 Y96.722 E0.07510
G1 X48.211 Y97.178 E0.07516
G1 X48.094 Y97.620 E0.07528
G1 X47.866 Y98.014 E0.07499
G1 X47.544 Y98.336 E0.07508
G1 X47.150 Y98.562 E0.07483
G1 X45.494 Y99.004 E0.28240
G1 X45.952 Y102.445 E0.57202
G1 X57.339 Y100.949 E1.89252
G1 X56.645 Y95.693 E0.87360
G1 X56.645 Y95.157 E0.08832
G1 X56.764 Y94.714 E0.07560
G1 X56.991 Y94.320 E0.07490
G1 X57.315 Y93.997 E0.07545
G1 X57.708 Y93.769 E0.07489
G1 X58.149 Y93.652 E0.07515
G1 X58.606 Y93.652 E0.07542
G1 X59.044 Y93.769 E0.07465
G1 X59.439 Y93.997 E0.07513
G1 X59.762 Y94.320 E0.07531
G1 X59.990 Y94.716 E0.07525
G1 X60.109 Y95.157 E0.07537
G1 X60.109 Y95.610 E0.07464
G1 X59.990 Y96.051 E0.07518
G1 X59.762 Y96.447 E0.07541
G1 X59.440 Y96.768 E0.07495
G1 X59.044 Y96.997 E0.07532
G1 X57.397 Y97.438 E0.28103
G1 X57.847 Y100.883 E0.57244
G1 X69.237 Y99.387 E1.89294
G1 X68.543 Y94.127 E0.87424
G1 X68.543 Y93.590 E0.08859
G1 X68.660 Y93.148 E0.07528
G1 X68.888 Y92.754 E0.07499
G1 X69.211 Y92.431 E0.07531
G1 X69.605 Y92.203 E0.07499
G1 X70.047 Y92.086 E0.07528
G1 X70.503 Y92.086 E0.07516
G1 X70.943 Y92.203 E0.07510
G1 X71.338 Y92.431 E0.07516
G1 X71.659 Y92.753 E0.07495
G1 X71.888 Y93.148 E0.07518
G1 X72.005 Y93.590 E0.07528
G1 X72.005 Y94.046 E0.07516
G1 X71.888 Y94.485 E0.07496
G1 X71.659 Y94.881 E0.07525
G1 X71.338 Y95.203 E0.07495
G1 X70.942 Y95.431 E0.07541
G1 X69.291 Y95.877 E0.28170
G1 X69.747 Y99.321 E0.57246
G1 X81.132 Y97.825 E1.89217
G1 X80.441 Y92.560 E0.87511
G1 X80.441 Y92.024 E0.08834
G1 X80.560 Y91.583 E0.07528
G1 X80.787 Y91.187 E0.07515
G1 X81.109 Y90.865 E0.07508
G1 X81.504 Y90.637 E0.07506
G1 X81.943 Y90.520 E0.07496
G1 X82.401 Y90.520 E0.07542
G1 X82.840 Y90.637 E0.07496
G1 X83.236 Y90.866 E0.07525
G1 X83.559 Y91.188 E0.07532
G1 X83.786 Y91.583 E0.07497
G1 X83.905 Y92.024 E0.07528
G1 X83.905 Y92.477 E0.07464
G1 X83.786 Y92.920 E0.07560
G1 X83.559 Y93.314 E0.07490
G1 X83.236 Y93.636 E0.07532
G1 X82.840 Y93.865 E0.07525
G1 X81.190 Y94.306 E0.28155
G1 X81.644 Y97.759 E0.57390
G1 X103.169 Y94.932 E3.57749
G1 X104.651 Y91.354 E0.63813
G1 X104.928 Y90.993 E0.07496
G1 X105.292 Y90.714 E0.07549
G1 X105.709 Y90.540 E0.07452
G1 X106.244 Y90.472 E0.08876
G1 X143.756 Y90.472 E6.18149
G1 X144.291 Y90.540 E0.08876
G1 X144.708 Y90.714 E0.07452
G1 X145.072 Y90.993 E0.07549
G1 X145.349 Y91.354 E0.07496
G1 X146.785 Y94.821 E0.61836
G1 X147.388 Y94.205 F7800.000
G1 F1800
G1 X167.673 Y96.870 E3.37146
G1 X167.934 Y94.892 E0.32868
G1 X166.853 Y94.604 E0.18425
G1 X166.276 Y94.271 E0.10979
G1 X165.806 Y93.801 E0.10949
G1 X165.476 Y93.226 E0.10931
G1 X165.304 Y92.582 E0.10980
G1 X165.304 Y91.918 E0.10941
G1 X165.476 Y91.276 E0.10948
G1 X165.806 Y90.701 E0.10934
G1 X166.276 Y90.231 E0.10949
G1 X166.853 Y89.898 E0.10979
G1 X167.495 Y89.727 E0.10945
G1 X168.161 Y89.727 E0.10972
G1 X168.802 Y89.898 E0.10940
G1 X169.378 Y90.231 E0.10950
G1 X169.848 Y90.701 E0.10954
G1 X170.179 Y91.277 E0.10943
G1 X170.352 Y91.919 E0.10957
G1 X170.352 Y92.612 E0.11419
G1 X169.757 Y97.143 E0.75303
G1 X179.571 Y98.432 E1.63106
G1 X179.832 Y96.461 E0.32753
G1 X178.752 Y96.170 E0.18431
G1 X178.175 Y95.837 E0.10981
G1 X177.706 Y95.367 E0.10934
G1 X177.373 Y94.791 E0.10957
G1 X177.202 Y94.150 E0.10940
G1 X177.202 Y93.486 E0.10941
G1 X177.373 Y92.843 E0.10972
G1 X177.706 Y92.267 E0.10954
G1 X178.175 Y91.797 E0.10935
G1 X178.751 Y91.464 E0.10972
G1 X179.393 Y91.293 E0.10945
G1 X180.057 Y91.293 E0.10941
G1 X180.700 Y91.464 E0.10972
G1 X181.276 Y91.797 E0.10947
G1 X181.746 Y92.267 E0.10963
G1 X182.079 Y92.843 E0.10948
G1 X182.250 Y93.486 E0.10972
G1 X182.250 Y94.179 E0.11428
G1 X181.653 Y98.705 E0.75212
G1 X191.470 Y99.994 E1.63154
G1 X191.727 Y98.024 E0.32733
G1 X190.648 Y97.736 E0.18411
G1 X190.074 Y97.403 E0.10935
G1 X189.602 Y96.934 E0.10954
G1 X189.271 Y96.358 E0.10958
G1 X189.098 Y95.715 E0.10962
G1 X189.098 Y95.052 E0.10923
G1 X189.271 Y94.409 E0.10989
G1 X189.602 Y93.833 E0.10934
G1 X190.074 Y93.363 E0.10982
G1 X190.648 Y93.030 E0.10928
G1 X191.289 Y92.859 E0.10935
G1 X191.957 Y92.859 E0.11005
G1 X192.598 Y93.030 E0.10935
G1 X193.171 Y93.363 E0.10922
G1 X193.642 Y93.833 E0.10967
