; generated by PrusaSlicer 2.2.0+win64 on 2020-08-06 at 17:10:47 UTC

; 

; external perimeters extrusion width = 0.60mm
; perimeters extrusion width = 0.50mm
; infill extrusion width = 0.50mm
; solid infill extrusion width = 0.50mm
; top infill extrusion width = 0.45mm
; support material extrusion width = 0.38mm
; first layer extrusion width = 0.42mm

M73 P0 R11
M73 Q0 S11
M201 X1000 Y1000 Z1000 E5000 ; sets maximum accelerations, mm/sec^2
M203 X200 Y200 Z12 E120 ; sets maximum feedrates, mm/sec
M204 P1250 R1250 T1250 ; sets acceleration (P, T) and retract acceleration (R), mm/sec^2
M205 X8.00 Y8.00 Z0.40 E1.50 ; sets the jerk limits, mm/sec
M205 S0 T0 ; sets the minimum extruding and travel feed rate, mm/sec
M107
M862.3 P "MK3S" ; printer model check
M862.1 P0.4 ; nozzle diameter check
M115 U3.8.0 ; tell printer latest fw version
G90 ; use absolute coordinates
M83 ; extruder relative mode
M104 S215 ; set extruder temp
M140 S60 ; set bed temp
M190 S60 ; wait for bed temp
M109 S215 ; wait for extruder temp
G28 W ; home all without mesh bed level
G80 ; mesh bed leveling
G1 Y-3.0 F1000.0 ; go outside print area
G92 E0.0
G1 X60.0 E9.0 F1000.0 ; intro line
M73 Q0 S11
M73 P0 R11
G1 X100.0 E12.5 F1000.0 ; intro line
G92 E0.0
M221 S95
G21 ; set units to millimeters
G90 ; use absolute coordinates
M83 ; use relative distances for extrusion
M900 K0.06 ; Filament gcode LA 1.5
M900 K30 ; Filament gcode LA 1.0
;BEFORE_LAYER_CHANGE
G92 E0.0
;0.2


G1 E-0.80000 F2100.00000
G1 Z0.600 F10800.000
;AFTER_LAYER_CHANGE
;0.2
G1 X110.347 Y77.948
G1 Z0.200
G1 E0.80000 F2100.00000
M204 S1000
G1 F1200.000
G1 X111.058 Y77.261 E0.03100
G1 X111.930 Y76.812 E0.03077
G1 X112.838 Y76.636 E0.02898
G1 X136.979 Y76.614 E0.75694
G1 X138.134 Y76.820 E0.03677
G1 X138.789 Y77.145 E0.02294
G1 X139.212 Y77.469 E0.01668
G1 X139.710 Y78.009 E0.02304
G1 X140.072 Y78.657 E0.02328
G1 X140.242 Y79.145 E0.01621
G1 X140.349 Y79.854 E0.02246
G1 X140.353 Y130.002 E1.57237
G1 X140.257 Y130.769 E0.02423
G1 X140.097 Y131.269 E0.01645
G1 X139.650 Y132.052 E0.02826
G1 X138.936 Y132.741 E0.03112
G1 X138.059 Y133.189 E0.03089
G1 X137.132 Y133.363 E0.02958
G1 X113.001 Y133.383 E0.75659
G1 X112.242 Y133.287 E0.02400
G1 X111.746 Y133.128 E0.01633
G1 X110.958 Y132.676 E0.02850
G1 X110.259 Y131.945 E0.03171
G1 X109.815 Y131.057 E0.03112
G1 X109.649 Y130.086 E0.03089
G1 X109.647 Y79.995 E1.57058
G1 X109.743 Y79.228 E0.02424
G1 X109.903 Y78.728 E0.01645
G1 X110.318 Y78.001 E0.02626
G1 E-0.80000 F2100.00000
G1 Z0.800 F10800.000
G1 X116.382 Y122.779
G1 Z0.200
G1 E0.80000 F2100.00000
G1 F1200.000
G1 X116.985 Y122.719 E0.01898
G1 X117.663 Y122.777 E0.02134
G1 X118.284 Y122.966 E0.02034
G1 X118.853 Y123.270 E0.02023
G1 X119.351 Y123.679 E0.02023
G1 X119.761 Y124.178 E0.02023
G1 X120.065 Y124.747 E0.02023
G1 X120.252 Y125.364 E0.02023
G1 X120.315 Y126.006 E0.02023
G1 X120.252 Y126.648 E0.02023
G1 X120.065 Y127.266 E0.02023
G1 X119.761 Y127.835 E0.02023
G1 X119.351 Y128.333 E0.02023
G1 X118.853 Y128.743 E0.02023
G1 X118.284 Y129.047 E0.02023
G1 X117.666 Y129.234 E0.02023
G1 X117.024 Y129.297 E0.02023
G1 X116.382 Y129.234 E0.02023
G1 X115.765 Y129.047 E0.02023
G1 X115.196 Y128.743 E0.02023
G1 X114.697 Y128.333 E0.02023
G1 X114.288 Y127.835 E0.02023
G1 X113.984 Y127.266 E0.02023
G1 X113.797 Y126.648 E0.02023
G1 X113.733 Y126.006 E0.02023
G1 X113.797 Y125.364 E0.02023
G1 X113.984 Y124.747 E0.02023
G1 X114.288 Y124.178 E0.02023
G1 X114.697 Y123.679 E0.02023
G1 X115.196 Y123.270 E0.02023
G1 X115.765 Y122.966 E0.02023
G1 X116.325 Y122.796 E0.01835
G1 X116.434 Y123.157 F10800.000
G1 F1200.000
G1 X116.987 Y123.098 E0.01743
G1 X117.591 Y123.150 E0.01901
G1 X118.139 Y123.316 E0.01794
G1 X118.642 Y123.585 E0.01790
G1 X119.083 Y123.947 E0.01790
G1 X119.446 Y124.388 E0.01790
G1 X119.715 Y124.892 E0.01790
G1 X119.880 Y125.438 E0.01790
G1 X119.936 Y126.006 E0.01790
G1 X119.880 Y126.574 E0.01790
G1 X119.715 Y127.121 E0.01790
G1 X119.446 Y127.624 E0.01790
G1 X119.083 Y128.065 E0.01790
G1 X118.642 Y128.427 E0.01790
G1 X118.139 Y128.697 E0.01790
G1 X117.592 Y128.862 E0.01790
G1 X117.024 Y128.918 E0.01790
G1 X116.456 Y128.862 E0.01790
G1 X115.910 Y128.697 E0.01790
G1 X115.407 Y128.427 E0.01790
G1 X114.965 Y128.065 E0.01790
G1 X114.603 Y127.624 E0.01790
G1 X114.334 Y127.121 E0.01790
G1 X114.168 Y126.574 E0.01790
G1 X114.112 Y126.006 E0.01790
G1 X114.168 Y125.438 E0.01790
G1 X114.334 Y124.892 E0.01790
G1 X114.603 Y124.388 E0.01790
G1 X114.965 Y123.947 E0.01790
G1 X115.407 Y123.585 E0.01790
G1 X115.910 Y123.316 E0.01790
G1 X116.377 Y123.174 E0.01530
G1 X116.561 Y122.777 F10800.000
G1 E-0.80000 F2100.00000
G1 Z0.800 F10800.000
G1 X117.024 Y87.297
G1 Z0.200
G1 E0.80000 F2100.00000
G1 F1200.000
G1 X116.382 Y87.234 E0.02023
G1 X115.765 Y87.047 E0.02023
G1 X115.196 Y86.742 E0.02023
G1 X114.697 Y86.333 E0.02023
G1 X114.288 Y85.835 E0.02023
G1 X113.984 Y85.266 E0.02023
G1 X113.797 Y84.648 E0.02023
G1 X113.733 Y84.006 E0.02023
G1 X113.797 Y83.364 E0.02023
G1 X113.984 Y82.747 E0.02023
G1 X114.288 Y82.178 E0.02023
G1 X114.697 Y81.679 E0.02023
G1 X115.196 Y81.270 E0.02023
G1 X115.769 Y80.964 E0.02036
G1 X116.429 Y80.774 E0.02155
G1 X117.024 Y80.715 E0.01875
G1 X117.666 Y80.779 E0.02023
G1 X118.284 Y80.966 E0.02023
G1 X118.853 Y81.270 E0.02023
G1 X119.351 Y81.679 E0.02023
G1 X119.761 Y82.178 E0.02023
G1 X120.065 Y82.747 E0.02023
G1 X120.252 Y83.364 E0.02023
G1 X120.315 Y84.006 E0.02023
G1 X120.252 Y84.648 E0.02023
G1 X120.065 Y85.266 E0.02023
G1 X119.761 Y85.835 E0.02023
G1 X119.351 Y86.333 E0.02023
G1 X118.853 Y86.742 E0.02023
G1 X118.284 Y87.047 E0.02023
G1 X117.666 Y87.234 E0.02023
G1 X117.084 Y87.291 E0.01835
G1 X117.047 Y86.916 F10800.000
G1 F1200.000
G1 X116.456 Y86.862 E0.01860
G1 X115.910 Y86.697 E0.01790
G1 X115.407 Y86.427 E0.01790
G1 X114.965 Y86.065 E0.01790
G1 X114.603 Y85.624 E0.01790
G1 X114.334 Y85.121 E0.01790
G1 X114.168 Y84.574 E0.01790
G1 X114.112 Y84.006 E0.01790
G1 X114.168 Y83.438 E0.01790
G1 X114.334 Y82.892 E0.01790
G1 X114.603 Y82.388 E0.01790
G1 X114.965 Y81.947 E0.01790
G1 X115.407 Y81.585 E0.01790
G1 X115.911 Y81.315 E0.01795
G1 X116.500 Y81.146 E0.01922
G1 X117.024 Y81.094 E0.01650
G1 X117.592 Y81.150 E0.01790
G1 X118.139 Y81.316 E0.01790
G1 X118.642 Y81.585 E0.01790
G1 X119.083 Y81.947 E0.01790
G1 X119.446 Y82.388 E0.01790
G1 X119.715 Y82.892 E0.01790
G1 X119.880 Y83.438 E0.01790
G1 X119.936 Y84.006 E0.01790
G1 X119.880 Y84.574 E0.01790
G1 X119.715 Y85.121 E0.01790
G1 X119.446 Y85.624 E0.01790
G1 X119.083 Y86.065 E0.01790
G1 X118.642 Y86.427 E0.01790
G1 X118.139 Y86.697 E0.01790
G1 X117.592 Y86.862 E0.01790
G1 X117.107 Y86.910 E0.01530
G1 X116.849 Y87.264 F10800.000
G1 E-0.80000 F2100.00000
G1 Z0.800 F10800.000
G1 X121.217 Y79.943
G1 Z0.200
G1 E0.80000 F2100.00000
G1 F1200.000
G1 X121.237 Y80.068 E0.00396
G1 X121.237 Y129.944 E1.56383
G1 X121.217 Y130.069 E0.00396
G1 X121.144 Y130.171 E0.00394
G1 X121.087 Y130.199 E0.00199
G1 X120.962 Y130.219 E0.00396
G1 X113.086 Y130.219 E0.24695
G1 X112.962 Y130.199 E0.00396
G1 X112.860 Y130.126 E0.00394
G1 X112.831 Y130.069 E0.00199
G1 X112.811 Y129.944 E0.00396
G1 X112.811 Y80.068 E1.56383
G1 X112.831 Y79.943 E0.00396
G1 X112.905 Y79.842 E0.00394
G1 X112.962 Y79.813 E0.00199
G1 X113.086 Y79.793 E0.00396
G1 X120.962 Y79.793 E0.24695
G1 X121.087 Y79.813 E0.00396
G1 X121.190 Y79.890 E0.00404
G1 X121.498 Y79.662 F10800.000
G1 F1200.000
G1 X121.581 Y79.825 E0.00574
G1 X121.614 Y80.038 E0.00676
G1 X121.614 Y129.974 E1.56569
G1 X121.581 Y130.187 E0.00676
G1 X121.498 Y130.350 E0.00574
G1 X121.368 Y130.479 E0.00574
G1 X121.205 Y130.562 E0.00574
G1 X120.992 Y130.596 E0.00676
G1 X113.057 Y130.596 E0.24881
G1 X112.844 Y130.562 E0.00676
G1 X112.681 Y130.479 E0.00574
G1 X112.551 Y130.350 E0.00574
G1 X112.468 Y130.187 E0.00574
G1 X112.434 Y129.974 E0.00676
G1 X112.434 Y80.038 E1.56569
G1 X112.468 Y79.825 E0.00676
G1 X112.551 Y79.662 E0.00574
G1 X112.681 Y79.533 E0.00574
G1 X112.844 Y79.450 E0.00574
G1 X113.057 Y79.416 E0.00676
G1 X120.992 Y79.416 E0.24881
G1 X121.205 Y79.450 E0.00676
G1 X121.368 Y79.533 E0.00574
G1 X121.455 Y79.620 E0.00386
G1 X121.423 Y79.830 F10800.000
G1 E-0.80000 F2100.00000
G1 Z0.800 F10800.000
G1 X121.124 Y80.759
G1 Z0.200
G1 E0.80000 F2100.00000
G1 F1200.000
G1 X120.441 Y80.076 E0.03036
G1 X119.907 Y80.076 E0.01682
G1 X120.954 Y81.124 E0.04660
G1 X120.954 Y81.659 E0.01682
G1 X119.372 Y80.076 E0.07039
G1 X118.837 Y80.076 E0.01682
G1 X120.954 Y82.194 E0.09418
G1 X120.954 Y82.729 E0.01682
G1 X118.302 Y80.076 E0.11796
G1 X117.767 Y80.076 E0.01682
G1 X118.397 Y80.705 E0.02799
G1 X117.722 Y80.500 E0.02218
G1 X117.649 Y80.493 E0.00230
G1 X117.232 Y80.076 E0.01853
G1 X116.697 Y80.076 E0.01682
G1 X117.056 Y80.434 E0.01593
G1 X116.563 Y80.477 E0.01554
G1 X116.163 Y80.076 E0.01781
G1 X115.628 Y80.076 E0.01682
G1 X116.120 Y80.569 E0.02190
G1 X115.705 Y80.688 E0.01359
G1 X115.093 Y80.076 E0.02721
G1 X114.558 Y80.076 E0.01682
G1 X115.349 Y80.867 E0.03519
G1 X115.007 Y81.060 E0.01236
G1 X114.023 Y80.076 E0.04374
G1 X113.488 Y80.076 E0.01682
G1 X114.713 Y81.301 E0.05446
G1 X114.496 Y81.478 E0.00881
G1 X114.433 Y81.556 E0.00314
G1 X113.094 Y80.217 E0.05954
G1 X113.094 Y80.752 E0.01682
G1 X114.192 Y81.849 E0.04882
G1 X114.052 Y82.020 E0.00694
G1 X113.974 Y82.166 E0.00521
G1 X113.094 Y81.287 E0.03911
G1 X113.094 Y81.821 E0.01682
G1 X113.787 Y82.515 E0.03083
G1 X113.721 Y82.638 E0.00440
G1 X113.641 Y82.903 E0.00871
G1 X113.094 Y82.356 E0.02432
G1 X113.094 Y82.891 E0.01682
G1 X113.517 Y83.314 E0.01882
G1 X113.469 Y83.801 E0.01539
G1 X113.094 Y83.426 E0.01669
G1 X113.094 Y83.961 E0.01682
G1 X113.483 Y84.350 E0.01730
G1 X113.518 Y84.704 E0.01119
G1 X113.612 Y85.013 E0.01018
G1 X113.094 Y84.496 E0.02302
G1 X113.094 Y85.031 E0.01682
G1 X120.954 Y92.891 E0.34957
G1 X120.954 Y92.356 E0.01682
G1 X116.017 Y87.419 E0.21958
G1 X116.327 Y87.513 E0.01018
G1 X116.681 Y87.547 E0.01119
G1 X120.954 Y91.821 E0.19006
G1 X120.954 Y91.286 E0.01682
G1 X117.229 Y87.561 E0.16567
G1 X117.716 Y87.513 E0.01539
G1 X120.954 Y90.751 E0.14401
G1 X120.954 Y90.216 E0.01682
G1 X118.127 Y87.390 E0.12572
G1 X118.392 Y87.309 E0.00871
G1 X118.516 Y87.243 E0.00440
G1 X120.954 Y89.682 E0.10845
G1 X120.954 Y89.147 E0.01682
G1 X118.864 Y87.057 E0.09295
G1 X119.011 Y86.979 E0.00521
G1 X119.181 Y86.839 E0.00694
G1 X120.954 Y88.612 E0.07886
G1 X120.954 Y88.077 E0.01682
G1 X119.475 Y86.598 E0.06580
G1 X119.552 Y86.534 E0.00314
G1 X119.730 Y86.318 E0.00881
G1 X120.954 Y87.542 E0.05446
G1 X120.954 Y87.007 E0.01682
G1 X119.971 Y86.024 E0.04374
G1 X120.163 Y85.681 E0.01236
G1 X120.954 Y86.473 E0.03519
G1 X120.954 Y85.938 E0.01682
G1 X120.342 Y85.325 E0.02723
G1 X120.467 Y84.915 E0.01349
G1 X120.954 Y85.403 E0.02170
G1 X120.954 Y84.868 E0.01682
G1 X120.554 Y84.467 E0.01781
G1 X120.596 Y83.975 E0.01554
G1 X120.954 Y84.333 E0.01593
G1 X120.954 Y83.798 E0.01682
G1 X120.538 Y83.382 E0.01853
G1 X120.531 Y83.309 E0.00230
G1 X120.325 Y82.634 E0.02218
G1 X121.124 Y83.433 E0.03554
G1 E-0.80000 F2100.00000
G1 Z0.800 F10800.000
G1 X121.124 Y93.595
G1 Z0.200
G1 E0.80000 F2100.00000
G1 F1200.000
G1 X113.094 Y85.565 E0.35712
G1 X113.094 Y86.100 E0.01682
G1 X120.954 Y93.960 E0.34957
G1 X120.954 Y94.495 E0.01682
G1 X113.094 Y86.635 E0.34957
G1 X113.094 Y87.170 E0.01682
G1 X120.954 Y95.030 E0.34957
G1 X120.954 Y95.565 E0.01682
G1 X113.094 Y87.705 E0.34957
G1 X113.094 Y88.240 E0.01682
G1 X120.954 Y96.100 E0.34957
G1 X120.954 Y96.635 E0.01682
G1 X113.094 Y88.774 E0.34957
G1 X113.094 Y89.309 E0.01682
G1 X120.954 Y97.170 E0.34957
G1 X120.954 Y97.704 E0.01682
G1 X113.094 Y89.844 E0.34957
G1 X113.094 Y90.379 E0.01682
G1 X120.954 Y98.239 E0.34957
G1 X120.954 Y98.774 E0.01682
G1 X113.094 Y90.914 E0.34957
G1 X113.094 Y91.449 E0.01682
G1 X120.954 Y99.309 E0.34957
G1 X120.954 Y99.844 E0.01682
G1 X113.094 Y91.984 E0.34957
G1 X113.094 Y92.518 E0.01682
G1 X120.954 Y100.379 E0.34957
G1 X120.954 Y100.914 E0.01682
G1 X113.094 Y93.053 E0.34957
G1 X113.094 Y93.588 E0.01682
G1 X120.954 Y101.448 E0.34957
G1 X120.954 Y101.983 E0.01682
G1 X113.094 Y94.123 E0.34957
G1 X113.094 Y94.658 E0.01682
G1 X120.954 Y102.518 E0.34957
G1 X120.954 Y103.053 E0.01682
G1 X113.094 Y95.193 E0.34957
G1 X113.094 Y95.728 E0.01682
G1 X120.954 Y103.588 E0.34957
G1 X120.954 Y104.123 E0.01682
G1 X113.094 Y96.262 E0.34957
G1 X113.094 Y96.797 E0.01682
G1 X120.954 Y104.658 E0.34957
G1 X120.954 Y105.192 E0.01682
G1 X113.094 Y97.332 E0.34957
G1 X113.094 Y97.867 E0.01682
G1 X120.954 Y105.727 E0.34957
G1 X120.954 Y106.262 E0.01682
G1 X113.094 Y98.402 E0.34957
G1 X113.094 Y98.937 E0.01682
G1 X120.954 Y106.797 E0.34957
G1 X120.954 Y107.332 E0.01682
G1 X113.094 Y99.472 E0.34957
G1 X113.094 Y100.006 E0.01682
G1 X120.954 Y107.867 E0.34957
G1 X120.954 Y108.401 E0.01682
G1 X113.094 Y100.541 E0.34957
G1 X113.094 Y101.076 E0.01682
G1 X120.954 Y108.936 E0.34957
G1 X120.954 Y109.471 E0.01682
G1 X113.094 Y101.611 E0.34957
G1 X113.094 Y102.146 E0.01682
G1 X120.954 Y110.006 E0.34957
G1 X120.954 Y110.541 E0.01682
G1 X113.094 Y102.681 E0.34957
G1 X113.094 Y103.216 E0.01682
G1 X120.954 Y111.076 E0.34957
G1 X120.954 Y111.611 E0.01682
G1 X113.094 Y103.750 E0.34957
G1 X113.094 Y104.285 E0.01682
G1 X120.954 Y112.145 E0.34957
G1 X120.954 Y112.680 E0.01682
G1 X113.094 Y104.820 E0.34957
G1 X113.094 Y105.355 E0.01682
G1 X120.954 Y113.215 E0.34957
G1 X120.954 Y113.750 E0.01682
G1 X113.094 Y105.890 E0.34957
G1 X113.094 Y106.425 E0.01682
G1 X120.954 Y114.285 E0.34957
G1 X120.954 Y114.820 E0.01682
M73 Q9 S10
G1 X113.094 Y106.959 E0.34957
M73 P9 R10
G1 X113.094 Y107.494 E0.01682
G1 X120.954 Y115.355 E0.34957
G1 X120.954 Y115.889 E0.01682
G1 X113.094 Y108.029 E0.34957
G1 X113.094 Y108.564 E0.01682
G1 X120.954 Y116.424 E0.34957
G1 X120.954 Y116.959 E0.01682
G1 X113.094 Y109.099 E0.34957
G1 X113.094 Y109.634 E0.01682
G1 X120.954 Y117.494 E0.34957
G1 X120.954 Y118.029 E0.01682
G1 X113.094 Y110.169 E0.34957
G1 X113.094 Y110.703 E0.01682
G1 X120.954 Y118.564 E0.34957
G1 X120.954 Y119.099 E0.01682
G1 X113.094 Y111.238 E0.34957
G1 X113.094 Y111.773 E0.01682
G1 X120.954 Y119.633 E0.34957
G1 X120.954 Y120.168 E0.01682
G1 X113.094 Y112.308 E0.34957
G1 X113.094 Y112.843 E0.01682
G1 X120.954 Y120.703 E0.34957
G1 X120.954 Y121.238 E0.01682
G1 X113.094 Y113.378 E0.34957
G1 X113.094 Y113.913 E0.01682
G1 X120.954 Y121.773 E0.34957
G1 X120.954 Y122.308 E0.01682
G1 X113.094 Y114.447 E0.34957
G1 X113.094 Y114.982 E0.01682
G1 X120.954 Y122.843 E0.34957
G1 X120.954 Y123.377 E0.01682
G1 X113.094 Y115.517 E0.34957
G1 X113.094 Y116.052 E0.01682
G1 X120.954 Y123.912 E0.34957
G1 X120.954 Y124.447 E0.01682
G1 X113.094 Y116.587 E0.34957
G1 X113.094 Y117.122 E0.01682
G1 X120.954 Y124.982 E0.34957
G1 X120.954 Y125.517 E0.01682
G1 X120.437 Y124.999 E0.02302
G1 X120.531 Y125.309 E0.01018
G1 X120.566 Y125.663 E0.01119
G1 X120.954 Y126.052 E0.01730
G1 X120.954 Y126.586 E0.01682
G1 X120.579 Y126.211 E0.01669
G1 X120.531 Y126.698 E0.01539
G1 X120.954 Y127.121 E0.01882
G1 X120.954 Y127.656 E0.01682
G1 X120.408 Y127.109 E0.02432
G1 X120.327 Y127.374 E0.00871
G1 X120.261 Y127.498 E0.00440
G1 X120.954 Y128.191 E0.03083
G1 X120.954 Y128.726 E0.01682
G1 X120.075 Y127.846 E0.03911
G1 X119.997 Y127.992 E0.00521
G1 X119.857 Y128.163 E0.00694
G1 X120.954 Y129.261 E0.04882
G1 X120.954 Y129.796 E0.01682
G1 X119.616 Y128.457 E0.05954
G1 X119.552 Y128.534 E0.00314
G1 X119.336 Y128.712 E0.00881
G1 X120.560 Y129.936 E0.05446
G1 X120.025 Y129.936 E0.01682
G1 X119.042 Y128.953 E0.04374
G1 X118.699 Y129.145 E0.01236
G1 X119.491 Y129.936 E0.03519
G1 X118.956 Y129.936 E0.01682
G1 X118.343 Y129.324 E0.02723
G1 X117.933 Y129.448 E0.01349
G1 X118.421 Y129.936 E0.02170
G1 X117.886 Y129.936 E0.01682
G1 X117.486 Y129.536 E0.01781
G1 X116.993 Y129.578 E0.01554
G1 X117.351 Y129.936 E0.01593
G1 X116.816 Y129.936 E0.01682
G1 X116.400 Y129.520 E0.01853
G1 X116.327 Y129.513 E0.00230
G1 X115.652 Y129.307 E0.02218
G1 X116.282 Y129.936 E0.02799
G1 X115.747 Y129.936 E0.01682
G1 X113.094 Y127.284 E0.11796
G1 X113.094 Y126.749 E0.01682
G1 X113.724 Y127.378 E0.02799
G1 X113.518 Y126.704 E0.02218
G1 X113.511 Y126.631 E0.00230
G1 X113.094 Y126.214 E0.01853
