; generated by PrusaSlicer 2.2.0+win64 on 2020-09-18 at 23:29:31 UTC

; 

; external perimeters extrusion width = 0.45mm
; perimeters extrusion width = 0.45mm
; infill extrusion width = 0.45mm
; solid infill extrusion width = 0.45mm
; top infill extrusion width = 0.40mm
; first layer extrusion width = 0.42mm

M73 P0 R107
M73 Q0 S107
M201 X1000 Y1000 Z1000 E5000 ; sets maximum accelerations, mm/sec^2
M203 X200 Y200 Z12 E120 ; sets maximum feedrates, mm/sec
M204 P1250 R1250 T1250 ; sets acceleration (P, T) and retract acceleration (R), mm/sec^2
M205 X8.00 Y8.00 Z0.40 E1.50 ; sets the jerk limits, mm/sec
M205 S0 T0 ; sets the minimum extruding and travel feed rate, mm/sec
M107
M862.3 P "MK3S" ; printer model check
M862.1 P0.4 ; nozzle diameter check
M115 U3.8.0 ; tell printer latest fw version
G90 ; use absolute coordinates
M83 ; extruder relative mode
M104 S215 ; set extruder temp
M140 S60 ; set bed temp
M190 S60 ; wait for bed temp
M109 S215 ; wait for extruder temp
G28 W ; home all without mesh bed level
G80 ; mesh bed leveling
G1 Y-3.0 F1000.0 ; go outside print area
G92 E0.0
G1 X60.0 E9.0 F1000.0 ; intro line
M73 Q0 S107
M73 P0 R107
G1 X100.0 E12.5 F1000.0 ; intro line
G92 E0.0
M221 S95
G21 ; set units to millimeters
G90 ; use absolute coordinates
M83 ; use relative distances for extrusion
M900 K0.06 ; Filament gcode LA 1.5
M900 K30 ; Filament gcode LA 1.0
;BEFORE_LAYER_CHANGE
G92 E0.0
;0.2


G1 E-0.80000 F2100.00000
G1 Z0.600 F10800.000
;AFTER_LAYER_CHANGE
;0.2
G1 X108.675 Y156.969
G1 Z0.200
G1 E0.80000 F2100.00000
M204 S1000
G1 F1200.000
G1 X113.250 Y156.969 E0.14346
G1 X113.250 Y194.420 E1.17425
G1 X104.100 Y194.420 E0.28692
G1 X104.100 Y156.969 E1.17425
G1 X108.615 Y156.969 E0.14158
G1 E-0.80000 F2100.00000
G1 Z0.800 F10800.000
G1 X108.675 Y194.797
G1 Z0.200
G1 E0.80000 F2100.00000
G1 F1200.000
G1 X103.722 Y194.797 E0.15528
G1 X103.722 Y156.592 E1.19790
G1 X113.627 Y156.592 E0.31056
G1 X113.627 Y194.797 E1.19790
G1 X108.735 Y194.797 E0.15340
G1 X108.337 Y194.582 F10800.000
G1 E-0.80000 F2100.00000
G1 Z0.800 F10800.000
G1 X113.137 Y157.851
G1 Z0.200
G1 E0.80000 F2100.00000
G1 F1200.000
G1 X112.538 Y157.252 E0.02677
G1 X112.001 Y157.252 E0.01699
G1 X112.968 Y158.218 E0.04321
G1 X112.968 Y158.756 E0.01699
G1 X111.463 Y157.252 E0.06723
G1 X110.926 Y157.252 E0.01699
G1 X112.968 Y159.293 E0.09125
G1 X112.968 Y159.831 E0.01699
G1 X110.388 Y157.252 E0.11527
G1 X109.851 Y157.252 E0.01699
G1 X112.968 Y160.368 E0.13930
G1 X112.968 Y160.906 E0.01699
G1 X109.313 Y157.252 E0.16332
G1 X108.776 Y157.252 E0.01699
G1 X112.968 Y161.443 E0.18734
G1 X112.968 Y161.981 E0.01699
G1 X108.238 Y157.252 E0.21136
G1 X107.701 Y157.252 E0.01699
G1 X112.968 Y162.518 E0.23539
G1 X112.968 Y163.056 E0.01699
G1 X107.163 Y157.252 E0.25941
G1 X106.626 Y157.252 E0.01699
G1 X112.968 Y163.593 E0.28343
G1 X112.968 Y164.131 E0.01699
G1 X106.088 Y157.252 E0.30745
G1 X105.551 Y157.252 E0.01699
G1 X112.968 Y164.668 E0.33148
G1 X112.968 Y165.206 E0.01699
G1 X105.013 Y157.252 E0.35550
G1 X104.476 Y157.252 E0.01699
G1 X112.968 Y165.743 E0.37952
G1 X112.968 Y166.281 E0.01699
G1 X104.382 Y157.696 E0.38370
G1 X104.382 Y158.233 E0.01699
G1 X112.968 Y166.818 E0.38370
G1 X112.968 Y167.356 E0.01699
G1 X104.382 Y158.771 E0.38370
G1 X104.382 Y159.308 E0.01699
G1 X112.968 Y167.893 E0.38370
G1 X112.968 Y168.431 E0.01699
G1 X104.382 Y159.846 E0.38370
G1 X104.382 Y160.383 E0.01699
G1 X112.968 Y168.968 E0.38370
G1 X112.968 Y169.506 E0.01699
G1 X104.382 Y160.921 E0.38370
G1 X104.382 Y161.458 E0.01699
G1 X112.968 Y170.043 E0.38370
G1 X112.968 Y170.581 E0.01699
G1 X104.382 Y161.996 E0.38370
G1 X104.382 Y162.533 E0.01699
G1 X112.968 Y171.118 E0.38370
G1 X112.968 Y171.656 E0.01699
G1 X104.382 Y163.071 E0.38370
G1 X104.382 Y163.608 E0.01699
G1 X112.968 Y172.193 E0.38370
G1 X112.968 Y172.731 E0.01699
G1 X104.382 Y164.146 E0.38370
G1 X104.382 Y164.683 E0.01699
G1 X112.968 Y173.268 E0.38370
G1 X112.968 Y173.806 E0.01699
G1 X104.382 Y165.221 E0.38370
G1 X104.382 Y165.758 E0.01699
G1 X112.968 Y174.343 E0.38370
G1 X112.968 Y174.881 E0.01699
G1 X104.382 Y166.296 E0.38370
G1 X104.382 Y166.833 E0.01699
G1 X112.968 Y175.418 E0.38370
G1 X112.968 Y175.956 E0.01699
G1 X104.382 Y167.371 E0.38370
G1 X104.382 Y167.908 E0.01699
G1 X112.968 Y176.493 E0.38370
G1 X112.968 Y177.031 E0.01699
G1 X104.382 Y168.446 E0.38370
G1 X104.382 Y168.983 E0.01699
G1 X112.968 Y177.568 E0.38370
G1 X112.968 Y178.106 E0.01699
G1 X104.382 Y169.521 E0.38370
G1 X104.382 Y170.058 E0.01699
G1 X112.968 Y178.643 E0.38370
G1 X112.968 Y179.181 E0.01699
G1 X104.382 Y170.596 E0.38370
G1 X104.382 Y171.133 E0.01699
G1 X112.968 Y179.718 E0.38370
G1 X112.968 Y180.256 E0.01699
G1 X104.382 Y171.671 E0.38370
G1 X104.382 Y172.208 E0.01699
G1 X112.968 Y180.793 E0.38370
G1 X112.968 Y181.331 E0.01699
G1 X104.382 Y172.746 E0.38370
G1 X104.382 Y173.283 E0.01699
G1 X112.968 Y181.868 E0.38370
G1 X112.968 Y182.406 E0.01699
G1 X104.382 Y173.821 E0.38370
G1 X104.382 Y174.358 E0.01699
G1 X112.968 Y182.943 E0.38370
G1 X112.968 Y183.481 E0.01699
G1 X104.382 Y174.896 E0.38370
G1 X104.382 Y175.433 E0.01699
G1 X112.968 Y184.018 E0.38370
G1 X112.968 Y184.556 E0.01699
G1 X104.382 Y175.970 E0.38370
G1 X104.382 Y176.508 E0.01699
G1 X112.968 Y185.093 E0.38370
G1 X112.968 Y185.631 E0.01699
G1 X104.382 Y177.045 E0.38370
G1 X104.382 Y177.583 E0.01699
G1 X112.968 Y186.168 E0.38370
G1 X112.968 Y186.706 E0.01699
G1 X104.382 Y178.120 E0.38370
G1 X104.382 Y178.658 E0.01699
G1 X112.968 Y187.243 E0.38370
G1 X112.968 Y187.781 E0.01699
G1 X104.382 Y179.195 E0.38370
G1 X104.382 Y179.733 E0.01699
G1 X112.968 Y188.318 E0.38370
G1 X112.968 Y188.856 E0.01699
G1 X104.382 Y180.270 E0.38370
G1 X104.382 Y180.808 E0.01699
G1 X112.968 Y189.393 E0.38370
G1 X112.968 Y189.931 E0.01699
G1 X104.382 Y181.345 E0.38370
G1 X104.382 Y181.883 E0.01699
G1 X112.968 Y190.468 E0.38370
G1 X112.968 Y191.006 E0.01699
G1 X104.382 Y182.420 E0.38370
G1 X104.382 Y182.958 E0.01699
G1 X112.968 Y191.543 E0.38370
G1 X112.968 Y192.081 E0.01699
G1 X104.382 Y183.495 E0.38370
G1 X104.382 Y184.033 E0.01699
G1 X112.968 Y192.618 E0.38370
G1 X112.968 Y193.156 E0.01699
G1 X104.382 Y184.570 E0.38370
G1 X104.382 Y185.108 E0.01699
G1 X112.968 Y193.693 E0.38370
G1 X112.968 Y194.137 E0.01403
G1 X112.874 Y194.137 E0.00296
G1 X104.382 Y185.645 E0.37952
G1 X104.382 Y186.183 E0.01699
G1 X112.337 Y194.137 E0.35550
G1 X111.799 Y194.137 E0.01699
G1 X104.382 Y186.720 E0.33147
G1 X104.382 Y187.258 E0.01699
G1 X111.262 Y194.137 E0.30745
G1 X110.724 Y194.137 E0.01699
G1 X104.382 Y187.795 E0.28343
G1 X104.382 Y188.333 E0.01699
G1 X110.187 Y194.137 E0.25941
G1 X109.649 Y194.137 E0.01699
G1 X104.382 Y188.870 E0.23538
G1 X104.382 Y189.408 E0.01699
G1 X109.112 Y194.137 E0.21136
G1 X108.574 Y194.137 E0.01699
G1 X104.382 Y189.945 E0.18734
G1 X104.382 Y190.483 E0.01699
G1 X108.037 Y194.137 E0.16332
G1 X107.499 Y194.137 E0.01699
G1 X104.382 Y191.020 E0.13929
G1 X104.382 Y191.558 E0.01699
G1 X106.962 Y194.137 E0.11527
G1 X106.424 Y194.137 E0.01699
G1 X104.382 Y192.095 E0.09125
G1 X104.382 Y192.633 E0.01699
G1 X105.887 Y194.137 E0.06723
G1 X105.349 Y194.137 E0.01699
G1 X104.382 Y193.170 E0.04320
M73 Q0 S106
G1 X104.382 Y193.708 E0.01699
G1 X104.981 Y194.307 E0.02677
G1 E-0.80000 F2100.00000
G1 Z0.800 F10800.000
G1 X125.000 Y194.420
G1 Z0.200
G1 E0.80000 F2100.00000
G1 F1200.000
G1 X120.425 Y194.420 E0.14346
M73 P0 R106
G1 X120.425 Y156.969 E1.17425
G1 X129.575 Y156.969 E0.28692
G1 X129.575 Y194.420 E1.17425
G1 X125.060 Y194.420 E0.14158
G1 X125.000 Y194.797 F10800.000
G1 F1200.000
G1 X120.047 Y194.797 E0.15528
G1 X120.048 Y156.592 E1.19790
G1 X129.953 Y156.592 E0.31056
G1 X129.953 Y194.797 E1.19790
G1 X125.060 Y194.797 E0.15340
G1 X124.663 Y194.582 F10800.000
G1 E-0.80000 F2100.00000
G1 Z0.800 F10800.000
G1 X129.462 Y157.851
G1 Z0.200
G1 E0.80000 F2100.00000
G1 F1200.000
G1 X128.863 Y157.252 E0.02677
G1 X128.326 Y157.252 E0.01699
G1 X129.293 Y158.218 E0.04321
G1 X129.293 Y158.756 E0.01699
G1 X127.788 Y157.252 E0.06723
G1 X127.251 Y157.252 E0.01699
G1 X129.293 Y159.293 E0.09125
G1 X129.293 Y159.831 E0.01699
G1 X126.713 Y157.252 E0.11527
G1 X126.176 Y157.252 E0.01699
G1 X129.293 Y160.368 E0.13930
G1 X129.293 Y160.906 E0.01699
G1 X125.638 Y157.252 E0.16332
G1 X125.101 Y157.252 E0.01699
G1 X129.293 Y161.443 E0.18734
G1 X129.293 Y161.981 E0.01699
G1 X124.563 Y157.252 E0.21136
G1 X124.026 Y157.252 E0.01699
G1 X129.293 Y162.518 E0.23539
G1 X129.293 Y163.056 E0.01699
G1 X123.488 Y157.252 E0.25941
G1 X122.951 Y157.252 E0.01699
G1 X129.293 Y163.593 E0.28343
G1 X129.293 Y164.131 E0.01699
G1 X122.413 Y157.252 E0.30745
G1 X121.876 Y157.252 E0.01699
G1 X129.293 Y164.668 E0.33148
G1 X129.293 Y165.206 E0.01699
G1 X121.338 Y157.252 E0.35550
G1 X120.801 Y157.252 E0.01699
G1 X129.293 Y165.743 E0.37952
G1 X129.293 Y166.281 E0.01699
G1 X120.707 Y157.696 E0.38370
G1 X120.707 Y158.233 E0.01699
G1 X129.293 Y166.818 E0.38370
G1 X129.293 Y167.356 E0.01699
G1 X120.707 Y158.771 E0.38370
G1 X120.707 Y159.308 E0.01699
G1 X129.293 Y167.893 E0.38370
G1 X129.293 Y168.431 E0.01699
G1 X120.707 Y159.846 E0.38370
G1 X120.707 Y160.383 E0.01699
G1 X129.293 Y168.968 E0.38370
G1 X129.293 Y169.506 E0.01699
G1 X120.707 Y160.921 E0.38370
G1 X120.707 Y161.458 E0.01699
G1 X129.293 Y170.043 E0.38370
G1 X129.293 Y170.581 E0.01699
G1 X120.707 Y161.996 E0.38370
G1 X120.707 Y162.533 E0.01699
G1 X129.293 Y171.118 E0.38370
G1 X129.293 Y171.656 E0.01699
G1 X120.707 Y163.071 E0.38370
G1 X120.707 Y163.608 E0.01699
G1 X129.293 Y172.193 E0.38370
G1 X129.293 Y172.731 E0.01699
G1 X120.707 Y164.146 E0.38370
G1 X120.707 Y164.683 E0.01699
G1 X129.293 Y173.268 E0.38370
G1 X129.293 Y173.806 E0.01699
G1 X120.707 Y165.221 E0.38370
G1 X120.707 Y165.758 E0.01699
G1 X129.293 Y174.343 E0.38370
G1 X129.293 Y174.881 E0.01699
G1 X120.707 Y166.296 E0.38370
G1 X120.707 Y166.833 E0.01699
G1 X129.293 Y175.418 E0.38370
G1 X129.293 Y175.956 E0.01699
G1 X120.707 Y167.371 E0.38370
G1 X120.707 Y167.908 E0.01699
G1 X129.293 Y176.493 E0.38370
G1 X129.293 Y177.031 E0.01699
G1 X120.707 Y168.446 E0.38370
G1 X120.707 Y168.983 E0.01699
G1 X129.293 Y177.568 E0.38370
G1 X129.293 Y178.106 E0.01699
G1 X120.707 Y169.521 E0.38370
G1 X120.707 Y170.058 E0.01699
G1 X129.293 Y178.643 E0.38370
G1 X129.293 Y179.181 E0.01699
G1 X120.707 Y170.596 E0.38370
G1 X120.707 Y171.133 E0.01699
G1 X129.293 Y179.718 E0.38370
G1 X129.293 Y180.256 E0.01699
G1 X120.707 Y171.671 E0.38370
G1 X120.707 Y172.208 E0.01699
G1 X129.293 Y180.793 E0.38370
G1 X129.293 Y181.331 E0.01699
G1 X120.707 Y172.746 E0.38370
G1 X120.707 Y173.283 E0.01699
G1 X129.293 Y181.868 E0.38370
G1 X129.293 Y182.406 E0.01699
G1 X120.707 Y173.821 E0.38370
G1 X120.707 Y174.358 E0.01699
G1 X129.293 Y182.943 E0.38370
G1 X129.293 Y183.481 E0.01699
G1 X120.707 Y174.896 E0.38370
G1 X120.707 Y175.433 E0.01699
G1 X129.293 Y184.018 E0.38370
G1 X129.293 Y184.556 E0.01699
G1 X120.707 Y175.971 E0.38370
G1 X120.707 Y176.508 E0.01699
G1 X129.293 Y185.093 E0.38370
G1 X129.293 Y185.631 E0.01699
G1 X120.707 Y177.046 E0.38370
G1 X120.707 Y177.583 E0.01699
G1 X129.293 Y186.168 E0.38370
G1 X129.293 Y186.706 E0.01699
G1 X120.707 Y178.121 E0.38370
G1 X120.707 Y178.658 E0.01699
G1 X129.293 Y187.243 E0.38370
G1 X129.293 Y187.781 E0.01699
G1 X120.707 Y179.195 E0.38370
G1 X120.707 Y179.733 E0.01699
G1 X129.293 Y188.318 E0.38370
G1 X129.293 Y188.856 E0.01699
G1 X120.707 Y180.270 E0.38370
G1 X120.707 Y180.808 E0.01699
G1 X129.293 Y189.393 E0.38370
G1 X129.293 Y189.931 E0.01699
G1 X120.707 Y181.345 E0.38370
G1 X120.707 Y181.883 E0.01699
G1 X129.293 Y190.468 E0.38370
G1 X129.293 Y191.006 E0.01699
G1 X120.707 Y182.420 E0.38370
G1 X120.707 Y182.958 E0.01699
G1 X129.293 Y191.543 E0.38370
G1 X129.293 Y192.081 E0.01699
G1 X120.707 Y183.495 E0.38370
G1 X120.707 Y184.033 E0.01699
G1 X129.293 Y192.618 E0.38370
G1 X129.293 Y193.156 E0.01699
G1 X120.707 Y184.570 E0.38370
G1 X120.707 Y185.108 E0.01699
G1 X129.293 Y193.693 E0.38370
G1 X129.293 Y194.137 E0.01403
G1 X129.199 Y194.137 E0.00296
G1 X120.707 Y185.645 E0.37952
G1 X120.707 Y186.183 E0.01699
G1 X128.662 Y194.137 E0.35550
G1 X128.124 Y194.137 E0.01699
G1 X120.707 Y186.720 E0.33147
G1 X120.707 Y187.258 E0.01699
G1 X127.587 Y194.137 E0.30745
G1 X127.049 Y194.137 E0.01699
G1 X120.707 Y187.795 E0.28343
G1 X120.707 Y188.333 E0.01699
G1 X126.512 Y194.137 E0.25941
G1 X125.974 Y194.137 E0.01699
G1 X120.707 Y188.870 E0.23538
G1 X120.707 Y189.408 E0.01699
G1 X125.437 Y194.137 E0.21136
G1 X124.899 Y194.137 E0.01699
G1 X120.707 Y189.945 E0.18734
G1 X120.707 Y190.483 E0.01699
G1 X124.362 Y194.137 E0.16332
G1 X123.824 Y194.137 E0.01699
G1 X120.707 Y191.020 E0.13929
G1 X120.707 Y191.558 E0.01699
G1 X123.287 Y194.137 E0.11527
G1 X122.749 Y194.137 E0.01699
G1 X120.707 Y192.095 E0.09125
G1 X120.707 Y192.633 E0.01699
G1 X122.212 Y194.137 E0.06723
G1 X121.674 Y194.137 E0.01699
G1 X120.707 Y193.170 E0.04320
G1 X120.707 Y193.708 E0.01699
G1 X121.306 Y194.307 E0.02677
G1 E-0.80000 F2100.00000
G1 Z0.800 F10800.000
G1 X141.325 Y194.420
G1 Z0.200
G1 E0.80000 F2100.00000
G1 F1200.000
G1 X136.750 Y194.420 E0.14346
G1 X136.750 Y156.969 E1.17425
G1 X145.900 Y156.969 E0.28692
G1 X145.900 Y194.420 E1.17425
M73 Q1 S105
G1 X141.385 Y194.420 E0.14158
G1 X141.325 Y194.797 F10800.000
G1 F1200.000
G1 X136.373 Y194.797 E0.15528
M73 P1 R105
G1 X136.373 Y156.592 E1.19790
G1 X146.278 Y156.592 E0.31056
G1 X146.278 Y194.797 E1.19790
G1 X141.385 Y194.797 E0.15340
G1 X140.988 Y194.582 F10800.000
G1 E-0.80000 F2100.00000
G1 Z0.800 F10800.000
G1 X145.787 Y157.851
G1 Z0.200
G1 E0.80000 F2100.00000
G1 F1200.000
G1 X145.188 Y157.252 E0.02677
G1 X144.651 Y157.252 E0.01699
G1 X145.618 Y158.218 E0.04321
G1 X145.618 Y158.756 E0.01699
G1 X144.113 Y157.252 E0.06723
G1 X143.576 Y157.252 E0.01699
G1 X145.618 Y159.293 E0.09125
G1 X145.618 Y159.831 E0.01699
G1 X143.038 Y157.252 E0.11527
G1 X142.501 Y157.252 E0.01699
G1 X145.618 Y160.368 E0.13930
G1 X145.618 Y160.906 E0.01699
G1 X141.963 Y157.252 E0.16332
G1 X141.426 Y157.252 E0.01699
G1 X145.618 Y161.443 E0.18734
G1 X145.618 Y161.981 E0.01699
G1 X140.888 Y157.252 E0.21136
G1 X140.351 Y157.252 E0.01699
G1 X145.618 Y162.518 E0.23539
G1 X145.618 Y163.056 E0.01699
G1 X139.813 Y157.252 E0.25941
G1 X139.276 Y157.252 E0.01699
G1 X145.618 Y163.593 E0.28343
G1 X145.618 Y164.131 E0.01699
G1 X138.738 Y157.252 E0.30745
G1 X138.201 Y157.252 E0.01699
G1 X145.618 Y164.668 E0.33148
G1 X145.618 Y165.206 E0.01699
G1 X137.663 Y157.252 E0.35550
G1 X137.126 Y157.252 E0.01699
G1 X145.618 Y165.743 E0.37952
G1 X145.618 Y166.281 E0.01699
G1 X137.032 Y157.696 E0.38370
G1 X137.032 Y158.233 E0.01699
G1 X145.618 Y166.818 E0.38370
G1 X145.618 Y167.356 E0.01699
G1 X137.032 Y158.771 E0.38370
G1 X137.032 Y159.308 E0.01699
G1 X145.618 Y167.893 E0.38370
G1 X145.618 Y168.431 E0.01699
G1 X137.032 Y159.846 E0.38370
G1 X137.032 Y160.383 E0.01699
G1 X145.618 Y168.968 E0.38370
G1 X145.618 Y169.506 E0.01699
G1 X137.032 Y160.921 E0.38370
G1 X137.032 Y161.458 E0.01699
G1 X145.618 Y170.043 E0.38370
G1 X145.618 Y170.581 E0.01699
G1 X137.032 Y161.996 E0.38370
G1 X137.032 Y162.533 E0.01699
G1 X145.618 Y171.118 E0.38370
G1 X145.618 Y171.656 E0.01699
G1 X137.032 Y163.071 E0.38370
G1 X137.032 Y163.608 E0.01699
G1 X145.618 Y172.193 E0.38370
G1 X145.618 Y172.731 E0.01699
G1 X137.032 Y164.146 E0.38370
G1 X137.032 Y164.683 E0.01699
G1 X145.618 Y173.268 E0.38370
G1 X145.618 Y173.806 E0.01699
G1 X137.032 Y165.221 E0.38370
G1 X137.032 Y165.758 E0.01699
G1 X145.618 Y174.343 E0.38370
G1 X145.618 Y174.881 E0.01699
G1 X137.032 Y166.296 E0.38370
G1 X137.032 Y166.833 E0.01699
G1 X145.618 Y175.418 E0.38370
G1 X145.618 Y175.956 E0.01699
G1 X137.032 Y167.371 E0.38370
G1 X137.032 Y167.908 E0.01699
G1 X145.618 Y176.493 E0.38370
G1 X145.618 Y177.031 E0.01699
G1 X137.032 Y168.446 E0.38370
G1 X137.032 Y168.983 E0.01699
G1 X145.618 Y177.568 E0.38370
G1 X145.618 Y178.106 E0.01699
G1 X137.032 Y169.521 E0.38370
G1 X137.032 Y170.058 E0.01699
G1 X145.618 Y178.643 E0.38370
G1 X145.618 Y179.181 E0.01699
G1 X137.032 Y170.596 E0.38370
G1 X137.032 Y171.133 E0.01699
G1 X145.618 Y179.718 E0.38370
G1 X145.618 Y180.256 E0.01699
