; generated by PrusaSlicer 2.3.1+win64 on 2021-06-09 at 20:19:34 UTC

; 

; external perimeters extrusion width = 0.45mm
; perimeters extrusion width = 0.45mm
; infill extrusion width = 0.45mm
; solid infill extrusion width = 0.45mm
; top infill extrusion width = 0.40mm
; support material extrusion width = 0.35mm
; first layer extrusion width = 0.42mm

M73 P0 R58
M73 Q0 S58
M201 X1000 Y1000 Z1000 E5000 ; sets maximum accelerations, mm/sec^2
M203 X200 Y200 Z12 E120 ; sets maximum feedrates, mm/sec
M204 P1250 R1250 T1250 ; sets acceleration (P, T) and retract acceleration (R), mm/sec^2
M205 X8.00 Y8.00 Z0.40 E1.50 ; sets the jerk limits, mm/sec
M205 S0 T0 ; sets the minimum extruding and travel feed rate, mm/sec
M107
;TYPE:Custom
M862.3 P "MK3S" ; printer model check
M862.1 P0.4 ; nozzle diameter check
M115 U3.8.0 ; tell printer latest fw version
G90 ; use absolute coordinates
M83 ; extruder relative mode
M104 S215 ; set extruder temp
M140 S60 ; set bed temp
M190 S60 ; wait for bed temp
M109 S215 ; wait for extruder temp
G28 W ; home all without mesh bed level
G80 ; mesh bed leveling
G1 Y-3.0 F1000.0 ; go outside print area
G92 E0.0
G1 X60.0 E9.0 F1000.0 ; intro line
G1 X100.0 E12.5 F1000.0 ; intro line
G92 E0.0
M221 S95
G21 ; set units to millimeters
G90 ; use absolute coordinates
M83 ; use relative distances for extrusion
M900 K0.05 ; Filament gcode LA 1.5
M900 K30 ; Filament gcode LA 1.0
;LAYER_CHANGE
;Z:0.2
;HEIGHT:0.2
;BEFORE_LAYER_CHANGE
G92 E0.0
;0.2


G1 E-0.80000 F2100.000
G1 Z0.600 F10800.000
;AFTER_LAYER_CHANGE
;0.2
G1 X154.115 Y131.726
G1 Z0.200
G1 E0.80000 F2100.000
M204 S1000
;TYPE:Perimeter
;WIDTH:0.42
G1 F1200.000
G1 X154.099 Y132.608 E0.02765
G1 X154.066 Y132.762 E0.00493
G1 X154.004 Y132.852 E0.00342
G1 X153.832 Y132.977 E0.00667
G1 X153.521 Y133.159 E0.01132
G1 X149.384 Y135.355 E0.14684
G1 X149.250 Y135.398 E0.00440
G1 X149.119 Y135.492 E0.00507
G1 X149.047 Y135.514 E0.00237
G1 X148.939 Y135.585 E0.00404
G1 X148.817 Y135.615 E0.00393
G1 X148.641 Y135.746 E0.00689
G1 X146.996 Y136.602 E0.05815
G1 X146.854 Y136.696 E0.00533
G1 X146.429 Y136.905 E0.01487
G1 X145.353 Y137.494 E0.03845
G1 X145.177 Y137.555 E0.00585
G1 X145.075 Y137.634 E0.00405
G1 X144.893 Y137.731 E0.00646
G1 X144.712 Y137.780 E0.00587
G1 X144.622 Y137.875 E0.00412
G1 X144.460 Y137.964 E0.00579
G1 X143.386 Y138.515 E0.03783
G1 X142.831 Y138.735 E0.01873
G1 X142.017 Y138.904 E0.02607
G1 X141.046 Y139.049 E0.03077
G1 X140.796 Y139.111 E0.00807
G1 X140.532 Y139.136 E0.00832
G1 X139.827 Y139.271 E0.02251
G1 X139.322 Y139.338 E0.01597
G1 X139.180 Y139.388 E0.00471
G1 X138.842 Y139.454 E0.01081
G1 X137.844 Y139.600 E0.03161
G1 X137.584 Y139.664 E0.00840
G1 X137.324 Y139.689 E0.00818
G1 X136.624 Y139.823 E0.02235
G1 X136.137 Y139.888 E0.01540
G1 X135.593 Y140.013 E0.01752
G1 X135.048 Y140.074 E0.01719
G1 X134.563 Y140.191 E0.01564
G1 X134.022 Y140.253 E0.01707
G1 X133.414 Y140.387 E0.01951
G1 X133.153 Y140.409 E0.00822
G1 X131.472 Y140.700 E0.05350
G1 X131.349 Y140.744 E0.00409
G1 X130.844 Y140.799 E0.01592
G1 X130.222 Y140.936 E0.01996
G1 X129.934 Y140.962 E0.00909
G1 X129.178 Y141.117 E0.02419
G1 X128.625 Y141.184 E0.01747
G1 X127.784 Y141.341 E0.02682
G1 X127.537 Y141.361 E0.00777
G1 X127.378 Y141.411 E0.00524
G1 X126.524 Y141.550 E0.02713
G1 X125.967 Y141.666 E0.01785
G1 X124.966 Y141.795 E0.03165
G1 X124.811 Y141.792 E0.00487
G1 X123.722 Y141.612 E0.03458
G1 X122.988 Y141.452 E0.02356
G1 X121.570 Y141.193 E0.04519
G1 X121.058 Y141.073 E0.01649
G1 X120.338 Y140.949 E0.02292
G1 X118.863 Y140.648 E0.04719
G1 X118.239 Y140.544 E0.01984
G1 X116.401 Y140.169 E0.05883
G1 X116.007 Y140.110 E0.01247
G1 X114.608 Y139.815 E0.04484
G1 X113.869 Y139.691 E0.02349
G1 X113.299 Y139.562 E0.01832
G1 X112.661 Y139.456 E0.02030
G1 X111.078 Y139.131 E0.05067
G1 X110.434 Y139.026 E0.02046
G1 X109.905 Y138.901 E0.01704
G1 X109.383 Y138.814 E0.01658
G1 X109.008 Y138.728 E0.01207
G1 X108.303 Y138.609 E0.02241
G1 X107.255 Y138.391 E0.03359
G1 X106.878 Y138.269 E0.01240
G1 X106.125 Y137.901 E0.02628
G1 X96.270 Y132.367 E0.35437
G1 X95.882 Y132.078 E0.01518
G1 X95.809 Y131.929 E0.00522
G1 X95.792 Y131.707 E0.00695
G1 X95.902 Y124.051 E0.24007
G1 X96.747 Y124.595 E0.03149
G1 X97.427 Y124.995 E0.02474
G1 X97.756 Y125.217 E0.01245
G1 X99.950 Y126.461 E0.07908
G1 X101.727 Y127.362 E0.06246
G1 X103.259 Y128.086 E0.05313
G1 X104.539 Y128.641 E0.04373
G1 X105.472 Y129.021 E0.03161
G1 X106.893 Y129.564 E0.04768
G1 X108.707 Y130.188 E0.06016
G1 X109.892 Y130.539 E0.03874
G1 X110.099 Y130.617 E0.00694
G1 X112.514 Y131.262 E0.07837
G1 X113.975 Y131.588 E0.04694
G1 X115.810 Y131.946 E0.05861
G1 X116.990 Y132.143 E0.03752
G1 X118.505 Y132.354 E0.04794
G1 X120.868 Y132.594 E0.07448
G1 X122.228 Y132.680 E0.04274
G1 X123.816 Y132.741 E0.04982
G1 X125.505 Y132.764 E0.05297
G1 X127.661 Y132.705 E0.06761
G1 X130.200 Y132.522 E0.07984
G1 X130.364 Y132.481 E0.00530
G1 X131.724 Y132.354 E0.04282
G1 X131.942 Y132.302 E0.00703
G1 X133.060 Y132.164 E0.03533
G1 X133.229 Y132.119 E0.00548
G1 X134.249 Y131.969 E0.03232
G1 X134.341 Y131.938 E0.00305
G1 X134.608 Y131.904 E0.00843
G1 X135.400 Y131.738 E0.02539
G1 X135.592 Y131.717 E0.00606
G1 X137.446 Y131.307 E0.05953
G1 X137.875 Y131.188 E0.01395
G1 X138.572 Y131.034 E0.02240
G1 X138.665 Y130.990 E0.00322
G1 X138.900 Y130.947 E0.00748
G1 X139.086 Y130.879 E0.00620
G1 X139.372 Y130.832 E0.00911
G1 X139.458 Y130.777 E0.00320
G1 X139.964 Y130.654 E0.01631
G1 X140.057 Y130.604 E0.00330
G1 X140.280 Y130.554 E0.00717
G1 X140.697 Y130.410 E0.01385
G1 X140.975 Y130.349 E0.00892
G1 X141.053 Y130.301 E0.00288
G1 X142.479 Y129.853 E0.04685
G1 X142.530 Y129.809 E0.00212
G1 X142.945 Y129.681 E0.01360
G1 X143.090 Y129.616 E0.00500
G1 X143.326 Y129.570 E0.00751
G1 X143.391 Y129.502 E0.00297
G1 X144.068 Y129.273 E0.02241
G1 X144.149 Y129.215 E0.00313
G1 X144.464 Y129.092 E0.01060
G1 X145.112 Y128.874 E0.02144
G1 X145.149 Y128.836 E0.00166
G1 X145.265 Y128.800 E0.00381
G1 X145.373 Y128.729 E0.00405
G1 X146.183 Y128.404 E0.02737
G1 X146.483 Y128.265 E0.01038
G1 X146.648 Y128.237 E0.00522
G1 X146.725 Y128.168 E0.00324
G1 X146.848 Y128.131 E0.00403
G1 X146.957 Y128.059 E0.00410
G1 X147.083 Y128.033 E0.00403
G1 X147.151 Y127.971 E0.00289
G1 X147.287 Y127.925 E0.00447
G1 X147.557 Y127.777 E0.00966
G1 X147.706 Y127.740 E0.00481
G1 X147.809 Y127.649 E0.00433
G1 X148.482 Y127.324 E0.02343
G1 X148.682 Y127.266 E0.00652
G1 X148.760 Y127.200 E0.00322
G1 X148.902 Y127.147 E0.00475
G1 X149.178 Y126.992 E0.00993
G1 X149.340 Y126.951 E0.00524
G1 X149.405 Y126.879 E0.00305
G1 X149.551 Y126.843 E0.00469
G1 X149.615 Y126.772 E0.00300
G1 X151.342 Y125.827 E0.06174
G1 X153.210 Y124.716 E0.06812
G1 X153.403 Y124.574 E0.00755
G1 X153.797 Y124.345 E0.01428
G1 X154.209 Y124.047 E0.01591
G1 X154.117 Y131.666 E0.23891
G1 X154.494 Y131.674 F10800.000
;TYPE:External perimeter
G1 F1200.000
G1 X154.475 Y132.651 E0.03064
G1 X154.420 Y132.914 E0.00844
G1 X154.278 Y133.120 E0.00783
G1 X154.038 Y133.293 E0.00926
G1 X153.704 Y133.489 E0.01214
G1 X149.531 Y135.704 E0.14814
G1 X149.422 Y135.738 E0.00357
G1 X149.289 Y135.835 E0.00517
G1 X149.207 Y135.860 E0.00267
G1 X149.091 Y135.935 E0.00436
G1 X148.982 Y135.962 E0.00352
G1 X148.843 Y136.067 E0.00546
G1 X147.188 Y136.927 E0.05849
G1 X147.042 Y137.024 E0.00546
G1 X146.602 Y137.240 E0.01537
G1 X145.506 Y137.840 E0.03920
G1 X145.359 Y137.891 E0.00486
G1 X145.252 Y137.975 E0.00427
G1 X145.174 Y137.998 E0.00255
G1 X145.048 Y138.080 E0.00470
G1 X144.913 Y138.116 E0.00438
G1 X144.855 Y138.178 E0.00266
G1 X144.636 Y138.297 E0.00782
G1 X143.542 Y138.859 E0.03855
G1 X142.939 Y139.097 E0.02032
G1 X142.077 Y139.277 E0.02762
G1 X141.769 Y139.312 E0.00971
G1 X141.122 Y139.419 E0.02057
G1 X140.860 Y139.484 E0.00847
G1 X140.585 Y139.510 E0.00865
G1 X139.887 Y139.643 E0.02230
G1 X139.410 Y139.707 E0.01508
G1 X139.279 Y139.753 E0.00436
G1 X138.905 Y139.825 E0.01193
G1 X137.917 Y139.971 E0.03132
G1 X137.647 Y140.037 E0.00870
G1 X137.378 Y140.063 E0.00849
G1 X136.685 Y140.196 E0.02213
G1 X136.204 Y140.260 E0.01519
G1 X135.656 Y140.385 E0.01764
G1 X135.132 Y140.444 E0.01653
G1 X134.645 Y140.561 E0.01569
G1 X134.084 Y140.625 E0.01772
G1 X133.471 Y140.760 E0.01968
G1 X133.201 Y140.784 E0.00849
G1 X131.568 Y141.066 E0.05197
G1 X131.434 Y141.114 E0.00446
G1 X130.905 Y141.172 E0.01668
G1 X130.280 Y141.309 E0.02006
G1 X129.989 Y141.336 E0.00917
G1 X129.239 Y141.490 E0.02402
G1 X128.682 Y141.557 E0.01758
G1 X127.834 Y141.715 E0.02706
G1 X127.609 Y141.733 E0.00706
G1 X127.465 Y141.778 E0.00474
G1 X126.593 Y141.921 E0.02771
G1 X126.029 Y142.038 E0.01805
G1 X124.985 Y142.173 E0.03301
G1 X124.775 Y142.168 E0.00659
G1 X123.651 Y141.983 E0.03571
G1 X122.914 Y141.821 E0.02366
G1 X121.493 Y141.563 E0.04528
G1 X120.983 Y141.442 E0.01643
G1 X120.268 Y141.319 E0.02274
G1 X118.795 Y141.019 E0.04716
G1 X118.171 Y140.915 E0.01984
G1 X116.335 Y140.540 E0.05874
G1 X115.940 Y140.481 E0.01251
G1 X114.538 Y140.186 E0.04494
G1 X113.796 Y140.061 E0.02358
G1 X113.227 Y139.932 E0.01830
G1 X112.592 Y139.827 E0.02018
G1 X111.009 Y139.502 E0.05066
G1 X110.360 Y139.396 E0.02063
G1 X109.831 Y139.271 E0.01705
G1 X109.310 Y139.184 E0.01655
G1 X108.935 Y139.098 E0.01208
G1 X108.234 Y138.980 E0.02228
G1 X107.158 Y138.756 E0.03446
G1 X106.737 Y138.619 E0.01388
G1 X105.950 Y138.235 E0.02746
G1 X96.065 Y132.684 E0.35546
G1 X95.583 Y132.326 E0.01881
G1 X95.438 Y132.029 E0.01037
G1 X95.415 Y131.719 E0.00975
G1 X95.545 Y123.362 E0.26204
G1 X95.841 Y123.538 E0.01079
G1 X96.110 Y123.737 E0.01052
G1 X96.944 Y124.274 E0.03110
G1 X97.629 Y124.676 E0.02488
G1 X97.955 Y124.897 E0.01236
G1 X100.129 Y126.128 E0.07834
G1 X101.893 Y127.023 E0.06203
G1 X103.415 Y127.743 E0.05277
G1 X104.685 Y128.293 E0.04341
G1 X105.611 Y128.670 E0.03135
G1 X107.022 Y129.210 E0.04735
G1 X108.824 Y129.829 E0.05976
G1 X109.861 Y130.149 E0.03403
G1 X109.995 Y130.175 E0.00428
G1 X110.214 Y130.257 E0.00733
G1 X112.604 Y130.896 E0.07756
G1 X114.052 Y131.219 E0.04653
G1 X115.877 Y131.575 E0.05829
G1 X117.047 Y131.771 E0.03721
G1 X118.550 Y131.980 E0.04755
G1 X120.899 Y132.218 E0.07403
G1 X122.247 Y132.304 E0.04237
G1 X123.826 Y132.364 E0.04953
G1 X125.502 Y132.386 E0.05258
G1 X127.640 Y132.328 E0.06704
G1 X128.511 Y132.256 E0.02742
G1 X129.198 Y132.224 E0.02156
G1 X130.139 Y132.149 E0.02957
G1 X130.300 Y132.108 E0.00522
G1 X131.663 Y131.981 E0.04291
G1 X131.875 Y131.930 E0.00686
G1 X132.989 Y131.793 E0.03518
G1 X133.154 Y131.749 E0.00534
G1 X134.160 Y131.601 E0.03191
G1 X134.256 Y131.569 E0.00317
G1 X134.546 Y131.532 E0.00915
G1 X135.341 Y131.365 E0.02549
G1 X135.531 Y131.344 E0.00600
G1 X137.355 Y130.941 E0.05855
G1 X137.784 Y130.822 E0.01395
G1 X138.449 Y130.675 E0.02138
G1 X138.549 Y130.628 E0.00344
G1 X138.800 Y130.582 E0.00802
G1 X138.989 Y130.513 E0.00631
G1 X139.235 Y130.473 E0.00781
G1 X139.308 Y130.426 E0.00273
G1 X139.829 Y130.299 E0.01680
G1 X139.924 Y130.248 E0.00340
G1 X140.177 Y130.191 E0.00811
G1 X140.595 Y130.047 E0.01387
G1 X140.831 Y129.995 E0.00758
G1 X140.899 Y129.952 E0.00251
G1 X141.400 Y129.809 E0.01633
G1 X141.739 Y129.679 E0.01138
G1 X142.296 Y129.514 E0.01821
G1 X142.346 Y129.471 E0.00206
G1 X142.811 Y129.328 E0.01527
G1 X142.976 Y129.254 E0.00565
G1 X143.136 Y129.223 E0.00513
G1 X143.183 Y129.174 E0.00211
G1 X143.893 Y128.935 E0.02350
G1 X143.966 Y128.881 E0.00285
G1 X144.335 Y128.737 E0.01242
G1 X144.903 Y128.547 E0.01878
G1 X144.944 Y128.504 E0.00183
G1 X145.102 Y128.456 E0.00520
G1 X145.196 Y128.393 E0.00354
G1 X146.033 Y128.058 E0.02827
G1 X146.371 Y127.901 E0.01166
G1 X146.478 Y127.883 E0.00340
G1 X146.536 Y127.831 E0.00246
G1 X146.687 Y127.786 E0.00493
G1 X146.810 Y127.705 E0.00460
G1 X146.905 Y127.685 E0.00306
G1 X146.956 Y127.639 E0.00216
G1 X147.113 Y127.586 E0.00520
G1 X147.207 Y127.519 E0.00360
G1 X147.277 Y127.505 E0.00224
G1 X147.413 Y127.424 E0.00496
G1 X147.525 Y127.397 E0.00360
G1 X147.598 Y127.332 E0.00306
G1 X148.347 Y126.970 E0.02609
G1 X148.499 Y126.927 E0.00497
G1 X148.566 Y126.870 E0.00274
G1 X148.726 Y126.810 E0.00535
G1 X148.831 Y126.736 E0.00404
G1 X148.906 Y126.718 E0.00240
G1 X149.027 Y126.640 E0.00452
G1 X149.137 Y126.613 E0.00354
G1 X149.230 Y126.533 E0.00385
G1 X149.348 Y126.504 E0.00380
G1 X149.391 Y126.457 E0.00200
G1 X151.155 Y125.499 E0.06294
G1 X153.001 Y124.402 E0.06734
G1 X153.196 Y124.258 E0.00760
G1 X153.592 Y124.028 E0.01434
G1 X153.904 Y123.802 E0.01208
G1 X154.204 Y123.627 E0.01089
G1 X154.585 Y123.349 E0.01480
G1 X154.495 Y131.614 E0.25915
G1 X154.147 Y131.873 F10800.000
G1 E-0.80000 F2100.000
G1 Z0.800 F10800.000
G1 X95.913 Y131.169
G1 Z0.200
G1 E0.80000 F2100.000
;TYPE:Solid infill
;WIDTH:0.42199
G1 F1200.000
G1 X97.449 Y132.705 E0.06847
G1 X98.672 Y133.391 E0.04419
G1 X96.088 Y130.807 E0.11517
G1 X96.096 Y130.279 E0.01666
G1 X99.894 Y134.077 E0.16932
G1 X101.117 Y134.764 E0.04419
G1 X96.103 Y129.750 E0.22348
M73 P0 R57
G1 X96.111 Y129.222 E0.01666
G1 X102.339 Y135.450 E0.27763
G1 X103.562 Y136.137 E0.04419
G1 X96.118 Y128.693 E0.33179
G1 X96.126 Y128.165 E0.01666
G1 X104.784 Y136.823 E0.38595
G1 X106.007 Y137.510 E0.04419
G1 X96.134 Y127.636 E0.44010
G1 X96.141 Y127.108 E0.01666
G1 X107.065 Y138.032 E0.48695
G1 X107.327 Y138.117 E0.00867
G1 X107.781 Y138.211 E0.01460
G1 X96.149 Y126.580 E0.51850
G1 X96.156 Y126.051 E0.01666
G1 X108.453 Y138.348 E0.54814
G1 X109.100 Y138.459 E0.02068
G1 X96.164 Y125.523 E0.57663
G1 X96.172 Y124.994 E0.01666
G1 X109.769 Y138.592 E0.60613
G1 X110.453 Y138.740 E0.02206
G1 X96.462 Y124.749 E0.62366
G1 X97.840 Y125.590 E0.05087
G1 X111.098 Y138.848 E0.59099
G1 X111.770 Y138.985 E0.02164
G1 X99.076 Y126.291 E0.56585
G1 X99.817 Y126.710 E0.02682
G1 X100.254 Y126.932 E0.01544
G1 X112.445 Y139.123 E0.54344
M73 Q1 S58
G1 X113.100 Y139.242 E0.02098
G1 X101.342 Y127.484 E0.52414
M73 P1 R57
G1 X102.375 Y127.981 E0.03617
G1 X113.773 Y139.379 E0.50804
G1 X114.428 Y139.498 E0.02100
G1 X103.375 Y128.445 E0.49272
G1 X104.321 Y128.854 E0.03249
G1 X115.095 Y139.629 E0.48028
G1 X115.774 Y139.772 E0.02186
G1 X105.230 Y129.228 E0.46999
G1 X106.104 Y129.565 E0.02951
G1 X116.425 Y139.887 E0.46008
M73 Q1 S57
G1 X117.097 Y140.022 E0.02160
G1 X106.961 Y129.887 E0.45180
G1 X107.778 Y130.168 E0.02723
G1 X117.770 Y140.159 E0.44540
G1 X118.437 Y140.290 E0.02141
G1 X108.595 Y130.448 E0.43870
G1 X109.359 Y130.676 E0.02512
G1 X119.088 Y140.405 E0.43368
G1 X119.761 Y140.542 E0.02166
G1 X110.139 Y130.920 E0.42893
G1 X110.870 Y131.115 E0.02387
G1 X120.433 Y140.678 E0.42627
G1 X121.081 Y140.790 E0.02071
G1 X111.602 Y131.311 E0.42253
G1 X112.333 Y131.506 E0.02387
G1 X121.769 Y140.942 E0.42061
G1 X122.425 Y141.062 E0.02100
G1 X113.030 Y131.667 E0.41877
G1 X113.721 Y131.821 E0.02230
G1 X123.082 Y141.183 E0.41729
G1 X123.768 Y141.333 E0.02214
G1 X114.393 Y131.958 E0.41789
G1 X115.059 Y132.088 E0.02137
G1 X124.410 Y141.439 E0.41685
G1 X124.951 Y141.512 E0.01719
G1 X125.012 Y141.504 E0.00193
G1 X115.725 Y132.217 E0.41399
G1 X116.370 Y132.326 E0.02062
G1 X125.487 Y141.443 E0.40640
G1 X125.959 Y141.379 E0.01502
G1 X117.012 Y132.432 E0.39883
G1 X117.634 Y132.519 E0.01982
G1 X126.402 Y141.287 E0.39084
G1 X126.860 Y141.209 E0.01464
G1 X118.257 Y132.605 E0.38350
G1 X118.863 Y132.675 E0.01922
G1 X127.320 Y141.132 E0.37699
G1 X127.483 Y141.081 E0.00539
G1 X127.778 Y141.054 E0.00934
G1 X119.460 Y132.736 E0.37082
G1 X120.056 Y132.796 E0.01890
G1 X128.230 Y140.970 E0.36436
G1 X128.688 Y140.892 E0.01464
G1 X120.653 Y132.857 E0.35817
G1 X121.233 Y132.901 E0.01834
G1 X129.164 Y140.832 E0.35353
G1 X129.609 Y140.740 E0.01431
G1 X121.805 Y132.937 E0.34784
G1 X122.373 Y132.969 E0.01793
G1 X130.070 Y140.666 E0.34309
G1 X130.521 Y140.581 E0.01447
G1 X122.931 Y132.990 E0.33834
G1 X123.488 Y133.012 E0.01759
G1 X130.977 Y140.500 E0.33380
G1 X131.285 Y140.466 E0.00976
G1 X131.432 Y140.420 E0.00488
G1 X124.040 Y133.027 E0.32952
G1 X124.583 Y133.034 E0.01712
G1 X131.889 Y140.341 E0.32568
G1 X132.346 Y140.262 E0.01462
G1 X125.126 Y133.041 E0.32184
G1 X125.663 Y133.042 E0.01692
G1 X132.804 Y140.183 E0.31829
G1 X133.272 Y140.115 E0.01492
G1 X126.185 Y133.028 E0.31592
