; generated by PrusaSlicer 2.3.1+win64 on 2021-11-12 at 20:37:07 UTC

; 

; external perimeters extrusion width = 0.45mm
; perimeters extrusion width = 0.45mm
; infill extrusion width = 0.45mm
; solid infill extrusion width = 0.45mm
; top infill extrusion width = 0.40mm
; first layer extrusion width = 0.42mm

M73 P0 R114
M73 Q0 S115
M201 X1000 Y1000 Z1000 E5000 ; sets maximum accelerations, mm/sec^2
M203 X200 Y200 Z12 E120 ; sets maximum feedrates, mm/sec
M204 P1250 R1250 T1250 ; sets acceleration (P, T) and retract acceleration (R), mm/sec^2
M205 X8.00 Y8.00 Z0.40 E1.50 ; sets the jerk limits, mm/sec
M205 S0 T0 ; sets the minimum extruding and travel feed rate, mm/sec
M107
;TYPE:Custom
M862.3 P "MK3S" ; printer model check
M862.1 P0.4 ; nozzle diameter check
M115 U3.8.0 ; tell printer latest fw version
G90 ; use absolute coordinates
M83 ; extruder relative mode
M104 S215 ; set extruder temp
M140 S60 ; set bed temp
M190 S60 ; wait for bed temp
M109 S215 ; wait for extruder temp
G28 W ; home all without mesh bed level
G80 ; mesh bed leveling
G1 Y-3.0 F1000.0 ; go outside print area
G92 E0.0
G1 X60.0 E9.0 F1000.0 ; intro line
G1 X100.0 E12.5 F1000.0 ; intro line
G92 E0.0
M221 S95
G21 ; set units to millimeters
G90 ; use absolute coordinates
M83 ; use relative distances for extrusion
M900 K0.05 ; Filament gcode LA 1.5
M900 K30 ; Filament gcode LA 1.0
;LAYER_CHANGE
;Z:0.2
;HEIGHT:0.2
;BEFORE_LAYER_CHANGE
G92 E0.0
;0.2


G1 E-0.80000 F2100.000
G1 Z0.600 F10800.000
;AFTER_LAYER_CHANGE
;0.2
G1 X116.542 Y124.089
G1 Z0.200
G1 E0.80000 F2100.000
M204 S1000
;TYPE:Perimeter
;WIDTH:0.42
G1 F1200.000
G1 X133.546 Y124.055 E0.53315
G1 X133.595 Y148.387 E0.76294
G1 X133.659 Y149.092 E0.02217
G1 X133.660 Y149.836 E0.02335
G1 X133.599 Y150.549 E0.02241
G1 X133.613 Y157.469 E0.21698
G1 X128.200 Y157.480 E0.16974
G1 X127.417 Y157.748 E0.02595
G1 X126.510 Y157.953 E0.02915
G1 X125.570 Y158.059 E0.02966
G1 X124.624 Y158.061 E0.02966
G1 X123.684 Y157.959 E0.02966
G1 X122.760 Y157.754 E0.02966
G1 X121.992 Y157.492 E0.02545
G1 X116.609 Y157.503 E0.16877
M73 Q0 S114
G1 X116.596 Y150.795 E0.21031
G1 X116.505 Y149.961 E0.02632
G1 X116.503 Y149.053 E0.02848
G1 X116.591 Y148.209 E0.02658
G1 X116.542 Y124.149 E0.75440
G1 E-0.80000 F2100.000
G1 Z0.800 F10800.000
G1 X133.179 Y129.228
G1 Z0.200
G1 E0.80000 F2100.000
;TYPE:External perimeter
G1 F1200.000
G1 X133.218 Y148.405 E0.60128
G1 X133.282 Y149.109 E0.02217
G1 X133.283 Y149.821 E0.02231
G1 X133.222 Y150.533 E0.02241
G1 X133.236 Y157.092 E0.20567
G1 X128.137 Y157.103 E0.15987
G1 X127.314 Y157.385 E0.02727
G1 X126.447 Y157.581 E0.02786
G1 X125.549 Y157.682 E0.02836
G1 X124.644 Y157.684 E0.02836
G1 X123.745 Y157.586 E0.02836
G1 X122.862 Y157.390 E0.02836
G1 X122.054 Y157.115 E0.02677
G1 X116.986 Y157.125 E0.15892
G1 X116.973 Y150.775 E0.19912
G1 X116.882 Y149.940 E0.02632
G1 X116.880 Y149.072 E0.02723
G1 X116.968 Y148.229 E0.02657
G1 X116.920 Y124.465 E0.74508
G1 X133.170 Y124.433 E0.50951
G1 X133.179 Y129.168 E0.14847
G1 X133.578 Y129.265 F10800.000
G1 E-0.80000 F2100.000
G1 Z0.800 F10800.000
G1 X111.556 Y129.211
G1 Z0.200
G1 E0.80000 F2100.000
;TYPE:Perimeter
G1 F1200.000
G1 X111.605 Y153.432 E0.75942
G1 X111.669 Y154.136 E0.02217
G1 X111.670 Y154.897 E0.02386
G1 X111.610 Y155.593 E0.02191
G1 X111.623 Y162.513 E0.21697
G1 X106.210 Y162.524 E0.16974
G1 X105.427 Y162.793 E0.02595
G1 X104.520 Y162.998 E0.02915
G1 X103.580 Y163.103 E0.02966
G1 X102.634 Y163.105 E0.02966
G1 X101.694 Y163.003 E0.02966
G1 X100.770 Y162.798 E0.02966
G1 X100.002 Y162.536 E0.02545
G1 X94.619 Y162.547 E0.16877
G1 X94.606 Y155.839 E0.21033
G1 X94.515 Y154.989 E0.02682
G1 X94.513 Y154.097 E0.02797
G1 X94.601 Y153.254 E0.02657
G1 X94.552 Y129.133 E0.75628
G1 X106.032 Y129.110 E0.35995
G1 X105.302 Y128.890 E0.02392
G1 X104.588 Y128.532 E0.02504
G1 X103.965 Y128.071 E0.02430
G1 X103.430 Y127.512 E0.02427
G1 X102.998 Y126.871 E0.02424
G1 X102.688 Y126.188 E0.02350
G1 X102.489 Y125.441 E0.02424
G1 X102.420 Y124.670 E0.02427
G1 X102.482 Y123.898 E0.02427
G1 X102.673 Y123.147 E0.02430
G1 X103.001 Y122.419 E0.02504
G1 X103.435 Y121.778 E0.02430
G1 X103.971 Y121.220 E0.02424
G1 X104.572 Y120.773 E0.02350
G1 X105.261 Y120.421 E0.02424
G1 X106.000 Y120.191 E0.02427
G1 X106.767 Y120.089 E0.02427
G1 X107.542 Y120.118 E0.02430
G1 X108.323 Y120.285 E0.02504
G1 X109.041 Y120.574 E0.02430
G1 X109.700 Y120.981 E0.02427
G1 X110.281 Y121.493 E0.02427
G1 X110.766 Y122.095 E0.02424
G1 X111.133 Y122.748 E0.02350
G1 X111.394 Y123.476 E0.02424
G1 X111.529 Y124.239 E0.02430
G1 X111.530 Y125.038 E0.02504
G1 X111.399 Y125.801 E0.02430
G1 X111.141 Y126.530 E0.02424
G1 X110.776 Y127.185 E0.02350
G1 X110.294 Y127.789 E0.02424
G1 X109.714 Y128.304 E0.02430
G1 X109.035 Y128.724 E0.02504
G1 X108.316 Y129.012 E0.02430
G1 X107.878 Y129.106 E0.01403
G1 X111.556 Y129.099 E0.11532
G1 X111.556 Y129.151 E0.00164
G1 E-0.80000 F2100.000
G1 Z0.800 F10800.000
G1 X102.860 Y125.350
G1 Z0.200
G1 E0.80000 F2100.000
;TYPE:External perimeter
G1 F1200.000
G1 X102.798 Y124.668 E0.02147
G1 X102.855 Y123.960 E0.02226
G1 X103.030 Y123.272 E0.02227
G1 X103.331 Y122.604 E0.02299
G1 X103.729 Y122.016 E0.02227
G1 X104.221 Y121.504 E0.02225
G1 X104.772 Y121.094 E0.02152
G1 X105.404 Y120.772 E0.02225
G1 X106.082 Y120.561 E0.02226
G1 X106.785 Y120.467 E0.02226
G1 X107.495 Y120.494 E0.02227
G1 X108.212 Y120.647 E0.02299
G1 X108.871 Y120.912 E0.02227
G1 X109.475 Y121.285 E0.02226
G1 X110.007 Y121.754 E0.02226
G1 X110.453 Y122.307 E0.02225
G1 X110.789 Y122.905 E0.02152
G1 X111.028 Y123.573 E0.02225
G1 X111.152 Y124.273 E0.02227
G1 X111.153 Y125.006 E0.02299
G1 X111.033 Y125.706 E0.02227
G1 X110.796 Y126.375 E0.02225
G1 X110.462 Y126.975 E0.02152
M73 P0 R113
G1 X110.019 Y127.529 E0.02225
G1 X109.488 Y128.001 E0.02227
G1 X108.865 Y128.386 E0.02299
G1 X108.205 Y128.651 E0.02227
G1 X107.512 Y128.799 E0.02225
G1 X106.826 Y128.830 E0.02152
G1 X106.122 Y128.743 E0.02225
G1 X105.442 Y128.539 E0.02227
G1 X104.786 Y128.210 E0.02299
G1 X104.216 Y127.787 E0.02227
G1 X103.725 Y127.274 E0.02226
G1 X103.328 Y126.686 E0.02225
G1 X103.044 Y126.061 E0.02152
G1 X102.871 Y125.409 E0.02115
G1 X102.484 Y125.212 F10800.000
G1 E-0.80000 F2100.000
G1 Z0.800 F10800.000
G1 X111.238 Y158.272
G1 Z0.200
G1 E0.80000 F2100.000
G1 F1200.000
G1 X111.246 Y162.137 E0.12117
G1 X106.147 Y162.147 E0.15987
G1 X105.324 Y162.429 E0.02727
G1 X104.458 Y162.625 E0.02786
G1 X103.559 Y162.726 E0.02836
G1 X102.654 Y162.728 E0.02836
G1 X101.755 Y162.631 E0.02836
G1 X100.872 Y162.435 E0.02836
G1 X100.064 Y162.159 E0.02677
G1 X94.996 Y162.169 E0.15892
G1 X94.983 Y155.819 E0.19912
G1 X94.892 Y154.968 E0.02682
G1 X94.890 Y154.116 E0.02673
G1 X94.978 Y153.273 E0.02657
G1 X94.930 Y129.509 E0.74508
G1 X111.180 Y129.477 E0.50951
G1 X111.228 Y153.449 E0.75164
G1 X111.292 Y154.153 E0.02217
G1 X111.293 Y154.881 E0.02281
G1 X111.232 Y155.577 E0.02192
G1 X111.238 Y158.212 E0.08262
G1 X111.583 Y158.474 F10800.000
G1 E-0.80000 F2100.000
G1 Z0.800 F10800.000
G1 X138.611 Y158.157
G1 Z0.200
G1 E0.80000 F2100.000
;TYPE:Perimeter
G1 F1200.000
G1 X138.606 Y155.751 E0.07544
G1 X138.515 Y154.917 E0.02632
G1 X138.513 Y154.008 E0.02848
G1 X138.601 Y153.165 E0.02658
G1 X138.552 Y129.045 E0.75628
G1 X145.283 Y129.031 E0.21106
G1 X144.528 Y128.802 E0.02475
G1 X143.838 Y128.453 E0.02424
G1 X143.234 Y128.008 E0.02353
G1 X142.681 Y127.433 E0.02501
G1 X142.247 Y126.791 E0.02430
G1 X141.929 Y126.085 E0.02427
G1 X141.735 Y125.336 E0.02427
G1 X141.670 Y124.565 E0.02427
G1 X141.736 Y123.794 E0.02424
G1 X141.923 Y123.069 E0.02350
G1 X142.238 Y122.362 E0.02424
G1 X142.669 Y121.718 E0.02430
G1 X143.220 Y121.141 E0.02504
G1 X143.844 Y120.680 E0.02430
G1 X144.535 Y120.333 E0.02424
G1 X145.251 Y120.112 E0.02350
G1 X146.017 Y120.010 E0.02424
G1 X146.792 Y120.039 E0.02430
G1 X147.573 Y120.206 E0.02504
G1 X148.291 Y120.495 E0.02430
G1 X148.950 Y120.902 E0.02427
G1 X149.531 Y121.414 E0.02427
G1 X150.016 Y122.016 E0.02424
G1 X150.383 Y122.669 E0.02350
G1 X150.644 Y123.397 E0.02424
G1 X150.779 Y124.160 E0.02430
G1 X150.780 Y124.959 E0.02504
G1 X150.649 Y125.722 E0.02430
G1 X150.391 Y126.451 E0.02424
G1 X150.026 Y127.106 E0.02350
G1 X149.543 Y127.710 E0.02424
G1 X148.964 Y128.225 E0.02430
G1 X148.285 Y128.645 E0.02504
G1 X147.566 Y128.934 E0.02430
G1 X147.128 Y129.027 E0.01403
G1 X155.556 Y129.010 E0.26425
G1 X155.605 Y153.343 E0.76294
G1 X155.669 Y154.048 E0.02217
G1 X155.670 Y154.808 E0.02386
G1 X155.609 Y155.505 E0.02191
G1 X155.623 Y162.425 E0.21697
G1 X150.210 Y162.435 E0.16974
G1 X149.427 Y162.704 E0.02595
G1 X148.520 Y162.909 E0.02915
G1 X147.580 Y163.015 E0.02966
G1 X146.634 Y163.017 E0.02966
G1 X145.694 Y162.915 E0.02966
G1 X144.770 Y162.710 E0.02966
G1 X144.002 Y162.448 E0.02545
G1 X138.619 Y162.459 E0.16877
G1 X138.611 Y158.217 E0.13299
G1 E-0.80000 F2100.000
G1 Z0.800 F10800.000
G1 X155.203 Y140.876
G1 Z0.200
G1 E0.80000 F2100.000
;TYPE:External perimeter
G1 F1200.000
G1 X155.228 Y153.361 E0.39146
G1 X155.292 Y154.065 E0.02217
G1 X155.293 Y154.792 E0.02281
G1 X155.232 Y155.489 E0.02192
G1 X155.246 Y162.048 E0.20567
G1 X150.147 Y162.058 E0.15987
G1 X149.324 Y162.341 E0.02727
G1 X148.458 Y162.537 E0.02786
G1 X147.559 Y162.638 E0.02836
G1 X146.654 Y162.640 E0.02836
G1 X145.755 Y162.542 E0.02836
G1 X144.872 Y162.346 E0.02836
G1 X144.064 Y162.071 E0.02677
G1 X138.996 Y162.081 E0.15892
G1 X138.983 Y155.730 E0.19912
G1 X138.892 Y154.896 E0.02632
G1 X138.890 Y154.027 E0.02723
G1 X138.978 Y153.184 E0.02657
G1 X138.930 Y129.421 E0.74508
G1 X155.180 Y129.388 E0.50951
G1 X155.203 Y140.816 E0.35830
G1 X155.595 Y140.956 F10800.000
G1 E-0.80000 F2100.000
G1 Z0.800 F10800.000
G1 X142.169 Y125.508
G1 Z0.200
G1 E0.80000 F2100.000
G1 F1200.000
G1 X142.108 Y125.272 E0.00762
G1 X142.048 Y124.565 E0.02226
G1 X142.109 Y123.858 E0.02225
G1 X142.280 Y123.193 E0.02152
G1 X142.570 Y122.545 E0.02225
G1 X142.964 Y121.955 E0.02227
G1 X143.471 Y121.425 E0.02299
G1 X144.042 Y121.003 E0.02227
G1 X144.676 Y120.684 E0.02225
G1 X145.332 Y120.482 E0.02152
G1 X146.035 Y120.388 E0.02225
G1 X146.745 Y120.415 E0.02227
G1 X147.462 Y120.568 E0.02299
G1 X148.121 Y120.833 E0.02227
G1 X148.725 Y121.206 E0.02226
G1 X149.257 Y121.675 E0.02226
G1 X149.703 Y122.228 E0.02225
G1 X150.039 Y122.826 E0.02152
G1 X150.278 Y123.494 E0.02225
G1 X150.402 Y124.194 E0.02227
G1 X150.403 Y124.927 E0.02299
G1 X150.283 Y125.627 E0.02227
G1 X150.046 Y126.296 E0.02225
G1 X149.712 Y126.896 E0.02152
G1 X149.269 Y127.450 E0.02225
G1 X148.738 Y127.922 E0.02227
G1 X148.115 Y128.307 E0.02299
G1 X147.455 Y128.572 E0.02227
G1 X146.761 Y128.721 E0.02226
G1 X146.052 Y128.750 E0.02226
G1 X145.348 Y128.659 E0.02226
G1 X144.669 Y128.451 E0.02226
G1 X144.036 Y128.131 E0.02225
G1 X143.483 Y127.724 E0.02153
G1 X142.975 Y127.195 E0.02298
G1 X142.578 Y126.607 E0.02227
G1 X142.286 Y125.960 E0.02226
G1 X142.184 Y125.566 E0.01276
G1 X141.932 Y125.451 F10800.000
G1 E-0.80000 F2100.000
G1 Z0.800 F10800.000
G1 X151.711 Y111.640
G1 Z0.200
G1 E0.80000 F2100.000
;TYPE:Perimeter
G1 F1200.000
G1 X156.348 Y111.651 E0.14537
G1 X159.340 Y164.469 E1.65875
G1 X134.587 Y164.428 E0.77611
G1 X134.908 Y159.393 E0.15817
G1 X115.215 Y159.420 E0.61745
G1 X115.535 Y164.419 E0.15707
G1 X90.782 Y164.469 E0.77611
G1 X93.758 Y111.650 E1.65875
G1 X112.967 Y111.598 E0.60230
G1 X112.666 Y106.612 E0.15664
G1 X137.419 Y106.562 E0.77611
G1 X137.116 Y111.606 E0.15842
G1 X151.651 Y111.640 E0.45573
G1 X151.652 Y111.263 F10800.000
;TYPE:External perimeter
G1 F1200.000
G1 X156.704 Y111.274 E0.15840
G1 X159.739 Y164.847 E1.68243
G1 X134.185 Y164.804 E0.80123
G1 X134.506 Y159.771 E0.15813
G1 X115.617 Y159.797 E0.59224
G1 X115.937 Y164.796 E0.15707
G1 X90.383 Y164.847 E0.80123
G1 X93.401 Y111.273 E1.68243
M73 P1 R113
M73 Q1 S114
G1 X112.567 Y111.222 E0.60092
G1 X112.266 Y106.236 E0.15664
M73 Q1 S113
G1 X137.820 Y106.184 E0.80123
G1 X137.517 Y111.230 E0.15848
G1 X151.592 Y111.263 E0.44133
G1 X151.810 Y111.630 F10800.000
G1 E-0.80000 F2100.000
G1 Z0.800 F10800.000
G1 X156.287 Y112.574
G1 Z0.200
G1 E0.80000 F2100.000
;TYPE:Solid infill
;WIDTH:0.420491
G1 F1200.000
G1 X155.645 Y111.932 E0.02850
G1 X155.110 Y111.931 E0.01680
G1 X156.139 Y112.960 E0.04569
G1 X156.171 Y113.526 E0.01780
G1 X154.574 Y111.929 E0.07088
G1 X154.039 Y111.928 E0.01680
G1 X156.203 Y114.092 E0.09607
G1 X156.235 Y114.658 E0.01780
G1 X153.504 Y111.927 E0.12125
G1 X152.969 Y111.926 E0.01680
G1 X156.267 Y115.224 E0.14644
G1 X156.299 Y115.790 E0.01780
G1 X152.433 Y111.924 E0.17163
G1 X151.898 Y111.923 E0.01680
G1 X156.331 Y116.356 E0.19681
G1 X156.363 Y116.922 E0.01780
G1 X151.363 Y111.922 E0.22200
G1 X150.828 Y111.921 E0.01680
G1 X156.395 Y117.488 E0.24719
G1 X156.427 Y118.054 E0.01780
G1 X150.293 Y111.919 E0.27238
G1 X149.757 Y111.918 E0.01680
G1 X156.459 Y118.620 E0.29756
G1 X156.491 Y119.186 E0.01780
G1 X149.222 Y111.917 E0.32275
G1 X148.687 Y111.916 E0.01680
G1 X156.523 Y119.752 E0.34794
G1 X156.556 Y120.318 E0.01780
G1 X148.152 Y111.914 E0.37312
G1 X147.616 Y111.913 E0.01680
G1 X156.588 Y120.884 E0.39831
G1 X156.620 Y121.450 E0.01780
G1 X147.081 Y111.912 E0.42350
G1 X146.546 Y111.911 E0.01680
G1 X156.652 Y122.016 E0.44869
G1 X156.684 Y122.582 E0.01780
G1 X146.011 Y111.909 E0.47387
G1 X145.476 Y111.908 E0.01680
G1 X156.716 Y123.148 E0.49906
G1 X156.748 Y123.714 E0.01780
G1 X144.940 Y111.907 E0.52425
G1 X144.405 Y111.906 E0.01680
G1 X156.780 Y124.280 E0.54943
G1 X156.812 Y124.846 E0.01780
G1 X143.870 Y111.904 E0.57462
G1 X143.335 Y111.903 E0.01680
G1 X156.844 Y125.412 E0.59981
M73 P1 R112
G1 X156.876 Y125.978 E0.01780
G1 X142.800 Y111.902 E0.62500
G1 X142.264 Y111.901 E0.01680
G1 X156.908 Y126.544 E0.65018
G1 X156.940 Y127.110 E0.01780
G1 X141.729 Y111.899 E0.67537
G1 X141.194 Y111.898 E0.01680
G1 X156.972 Y127.677 E0.70056
G1 X157.004 Y128.243 E0.01780
G1 X140.659 Y111.897 E0.72574
G1 X140.123 Y111.896 E0.01680
G1 X148.551 Y120.324 E0.37420
G1 X148.419 Y120.242 E0.00487
G1 X147.621 Y119.927 E0.02695
G1 X139.588 Y111.894 E0.35665
G1 X139.053 Y111.893 E0.01680
G1 X146.942 Y119.782 E0.35027
G1 X146.827 Y119.757 E0.00370
G1 X146.366 Y119.740 E0.01447
G1 X138.518 Y111.892 E0.34847
G1 X137.983 Y111.891 E0.01680
G1 X145.840 Y119.748 E0.34888
G1 X145.369 Y119.811 E0.01493
G1 X137.277 Y111.719 E0.35927
G1 E-0.80000 F2100.000
G1 Z0.800 F10800.000
G1 X137.254 Y107.424
G1 Z0.200
G1 E0.80000 F2100.000
G1 F1200.000
G1 X136.676 Y106.846 E0.02566
G1 X136.143 Y106.847 E0.01673
G1 X137.063 Y107.768 E0.04086
G1 X137.033 Y108.271 E0.01584
G1 X135.610 Y106.849 E0.06317
G1 X135.078 Y106.850 E0.01673
G1 X137.003 Y108.775 E0.08549
G1 X136.973 Y109.279 E0.01584
G1 X134.545 Y106.851 E0.10781
G1 X134.012 Y106.852 E0.01673
G1 X136.943 Y109.783 E0.13013
G1 X136.912 Y110.286 E0.01584
G1 X133.479 Y106.853 E0.15244
G1 X132.946 Y106.854 E0.01673
G1 X136.882 Y110.790 E0.17476
G1 X136.852 Y111.294 E0.01584
G1 X132.413 Y106.855 E0.19708
G1 X131.880 Y106.856 E0.01673
G1 X144.937 Y119.913 E0.57972
G1 X144.529 Y120.039 E0.01341
G1 X131.347 Y106.857 E0.58526
G1 X130.814 Y106.858 E0.01673
G1 X144.161 Y120.204 E0.59257
G1 X143.805 Y120.383 E0.01248
G1 X130.281 Y106.859 E0.60046
G1 X129.749 Y106.860 E0.01673
G1 X143.483 Y120.595 E0.60982
G1 X143.176 Y120.822 E0.01199
G1 X129.216 Y106.861 E0.61984
G1 X128.683 Y106.862 E0.01673
G1 X142.894 Y121.073 E0.63096
G1 X142.633 Y121.347 E0.01186
G1 X128.150 Y106.864 E0.64304
G1 X127.617 Y106.865 E0.01673
G1 X142.386 Y121.633 E0.65572
G1 X142.172 Y121.953 E0.01209
G1 X127.084 Y106.866 E0.66988
G1 X126.551 Y106.867 E0.01673
G1 X141.965 Y122.281 E0.68437
G1 X141.800 Y122.650 E0.01269
G1 X126.018 Y106.868 E0.70071
G1 X125.485 Y106.869 E0.01673
G1 X141.642 Y123.026 E0.71735
G1 X141.533 Y123.450 E0.01376
G1 X124.953 Y106.870 E0.73615
G1 X124.420 Y106.871 E0.01673
G1 X141.443 Y123.895 E0.75584
G1 X141.401 Y124.386 E0.01549
G1 X123.887 Y106.872 E0.77763
G1 X123.354 Y106.873 E0.01673
G1 X141.417 Y124.936 E0.80200
G1 X141.455 Y125.384 E0.01410
G1 X141.498 Y125.552 E0.00544
G1 X122.821 Y106.874 E0.82926
G1 X122.288 Y106.875 E0.01673
G1 X142.057 Y126.644 E0.87773
G1 E-0.80000 F2100.000
G1 Z0.800 F10800.000
