; generated by PrusaSlicer 2.5.0+win64 on 2022-10-11 at 23:06:06 UTC

; 

; external perimeters extrusion width = 0.45mm
; perimeters extrusion width = 0.45mm
; infill extrusion width = 0.45mm
; solid infill extrusion width = 0.45mm
; top infill extrusion width = 0.40mm
; support material extrusion width = 0.35mm
; first layer extrusion width = 0.42mm

; external perimeters extrusion width = 0.45mm
; perimeters extrusion width = 0.45mm
; infill extrusion width = 0.45mm
; solid infill extrusion width = 0.45mm
; top infill extrusion width = 0.40mm
; support material extrusion width = 0.35mm
; first layer extrusion width = 0.42mm

; external perimeters extrusion width = 0.45mm
; perimeters extrusion width = 0.45mm
; infill extrusion width = 0.45mm
; solid infill extrusion width = 0.45mm
; top infill extrusion width = 0.40mm
; support material extrusion width = 0.35mm
; first layer extrusion width = 0.42mm

; external perimeters extrusion width = 0.45mm
; perimeters extrusion width = 0.45mm
; infill extrusion width = 0.45mm
; solid infill extrusion width = 0.45mm
; top infill extrusion width = 0.40mm
; support material extrusion width = 0.35mm
; first layer extrusion width = 0.42mm

M73 P0 R64
M73 Q0 S65
M201 X1000 Y1000 Z200 E5000 ; sets maximum accelerations, mm/sec^2
M203 X200 Y200 Z12 E120 ; sets maximum feedrates, mm / sec
M204 P1250 R1250 T1250 ; sets acceleration (P, T) and retract acceleration (R), mm/sec^2
M205 X8.00 Y8.00 Z0.40 E4.50 ; sets the jerk limits, mm/sec
M205 S0 T0 ; sets the minimum extruding and travel feed rate, mm/sec
M107
;TYPE:Custom
M862.3 P "MK3S" ; printer model check
M862.1 P0.4 ; nozzle diameter check
M115 U3.10.1 ; tell printer latest fw version
G90 ; use absolute coordinates
M83 ; extruder relative mode
M104 S215 ; set extruder temp
M140 S60 ; set bed temp
M190 S60 ; wait for bed temp
M109 S215 ; wait for extruder temp
G28 W ; home all without mesh bed level
G80 ; mesh bed leveling
G1 Z0.2 F720
G1 Y-3 F1000 ; go outside print area
G92 E0
G1 X60 E9 F1000 ; intro line
G1 X100 E12.5 F1000 ; intro line
G92 E0
M221 S95

; Don't change E values below. Excessive value can damage the printer.

G21 ; set units to millimeters
G90 ; use absolute coordinates
M83 ; use relative distances for extrusion
M900 K0.05 ; Filament gcode LA 1.5
M900 K30 ; Filament gcode LA 1.0
M107
;LAYER_CHANGE
;Z:0.2
;HEIGHT:0.2
;BEFORE_LAYER_CHANGE
G92 E0.0
;0.2


G1 E-.8 F2100
G1 Z.4 F720
;AFTER_LAYER_CHANGE
;0.2
G1 X110.608 Y51.454 F10800
G1 Z.2 F720
G1 E.8 F2100
M204 S800
;TYPE:Skirt/Brim
;WIDTH:0.42
G1 F600
G1 X112.394 Y49.668 E.07921
G1 X113.98 Y49.008 E.05385
G1 X140.643 Y48.946 E.83599
G1 X142.236 Y49.606 E.05409
M73 Q0 S64
G1 X144.023 Y51.392 E.07922
G1 X144.683 Y52.981 E.05394
G1 X144.744 Y96.821 E1.37458
G1 X144.083 Y98.415 E.05409
G1 X142.297 Y100.202 E.07922
G1 X140.703 Y100.862 E.05409
G1 X116.615 Y100.862 E.75524
G1 X115.021 Y100.202 E.05409
G1 X113.235 Y98.415 E.07922
G1 X112.583 Y97.012 E.04853
G1 X109.957 Y66.028 E.97495
G1 X109.947 Y53.046 E.40704
G1 X110.585 Y51.509 E.05216
M204 S1000
G1 X110.874 Y51.721 F10800
M204 S800
G1 F600
G1 X112.661 Y49.935 E.07921
G1 X113.981 Y49.385 E.04484
G1 X140.643 Y49.323 E.83595
G1 X141.97 Y49.872 E.04505
G1 X143.756 Y51.659 E.07922
G1 X144.306 Y52.982 E.04492
G1 X144.367 Y96.821 E1.37455
G1 X143.817 Y98.149 E.04505
G1 X142.03 Y99.935 E.07922
G1 X140.703 Y100.485 E.04505
G1 X116.615 Y100.485 E.75524
G1 X115.288 Y99.935 E.04505
G1 X113.501 Y98.149 E.07922
G1 X112.958 Y96.98 E.04041
G1 X110.333 Y65.996 E.97495
G1 X110.324 Y53.046 E.40604
G1 X110.851 Y51.776 E.04312
M204 S1000
;WIPE_START
M73 P1 R64
M73 Q1 S64
G1 F8640
G1 X112.661 Y49.935 E-.59613
G1 X113.316 Y49.662 E-.16387
;WIPE_END
G1 E-.04 F2100
G1 Z.6 F720
G1 X129.504 Y69.363 F10800
G1 Z.2 F720
G1 E.8 F2100
M204 S800
G1 F600
G1 X130.008 Y68.862 E.02229
G1 X130.318 Y68.661 E.01159
G1 X130.888 Y68.435 E.01923
G1 X131.812 Y68.366 E.02904
G1 X133.453 Y68.378 E.05147
G1 X134.335 Y68.673 E.02915
G1 X134.499 Y68.773 E.00602
G1 X134.809 Y69.051 E.01306
G1 X135.15 Y68.758 E.0141
G1 X135.931 Y68.425 E.02662
G1 X136.189 Y68.38 E.0082
G1 X138.412 Y68.377 E.06972
G1 X138.685 Y68.421 E.00866
G1 X139.38 Y68.698 E.02344
G1 X139.97 Y69.184 E.02398
G1 X140.318 Y69.665 E.01862
G1 X140.557 Y70.278 E.02063
G1 X140.613 Y77.998 E.24206
G1 X140.881 Y78.145 E.0096
G1 X141.413 Y78.651 E.02303
G1 X141.7 Y79.115 E.01708
G1 X141.94 Y79.945 E.02711
G1 X141.94 Y95.812 E.49747
G1 X141.635 Y96.785 E.03199
G1 X141.435 Y97.074 E.01102
G1 X140.879 Y97.619 E.02441
G1 X140.453 Y97.85 E.01519
G1 X139.691 Y98.059 E.02478
G1 X117.625 Y98.059 E.69185
G1 X116.652 Y97.753 E.03199
G1 X116.363 Y97.553 E.01102
G1 X115.818 Y96.997 E.02441
G1 X115.586 Y96.572 E.01519
G1 X115.378 Y95.809 E.02478
G1 X115.378 Y79.947 E.49734
G1 X115.683 Y78.974 E.03199
G1 X115.883 Y78.685 E.01102
G1 X116.44 Y78.14 E.02441
G1 X116.865 Y77.908 E.01519
G1 X117.627 Y77.7 E.02478
G1 X129.013 Y77.7 E.357
G1 X129.017 Y70.614 E.22218
G1 X129.167 Y69.985 E.02028
G1 X129.475 Y69.416 E.02029
M204 S1000
G1 X129.807 Y69.596 F10800
M204 S800
G1 F600
G1 X130.257 Y69.146 E.01995
G1 X130.474 Y69.005 E.00814
G1 X130.999 Y68.796 E.01769
G1 X131.815 Y68.743 E.02564
G1 X133.419 Y68.755 E.05029
G1 X134.188 Y69.02 E.0255
G1 X134.279 Y69.079 E.0034
G1 X134.812 Y69.568 E.02269
G1 X135.331 Y69.091 E.02208
G1 X136.056 Y68.781 E.02471
G1 X136.23 Y68.755 E.00553
G1 X138.398 Y68.755 E.06798
G1 X138.57 Y68.781 E.00546
G1 X139.164 Y69.009 E.01995
G1 X139.71 Y69.458 E.02217
G1 X139.995 Y69.862 E.01549
G1 X140.193 Y70.38 E.01738
G1 X140.237 Y78.235 E.2463
G1 X140.646 Y78.441 E.01437
G1 X141.109 Y78.875 E.01989
G1 X141.347 Y79.249 E.0139
G1 X141.563 Y79.974 E.0237
G1 X141.563 Y95.783 E.49568
G1 X141.307 Y96.597 E.02675
G1 X141.155 Y96.821 E.0085
G1 X140.671 Y97.303 E.02142
G1 X140.328 Y97.494 E.01232
G1 X139.664 Y97.682 E.02163
G1 X117.654 Y97.682 E.6901
M73 P1 R63
G1 X116.84 Y97.426 E.02675
G1 X116.616 Y97.273 E.0085
G1 X116.134 Y96.79 E.02142
G1 X115.943 Y96.446 E.01232
G1 X115.755 Y95.782 E.02163
G1 X115.755 Y79.976 E.49559
G1 X116.011 Y79.162 E.02675
G1 X116.163 Y78.938 E.0085
G1 X116.647 Y78.456 E.02142
G1 X116.99 Y78.265 E.01232
G1 X117.654 Y78.077 E.02163
G1 X129.39 Y78.077 E.36798
G1 X129.394 Y70.636 E.23332
G1 X129.51 Y70.142 E.01589
G1 X129.778 Y69.648 E.01762
M204 S1000
G1 X130.105 Y69.82 F10800
M204 S800
G1 F600
G1 X130.506 Y69.429 E.01758
G1 X130.631 Y69.348 E.00465
G1 X131.108 Y69.159 E.01611
G1 X131.817 Y69.12 E.02224
G1 X133.384 Y69.132 E.04914
G1 X134.039 Y69.371 E.02187
G1 X134.509 Y69.801 E.01995
G1 X134.815 Y70.347 E.01962
G1 X135.117 Y69.804 E.01948
G1 X135.514 Y69.422 E.01727
G1 X136.142 Y69.149 E.02147
G1 X136.247 Y69.132 E.00332
G1 X138.381 Y69.132 E.06693
G1 X138.487 Y69.149 E.00337
G1 X138.997 Y69.348 E.01714
G1 X139.446 Y69.728 E.01845
G1 X139.67 Y70.054 E.01242
G1 X139.828 Y70.479 E.01419
G1 X139.861 Y78.476 E.25077
G1 X140.414 Y78.74 E.01921
G1 X140.808 Y79.103 E.01681
G1 X140.996 Y79.389 E.01071
G1 X141.186 Y80.003 E.02017
G1 X141.186 Y95.754 E.49385
G1 X140.978 Y96.411 E.02162
G1 X140.872 Y96.571 E.00601
G1 X140.46 Y96.99 E.01843
G1 X140.198 Y97.139 E.00945
G1 X139.636 Y97.305 E.01838
G1 X117.683 Y97.305 E.68831
G1 X117.026 Y97.097 E.02162
G1 X116.866 Y96.991 E.00601
G1 X116.447 Y96.578 E.01843
G1 X116.297 Y96.317 E.00945
G1 X116.132 Y95.754 E.01838
G1 X116.132 Y80.005 E.4938
G1 X116.34 Y79.348 E.02162
G1 X116.446 Y79.188 E.00601
G1 X116.858 Y78.769 E.01843
G1 X117.12 Y78.619 E.00945
G1 X117.682 Y78.454 E.01838
G1 X129.767 Y78.454 E.37892
G1 X129.771 Y70.657 E.24446
M73 Q1 S63
G1 X129.855 Y70.295 E.01166
G1 X130.077 Y69.873 E.01494
M204 S1000
G1 X130.393 Y70.065 F10800
M204 S800
G1 F600
G1 X130.756 Y69.712 E.01586
G1 X131.217 Y69.521 E.01563
G1 X131.817 Y69.498 E.01885
G1 X133.347 Y69.509 E.04796
G1 X133.825 Y69.686 E.016
G1 X134.226 Y70.054 E.01706
G1 X134.423 Y70.437 E.01351
G1 X134.475 Y70.638 E.00651
G1 X134.484 Y71.998 E.04262
G1 X135.144 Y71.998 E.02068
G1 X135.148 Y70.68 E.04132
G1 X135.205 Y70.437 E.00781
G1 X135.403 Y70.052 E.01358
G1 X135.75 Y69.719 E.01507
G1 X136.234 Y69.515 E.01647
G1 X138.396 Y69.515 E.06781
G1 X138.826 Y69.686 E.01448
G1 X139.177 Y69.993 E.01463
G1 X139.343 Y70.242 E.00937
G1 X139.462 Y70.574 E.01107
G1 X139.484 Y78.805 E.25807
G1 X139.817 Y78.873 E.01065
G1 X140.184 Y79.04 E.01265
G1 X140.511 Y79.336 E.01383
G1 X140.647 Y79.534 E.00751
G1 X140.809 Y80.034 E.01649
G1 X140.809 Y95.724 E.49195
G1 X140.647 Y96.229 E.01664
G1 X140.586 Y96.324 E.00355
G1 X140.244 Y96.68 E.01547
G1 X140.063 Y96.787 E.00658
G1 X139.606 Y96.928 E.015
G1 X117.713 Y96.928 E.68646
G1 X117.207 Y96.766 E.01664
G1 X117.112 Y96.705 E.00355
G1 X116.757 Y96.362 E.01547
G1 X116.65 Y96.182 E.00658
G1 X116.509 Y95.725 E.015
G1 X116.509 Y80.035 E.49195
G1 X116.671 Y79.53 E.01664
M73 P2 R63
M73 Q2 S63
G1 X116.732 Y79.434 E.00355
G1 X117.074 Y79.079 E.01547
G1 X117.255 Y78.972 E.00658
G1 X117.712 Y78.831 E.015
G1 X130.144 Y78.831 E.38981
G1 X130.148 Y70.679 E.25561
G1 X130.203 Y70.443 E.00759
G1 X130.366 Y70.118 E.01139
M204 S1000
G1 X130.682 Y70.31 F10800
M204 S800
G1 F600
G1 X130.978 Y70.022 E.01296
G1 X131.323 Y69.885 E.01161
G1 X133.307 Y69.885 E.06221
G1 X133.652 Y70.023 E.01166
G1 X133.906 Y70.256 E.01081
G1 X134.076 Y70.587 E.01168
G1 X134.103 Y70.701 E.00368
G1 X134.107 Y72.375 E.05247
G1 X135.521 Y72.375 E.04434
G1 X135.521 Y70.735 E.05139
G1 X135.553 Y70.585 E.00482
G1 X135.722 Y70.256 E.0116
G1 X135.976 Y70.023 E.01081
G1 X136.321 Y69.886 E.01163
G1 X138.307 Y69.886 E.06229
G1 X138.652 Y70.023 E.01163
G1 X138.904 Y70.254 E.01071
G1 X138.995 Y70.391 E.00517
G1 X139.096 Y70.671 E.00933
G1 X139.107 Y78.603 E.2487
G1 X138.908 Y79.208 E.01998
G1 X139.574 Y79.208 E.02089
G1 X139.685 Y79.227 E.00352
G1 X139.998 Y79.37 E.01078
G1 X140.238 Y79.597 E.01036
G1 X140.3 Y79.684 E.00336
G1 X140.432 Y80.067 E.0127
G1 X140.432 Y95.693 E.48994
G1 X140.313 Y96.054 E.01193
G1 X140.022 Y96.374 E.01356
G1 X139.921 Y96.437 E.00372
G1 X139.575 Y96.551 E.01143
G1 X117.744 Y96.551 E.6845
G1 X117.382 Y96.432 E.01193
G1 X117.062 Y96.141 E.01356
G1 X117 Y96.04 E.00372
G1 X116.886 Y95.693 E.01143
G1 X116.886 Y80.066 E.48999
G1 X117.005 Y79.704 E.01193
G1 X117.296 Y79.384 E.01356
G1 X117.397 Y79.322 E.00372
G1 X117.744 Y79.208 E.01143
G1 X130.72 Y79.208 E.40686
G1 X130.521 Y78.603 E.01998
G1 X130.525 Y70.701 E.24775
G1 X130.553 Y70.584 E.00377
G1 X130.656 Y70.364 E.00763
M204 S1000
;WIPE_START
G1 F8640
G1 X130.978 Y70.022 E-.10855
G1 X131.323 Y69.885 E-.0855
G1 X133.307 Y69.885 E-.45815
G1 X133.652 Y70.023 E-.08584
G1 X133.722 Y70.087 E-.02196
;WIPE_END
G1 E-.04 F2100
G1 Z.6 F720
G1 X130.656 Y79.585 F10800
G1 Z.2 F720
G1 E.8 F2100
M204 S800
G1 F600
G1 X139.554 Y79.585 E.27897
G1 X139.804 Y79.695 E.00856
G1 X139.974 Y79.873 E.00772
G1 X140.055 Y80.101 E.00757
G1 X140.055 Y95.658 E.48779
G1 X139.979 Y95.871 E.00711
G1 X139.791 Y96.076 E.00872
G1 X139.54 Y96.174 E.00844
G1 X117.779 Y96.174 E.6823
G1 X117.565 Y96.097 E.00711
G1 X117.36 Y95.909 E.00872
G1 X117.263 Y95.658 E.00844
G1 X117.263 Y80.101 E.48779
G1 X117.34 Y79.887 E.00711
G1 X117.528 Y79.682 E.00872
G1 X117.779 Y79.585 E.00844
G1 X130.596 Y79.585 E.40189
M204 S1000
G1 X130.596 Y79.962 F10800
M204 S800
G1 F600
G1 X139.498 Y79.962 E.27909
G1 X139.567 Y79.991 E.00235
G1 X139.649 Y80.073 E.00365
G1 X139.678 Y80.143 E.00235
G1 X139.678 Y95.616 E.48516
G1 X139.649 Y95.685 E.00235
G1 X139.567 Y95.768 E.00365
G1 X139.498 Y95.796 E.00235
G1 X117.821 Y95.796 E.67967
G1 X117.751 Y95.768 E.00235
G1 X117.669 Y95.685 E.00365
G1 X117.64 Y95.616 E.00235
G1 X117.64 Y80.143 E.48516
G1 X117.669 Y80.073 E.00235
G1 X117.751 Y79.991 E.00365
G1 X117.821 Y79.962 E.00235
G1 X130.536 Y79.962 E.3987
M204 S1000
;WIPE_START
G1 F8640
G1 X133.828 Y79.962 E-.76
;WIPE_END
G1 E-.04 F2100
G1 Z.6 F720
G1 X131.201 Y79.006 F10800
G1 Z.2 F720
G1 E.8 F2100
M204 S800
G1 F600
G1 X130.996 Y78.818 E.00872
G1 X130.898 Y78.567 E.00844
G1 X130.898 Y70.753 E.24501
G1 X131.006 Y70.507 E.00843
G1 X131.201 Y70.328 E.00827
G1 X131.414 Y70.252 E.00711
G1 X133.214 Y70.252 E.05644
G1 X133.428 Y70.328 E.00711
G1 X133.622 Y70.507 E.00827
G1 X133.73 Y70.753 E.00843
G1 X133.73 Y72.752 E.06267
G1 X135.898 Y72.752 E.068
G1 X135.898 Y70.753 E.06267
G1 X136.006 Y70.507 E.00843
G1 X136.201 Y70.328 E.00827
G1 X136.414 Y70.252 E.00711
G1 X138.214 Y70.252 E.05644
G1 X138.428 Y70.328 E.00711
G1 X138.632 Y70.516 E.00872
G1 X138.73 Y70.767 E.00844
G1 X138.73 Y78.567 E.24457
G1 X138.653 Y78.781 E.00711
G1 X138.465 Y78.986 E.00872
G1 X138.214 Y79.083 E.00844
G1 X136.414 Y79.083 E.05644
G1 X136.187 Y79.001 E.00757
G1 X135.975 Y78.781 E.00959
G1 X135.898 Y78.567 E.00711
G1 X135.898 Y76.583 E.06222
G1 X133.73 Y76.583 E.068
G1 X133.73 Y78.567 E.06222
G1 X133.632 Y78.818 E.00844
G1 X133.428 Y79.006 E.00872
G1 X133.214 Y79.083 E.00711
G1 X131.414 Y79.083 E.05644
G1 X131.257 Y79.027 E.00523
M204 S1000
G1 X131.4 Y78.683 F10800
M204 S800
G1 F600
G1 X131.304 Y78.595 E.00406
G1 X131.276 Y78.526 E.00235
G1 X131.276 Y70.809 E.24194
G1 X131.304 Y70.74 E.00235
G1 X131.387 Y70.657 E.00365
G1 X131.456 Y70.629 E.00235
G1 X133.172 Y70.629 E.05382
G1 X133.242 Y70.657 E.00235
G1 X133.324 Y70.74 E.00365
G1 X133.353 Y70.809 E.00235
G1 X133.353 Y73.129 E.07273
G1 X136.276 Y73.129 E.09165
G1 X136.276 Y70.809 E.07273
G1 X136.304 Y70.74 E.00235
G1 X136.387 Y70.657 E.00365
G1 X136.456 Y70.629 E.00235
G1 X138.172 Y70.629 E.05382
G1 X138.242 Y70.657 E.00235
G1 X138.324 Y70.74 E.00365
G1 X138.353 Y70.809 E.00235
G1 X138.353 Y78.526 E.24194
G1 X138.324 Y78.595 E.00235
M73 P2 R62
G1 X138.242 Y78.677 E.00365
G1 X138.172 Y78.706 E.00235
G1 X136.456 Y78.706 E.05382
G1 X136.387 Y78.677 E.00235
G1 X136.304 Y78.595 E.00365
G1 X136.276 Y78.526 E.00235
G1 X136.276 Y76.206 E.07273
G1 X133.353 Y76.206 E.09165
G1 X133.353 Y78.526 E.07273
G1 X133.324 Y78.595 E.00235
G1 X133.242 Y78.677 E.00365
G1 X133.172 Y78.706 E.00235
G1 X131.455 Y78.706 E.05384
M204 S1000
;WIPE_START
G1 F8640
G1 X131.304 Y78.595 E-.0432
G1 X131.276 Y78.526 E-.01732
G1 X131.276 Y75.496 E-.69948
;WIPE_END
G1 E-.04 F2100
G1 Z.6 F720
G1 X133.908 Y79.208 F10800
G1 Z.2 F720
G1 E.8 F2100
M204 S800
G1 F600
G1 X134.107 Y78.603 E.01998
G1 X134.107 Y76.96 E.0515
G1 X135.521 Y76.96 E.04435
M73 P3 R62
G1 X135.521 Y78.603 E.0515
G1 X135.72 Y79.208 E.01998
M73 Q3 S63
G1 X133.968 Y79.208 E.05492
M204 S1000
G1 X134.484 Y78.831 F10800
M204 S800
G1 F600
G1 X134.484 Y77.337 E.04684
G1 X135.144 Y77.337 E.02071
G1 X135.144 Y78.831 E.04684
G1 X134.544 Y78.831 E.01883
M204 S1000
;WIPE_START
G1 F8640
G1 X134.484 Y77.337 E-.34524
G1 X135.144 Y77.337 E-.1525
G1 X135.144 Y78.473 E-.26226
;WIPE_END
G1 E-.04 F2100
G1 Z.6 F720
G1 X129.011 Y66.928 F10800
G1 Z.2 F720
G1 E.8 F2100
M204 S800
G1 F600
G1 X128.371 Y67.07 E.02057
G1 X115 Y67.076 E.41924
G1 X114.075 Y66.794 E.03031
G1 X113.78 Y66.605 E.01097
G1 X113.272 Y66.117 E.02208
G1 X112.914 Y65.479 E.02295
G1 X112.752 Y64.787 E.0223
G1 X112.75 Y54.058 E.33638
G1 X113.032 Y53.134 E.0303
G1 X113.22 Y52.839 E.01097
G1 X113.708 Y52.332 E.02207
G1 X114.346 Y51.974 E.02293
G1 X115.039 Y51.811 E.0223
G1 X128.568 Y51.815 E.42419
G1 X129.05 Y51.935 E.01558
G1 X129.532 Y52.161 E.01669
G1 X130.111 Y52.658 E.02392
G1 X130.485 Y53.21 E.02093
G1 X130.746 Y52.773 E.01597
G1 X131.291 Y52.232 E.02408
G1 X131.643 Y52.01 E.01302
G1 X132.464 Y51.758 E.02694
G1 X134.737 Y51.764 E.07128
G1 X135.489 Y51.998 E.02468
G1 X135.807 Y52.184 E.01155
G1 X136.078 Y52.423 E.01134
G1 X136.292 Y52.224 E.00917
G1 X136.681 Y51.994 E.01418
G1 X137.359 Y51.774 E.02233
G1 X139.736 Y51.764 E.07455
G1 X140.406 Y51.961 E.02189
G1 X141.005 Y52.341 E.02222
G1 X141.392 Y52.753 E.01774
G1 X141.576 Y53.026 E.01031
G1 X141.88 Y53.996 E.03188
G1 X141.88 Y62.101 E.25412
G1 X141.672 Y62.863 E.02478
G1 X141.44 Y63.289 E.01519
G1 X140.895 Y63.845 E.02441
G1 X140.606 Y64.045 E.01102
G1 X139.631 Y64.351 E.03205
G1 X137.469 Y64.342 E.06779
G1 X136.666 Y64.1 E.02629
G1 X136.345 Y63.91 E.01168
G1 X136.099 Y63.692 E.01031
G1 X135.649 Y64.018 E.01743
G1 X134.7 Y64.341 E.03143
G1 X132.475 Y64.343 E.06975
