; generated by PrusaSlicer 2.5.0+win64 on 2022-10-12 at 22:49:18 UTC

; 

; external perimeters extrusion width = 0.45mm
; perimeters extrusion width = 0.45mm
; infill extrusion width = 0.45mm
; solid infill extrusion width = 0.45mm
; top infill extrusion width = 0.40mm
; support material extrusion width = 0.35mm
; first layer extrusion width = 0.42mm

; external perimeters extrusion width = 0.45mm
; perimeters extrusion width = 0.45mm
; infill extrusion width = 0.45mm
; solid infill extrusion width = 0.45mm
; top infill extrusion width = 0.40mm
; support material extrusion width = 0.35mm
; first layer extrusion width = 0.42mm

; external perimeters extrusion width = 0.45mm
; perimeters extrusion width = 0.45mm
; infill extrusion width = 0.45mm
; solid infill extrusion width = 0.45mm
; top infill extrusion width = 0.40mm
; support material extrusion width = 0.35mm
; first layer extrusion width = 0.42mm

; external perimeters extrusion width = 0.45mm
; perimeters extrusion width = 0.45mm
; infill extrusion width = 0.45mm
; solid infill extrusion width = 0.45mm
; top infill extrusion width = 0.40mm
; support material extrusion width = 0.35mm
; first layer extrusion width = 0.42mm

M73 P0 R64
M73 Q0 S64
M201 X1000 Y1000 Z200 E5000 ; sets maximum accelerations, mm/sec^2
M203 X200 Y200 Z12 E120 ; sets maximum feedrates, mm / sec
M204 P1250 R1250 T1250 ; sets acceleration (P, T) and retract acceleration (R), mm/sec^2
M205 X8.00 Y8.00 Z0.40 E4.50 ; sets the jerk limits, mm/sec
M205 S0 T0 ; sets the minimum extruding and travel feed rate, mm/sec
M107
;TYPE:Custom
M862.3 P "MK3S" ; printer model check
M862.1 P0.4 ; nozzle diameter check
M115 U3.10.1 ; tell printer latest fw version
G90 ; use absolute coordinates
M83 ; extruder relative mode
M104 S215 ; set extruder temp
M140 S60 ; set bed temp
M190 S60 ; wait for bed temp
M109 S215 ; wait for extruder temp
G28 W ; home all without mesh bed level
G80 ; mesh bed leveling
G1 Z0.2 F720
G1 Y-3 F1000 ; go outside print area
G92 E0
G1 X60 E9 F1000 ; intro line
G1 X100 E12.5 F1000 ; intro line
G92 E0
M221 S95

; Don't change E values below. Excessive value can damage the printer.

G21 ; set units to millimeters
G90 ; use absolute coordinates
M83 ; use relative distances for extrusion
M900 K0.05 ; Filament gcode LA 1.5
M900 K30 ; Filament gcode LA 1.0
M107
;LAYER_CHANGE
;Z:0.2
;HEIGHT:0.2
;BEFORE_LAYER_CHANGE
G92 E0.0
;0.2


G1 E-.8 F2100
G1 Z.4 F720
;AFTER_LAYER_CHANGE
;0.2
G1 X103.333 Y32.006 F10800
G1 Z.2 F720
G1 E.8 F2100
M204 S800
;TYPE:Skirt/Brim
;WIDTH:0.42
G1 F600
G1 X103.993 Y30.412 E.05409
G1 X106.101 Y28.359 E.09224
G1 X119.736 Y19.025 E.51809
G1 X121.009 Y18.631 E.04179
G1 X130.136 Y18.631 E.28616
G1 X131.73 Y19.292 E.05409
G1 X133.516 Y21.078 E.07922
G1 X134.144 Y22.29 E.04278
G1 X138.923 Y50.059 E.88349
G1 X138.956 Y60.568 E.3295
G1 X138.296 Y62.162 E.05409
G1 X136.509 Y63.949 E.07922
G1 X135.446 Y64.546 E.03822
G1 X124.223 Y67.265 E.36206
G1 X123.694 Y67.329 E.01671
G1 X108.262 Y67.334 E.48388
G1 X106.668 Y66.674 E.05408
G1 X104.882 Y64.887 E.07922
G1 X104.226 Y63.442 E.04974
G1 X103.333 Y49.89 E.42585
G1 X103.333 Y32.066 E.55885
M204 S1000
G1 X103.71 Y32.066 F10800
M204 S800
G1 F600
G1 X103.71 Y32.006 E.00188
G1 X104.26 Y30.678 E.04505
G1 X106.314 Y28.67 E.09006
G1 X119.949 Y19.337 E.51809
G1 X121.009 Y19.008 E.0348
G1 X130.136 Y19.008 E.28616
G1 X131.463 Y19.558 E.04505
G1 X133.25 Y21.345 E.07922
G1 X133.772 Y22.354 E.03563
G1 X138.552 Y50.123 E.88349
G1 X138.579 Y60.568 E.3275
G1 X138.029 Y61.896 E.04505
G1 X136.242 Y63.682 E.07922
G1 X135.357 Y64.179 E.03183
G1 X124.135 Y66.899 E.36206
G1 X123.694 Y66.952 E.01392
G1 X108.262 Y66.957 E.48387
G1 X106.935 Y66.407 E.04503
G1 X105.148 Y64.62 E.07922
G1 X104.603 Y63.417 E.04142
G1 X103.71 Y49.89 E.42507
G1 X103.71 Y32.126 E.55697
M204 S1000
;WIPE_START
M73 P0 R63
G1 F8640
G1 X103.71 Y32.006 E-.02771
G1 X104.26 Y30.678 E-.33173
G1 X105.5 Y29.466 E-.40056
;WIPE_END
G1 E-.04 F2100
G1 Z.6 F720
G1 X106.173 Y32.899 F10800
G1 Z.2 F720
G1 E.8 F2100
M204 S800
G1 F600
G1 X106.442 Y32.042 E.02814
G1 X106.642 Y31.753 E.01102
G1 X107.198 Y31.208 E.02441
G1 X107.624 Y30.977 E.01519
G1 X108.386 Y30.768 E.02478
G1 X119.774 Y30.768 E.35707
G1 X119.794 Y23.544 E.2265
G1 X120.013 Y22.846 E.02295
G1 X120.311 Y22.369 E.01764
G1 X120.759 Y21.937 E.01951
G1 X121.093 Y21.717 E.01252
G1 X122.019 Y21.434 E.03038
G1 X129.253 Y21.454 E.22679
M73 P1 R63
G1 X130.101 Y21.741 E.02807
M73 Q1 S64
G1 X130.367 Y21.922 E.0101
G1 X130.748 Y22.271 E.01621
G1 X131.119 Y22.816 E.02064
G1 X131.328 Y23.41 E.01977
G1 X131.371 Y31.066 E.24004
G1 X131.64 Y31.213 E.0096
G1 X132.172 Y31.72 E.02303
G1 X132.458 Y32.183 E.01708
G1 X132.699 Y33.014 E.02711
G1 X132.699 Y48.882 E.49756
G1 X132.626 Y49.213 E.0106
G1 X134.027 Y49.222 E.04392
G1 X134.309 Y49.284 E.00906
G1 X134.933 Y49.545 E.02121
G1 X135.633 Y50.165 E.02934
G1 X136.052 Y50.967 E.02837
G1 X136.15 Y51.464 E.01585
G1 X136.153 Y59.556 E.25372
G1 X135.898 Y60.425 E.02839
G1 X135.644 Y60.825 E.01487
G1 X135.039 Y61.399 E.02614
G1 X134.466 Y61.678 E.01998
G1 X133.897 Y61.802 E.01828
G1 X126.801 Y61.806 E.22249
G1 X125.946 Y61.559 E.0279
G1 X125.6 Y61.353 E.01262
G1 X124.938 Y60.755 E.02797
G1 X124.923 Y62.338 E.04964
G1 X124.672 Y63.158 E.02688
G1 X124.459 Y63.501 E.01268
G1 X123.915 Y64.05 E.02422
G1 X123.327 Y64.367 E.02092
G1 X122.728 Y64.516 E.01937
G1 X109.273 Y64.531 E.42188
G1 X108.302 Y64.227 E.03191
M73 Q1 S63
G1 X108.023 Y64.037 E.01056
G1 X107.502 Y63.515 E.02314
G1 X107.183 Y62.927 E.02098
G1 X107.034 Y62.326 E.0194
G1 X107.023 Y51.513 E.33904
G1 X107.255 Y50.743 E.02521
G1 X106.683 Y50.201 E.02471
G1 X106.37 Y49.699 E.01855
G1 X106.146 Y48.94 E.02483
G1 X106.136 Y33.016 E.49927
G1 X106.155 Y32.956 E.00198
M204 S1000
G1 X106.513 Y33.045 F10800
M204 S800
G1 F600
G1 X106.769 Y32.23 E.02676
G1 X106.922 Y32.006 E.0085
G1 X107.406 Y31.524 E.02142
G1 X107.749 Y31.333 E.01232
G1 X108.413 Y31.145 E.02163
G1 X120.15 Y31.145 E.36802
G1 X120.171 Y23.574 E.23738
G1 X120.346 Y23.023 E.01815
G1 X120.591 Y22.623 E.01469
G1 X121.01 Y22.219 E.01826
G1 X121.234 Y22.068 E.00847
G1 X122.048 Y21.812 E.02677
G1 X129.22 Y21.831 E.22487
G1 X129.912 Y22.068 E.02292
G1 X130.124 Y22.21 E.00799
G1 X130.477 Y22.534 E.01506
G1 X130.774 Y22.97 E.01651
G1 X130.951 Y23.447 E.01597
G1 X130.995 Y31.303 E.24633
G1 X131.405 Y31.51 E.01437
G1 X131.868 Y31.943 E.01989
G1 X132.105 Y32.318 E.0139
G1 X132.322 Y33.042 E.0237
G1 X132.322 Y48.851 E.49569
G1 X132.115 Y49.589 E.02401
G1 X133.97 Y49.595 E.05814
G1 X134.181 Y49.64 E.00677
G1 X134.759 Y49.881 E.01965
G1 X135.317 Y50.373 E.02332
G1 X135.688 Y51.071 E.02479
G1 X135.772 Y51.483 E.0132
G1 X135.776 Y59.529 E.25226
G1 X135.564 Y60.248 E.02352
G1 X135.364 Y60.572 E.01193
G1 X134.846 Y61.073 E.02261
G1 X134.322 Y61.329 E.01829
G1 X133.877 Y61.425 E.01427
G1 X126.828 Y61.429 E.22102
G1 X126.115 Y61.221 E.02327
G1 X125.838 Y61.06 E.01007
G1 X125.456 Y60.715 E.01613
G1 X125.2 Y60.368 E.01351
G1 X124.877 Y59.413 E.03161
G1 X124.561 Y59.465 E.01002
G1 X124.555 Y62.255 E.08748
G1 X124.319 Y63.021 E.02513
G1 X124.153 Y63.281 E.00968
G1 X123.71 Y63.732 E.01981
G1 X123.171 Y64.023 E.01922
G1 X122.663 Y64.144 E.01637
G1 X109.301 Y64.154 E.41894
G1 X108.488 Y63.898 E.02672
G1 X108.273 Y63.754 E.00812
G1 X107.819 Y63.31 E.01991
G1 X107.527 Y62.77 E.01925
G1 X107.406 Y62.261 E.0164
G1 X107.4 Y51.543 E.33607
G1 X107.707 Y50.568 E.03206
G1 X107.38 Y50.347 E.01238
G1 X106.963 Y49.947 E.01812
G1 X106.705 Y49.524 E.01552
G1 X106.523 Y48.912 E.02002
G1 X106.513 Y33.105 E.49563
M204 S1000
G1 X106.89 Y33.104 F10800
M204 S800
G1 F600
G1 X107.098 Y32.416 E.02255
G1 X107.204 Y32.256 E.00601
G1 X107.617 Y31.837 E.01843
G1 X107.878 Y31.688 E.00945
G1 X108.441 Y31.522 E.01838
G1 X120.526 Y31.522 E.37893
G1 X120.548 Y23.607 E.24817
G1 X120.696 Y23.163 E.01468
G1 X120.87 Y22.878 E.01048
G1 X121.259 Y22.503 E.01692
G1 X121.419 Y22.397 E.00604
G1 X122.077 Y22.189 E.02161
G1 X129.187 Y22.208 E.22294
G1 X129.724 Y22.396 E.01784
G1 X129.88 Y22.498 E.00585
G1 X130.207 Y22.798 E.01389
G1 X130.429 Y23.122 E.01233
G1 X130.586 Y23.547 E.0142
G1 X130.619 Y31.545 E.25077
G1 X131.172 Y31.808 E.01921
G1 X131.566 Y32.171 E.01681
G1 X131.754 Y32.457 E.01071
G1 X131.945 Y33.071 E.02017
G1 X131.945 Y48.823 E.49388
G1 X131.775 Y49.395 E.01872
G1 X131.421 Y49.965 E.02104
G1 X133.918 Y49.969 E.07829
G1 X134.055 Y49.996 E.00439
G1 X134.586 Y50.217 E.01804
G1 X135 Y50.58 E.01727
G1 X135.341 Y51.221 E.02274
G1 X135.399 Y51.533 E.00996
G1 X135.399 Y59.501 E.24984
G1 X135.229 Y60.076 E.01878
G1 X135.08 Y60.323 E.00904
G1 X134.651 Y60.749 E.01895
G1 X134.179 Y60.98 E.01649
G1 X133.822 Y61.052 E.01142
G1 X126.855 Y61.052 E.21843
G1 X126.281 Y60.882 E.01877
G1 X126.074 Y60.765 E.00746
G1 X125.721 Y60.446 E.01492
G1 X125.547 Y60.217 E.00901
G1 X125.305 Y59.502 E.02368
G1 X125.305 Y51.508 E.25062
G1 X125.474 Y50.935 E.01876
G1 X125.818 Y50.373 E.02064
G1 X123.686 Y50.373 E.06684
G1 X124.077 Y51.01 E.02343
G1 X124.239 Y51.58 E.0186
G1 X124.194 Y55.213 E.11392
G1 X124.178 Y62.224 E.21982
G1 X123.969 Y62.88 E.02158
G1 X123.868 Y63.033 E.00575
G1 X123.504 Y63.415 E.01654
G1 X123.016 Y63.678 E.0174
G1 X122.602 Y63.771 E.0133
G1 X109.33 Y63.777 E.41611
G1 X108.673 Y63.569 E.02163
G1 X108.519 Y63.468 E.00576
G1 X108.136 Y63.104 E.01657
G1 X107.872 Y62.615 E.01743
G1 X107.779 Y62.2 E.01332
G1 X107.777 Y51.572 E.33324
G1 X107.985 Y50.915 E.02162
M73 P2 R63
M73 Q2 S63
G1 X108.086 Y50.76 E.00581
G1 X108.431 Y50.384 E.01599
G1 X107.785 Y50.166 E.02137
G1 X107.625 Y50.06 E.00603
G1 X107.268 Y49.724 E.01536
G1 X107.056 Y49.387 E.01248
G1 X106.9 Y48.882 E.01657
G1 X106.89 Y33.164 E.49282
M204 S1000
;WIPE_START
G1 F8640
G1 X107.098 Y32.416 E-.17937
G1 X107.204 Y32.256 E-.04427
G1 X107.617 Y31.837 E-.13575
G1 X107.878 Y31.688 E-.06958
G1 X108.441 Y31.522 E-.13535
G1 X109.288 Y31.522 E-.19569
;WIPE_END
G1 E-.04 F2100
G1 Z.6 F720
G1 X109.372 Y50.398 F10800
G1 Z.2 F720
G1 E.8 F2100
M204 S800
G1 F600
G1 X122.72 Y50.396 E.41852
G1 X122.917 Y50.446 E.00637
G1 X123.242 Y50.601 E.01127
G1 X123.568 Y50.9 E.01389
G1 X123.724 Y51.145 E.00911
G1 X123.861 Y51.605 E.01506
G1 X123.817 Y55.21 E.11304
G1 X123.801 Y62.193 E.21895
G1 X123.638 Y62.698 E.01662
G1 X123.578 Y62.792 E.00351
G1 X123.296 Y63.099 E.01306
G1 X122.86 Y63.334 E.01551
G1 X122.582 Y63.394 E.00893
G1 X109.36 Y63.4 E.41457
G1 X108.854 Y63.238 E.01665
G1 X108.76 Y63.177 E.00351
G1 X108.452 Y62.895 E.01308
G1 X108.217 Y62.459 E.01554
G1 X108.156 Y62.18 E.00895
G1 X108.154 Y51.602 E.33169
G1 X108.316 Y51.096 E.01665
G1 X108.376 Y51.001 E.00351
G1 X108.658 Y50.694 E.01308
G1 X109.094 Y50.459 E.01553
G1 X109.314 Y50.411 E.00706
M204 S1000
G1 X109.39 Y50.775 F10800
M204 S800
G1 F600
G1 X122.657 Y50.768 E.41596
G1 X122.775 Y50.796 E.0038
G1 X123.051 Y50.927 E.00959
G1 X123.291 Y51.156 E.01039
G1 X123.373 Y51.285 E.00479
G1 X123.484 Y51.633 E.01145
G1 X123.44 Y55.208 E.1121
G1 X123.424 Y62.162 E.21804
G1 X123.286 Y62.552 E.01299
G1 X123.042 Y62.817 E.01129
G1 X122.713 Y62.986 E.01158
G1 X122.563 Y63.017 E.00481
G1 X109.391 Y63.022 E.41301
G1 X108.999 Y62.885 E.01301
G1 X108.733 Y62.641 E.01131
G1 X108.564 Y62.312 E.0116
G1 X108.533 Y62.162 E.00482
G1 X108.531 Y51.632 E.33014
G1 X108.65 Y51.271 E.01193
G1 X108.912 Y50.975 E.01239
G1 X109.241 Y50.806 E.01159
G1 X109.331 Y50.787 E.0029
M204 S1000
G1 X109.404 Y51.153 F10800
M204 S800
G1 F600
G1 X122.604 Y51.141 E.41388
G1 X122.856 Y51.252 E.00864
G1 X123.026 Y51.434 E.00779
G1 X123.106 Y51.664 E.00763
G1 X123.063 Y55.205 E.11105
G1 X123.047 Y62.126 E.217
G1 X122.97 Y62.339 E.0071
M73 P2 R62
G1 X122.792 Y62.533 E.00826
G1 X122.546 Y62.64 E.00842
G1 X109.426 Y62.645 E.41137
G1 X109.212 Y62.569 E.00711
G1 X109.018 Y62.39 E.00828
G1 X108.91 Y62.144 E.00843
G1 X108.908 Y51.667 E.32849
G1 X108.984 Y51.454 E.00711
G1 X109.163 Y51.26 E.00827
G1 X109.348 Y51.172 E.00642
M204 S1000
G1 X109.465 Y51.529 F10800
M204 S800
G1 F600
G1 X122.548 Y51.518 E.4102
G1 X122.618 Y51.548 E.00237
G1 X122.7 Y51.631 E.00368
G1 X122.729 Y51.701 E.00237
G1 X122.686 Y55.202 E.10978
G1 X122.67 Y62.083 E.21575
G1 X122.641 Y62.152 E.00235
G1 X122.559 Y62.234 E.00364
G1 X122.489 Y62.263 E.00235
G1 X109.467 Y62.268 E.4083
G1 X109.398 Y62.24 E.00235
G1 X109.316 Y62.157 E.00365
G1 X109.287 Y62.088 E.00235
G1 X109.285 Y51.709 E.32542
G1 X109.314 Y51.64 E.00235
G1 X109.41 Y51.552 E.00409
M204 S1000
;WIPE_START
G1 F8640
G1 X112.701 Y51.543 E-.76
;WIPE_END
G1 E-.04 F2100
G1 Z.6 F720
G1 X109.41 Y49.996 F10800
G1 Z.2 F720
G1 E.8 F2100
M204 S800
G1 F600
G1 X108.471 Y49.996 E.02943
G1 X107.966 Y49.834 E.01664
G1 X107.87 Y49.772 E.00358
G1 X107.544 Y49.466 E.01401
G1 X107.407 Y49.246 E.00813
G1 X107.277 Y48.851 E.01307
G1 X107.267 Y33.103 E.49375
G1 X107.429 Y32.598 E.01664
G1 X107.49 Y32.503 E.00355
G1 X107.833 Y32.147 E.01547
G1 X108.013 Y32.04 E.00658
G1 X108.47 Y31.899 E.015
G1 X120.902 Y31.899 E.38979
G1 X120.925 Y23.642 E.25889
G1 X121.044 Y23.309 E.01112
G1 X121.15 Y23.131 E.00648
G1 X121.506 Y22.789 E.01548
G1 X121.601 Y22.728 E.00355
G1 X122.107 Y22.566 E.01664
G1 X129.096 Y22.575 E.21915
G1 X129.543 Y22.727 E.01479
M73 Q2 S62
G1 X129.638 Y22.788 E.00356
G1 X129.934 Y23.059 E.01258
G1 X130.101 Y23.31 E.00945
G1 X130.22 Y23.642 E.01107
G1 X130.243 Y31.873 E.25807
G1 X130.575 Y31.941 E.01065
G1 X130.943 Y32.109 E.01265
G1 X131.27 Y32.405 E.01383
G1 X131.405 Y32.602 E.00751
G1 X131.568 Y33.102 E.01649
G1 X131.568 Y48.793 E.49197
G1 X131.422 Y49.262 E.01541
G1 X131.343 Y49.395 E.00484
G1 X131.002 Y49.748 E.01538
G1 X130.82 Y49.856 E.00663
G1 X130.311 Y50.023 E.01681
G1 X130.362 Y50.34 E.01007
G1 X133.934 Y50.353 E.11202
G1 X134.363 Y50.523 E.01447
G1 X134.725 Y50.841 E.01509
G1 X134.976 Y51.32 E.01697
G1 X135.021 Y51.552 E.00742
G1 X135.021 Y59.472 E.24831
G1 X134.876 Y59.941 E.0154
G1 X134.794 Y60.076 E.00497
G1 X134.455 Y60.425 E.01524
G1 X134.036 Y60.63 E.01461
G1 X133.804 Y60.675 E.0074
G1 X126.885 Y60.675 E.21696
G1 X126.413 Y60.528 E.01549
G1 X126.311 Y60.471 E.00366
G1 X125.988 Y60.179 E.01364
G1 X125.868 Y60.017 E.00634
G1 X125.682 Y59.47 E.0181
G1 X125.682 Y51.538 E.24871
G1 X125.827 Y51.069 E.0154
G1 X125.908 Y50.935 E.00491
G1 X126.299 Y50.549 E.01721
G1 X126.875 Y50.295 E.01973
G1 X126.812 Y49.996 E.00959
G1 X109.47 Y49.996 E.54375
M204 S1000
;WIPE_START
G1 F8640
G1 X108.471 Y49.996 E-.2306
G1 X107.966 Y49.834 E-.12253
G1 X107.87 Y49.772 E-.02638
G1 X107.544 Y49.466 E-.10315
G1 X107.407 Y49.246 E-.05986
G1 X107.277 Y48.851 E-.09624
G1 X107.277 Y48.325 E-.12124
;WIPE_END
G1 E-.04 F2100
G1 Z.6 F720
G1 X126.059 Y51.57 F10800
G1 Z.2 F720
G1 E.8 F2100
M204 S800
G1 F600
G1 X126.195 Y51.181 E.01292
G1 X126.494 Y50.873 E.01346
G1 X126.82 Y50.727 E.01119
G1 X127.252 Y50.712 E.01354
G1 X133.845 Y50.723 E.20673
G1 X134.19 Y50.86 E.01164
G1 X134.444 Y51.093 E.01081
G1 X134.613 Y51.422 E.0116
G1 X134.644 Y51.573 E.00482
G1 X134.644 Y59.44 E.24666
G1 X134.509 Y59.829 E.01292
M73 P3 R62
M73 Q3 S62
G1 X134.209 Y60.137 E.01346
G1 X133.937 Y60.265 E.00943
G1 X133.784 Y60.298 E.00492
G1 X126.917 Y60.298 E.21531
G1 X126.555 Y60.179 E.01193
G1 X126.259 Y59.916 E.0124
G1 X126.191 Y59.821 E.0037
G1 X126.059 Y59.439 E.01267
G1 X126.059 Y51.63 E.24484
M204 S1000
G1 X126.436 Y51.63 F10800
M204 S800
G1 F600
G1 X126.512 Y51.391 E.00785
G1 X126.691 Y51.197 E.00827
G1 X126.891 Y51.102 E.00695
G1 X133.752 Y51.089 E.2151
G1 X133.965 Y51.166 E.00711
G1 X134.16 Y51.344 E.00827
G1 X134.267 Y51.591 E.00843
G1 X134.267 Y59.405 E.24501
G1 X134.191 Y59.618 E.00711
G1 X134.012 Y59.813 E.00827
G1 X133.766 Y59.92 E.00843
G1 X126.952 Y59.92 E.21366
G1 X126.738 Y59.844 E.00711
G1 X126.533 Y59.656 E.00872
G1 X126.436 Y59.405 E.00844
G1 X126.436 Y51.69 E.24191
M204 S1000
G1 X126.813 Y51.69 F10800
M204 S800
G1 F600
G1 X126.842 Y51.577 E.00364
G1 X126.924 Y51.495 E.00365
G1 X126.993 Y51.466 E.00235
G1 X133.71 Y51.466 E.21059
G1 X133.779 Y51.495 E.00235
G1 X133.862 Y51.577 E.00365
G1 X133.89 Y51.647 E.00235
G1 X133.89 Y59.363 E.24194
G1 X133.862 Y59.432 E.00235
G1 X133.779 Y59.515 E.00365
G1 X133.71 Y59.543 E.00235
