; generated by PrusaSlicer 2.2.0+win64 on 2020-08-12 at 19:35:55 UTC

; 

; external perimeters extrusion width = 0.45mm
; perimeters extrusion width = 0.45mm
; infill extrusion width = 0.45mm
; solid infill extrusion width = 0.45mm
; top infill extrusion width = 0.40mm
; support material extrusion width = 0.35mm
; first layer extrusion width = 0.42mm

M73 P0 R92
M73 Q0 S93
M201 X1000 Y1000 Z1000 E5000 ; sets maximum accelerations, mm/sec^2
M203 X200 Y200 Z12 E120 ; sets maximum feedrates, mm/sec
M204 P1250 R1250 T1250 ; sets acceleration (P, T) and retract acceleration (R), mm/sec^2
M205 X8.00 Y8.00 Z0.40 E1.50 ; sets the jerk limits, mm/sec
M205 S0 T0 ; sets the minimum extruding and travel feed rate, mm/sec
M107
M862.3 P "MK3S" ; printer model check
M862.1 P0.4 ; nozzle diameter check
M115 U3.8.0 ; tell printer latest fw version
G90 ; use absolute coordinates
M83 ; extruder relative mode
M104 S215 ; set extruder temp
M140 S60 ; set bed temp
M190 S60 ; wait for bed temp
M109 S215 ; wait for extruder temp
G28 W ; home all without mesh bed level
G80 ; mesh bed leveling
G1 Y-3.0 F1000.0 ; go outside print area
G92 E0.0
G1 X60.0 E9.0 F1000.0 ; intro line
M73 Q0 S93
M73 P0 R92
G1 X100.0 E12.5 F1000.0 ; intro line
G92 E0.0
M221 S95
G21 ; set units to millimeters
G90 ; use absolute coordinates
M83 ; use relative distances for extrusion
M900 K0.06 ; Filament gcode LA 1.5
M900 K30 ; Filament gcode LA 1.0
;BEFORE_LAYER_CHANGE
G92 E0.0
;0.2


G1 E-0.80000 F2100.00000
G1 Z0.600 F10800.000
;AFTER_LAYER_CHANGE
;0.2
G1 X112.081 Y103.934
G1 Z0.200
G1 E0.80000 F2100.00000
M204 S1000
G1 F1200.000
G1 X101.242 Y114.773 E0.48059
G1 X101.775 Y115.306 E0.02365
G1 X112.494 Y104.587 E0.47527
G1 X113.027 Y105.121 E0.02365
G1 X102.189 Y115.959 E0.48059
G1 E-0.80000 F2100.00000
G1 Z0.800 F10800.000
G1 X113.247 Y112.992
G1 Z0.200
G1 E0.80000 F2100.00000
G1 F1200.000
G1 X114.694 Y111.545 E0.05225
G1 X113.977 Y111.545 E0.01831
G1 X112.987 Y112.536 E0.03577
G1 X112.628 Y112.177 E0.01295
G1 X113.260 Y111.545 E0.02282
G1 X112.543 Y111.545 E0.01831
G1 X112.269 Y111.819 E0.00988
G1 X111.911 Y111.460 E0.01295
G1 X112.037 Y111.334 E0.00457
G1 X111.885 Y110.868 E0.01251
G1 X113.018 Y110.012 E0.03626
G1 X113.461 Y109.748 E0.01317
G1 X113.184 Y109.470 E0.01003
G1 X111.552 Y111.102 E0.05891
G1 X111.194 Y110.743 E0.01295
G1 X112.825 Y109.112 E0.05891
G1 X112.467 Y108.753 E0.01295
G1 X110.835 Y110.385 E0.05891
G1 X110.477 Y110.026 E0.01295
G1 X112.206 Y108.297 E0.06244
G1 X115.310 Y109.238 F10800.000
G1 F1200.000
G1 X116.227 Y108.320 E0.04067
G1 X115.694 Y107.787 E0.02365
G1 X113.839 Y109.642 E0.08224
G1 X113.306 Y109.108 E0.02365
G1 X115.160 Y107.254 E0.08224
G1 X114.627 Y106.721 E0.02365
G1 X112.772 Y108.575 E0.08224
G1 X112.239 Y108.042 E0.02365
G1 X114.094 Y106.187 E0.08224
G1 X113.560 Y105.654 E0.02365
G1 X101.211 Y118.004 E0.54761
G1 X101.744 Y118.537 E0.02365
G1 X110.124 Y110.157 E0.37158
G1 X110.657 Y110.690 E0.02365
G1 X102.277 Y119.070 E0.37158
G1 X102.752 Y119.546 E0.02107
G1 X101.121 Y121.177 E0.07234
G1 X101.179 Y121.235 E0.00257
G1 X111.190 Y111.224 E0.44392
G1 X111.724 Y111.757 E0.02365
G1 X101.712 Y121.768 E0.44392
G1 X102.246 Y122.302 E0.02365
G1 X112.257 Y112.290 E0.44392
G1 X112.790 Y112.823 E0.02365
G1 X102.779 Y122.835 E0.44392
G1 X103.312 Y123.368 E0.02365
G1 X113.324 Y113.357 E0.44392
G1 X113.471 Y113.504 E0.00653
G1 X115.395 Y111.580 E0.08530
G1 X116.167 Y111.580 E0.02421
G1 X103.845 Y123.901 E0.54634
G1 X104.379 Y124.435 E0.02365
G1 X117.317 Y111.496 E0.57370
G1 X117.860 Y111.412 E0.01722
G1 X118.468 Y111.412 E0.01908
G1 X104.792 Y125.088 E0.60643
G1 X107.458 Y127.754 F10800.000
G1 F1200.000
G1 X116.665 Y118.547 E0.40826
G1 X116.132 Y118.014 E0.02365
G1 X107.045 Y127.101 E0.40294
G1 X106.512 Y126.568 E0.02365
G1 X117.230 Y115.849 E0.47527
G1 X116.697 Y115.316 E0.02365
G1 X105.979 Y126.034 E0.47527
G1 X105.445 Y125.501 E0.02365
G1 X116.164 Y114.783 E0.47527
G1 X116.033 Y114.652 E0.00582
G1 X118.365 Y112.319 E0.10342
G1 X118.496 Y112.450 E0.00582
G1 X119.445 Y111.501 E0.04208
G1 X119.929 Y111.577 E0.01536
G1 X120.433 Y111.580 E0.01579
G1 X119.029 Y112.984 E0.06223
G1 X119.563 Y113.517 E0.02365
G1 X121.417 Y111.662 E0.08224
G1 X121.951 Y112.196 E0.02365
G1 X120.096 Y114.050 E0.08224
G1 X120.629 Y114.583 E0.02365
G1 X122.484 Y112.729 E0.08224
G1 X123.017 Y113.262 E0.02365
G1 X119.411 Y116.868 E0.15989
G1 E-0.80000 F2100.00000
G1 Z0.800 F10800.000
G1 X125.185 Y108.226
G1 Z0.200
G1 E0.80000 F2100.00000
G1 F1200.000
G1 X123.516 Y109.895 E0.06027
G1 X123.712 Y110.012 E0.00582
G1 X123.941 Y110.187 E0.00736
G1 X125.446 Y108.682 E0.05436
G1 X125.805 Y109.040 E0.01295
G1 X124.347 Y110.498 E0.05263
G1 X124.758 Y110.804 E0.01308
G1 X126.163 Y109.399 E0.05076
G1 X126.522 Y109.757 E0.01295
G1 X123.161 Y113.118 E0.12135
G1 X122.803 Y112.759 F10800.000
G1 F1200.000
G1 X124.017 Y111.545 E0.04384
G1 X123.300 Y111.545 E0.01831
G1 X122.542 Y112.303 E0.02736
G1 X122.183 Y111.945 E0.01295
G1 X122.583 Y111.545 E0.01442
G1 X121.865 Y111.545 E0.01831
G1 X121.727 Y111.684 E0.00500
G1 E-0.80000 F2100.00000
G1 Z0.800 F10800.000
G1 X120.824 Y109.055
G1 Z0.200
G1 E0.80000 F2100.00000
G1 F1200.000
G1 X125.419 Y104.461 E0.20371
G1 X125.952 Y104.995 E0.02365
G1 X121.764 Y109.183 E0.18571
G1 X122.504 Y109.509 E0.02536
G1 X126.485 Y105.528 E0.17654
G1 X127.018 Y106.061 E0.02365
G1 X125.164 Y107.916 E0.08224
G1 X125.697 Y108.449 E0.02365
G1 X127.552 Y106.594 E0.08224
G1 X128.085 Y107.128 E0.02365
G1 X126.230 Y108.982 E0.08224
G1 X126.764 Y109.516 E0.02365
G1 X128.618 Y107.661 E0.08224
G1 X129.151 Y108.194 E0.02365
G1 X120.064 Y117.281 E0.40294
G1 X120.598 Y117.815 E0.02365
G1 X129.685 Y108.727 E0.40294
G1 X130.218 Y109.261 E0.02365
G1 X119.500 Y119.979 E0.47527
G1 X120.033 Y120.512 E0.02365
G1 X130.751 Y109.794 E0.47527
G1 X131.285 Y110.327 E0.02365
G1 X120.446 Y121.166 E0.48059
G1 E-0.80000 F2100.00000
G1 Z0.800 F10800.000
G1 X123.482 Y122.836
G1 Z0.200
G1 E0.80000 F2100.00000
G1 F1200.000
G1 X122.036 Y124.283 E0.05225
G1 X122.753 Y124.283 E0.01831
G1 X123.743 Y123.293 E0.03577
G1 X124.102 Y123.651 E0.01295
G1 X123.470 Y124.283 E0.02282
G1 X124.187 Y124.283 E0.01831
G1 X124.460 Y124.010 E0.00988
G1 X124.819 Y124.368 E0.01295
G1 X124.693 Y124.495 E0.00457
G1 X124.845 Y124.960 E0.01251
G1 X123.712 Y125.816 E0.03626
G1 X123.268 Y126.080 E0.01317
G1 X123.546 Y126.358 E0.01003
G1 X125.178 Y124.727 E0.05891
G1 X125.536 Y125.085 E0.01295
G1 X123.905 Y126.717 E0.05891
G1 X124.263 Y127.075 E0.01295
G1 X125.895 Y125.444 E0.05891
G1 X126.253 Y125.803 E0.01295
G1 X124.524 Y127.532 E0.06244
G1 X126.486 Y125.791 F10800.000
G1 F1200.000
G1 X134.986 Y117.291 E0.37690
G1 X134.453 Y116.758 E0.02365
G1 X126.073 Y125.138 E0.37158
G1 X125.539 Y124.605 E0.02365
G1 X135.551 Y114.593 E0.44392
G1 X135.017 Y114.060 E0.02365
G1 X125.006 Y124.072 E0.44392
G1 X124.473 Y123.538 E0.02365
G1 X134.484 Y113.527 E0.44392
G1 X133.951 Y112.994 E0.02365
G1 X123.940 Y123.005 E0.44392
G1 X123.406 Y122.472 E0.02365
G1 X133.418 Y112.460 E0.44392
G1 X132.884 Y111.927 E0.02365
G1 X120.563 Y124.248 E0.54634
G1 X119.970 Y124.248 E0.01861
G1 X119.413 Y124.332 E0.01766
G1 X132.351 Y111.394 E0.57370
G1 X131.818 Y110.861 E0.02365
G1 X118.261 Y124.417 E0.60111
G1 X117.860 Y124.417 E0.01260
G1 X117.285 Y124.327 E0.01824
G1 X118.234 Y123.378 E0.04208
G1 X117.700 Y122.845 E0.02365
G1 X116.297 Y124.248 E0.06223
G1 X115.395 Y124.248 E0.02830
G1 X115.313 Y124.166 E0.00364
G1 X117.167 Y122.312 E0.08224
G1 X116.634 Y121.778 E0.02365
G1 X114.779 Y123.633 E0.08224
G1 X114.246 Y123.100 E0.02365
G1 X116.101 Y121.245 E0.08224
G1 X116.033 Y121.177 E0.00302
G1 X117.664 Y119.546 E0.07234
G1 X117.199 Y119.080 E0.02063
G1 X113.713 Y122.566 E0.15457
G1 X113.471 Y122.324 E0.01073
G1 X109.724 Y126.071 E0.16613
G1 X109.966 Y126.313 E0.01073
G1 X108.112 Y128.168 E0.08224
G1 X108.645 Y128.701 E0.02365
G1 X110.500 Y126.846 E0.08224
G1 X111.033 Y127.379 E0.02365
G1 X109.178 Y129.234 E0.08224
G1 X109.711 Y129.767 E0.02365
G1 X111.566 Y127.913 E0.08224
G1 X111.839 Y128.186 E0.01212
G1 X113.886 Y126.140 E0.09073
G1 X114.226 Y126.319 E0.01206
G1 X110.245 Y130.301 E0.17654
G1 X110.778 Y130.834 E0.02365
G1 X114.966 Y126.646 E0.18571
G1 X115.112 Y126.708 E0.00496
G1 X115.769 Y126.909 E0.02157
G1 X111.191 Y131.487 E0.20301
G1 E-0.80000 F2100.00000
G1 Z0.800 F10800.000
G1 X111.545 Y127.603
G1 Z0.200
G1 E0.80000 F2100.00000
G1 F1200.000
G1 X113.214 Y125.934 E0.06027
G1 X113.018 Y125.816 E0.00582
G1 X112.789 Y125.641 E0.00736
G1 X111.284 Y127.147 E0.05436
G1 X110.925 Y126.788 E0.01295
G1 X112.383 Y125.331 E0.05263
G1 X111.972 Y125.024 E0.01308
G1 X110.567 Y126.430 E0.05076
G1 X110.208 Y126.071 E0.01295
G1 X113.471 Y122.808 E0.11782
G1 X113.829 Y123.167 E0.01295
G1 X112.713 Y124.283 E0.04031
G1 X113.430 Y124.283 E0.01831
G1 X114.188 Y123.525 E0.02737
G1 X114.547 Y123.884 E0.01295
G1 X114.147 Y124.283 E0.01442
G1 X114.864 Y124.283 E0.01831
G1 X115.003 Y124.145 E0.00500
G1 E-0.80000 F2100.00000
G1 Z0.800 F10800.000
G1 X121.420 Y126.591
G1 Z0.200
G1 E0.80000 F2100.00000
G1 F1200.000
G1 X120.503 Y127.508 E0.04067
G1 X121.036 Y128.041 E0.02365
G1 X122.891 Y126.187 E0.08224
G1 X123.424 Y126.720 E0.02365
G1 X121.570 Y128.575 E0.08224
G1 X122.103 Y129.108 E0.02365
G1 X123.957 Y127.253 E0.08224
G1 X124.491 Y127.787 E0.02365
G1 X122.636 Y129.641 E0.08224
G1 X123.169 Y130.174 E0.02365
G1 X135.519 Y117.825 E0.54761
G1 X135.609 Y117.914 E0.00397
G1 X133.977 Y119.546 E0.07234
G1 X134.421 Y119.989 E0.01967
G1 X123.703 Y130.708 E0.47527
G1 X124.236 Y131.241 E0.02365
G1 X134.954 Y120.523 E0.47527
G1 X135.488 Y121.056 E0.02365
G1 X124.649 Y131.894 E0.48059
G1 E-0.80000 F2100.00000
G1 Z0.800 F10800.000
G1 X120.036 Y110.467
G1 Z0.200
G1 E0.80000 F2100.00000
G1 F1200.000
G1 X118.957 Y110.298 E0.03425
G1 X117.773 Y110.298 E0.03711
G1 X116.694 Y110.467 E0.03425
G1 X115.258 Y110.467 E0.04504
G1 X115.220 Y110.288 E0.00575
G1 X115.485 Y110.170 E0.00911
G1 X116.422 Y109.884 E0.03072
G1 X117.387 Y109.710 E0.03072
G1 X118.365 Y109.652 E0.03072
G1 X119.296 Y109.708 E0.02926
G1 X120.309 Y109.884 E0.03222
G1 X121.244 Y110.170 E0.03067
G1 X121.510 Y110.288 E0.00911
G1 X121.472 Y110.467 E0.00575
G1 X120.096 Y110.467 E0.04316
G1 X120.006 Y110.844 F10800.000
G1 F1200.000
G1 X118.927 Y110.676 E0.03425
G1 X117.802 Y110.676 E0.03527
G1 X116.723 Y110.844 E0.03425
G1 X113.704 Y110.844 E0.09466
G1 X113.659 Y110.678 E0.00541
G1 X114.416 Y110.230 E0.02759
G1 X115.354 Y109.816 E0.03213
G1 X116.334 Y109.517 E0.03213
G1 X117.342 Y109.335 E0.03213
G1 X118.365 Y109.275 E0.03213
G1 X119.340 Y109.333 E0.03063
G1 X120.397 Y109.517 E0.03363
G1 X121.376 Y109.816 E0.03211
G1 X122.314 Y110.230 E0.03213
G1 X123.071 Y110.678 E0.02759
G1 X123.026 Y110.844 E0.00541
G1 X120.066 Y110.844 E0.09278
G1 X119.837 Y110.482 F10800.000
G1 X120.382 Y110.193
G1 F1200.000
G1 X120.810 Y110.257 E0.00327
G1 X120.382 Y110.193 F10800.000
G1 F1200.000
G1 X119.259 Y110.024 E0.02014
G1 X118.971 Y109.994 E0.00514
G1 X118.365 Y109.976 E0.01076
G1 X117.759 Y109.994 E0.01076
G1 X117.425 Y110.029 E0.00595
G1 X116.349 Y110.193 E0.01929
G1 X116.206 Y110.214 E0.00208
G1 X116.063 Y110.236 E0.00159
G1 X115.920 Y110.257 E0.00110
G1 E-0.80000 F2100.00000
G1 Z0.800 F10800.000
G1 X118.365 Y126.176
G1 Z0.200
G1 E0.80000 F2100.00000
G1 F1200.000
G1 X117.387 Y126.118 E0.03072
G1 X116.422 Y125.945 E0.03072
G1 X115.485 Y125.658 E0.03072
G1 X115.221 Y125.541 E0.00907
G1 X115.259 Y125.362 E0.00576
G1 X116.699 Y125.362 E0.04515
G1 X117.773 Y125.530 E0.03410
G1 X118.957 Y125.530 E0.03711
G1 X120.036 Y125.361 E0.03425
G1 X121.472 Y125.361 E0.04504
G1 X121.510 Y125.541 E0.00575
G1 X121.244 Y125.658 E0.00911
G1 X120.307 Y125.945 E0.03072
G1 X119.343 Y126.118 E0.03072
G1 X118.425 Y126.173 E0.02884
G1 X118.365 Y126.554 F10800.000
G1 F1200.000
G1 X117.342 Y126.493 E0.03213
G1 X116.334 Y126.312 E0.03213
G1 X115.354 Y126.012 E0.03213
G1 X114.416 Y125.599 E0.03213
G1 X113.659 Y125.151 E0.02758
G1 X113.705 Y124.984 E0.00541
G1 X116.728 Y124.985 E0.09479
G1 X117.802 Y125.153 E0.03410
G1 X118.927 Y125.153 E0.03527
G1 X120.006 Y124.984 E0.03425
G1 X123.026 Y124.984 E0.09466
G1 X123.071 Y125.151 E0.00541
G1 X122.314 Y125.599 E0.02759
G1 X121.376 Y126.012 E0.03213
G1 X120.396 Y126.312 E0.03213
G1 X119.388 Y126.493 E0.03213
G1 X118.425 Y126.550 E0.03025
G1 X118.165 Y126.207 F10800.000
G1 E-0.80000 F2100.00000
G1 Z0.800 F10800.000
G1 X120.381 Y125.635
G1 Z0.200
G1 E0.80000 F2100.00000
G1 F1200.000
G1 X119.305 Y125.800 E0.01936
G1 X118.971 Y125.835 E0.00597
G1 X118.365 Y125.853 E0.01079
G1 X117.759 Y125.835 E0.01079
G1 X117.425 Y125.800 E0.00597
G1 X116.349 Y125.636 E0.01935
G1 X116.207 Y125.615 E0.00207
G1 X116.064 Y125.593 E0.00158
G1 X115.922 Y125.572 E0.00109
G1 E-0.80000 F2100.00000
G1 Z0.800 F10800.000
G1 X120.381 Y125.635
G1 Z0.200
G1 E0.80000 F2100.00000
G1 F1200.000
G1 X120.810 Y125.571 E0.00329
G1 E-0.80000 F2100.00000
G1 Z0.800 F10800.000
G1 X124.461 Y105.659
G1 Z0.200
G1 E0.80000 F2100.00000
G1 F1200.000
G1 X129.040 Y101.080 E0.20301
G1 X128.382 Y100.879 E0.02157
G1 X128.236 Y100.817 E0.00496
G1 X124.048 Y105.005 E0.18571
G1 X123.515 Y104.472 E0.02365
G1 X127.496 Y100.491 E0.17654
G1 X127.156 Y100.312 E0.01206
G1 X125.110 Y102.358 E0.09073
G1 X124.836 Y102.084 E0.01212
G1 X122.982 Y103.939 E0.08224
G1 X122.448 Y103.406 E0.02365
G1 X124.303 Y101.551 E0.08224
G1 X123.770 Y101.018 E0.02365
G1 X121.915 Y102.872 E0.08224
G1 X121.382 Y102.339 E0.02365
G1 X123.236 Y100.484 E0.08224
G1 X122.995 Y100.242 E0.01073
G1 X126.741 Y96.496 E0.16613
G1 X126.983 Y96.738 E0.01073
G1 X130.469 Y93.252 E0.15457
G1 X130.934 Y93.717 E0.02063
G1 X129.303 Y95.348 E0.07234
G1 X129.371 Y95.417 E0.00302
G1 X127.516 Y97.271 E0.08224
G1 X128.049 Y97.804 E0.02365
G1 X129.904 Y95.950 E0.08224
G1 X130.437 Y96.483 E0.02365
G1 X128.583 Y98.338 E0.08224
G1 X128.665 Y98.420 E0.00364
G1 X129.567 Y98.420 E0.02830
G1 X130.971 Y97.016 E0.06223
G1 X131.504 Y97.550 E0.02365
G1 X130.555 Y98.499 E0.04208
G1 X131.130 Y98.588 E0.01824
G1 X131.532 Y98.588 E0.01260
G1 X145.088 Y85.032 E0.60111
G1 X145.621 Y85.565 E0.02365
G1 X132.683 Y98.504 E0.57370
M73 Q1 S92
M73 P1 R91
G1 X133.240 Y98.420 E0.01766
G1 X133.833 Y98.420 E0.01861
G1 X146.155 Y86.099 E0.54634
G1 X146.688 Y86.632 E0.02365
G1 X136.676 Y96.643 E0.44392
G1 X137.210 Y97.177 E0.02365
G1 X147.221 Y87.165 E0.44392
G1 X147.754 Y87.698 E0.02365
G1 X137.743 Y97.710 E0.44392
G1 X138.276 Y98.243 E0.02365
G1 X148.288 Y88.232 E0.44392
G1 X148.821 Y88.765 E0.02365
G1 X138.810 Y98.776 E0.44392
G1 X139.343 Y99.310 E0.02365
G1 X147.723 Y90.930 E0.37158
G1 X148.256 Y91.463 E0.02365
G1 X139.756 Y99.963 E0.37690
G1 E-0.80000 F2100.00000
G1 Z0.800 F10800.000
G1 X137.794 Y101.703
G1 Z0.200
G1 E0.80000 F2100.00000
G1 F1200.000
G1 X139.523 Y99.974 E0.06244
G1 X139.165 Y99.615 E0.01295
G1 X137.533 Y101.247 E0.05891
G1 X137.175 Y100.888 E0.01295
G1 X138.806 Y99.257 E0.05891
G1 X138.448 Y98.898 E0.01295
G1 X136.816 Y100.530 E0.05891
G1 X136.539 Y100.252 E0.01003
G1 X136.982 Y99.988 E0.01317
G1 X138.115 Y99.132 E0.03626
G1 X137.963 Y98.666 E0.01251
G1 X138.089 Y98.540 E0.00457
G1 X137.731 Y98.181 E0.01295
G1 X137.457 Y98.455 E0.00988
G1 X136.740 Y98.455 E0.01831
G1 X137.372 Y97.823 E0.02282
G1 X137.014 Y97.464 E0.01295
G1 X136.023 Y98.455 E0.03577
G1 X135.306 Y98.455 E0.01831
G1 X136.753 Y97.008 E0.05225
G1 X133.716 Y95.337 F10800.000
G1 F1200.000
G1 X144.555 Y84.499 E0.48059
G1 X144.021 Y83.966 E0.02365
G1 X133.303 Y94.684 E0.47527
G1 X132.770 Y94.151 E0.02365
G1 X143.488 Y83.432 E0.47527
G1 X142.955 Y82.899 E0.02365
G1 X133.868 Y91.986 E0.40294
G1 X133.335 Y91.453 E0.02365
G1 X142.422 Y82.366 E0.40294
G1 X141.888 Y81.832 E0.02365
G1 X140.034 Y83.687 E0.08224
G1 X139.500 Y83.154 E0.02365
G1 X141.355 Y81.299 E0.08224
G1 X140.822 Y80.766 E0.02365
G1 X138.967 Y82.621 E0.08224
G1 X138.434 Y82.087 E0.02365
G1 X140.289 Y80.233 E0.08224
G1 X139.755 Y79.699 E0.02365
G1 X135.774 Y83.681 E0.17654
G1 X135.034 Y83.354 E0.02536
G1 X139.222 Y79.166 E0.18571
G1 X138.689 Y78.633 E0.02365
G1 X134.095 Y83.227 E0.20371
G1 E-0.80000 F2100.00000
G1 Z0.800 F10800.000
