; generated by PrusaSlicer 2.2.0+win64 on 2020-08-12 at 19:38:55 UTC

; 

; external perimeters extrusion width = 0.45mm
; perimeters extrusion width = 0.45mm
; infill extrusion width = 0.45mm
; solid infill extrusion width = 0.45mm
; top infill extrusion width = 0.40mm
; support material extrusion width = 0.35mm
; first layer extrusion width = 0.42mm

M73 P0 R59
M73 Q0 S60
M201 X1000 Y1000 Z1000 E5000 ; sets maximum accelerations, mm/sec^2
M203 X200 Y200 Z12 E120 ; sets maximum feedrates, mm/sec
M204 P1250 R1250 T1250 ; sets acceleration (P, T) and retract acceleration (R), mm/sec^2
M205 X8.00 Y8.00 Z0.40 E1.50 ; sets the jerk limits, mm/sec
M205 S0 T0 ; sets the minimum extruding and travel feed rate, mm/sec
M107
M862.3 P "MK3S" ; printer model check
M862.1 P0.4 ; nozzle diameter check
M115 U3.8.0 ; tell printer latest fw version
G90 ; use absolute coordinates
M83 ; extruder relative mode
M104 S215 ; set extruder temp
M140 S60 ; set bed temp
M190 S60 ; wait for bed temp
M109 S215 ; wait for extruder temp
G28 W ; home all without mesh bed level
G80 ; mesh bed leveling
G1 Y-3.0 F1000.0 ; go outside print area
G92 E0.0
G1 X60.0 E9.0 F1000.0 ; intro line
M73 Q0 S60
M73 P0 R59
G1 X100.0 E12.5 F1000.0 ; intro line
G92 E0.0
M221 S95
G21 ; set units to millimeters
G90 ; use absolute coordinates
M83 ; use relative distances for extrusion
M900 K0.06 ; Filament gcode LA 1.5
M900 K30 ; Filament gcode LA 1.0
;BEFORE_LAYER_CHANGE
G92 E0.0
;0.2


G1 E-0.80000 F2100.00000
G1 Z0.600 F10800.000
;AFTER_LAYER_CHANGE
;0.2
G1 X131.003 Y137.112
G1 Z0.200
G1 E0.80000 F2100.00000
M204 S1000
G1 F1200.000
G1 X138.579 Y129.536 E0.33592
G1 X138.046 Y129.003 E0.02365
G1 X130.590 Y136.459 E0.33060
G1 X130.057 Y135.926 E0.02365
G1 X137.512 Y128.470 E0.33060
G1 X136.979 Y127.937 E0.02365
G1 X129.523 Y135.392 E0.33060
G1 X128.990 Y134.859 E0.02365
G1 X136.446 Y127.403 E0.33060
G1 X135.913 Y126.870 E0.02365
G1 X128.457 Y134.326 E0.33060
G1 X128.161 Y134.030 E0.01313
G1 X128.332 Y133.898 E0.00678
G1 X128.833 Y133.414 E0.02184
G1 X129.292 Y132.839 E0.02306
G1 X129.694 Y132.173 E0.02440
G1 X129.813 Y131.903 E0.00924
G1 X135.379 Y126.337 E0.24683
G1 X134.846 Y125.804 E0.02365
G1 X130.229 Y130.421 E0.20473
G1 X129.941 Y130.069 E0.01425
G1 X129.557 Y130.069 E0.01204
G1 X129.557 Y130.026 E0.00134
G1 X134.313 Y125.270 E0.21086
G1 X133.779 Y124.737 E0.02365
G1 X130.171 Y128.346 E0.16002
G1 X130.018 Y127.786 E0.01818
G1 X129.918 Y127.532 E0.00856
G1 X133.246 Y124.204 E0.14759
G1 X132.713 Y123.671 E0.02365
G1 X129.573 Y126.811 E0.13924
G1 X129.337 Y126.413 E0.01449
G1 X129.148 Y126.169 E0.00968
G1 X132.180 Y123.137 E0.13442
G1 X131.646 Y122.604 E0.02365
G1 X128.531 Y125.719 E0.13813
G1 E-0.80000 F2100.00000
G1 Z0.800 F10800.000
G1 X124.800 Y134.138
G1 Z0.200
G1 E0.80000 F2100.00000
G1 F1200.000
G1 X124.199 Y134.118 E0.01887
G1 X123.605 Y134.018 E0.01888
G1 X123.030 Y133.840 E0.01886
G1 X122.463 Y133.576 E0.01962
G1 X121.956 Y133.252 E0.01887
G1 X121.496 Y132.863 E0.01888
G1 X121.082 Y132.404 E0.01940
G1 X120.741 Y131.906 E0.01889
G1 X120.470 Y131.368 E0.01890
G1 X120.272 Y130.799 E0.01890
G1 X120.151 Y130.209 E0.01889
G1 X120.110 Y129.594 E0.01931
G1 X120.150 Y128.993 E0.01888
G1 X120.269 Y128.404 E0.01886
G1 X120.474 Y127.812 E0.01961
G1 X120.745 Y127.276 E0.01886
G1 X121.086 Y126.779 E0.01889
G1 X121.490 Y126.332 E0.01888
G1 X121.962 Y125.932 E0.01940
G1 X122.470 Y125.608 E0.01888
G1 X123.016 Y125.355 E0.01887
G1 X123.615 Y125.170 E0.01965
G1 X124.209 Y125.071 E0.01889
G1 X124.807 Y125.051 E0.01876
G1 X125.423 Y125.114 E0.01941
G1 X126.008 Y125.254 E0.01887
G1 X126.570 Y125.471 E0.01888
G1 X127.098 Y125.760 E0.01888
G1 X127.583 Y126.117 E0.01887
G1 X128.034 Y126.552 E0.01965
G1 X128.406 Y127.025 E0.01888
G1 X128.713 Y127.544 E0.01890
G1 X128.910 Y128.007 E0.01579
G1 X128.444 Y128.007 E0.01461
G1 X128.444 Y131.182 E0.09952
G1 X128.909 Y131.182 E0.01459
G1 X128.701 Y131.666 E0.01655
G1 X128.406 Y132.165 E0.01815
G1 X128.033 Y132.637 E0.01888
G1 X127.585 Y133.071 E0.01956
G1 X127.100 Y133.428 E0.01888
G1 X126.571 Y133.717 E0.01889
G1 X126.002 Y133.937 E0.01912
G1 X125.423 Y134.075 E0.01867
G1 X124.860 Y134.132 E0.01776
G1 X124.813 Y134.516 F10800.000
G1 F1200.000
G1 X124.161 Y134.494 E0.02046
G1 X123.517 Y134.385 E0.02045
G1 X122.894 Y134.193 E0.02044
G1 X122.281 Y133.908 E0.02122
G1 X121.731 Y133.556 E0.02046
G1 X121.233 Y133.135 E0.02046
G1 X120.785 Y132.637 E0.02099
G1 X120.416 Y132.099 E0.02047
G1 X120.122 Y131.516 E0.02047
G1 X119.908 Y130.899 E0.02047
G1 X119.777 Y130.259 E0.02047
G1 X119.732 Y129.594 E0.02090
G1 X119.775 Y128.943 E0.02046
G1 X119.904 Y128.304 E0.02045
G1 X120.126 Y127.665 E0.02121
G1 X120.420 Y127.083 E0.02045
G1 X120.790 Y126.545 E0.02046
G1 X121.227 Y126.061 E0.02046
G1 X121.738 Y125.628 E0.02099
G1 X122.288 Y125.277 E0.02047
G1 X122.880 Y125.002 E0.02046
G1 X123.528 Y124.802 E0.02125
G1 X124.172 Y124.694 E0.02047
G1 X124.820 Y124.673 E0.02034
G1 X125.486 Y124.741 E0.02099
G1 X126.120 Y124.893 E0.02045
G1 X126.729 Y125.128 E0.02045
G1 X127.301 Y125.441 E0.02046
G1 X127.827 Y125.828 E0.02046
G1 X128.314 Y126.299 E0.02124
G1 X128.718 Y126.812 E0.02047
G1 X129.051 Y127.373 E0.02047
G1 X129.306 Y127.974 E0.02046
G1 X129.417 Y128.385 E0.01334
G1 X128.821 Y128.385 E0.01868
G1 X128.821 Y130.805 E0.07588
G1 X129.417 Y130.805 E0.01868
G1 X129.305 Y131.216 E0.01338
G1 X129.038 Y131.838 E0.02122
G1 X128.718 Y132.378 E0.01969
G1 X128.314 Y132.891 E0.02046
G1 X127.829 Y133.360 E0.02116
G1 X127.303 Y133.747 E0.02047
G1 X126.730 Y134.060 E0.02047
G1 X126.114 Y134.297 E0.02069
G1 X125.487 Y134.448 E0.02025
G1 X124.872 Y134.510 E0.01935
G1 X124.602 Y134.176 F10800.000
G1 E-0.80000 F2100.00000
G1 Z0.800 F10800.000
G1 X128.493 Y131.795
G1 Z0.200
G1 E0.80000 F2100.00000
G1 F1200.000
G1 X122.575 Y125.877 E0.26919
G1 X122.241 Y126.090 E0.01274
G1 X128.165 Y132.014 E0.26944
G1 X127.924 Y132.319 E0.01253
G1 X121.932 Y126.328 E0.27252
G1 X121.642 Y126.585 E0.01246
G1 X127.661 Y132.604 E0.27376
G1 X127.381 Y132.870 E0.01244
G1 X121.383 Y126.873 E0.27280
G1 X121.150 Y127.187 E0.01258
G1 X127.065 Y133.102 E0.26907
G1 X126.726 Y133.310 E0.01279
G1 X120.938 Y127.522 E0.26329
G1 X120.754 Y127.885 E0.01309
G1 X126.364 Y133.494 E0.25515
G1 X125.969 Y133.647 E0.01361
G1 X120.608 Y128.286 E0.24380
G1 X120.542 Y128.478 E0.00653
G1 X120.493 Y128.718 E0.00788
G1 X125.533 Y133.758 E0.22923
G1 X125.376 Y133.796 E0.00520
G1 X125.056 Y133.828 E0.01034
G1 X120.420 Y129.192 E0.21089
G1 X120.393 Y129.594 E0.01296
G1 X120.402 Y129.721 E0.00408
G1 X124.527 Y133.846 E0.18764
G1 X124.227 Y133.836 E0.00966
G1 X123.918 Y133.784 E0.01009
G1 X120.465 Y130.331 E0.15704
G1 X120.545 Y130.724 E0.01290
G1 X120.670 Y131.083 E0.01223
G1 X123.176 Y133.589 E0.11399
G1 X122.599 Y133.328 E0.02038
G1 X122.124 Y133.024 E0.01814
G1 X121.734 Y132.694 E0.01643
G1 X120.788 Y131.748 E0.04301
G1 E-0.80000 F2100.00000
G1 Z0.800 F10800.000
G1 X128.331 Y131.086
G1 Z0.200
G1 E0.80000 F2100.00000
G1 F1200.000
G1 X122.945 Y125.699 E0.24500
G1 X123.118 Y125.619 E0.00613
G1 X123.342 Y125.550 E0.00755
G1 X128.161 Y130.369 E0.21921
G1 X128.161 Y129.822 E0.01759
G1 X123.770 Y125.430 E0.19975
G1 X124.239 Y125.353 E0.01529
G1 X128.161 Y129.275 E0.17842
G1 X128.161 Y128.728 E0.01759
G1 X124.769 Y125.335 E0.15432
G1 X125.373 Y125.393 E0.01954
G1 X128.161 Y128.181 E0.12681
G1 X128.161 Y127.725 E0.01468
G1 X128.252 Y127.725 E0.00292
G1 X126.133 Y125.605 E0.09640
G1 X126.451 Y125.728 E0.01096
G1 X126.946 Y125.999 E0.01816
G1 X127.400 Y126.333 E0.01814
G1 X128.529 Y127.455 E0.05117
G1 E-0.80000 F2100.00000
G1 Z0.800 F10800.000
G1 X150.640 Y137.112
G1 Z0.200
G1 E0.80000 F2100.00000
G1 F1200.000
G1 X158.216 Y129.536 E0.33592
G1 X157.683 Y129.003 E0.02365
G1 X150.227 Y136.459 E0.33060
G1 X149.694 Y135.926 E0.02365
G1 X157.150 Y128.470 E0.33060
G1 X156.616 Y127.937 E0.02365
G1 X149.161 Y135.392 E0.33060
G1 X148.627 Y134.859 E0.02365
G1 X156.083 Y127.403 E0.33060
G1 X155.550 Y126.870 E0.02365
G1 X148.094 Y134.326 E0.33060
G1 X147.798 Y134.030 E0.01313
G1 X147.969 Y133.898 E0.00678
G1 X148.470 Y133.414 E0.02184
G1 X148.929 Y132.839 E0.02306
G1 X149.331 Y132.173 E0.02440
G1 X149.450 Y131.903 E0.00924
G1 X155.017 Y126.337 E0.24683
G1 X154.483 Y125.804 E0.02365
G1 X149.866 Y130.421 E0.20473
G1 X149.579 Y130.069 E0.01425
G1 X149.195 Y130.069 E0.01204
G1 X149.195 Y130.026 E0.00134
G1 X153.950 Y125.270 E0.21086
G1 X153.417 Y124.737 E0.02365
G1 X149.808 Y128.346 E0.16002
G1 X149.656 Y127.786 E0.01818
G1 X149.555 Y127.532 E0.00856
G1 X152.883 Y124.204 E0.14759
G1 X152.350 Y123.671 E0.02365
G1 X149.210 Y126.811 E0.13924
G1 X148.975 Y126.413 E0.01449
G1 X148.786 Y126.169 E0.00968
G1 X151.817 Y123.137 E0.13442
G1 X151.284 Y122.604 E0.02365
G1 X148.169 Y125.719 E0.13813
G1 E-0.80000 F2100.00000
G1 Z0.800 F10800.000
G1 X144.437 Y134.138
G1 Z0.200
G1 E0.80000 F2100.00000
G1 F1200.000
G1 X143.836 Y134.118 E0.01887
G1 X143.242 Y134.018 E0.01888
G1 X142.667 Y133.840 E0.01886
G1 X142.100 Y133.576 E0.01962
G1 X141.593 Y133.252 E0.01887
G1 X141.133 Y132.863 E0.01888
G1 X140.719 Y132.404 E0.01940
G1 X140.379 Y131.906 E0.01889
G1 X140.107 Y131.368 E0.01890
G1 X139.909 Y130.799 E0.01890
G1 X139.789 Y130.209 E0.01889
G1 X139.747 Y129.594 E0.01931
G1 X139.787 Y128.993 E0.01888
G1 X139.906 Y128.404 E0.01886
G1 X140.111 Y127.812 E0.01961
G1 X140.383 Y127.276 E0.01886
G1 X140.724 Y126.779 E0.01889
G1 X141.127 Y126.332 E0.01888
G1 X141.600 Y125.932 E0.01940
G1 X142.107 Y125.608 E0.01888
G1 X142.653 Y125.355 E0.01887
G1 X143.252 Y125.170 E0.01965
G1 X143.846 Y125.071 E0.01889
G1 X144.444 Y125.051 E0.01876
G1 X145.060 Y125.114 E0.01941
G1 X145.645 Y125.254 E0.01887
G1 X146.207 Y125.471 E0.01888
G1 X146.735 Y125.760 E0.01888
G1 X147.220 Y126.117 E0.01887
G1 X147.671 Y126.552 E0.01965
G1 X148.044 Y127.025 E0.01888
G1 X148.351 Y127.544 E0.01890
G1 X148.547 Y128.007 E0.01579
G1 X148.081 Y128.007 E0.01461
G1 X148.081 Y131.182 E0.09952
G1 X148.547 Y131.182 E0.01459
G1 X148.338 Y131.666 E0.01655
G1 X148.043 Y132.165 E0.01815
G1 X147.671 Y132.637 E0.01888
G1 X147.222 Y133.071 E0.01956
G1 X146.737 Y133.428 E0.01888
G1 X146.209 Y133.717 E0.01889
G1 X145.640 Y133.937 E0.01912
G1 X145.061 Y134.075 E0.01867
G1 X144.497 Y134.132 E0.01776
G1 X144.450 Y134.516 F10800.000
G1 F1200.000
G1 X143.798 Y134.494 E0.02046
G1 X143.155 Y134.385 E0.02045
G1 X142.532 Y134.193 E0.02044
G1 X141.918 Y133.908 E0.02122
G1 X141.368 Y133.556 E0.02046
G1 X140.870 Y133.135 E0.02046
G1 X140.422 Y132.637 E0.02099
G1 X140.053 Y132.099 E0.02047
G1 X139.759 Y131.516 E0.02047
G1 X139.545 Y130.899 E0.02047
G1 X139.414 Y130.259 E0.02047
G1 X139.369 Y129.594 E0.02090
G1 X139.412 Y128.943 E0.02046
G1 X139.541 Y128.304 E0.02045
G1 X139.763 Y127.665 E0.02121
G1 X140.058 Y127.083 E0.02045
G1 X140.427 Y126.545 E0.02046
G1 X140.864 Y126.061 E0.02046
G1 X141.375 Y125.628 E0.02099
G1 X141.926 Y125.277 E0.02047
G1 X142.517 Y125.002 E0.02046
G1 X143.165 Y124.802 E0.02125
G1 X143.809 Y124.694 E0.02047
G1 X144.457 Y124.673 E0.02034
G1 X145.124 Y124.741 E0.02099
G1 X145.758 Y124.893 E0.02045
G1 X146.366 Y125.128 E0.02045
G1 X146.939 Y125.441 E0.02046
G1 X147.464 Y125.828 E0.02046
G1 X147.951 Y126.299 E0.02124
G1 X148.355 Y126.812 E0.02047
G1 X148.688 Y127.373 E0.02047
G1 X148.943 Y127.974 E0.02046
G1 X149.054 Y128.385 E0.01334
G1 X148.459 Y128.385 E0.01868
G1 X148.459 Y130.805 E0.07588
G1 X149.054 Y130.805 E0.01868
G1 X148.942 Y131.216 E0.01338
G1 X148.675 Y131.838 E0.02122
G1 X148.355 Y132.378 E0.01969
G1 X147.951 Y132.891 E0.02046
G1 X147.466 Y133.360 E0.02116
G1 X146.940 Y133.747 E0.02047
G1 X146.368 Y134.060 E0.02047
G1 X145.752 Y134.297 E0.02069
G1 X145.124 Y134.448 E0.02025
G1 X144.510 Y134.510 E0.01935
G1 X144.239 Y134.176 F10800.000
G1 E-0.80000 F2100.00000
G1 Z0.800 F10800.000
G1 X148.131 Y131.795
G1 Z0.200
G1 E0.80000 F2100.00000
G1 F1200.000
G1 X142.212 Y125.877 E0.26919
G1 X141.878 Y126.090 E0.01274
G1 X147.802 Y132.014 E0.26944
G1 X147.561 Y132.319 E0.01253
G1 X141.570 Y126.328 E0.27252
G1 X141.280 Y126.585 E0.01246
G1 X147.298 Y132.604 E0.27376
G1 X147.018 Y132.870 E0.01244
G1 X141.020 Y126.873 E0.27280
G1 X140.787 Y127.187 E0.01258
G1 X146.703 Y133.102 E0.26907
G1 X146.364 Y133.310 E0.01279
G1 X140.575 Y127.522 E0.26329
G1 X140.391 Y127.885 E0.01309
G1 X146.001 Y133.494 E0.25515
G1 X145.606 Y133.647 E0.01361
G1 X140.246 Y128.286 E0.24380
G1 X140.179 Y128.478 E0.00653
G1 X140.131 Y128.718 E0.00788
G1 X145.170 Y133.758 E0.22923
G1 X145.013 Y133.796 E0.00520
G1 X144.693 Y133.828 E0.01034
G1 X140.057 Y129.192 E0.21089
G1 X140.030 Y129.594 E0.01296
G1 X140.039 Y129.721 E0.00408
G1 X144.164 Y133.846 E0.18764
G1 X143.864 Y133.836 E0.00966
G1 X143.555 Y133.784 E0.01009
G1 X140.102 Y130.331 E0.15704
G1 X140.183 Y130.724 E0.01290
G1 X140.307 Y131.083 E0.01223
G1 X142.813 Y133.589 E0.11399
G1 X142.236 Y133.328 E0.02038
G1 X141.761 Y133.024 E0.01814
G1 X141.371 Y132.694 E0.01643
G1 X140.426 Y131.748 E0.04301
G1 E-0.80000 F2100.00000
G1 Z0.800 F10800.000
G1 X147.968 Y131.086
G1 Z0.200
G1 E0.80000 F2100.00000
G1 F1200.000
G1 X142.582 Y125.699 E0.24500
G1 X142.755 Y125.619 E0.00613
G1 X142.979 Y125.550 E0.00755
G1 X147.799 Y130.369 E0.21921
G1 X147.799 Y129.822 E0.01759
G1 X143.407 Y125.430 E0.19975
G1 X143.876 Y125.353 E0.01529
G1 X147.799 Y129.275 E0.17842
G1 X147.799 Y128.728 E0.01759
G1 X144.406 Y125.335 E0.15432
G1 X145.011 Y125.393 E0.01954
G1 X147.799 Y128.181 E0.12681
G1 X147.799 Y127.725 E0.01468
G1 X147.889 Y127.725 E0.00292
G1 X145.770 Y125.605 E0.09640
G1 X146.088 Y125.728 E0.01096
G1 X146.583 Y125.999 E0.01816
G1 X147.038 Y126.333 E0.01814
G1 X148.166 Y127.455 E0.05117
G1 E-0.80000 F2100.00000
G1 Z0.800 F10800.000
G1 X148.169 Y103.160
G1 Z0.200
G1 E0.80000 F2100.00000
G1 F1200.000
G1 X151.284 Y100.045 E0.13813
G1 X151.817 Y100.579 E0.02365
G1 X148.786 Y103.610 E0.13442
G1 X148.975 Y103.854 E0.00968
G1 X149.210 Y104.252 E0.01449
G1 X152.350 Y101.112 E0.13924
G1 X152.883 Y101.645 E0.02365
G1 X149.555 Y104.974 E0.14759
G1 X149.656 Y105.228 E0.00856
G1 X149.808 Y105.787 E0.01818
G1 X153.417 Y102.178 E0.16002
G1 X153.950 Y102.712 E0.02365
G1 X149.195 Y107.467 E0.21086
G1 X149.195 Y107.510 E0.00134
G1 X149.579 Y107.510 E0.01204
G1 X149.866 Y107.862 E0.01425
G1 X154.483 Y103.245 E0.20473
G1 X155.017 Y103.778 E0.02365
G1 X149.450 Y109.345 E0.24683
G1 X149.331 Y109.615 E0.00924
G1 X148.929 Y110.281 E0.02440
G1 X148.470 Y110.855 E0.02306
G1 X147.969 Y111.339 E0.02184
G1 X147.798 Y111.471 E0.00678
G1 X148.094 Y111.767 E0.01313
G1 X155.550 Y104.311 E0.33060
G1 X156.083 Y104.845 E0.02365
G1 X148.627 Y112.301 E0.33060
G1 X149.161 Y112.834 E0.02365
G1 X156.616 Y105.378 E0.33060
G1 X157.150 Y105.911 E0.02365
G1 X149.694 Y113.367 E0.33060
G1 X150.227 Y113.900 E0.02365
G1 X157.683 Y106.445 E0.33060
G1 X158.216 Y106.978 E0.02365
G1 X150.640 Y114.554 E0.33592
G1 E-0.80000 F2100.00000
G1 Z0.800 F10800.000
G1 X144.437 Y111.580
G1 Z0.200
G1 E0.80000 F2100.00000
G1 F1200.000
G1 X143.836 Y111.559 E0.01887
G1 X143.242 Y111.459 E0.01888
G1 X142.667 Y111.281 E0.01886
G1 X142.100 Y111.018 E0.01962
G1 X141.593 Y110.693 E0.01887
G1 X141.133 Y110.304 E0.01888
G1 X140.719 Y109.845 E0.01940
G1 X140.379 Y109.348 E0.01889
G1 X140.107 Y108.810 E0.01890
G1 X139.909 Y108.240 E0.01890
G1 X139.789 Y107.650 E0.01889
G1 X139.747 Y107.035 E0.01931
G1 X139.787 Y106.435 E0.01888
G1 X139.906 Y105.845 E0.01886
G1 X140.111 Y105.254 E0.01961
G1 X140.383 Y104.717 E0.01886
G1 X140.724 Y104.220 E0.01889
G1 X141.127 Y103.773 E0.01888
G1 X141.600 Y103.374 E0.01940
G1 X142.107 Y103.050 E0.01888
G1 X142.653 Y102.796 E0.01887
G1 X143.252 Y102.611 E0.01965
G1 X143.846 Y102.512 E0.01889
G1 X144.444 Y102.493 E0.01876
G1 X145.060 Y102.555 E0.01941
G1 X145.645 Y102.695 E0.01887
G1 X146.207 Y102.912 E0.01888
G1 X146.735 Y103.202 E0.01888
G1 X147.220 Y103.558 E0.01887
G1 X147.671 Y103.994 E0.01965
G1 X148.044 Y104.467 E0.01888
G1 X148.351 Y104.985 E0.01890
G1 X148.547 Y105.449 E0.01579
G1 X148.081 Y105.449 E0.01461
G1 X148.081 Y108.623 E0.09952
G1 X148.547 Y108.623 E0.01459
G1 X148.338 Y109.108 E0.01655
G1 X148.043 Y109.606 E0.01815
