; generated by PrusaSlicer 2.1.1+win64 on 2020-03-25 at 20:05:42 UTC

; 

; external perimeters extrusion width = 0.60mm
; perimeters extrusion width = 0.50mm
; infill extrusion width = 0.50mm
; solid infill extrusion width = 0.50mm
; top infill extrusion width = 0.45mm
; first layer extrusion width = 0.42mm

M73 P0 R21
M73 Q0 S21
M201 X1000 Y1000 Z1000 E5000 ; sets maximum accelerations, mm/sec^2
M203 X200 Y200 Z12 E120 ; sets maximum feedrates, mm/sec
M204 P1250 R1250 T1250 ; sets acceleration (P, T) and retract acceleration (R), mm/sec^2
M205 X8.00 Y8.00 Z0.40 E4.50 ; sets the jerk limits, mm/sec
M205 S0 T0 ; sets the minimum extruding and travel feed rate, mm/sec
M107
M862.3 P "MK3S" ; printer model check
M862.1 P0.4 ; nozzle diameter check
M115 U3.8.1 ; tell printer latest fw version
G90 ; use absolute coordinates
M83 ; extruder relative mode
M104 S215 ; set extruder temp
M140 S60 ; set bed temp
M190 S60 ; wait for bed temp
M109 S215 ; wait for extruder temp
G28 W ; home all without mesh bed level
G80 ; mesh bed leveling
G1 Y-3.0 F1000.0 ; go outside print area
G92 E0.0
G1 X60.0 E9.0 F1000.0 ; intro line
M73 Q0 S21
M73 P0 R21
G1 X100.0 E12.5 F1000.0 ; intro line
G92 E0.0
M221 S95
G21 ; set units to millimeters
G90 ; use absolute coordinates
M83 ; use relative distances for extrusion
M900 K30 ; Filament gcode
;BEFORE_LAYER_CHANGE
G92 E0.0
;0.2


G1 E-0.80000 F2100.00000
G1 Z0.600 F10800.000
;AFTER_LAYER_CHANGE
;0.2
G1 X63.395 Y88.266
G1 Z0.200
G1 E0.80000 F2100.00000
M204 S1000
G1 F1200
G1 X64.096 Y87.779 E0.02676
G1 X64.930 Y87.597 E0.02676
G1 X185.031 Y87.525 E3.76570
G1 X185.517 Y87.580 E0.01532
G1 X185.981 Y87.744 E0.01544
G1 X186.395 Y88.004 E0.01532
G1 X186.740 Y88.350 E0.01532
G1 X187.000 Y88.764 E0.01532
G1 X187.162 Y89.225 E0.01532
G1 X187.217 Y89.711 E0.01532
G1 X187.162 Y90.200 E0.01544
G1 X186.777 Y91.029 E0.02867
G1 X185.338 Y92.892 E0.07381
G1 X183.224 Y95.433 E0.10365
G1 X180.988 Y97.895 E0.10427
G1 X178.638 Y100.268 E0.10473
G1 X176.188 Y102.538 E0.10473
G1 X173.658 Y104.686 E0.10404
G1 X169.492 Y107.843 E0.16389
G1 X166.868 Y109.617 E0.09932
G1 X164.038 Y111.361 E0.10423
G1 X159.640 Y113.753 E0.15696
G1 X155.097 Y115.855 E0.15696
G1 X150.423 Y117.660 E0.15708
G1 X145.643 Y119.157 E0.15708
G1 X140.775 Y120.341 E0.15708
G1 X135.841 Y121.207 E0.15708
G1 X130.861 Y121.751 E0.15708
G1 X125.972 Y121.969 E0.15343
G1 X122.433 Y121.934 E0.11097
G1 X117.495 Y121.613 E0.15515
G1 X112.549 Y120.970 E0.15638
G1 X107.633 Y120.003 E0.15708
G1 X102.791 Y118.720 E0.15708
G1 X98.138 Y117.160 E0.15386
G1 X94.917 Y115.884 E0.10863
G1 X90.375 Y113.788 E0.15684
G1 X85.985 Y111.406 E0.15661
G1 X81.747 Y108.737 E0.15702
G1 X77.689 Y105.798 E0.15711
G1 X73.844 Y102.614 E0.15653
G1 X70.188 Y99.162 E0.15764
G1 X66.771 Y95.489 E0.15730
G1 X64.664 Y92.963 E0.10314
G1 X63.180 Y91.043 E0.07607
G1 X62.890 Y90.463 E0.02032
G1 X62.783 Y89.824 E0.02032
G1 X62.934 Y88.984 E0.02676
G1 X63.363 Y88.317 E0.02488
G1 F8640
G1 X64.096 Y87.779 E-0.20992
G1 X64.930 Y87.597 E-0.19705
G1 X66.458 Y87.596 E-0.35303
G1 E-0.04000 F2100.00000
G1 Z0.800 F10800.000
G1 X66.474 Y90.772
G1 Z0.200
G1 E0.80000 F2100.00000
G1 F1200
G1 X70.241 Y90.771 E0.11810
G1 X71.133 Y91.816 E0.04310
G1 X72.190 Y93.000 E0.04975
G1 X73.273 Y94.159 E0.04974
G1 X74.272 Y95.182 E0.04482
G1 X75.515 Y96.404 E0.05466
G1 X76.673 Y97.490 E0.04976
G1 X77.737 Y98.444 E0.04482
G1 X79.059 Y99.581 E0.05467
G1 X80.287 Y100.587 E0.04976
G1 X81.536 Y101.564 E0.04974
G1 X82.680 Y102.421 E0.04482
G1 X84.098 Y103.436 E0.05467
G1 X85.410 Y104.329 E0.04976
G1 X86.741 Y105.192 E0.04974
G1 X87.957 Y105.944 E0.04482
G1 X89.459 Y106.829 E0.05467
G1 X90.845 Y107.602 E0.04976
G1 X92.247 Y108.344 E0.04974
G1 X93.525 Y108.985 E0.04482
G1 X95.100 Y109.733 E0.05467
G1 X96.549 Y110.381 E0.04976
G1 X98.012 Y110.995 E0.04975
G1 X99.488 Y111.577 E0.04975
G1 X100.976 Y112.126 E0.04975
G1 X102.476 Y112.642 E0.04974
G1 X103.838 Y113.078 E0.04482
G1 X105.510 Y113.574 E0.05467
G1 X107.041 Y113.989 E0.04976
G1 X108.582 Y114.370 E0.04975
G1 X110.130 Y114.716 E0.04975
G1 X111.686 Y115.029 E0.04975
G1 X113.248 Y115.306 E0.04975
G1 X114.816 Y115.549 E0.04975
G1 X116.388 Y115.757 E0.04974
G1 X117.809 Y115.914 E0.04482
G1 X119.546 Y116.068 E0.05467
G1 X121.130 Y116.171 E0.04976
G1 X122.715 Y116.239 E0.04975
G1 X124.301 Y116.271 E0.04974
G1 X125.730 Y116.270 E0.04481
G1 X127.316 Y116.236 E0.04974
G1 X128.901 Y116.166 E0.04975
G1 X130.484 Y116.062 E0.04975
G1 X132.065 Y115.922 E0.04975
G1 X133.642 Y115.747 E0.04975
G1 X135.214 Y115.537 E0.04975
G1 X136.782 Y115.292 E0.04975
G1 X138.344 Y115.013 E0.04975
G1 X139.900 Y114.699 E0.04976
G1 X141.600 Y114.314 E0.05467
G1 X142.987 Y113.967 E0.04482
G1 X144.518 Y113.551 E0.04974
G1 X146.039 Y113.100 E0.04975
G1 X147.550 Y112.616 E0.04975
G1 X149.050 Y112.098 E0.04975
G1 X150.538 Y111.547 E0.04976
G1 X152.158 Y110.903 E0.05467
G1 X153.475 Y110.347 E0.04482
G1 X154.923 Y109.698 E0.04974
G1 X156.357 Y109.017 E0.04976
G1 X157.913 Y108.232 E0.05467
G1 X159.176 Y107.561 E0.04482
G1 X160.560 Y106.787 E0.04974
G1 X161.928 Y105.982 E0.04976
G1 X163.409 Y105.062 E0.05467
G1 X164.607 Y104.282 E0.04482
G1 X165.917 Y103.388 E0.04974
G1 X167.208 Y102.464 E0.04976
G1 X168.602 Y101.416 E0.05467
G1 X169.726 Y100.533 E0.04482
G1 X170.952 Y99.526 E0.04976
G1 X172.273 Y98.388 E0.05467
G1 X173.336 Y97.432 E0.04482
G1 X174.492 Y96.346 E0.04976
G1 X175.734 Y95.122 E0.05466
G1 X176.731 Y94.098 E0.04482
G1 X177.813 Y92.937 E0.04974
G1 X178.869 Y91.752 E0.04975
G1 X179.760 Y90.706 E0.04310
G1 X183.527 Y90.702 E0.11812
G1 X182.179 Y92.377 E0.06742
G1 X181.136 Y93.604 E0.05048
G1 X180.066 Y94.807 E0.05048
G1 X178.963 Y95.997 E0.05087
G1 X177.851 Y97.144 E0.05009
G1 X176.706 Y98.276 E0.05048
G1 X175.536 Y99.383 E0.05048
G1 X174.343 Y100.464 E0.05048
G1 X173.127 Y101.519 E0.05048
G1 X171.889 Y102.547 E0.05048
G1 X170.617 Y103.558 E0.05094
G1 X169.347 Y104.522 E0.04999
G1 X168.060 Y105.457 E0.04988
G1 X166.723 Y106.385 E0.05101
G1 X165.377 Y107.276 E0.05061
G1 X164.006 Y108.141 E0.05085
G1 X162.637 Y108.965 E0.05009
G1 X161.239 Y109.765 E0.05048
G1 X159.825 Y110.534 E0.05048
G1 X158.383 Y111.278 E0.05087
G1 X156.948 Y111.980 E0.05009
G1 X155.487 Y112.656 E0.05048
G1 X154.011 Y113.301 E0.05048
G1 X152.511 Y113.917 E0.05087
G1 X151.020 Y114.493 E0.05009
G1 X149.506 Y115.040 E0.05048
G1 X147.980 Y115.554 E0.05048
G1 X146.432 Y116.039 E0.05087
G1 X144.897 Y116.483 E0.05009
G1 X143.341 Y116.898 E0.05048
G1 X141.777 Y117.278 E0.05048
G1 X140.205 Y117.625 E0.05048
G1 X138.613 Y117.939 E0.05087
G1 X137.039 Y118.216 E0.05009
G1 X135.448 Y118.459 E0.05048
G1 X133.852 Y118.669 E0.05048
G1 X132.239 Y118.845 E0.05087
G1 X130.647 Y118.984 E0.05009
G1 X129.041 Y119.089 E0.05048
G1 X127.413 Y119.160 E0.05107
G1 X125.824 Y119.196 E0.04985
G1 X124.235 Y119.197 E0.04981
G1 X122.601 Y119.163 E0.05125
G1 X120.994 Y119.094 E0.05044
G1 X119.387 Y118.990 E0.05048
G1 X117.783 Y118.852 E0.05048
G1 X116.182 Y118.679 E0.05048
G1 X114.586 Y118.472 E0.05048
G1 X112.994 Y118.230 E0.05048
G1 X111.408 Y117.954 E0.05048
G1 X109.840 Y117.645 E0.05009
G1 X108.255 Y117.298 E0.05087
G1 X106.690 Y116.919 E0.05048
G1 X105.134 Y116.507 E0.05048
G1 X103.599 Y116.064 E0.05009
G1 X102.050 Y115.582 E0.05087
G1 X100.524 Y115.069 E0.05048
G1 X99.009 Y114.524 E0.05048
G1 X97.518 Y113.950 E0.05009
G1 X96.016 Y113.335 E0.05087
G1 X94.540 Y112.693 E0.05048
G1 X93.078 Y112.018 E0.05048
G1 X91.631 Y111.312 E0.05048
G1 X90.199 Y110.576 E0.05048
G1 X88.795 Y109.814 E0.05009
G1 X87.386 Y109.010 E0.05087
G1 X85.988 Y108.171 E0.05111
G1 X84.643 Y107.324 E0.04984
G1 X83.313 Y106.446 E0.04997
G1 X81.976 Y105.521 E0.05097
G1 X80.663 Y104.569 E0.05087
G1 X79.388 Y103.603 E0.05014
G1 X78.136 Y102.611 E0.05009
G1 X76.886 Y101.576 E0.05087
G1 X75.669 Y100.522 E0.05048
G1 X74.475 Y99.443 E0.05048
G1 X73.313 Y98.346 E0.05009
G1 X72.157 Y97.207 E0.05087
G1 X71.036 Y96.052 E0.05048
G1 X69.939 Y94.873 E0.05048
G1 X68.877 Y93.680 E0.05009
G1 X67.824 Y92.445 E0.05087
G1 X66.511 Y90.819 E0.06553
G1 X65.703 Y90.395 F10800.000
G1 F1200
G1 X70.415 Y90.393 E0.14774
G1 X71.417 Y91.568 E0.04842
G1 X72.469 Y92.745 E0.04949
G1 X73.546 Y93.899 E0.04948
G1 X74.539 Y94.916 E0.04457
G1 X75.776 Y96.132 E0.05440
G1 X76.928 Y97.212 E0.04949
G1 X77.986 Y98.161 E0.04457
G1 X79.301 Y99.292 E0.05440
G1 X80.522 Y100.292 E0.04949
G1 X81.765 Y101.265 E0.04948
G1 X82.903 Y102.117 E0.04457
G1 X84.314 Y103.127 E0.05440
G1 X85.619 Y104.015 E0.04949
G1 X86.943 Y104.874 E0.04948
G1 X88.152 Y105.621 E0.04457
G1 X89.647 Y106.502 E0.05440
G1 X91.025 Y107.271 E0.04949
G1 X92.420 Y108.009 E0.04948
G1 X93.691 Y108.646 E0.04457
G1 X95.258 Y109.391 E0.05440
G1 X96.699 Y110.035 E0.04949
G1 X98.154 Y110.646 E0.04949
G1 X99.622 Y111.225 E0.04949
G1 X101.103 Y111.771 E0.04949
G1 X102.595 Y112.284 E0.04948
G1 X103.949 Y112.718 E0.04457
G1 X105.613 Y113.211 E0.05440
G1 X107.136 Y113.624 E0.04949
G1 X108.668 Y114.003 E0.04949
G1 X110.208 Y114.348 E0.04949
G1 X111.756 Y114.658 E0.04949
G1 X113.310 Y114.934 E0.04949
G1 X114.869 Y115.176 E0.04949
G1 X116.434 Y115.383 E0.04948
G1 X117.847 Y115.539 E0.04457
G1 X119.575 Y115.692 E0.05440
G1 X121.150 Y115.794 E0.04949
G1 X122.727 Y115.862 E0.04949
G1 X124.305 Y115.894 E0.04948
G1 X125.726 Y115.893 E0.04456
G1 X127.304 Y115.859 E0.04948
G1 X128.880 Y115.790 E0.04949
G1 X130.455 Y115.686 E0.04949
G1 X132.027 Y115.546 E0.04949
G1 X133.596 Y115.372 E0.04949
G1 X135.160 Y115.164 E0.04949
G1 X136.720 Y114.920 E0.04949
G1 X138.273 Y114.642 E0.04949
G1 X139.821 Y114.330 E0.04949
G1 X141.513 Y113.947 E0.05440
G1 X142.892 Y113.603 E0.04457
G1 X144.415 Y113.188 E0.04948
G1 X145.928 Y112.740 E0.04949
G1 X147.431 Y112.258 E0.04949
G1 X148.923 Y111.743 E0.04949
G1 X150.403 Y111.195 E0.04949
G1 X152.015 Y110.554 E0.05440
G1 X153.325 Y110.001 E0.04457
G1 X154.765 Y109.356 E0.04948
G1 X156.191 Y108.679 E0.04949
G1 X157.740 Y107.897 E0.05440
G1 X158.995 Y107.230 E0.04457
G1 X160.373 Y106.460 E0.04948
G1 X161.733 Y105.659 E0.04949
G1 X163.207 Y104.743 E0.05440
G1 X164.398 Y103.968 E0.04457
G1 X165.701 Y103.078 E0.04948
G1 X166.985 Y102.160 E0.04949
G1 X168.372 Y101.117 E0.05440
G1 X169.490 Y100.239 E0.04457
G1 X170.709 Y99.238 E0.04949
G1 X172.024 Y98.105 E0.05440
G1 X173.081 Y97.154 E0.04457
G1 X174.231 Y96.074 E0.04949
G1 X175.467 Y94.856 E0.05440
G1 X176.458 Y93.837 E0.04457
G1 X177.534 Y92.683 E0.04948
G1 X178.584 Y91.504 E0.04949
G1 X179.585 Y90.329 E0.04842
G1 X184.299 Y90.324 E0.14779
G1 X183.485 Y91.369 E0.04152
G1 X182.469 Y92.618 E0.05051
G1 X181.420 Y93.851 E0.05074
G1 X180.346 Y95.061 E0.05074
G1 X179.236 Y96.256 E0.05113
G1 X178.119 Y97.409 E0.05035
G1 X176.968 Y98.547 E0.05074
G1 X175.793 Y99.659 E0.05074
G1 X174.594 Y100.746 E0.05074
G1 X173.371 Y101.806 E0.05074
G1 X172.126 Y102.840 E0.05074
G1 X170.848 Y103.856 E0.05119
G1 X169.572 Y104.825 E0.05025
G1 X168.278 Y105.765 E0.05014
G1 X166.935 Y106.697 E0.05127
G1 X165.582 Y107.592 E0.05087
G1 X164.203 Y108.462 E0.05111
G1 X162.827 Y109.290 E0.05035
G1 X161.423 Y110.094 E0.05074
G1 X160.002 Y110.867 E0.05074
G1 X158.552 Y111.615 E0.05113
G1 X157.110 Y112.321 E0.05035
G1 X155.641 Y113.000 E0.05074
G1 X154.158 Y113.648 E0.05074
G1 X152.650 Y114.268 E0.05113
G1 X151.152 Y114.846 E0.05035
G1 X149.630 Y115.396 E0.05074
G1 X148.097 Y115.913 E0.05074
G1 X146.541 Y116.400 E0.05113
G1 X144.998 Y116.847 E0.05035
G1 X143.435 Y117.263 E0.05074
G1 X141.862 Y117.646 E0.05074
G1 X140.282 Y117.994 E0.05074
G1 X138.682 Y118.310 E0.05113
G1 X137.101 Y118.588 E0.05035
G1 X135.501 Y118.833 E0.05074
G1 X133.897 Y119.043 E0.05074
G1 X132.275 Y119.220 E0.05113
G1 X130.676 Y119.360 E0.05035
G1 X129.061 Y119.466 E0.05074
G1 X127.426 Y119.537 E0.05133
G1 X125.828 Y119.573 E0.05010
G1 X124.232 Y119.574 E0.05006
G1 X122.589 Y119.540 E0.05151
G1 X120.974 Y119.471 E0.05069
G1 X119.359 Y119.366 E0.05074
G1 X117.747 Y119.228 E0.05074
G1 X116.138 Y119.054 E0.05074
G1 X114.533 Y118.845 E0.05074
G1 X112.933 Y118.602 E0.05074
G1 X111.339 Y118.324 E0.05074
G1 X109.763 Y118.015 E0.05035
G1 X108.171 Y117.666 E0.05113
G1 X106.598 Y117.285 E0.05074
G1 X105.033 Y116.871 E0.05074
G1 X103.491 Y116.426 E0.05035
G1 X101.934 Y115.940 E0.05113
G1 X100.400 Y115.425 E0.05074
G1 X98.877 Y114.877 E0.05074
G1 X97.379 Y114.301 E0.05035
G1 X95.869 Y113.683 E0.05113
G1 X94.386 Y113.037 E0.05074
G1 X92.916 Y112.359 E0.05074
G1 X91.462 Y111.650 E0.05074
G1 X90.023 Y110.909 E0.05074
G1 X88.612 Y110.143 E0.05035
G1 X87.195 Y109.335 E0.05113
G1 X85.791 Y108.492 E0.05136
G1 X84.439 Y107.641 E0.05009
G1 X83.102 Y106.758 E0.05022
G1 X81.758 Y105.829 E0.05122
G1 X80.438 Y104.872 E0.05113
G1 X79.157 Y103.901 E0.05040
G1 X77.899 Y102.904 E0.05035
G1 X76.643 Y101.864 E0.05113
G1 X75.419 Y100.805 E0.05074
G1 X74.219 Y99.720 E0.05074
G1 X73.051 Y98.617 E0.05035
G1 X71.890 Y97.472 E0.05113
G1 X70.762 Y96.312 E0.05074
G1 X69.660 Y95.127 E0.05074
G1 X68.592 Y93.928 E0.05035
G1 X67.534 Y92.687 E0.05113
G1 X66.511 Y91.433 E0.05074
G1 X65.740 Y90.442 E0.03936
G1 X66.085 Y90.512 F10800.000
G1 F8640
G1 X69.031 Y90.408 E-0.76000
G1 E-0.04000 F2100.00000
G1 Z0.800 F10800.000
G1 X66.769 Y90.885
G1 Z0.200
G1 E0.80000 F2100.00000
G1 F1200
G1 X79.174 Y103.289 E0.55066
G1 F8640
G1 X76.846 Y100.962 E-0.76000
G1 E-0.04000 F2100.00000
G1 Z0.800 F10800.000
G1 X81.336 Y104.917
G1 Z0.200
G1 E0.80000 F2100.00000
G1 F1200
G1 X67.303 Y90.884 E0.62296
G1 F8640
G1 X69.630 Y93.212 E-0.76000
G1 E-0.04000 F2100.00000
G1 Z0.800 F10800.000
G1 X69.008 Y93.657
G1 Z0.200
G1 E0.80000 F2100.00000
G1 F1200
G1 X76.076 Y100.725 E0.31376
G1 F8640
G1 X73.748 Y98.398 E-0.76000
G1 E-0.04000 F2100.00000
G1 Z0.800 F10800.000
G1 X77.221 Y98.133
G1 Z0.200
G1 E0.80000 F2100.00000
G1 F1200
G1 X88.740 Y109.652 E0.51137
G1 F8640
G1 X86.413 Y107.325 E-0.76000
G1 E-0.04000 F2100.00000
G1 Z0.800 F10800.000
G1 X89.914 Y110.292
G1 Z0.200
G1 E0.80000 F2100.00000
G1 F1200
G1 X80.587 Y100.965 E0.41403
G1 F8640
G1 X82.915 Y103.293 E-0.76000
G1 E-0.04000 F2100.00000
G1 Z0.800 F10800.000
G1 X82.805 Y102.649
G1 Z0.200
G1 E0.80000 F2100.00000
G1 F1200
G1 X91.033 Y110.878 E0.36530
G1 F8640
G1 X88.706 Y108.550 E-0.76000
G1 E-0.04000 F2100.00000
G1 Z0.800 F10800.000
G1 X92.110 Y111.420
G1 Z0.200
G1 E0.80000 F2100.00000
G1 F1200
G1 X84.612 Y103.923 E0.33284
G1 F8640
G1 X86.940 Y106.250 E-0.76000
G1 E-0.04000 F2100.00000
G1 Z0.800 F10800.000
G1 X86.198 Y104.975
G1 Z0.200
G1 E0.80000 F2100.00000
G1 F1200
G1 X93.151 Y111.927 E0.30864
G1 F8640
G1 X90.823 Y109.600 E-0.76000
G1 E-0.04000 F2100.00000
G1 Z0.800 F10800.000
G1 X94.142 Y112.384
G1 Z0.200
G1 E0.80000 F2100.00000
G1 F1200
G1 X87.635 Y105.878 E0.28884
G1 F8640
G1 X89.963 Y108.205 E-0.76000
G1 E-0.04000 F2100.00000
G1 Z0.800 F10800.000
G1 X88.954 Y106.663
G1 Z0.200
G1 E0.80000 F2100.00000
G1 F1200
G1 X95.108 Y112.816 E0.27318
G1 F8640
G1 X92.780 Y110.489 E-0.76000
G1 E-0.04000 F2100.00000
G1 Z0.800 F10800.000
G1 X96.053 Y113.228
G1 Z0.200
G1 E0.80000 F2100.00000
G1 F1200
G1 X90.193 Y107.368 E0.26013
G1 F8640
G1 X92.520 Y109.695 E-0.76000
G1 E-0.04000 F2100.00000
G1 Z0.800 F10800.000
G1 X91.363 Y108.004
G1 Z0.200
G1 E0.80000 F2100.00000
G1 F1200
G1 X96.957 Y113.598 E0.24835
G1 F8640
G1 X94.630 Y111.271 E-0.76000
G1 E-0.04000 F2100.00000
G1 Z0.800 F10800.000
G1 X92.480 Y108.587
G1 Z0.200
G1 E0.80000 F2100.00000
G1 F1200
G1 X97.551 Y113.658 E0.22511
G1 X98.422 Y113.995 E0.02930
G1 X93.906 Y109.479 E0.20046
G1 X94.923 Y109.963 E0.03536
G1 X99.282 Y114.322 E0.19350
G1 X100.116 Y114.622 E0.02783
G1 X95.891 Y110.396 E0.18758
G1 X96.837 Y110.808 E0.03238
G1 X100.939 Y114.910 E0.18209
G1 X101.742 Y115.180 E0.02662
G1 X97.757 Y111.195 E0.17690
G1 X98.645 Y111.549 E0.03000
G1 X102.532 Y115.436 E0.17253
G1 X103.307 Y115.677 E0.02550
G1 X99.521 Y111.891 E0.16808
G1 X100.367 Y112.203 E0.02830
G1 X104.070 Y115.906 E0.16438
G1 X104.820 Y116.122 E0.02451
G1 X101.200 Y112.503 E0.16068
M73 Q5 S20
G1 X102.014 Y112.782 E0.02701
G1 X105.559 Y116.327 E0.15735
M73 P5 R20
G1 X106.285 Y116.520 E0.02359
G1 X102.812 Y113.047 E0.15416
G1 X103.598 Y113.298 E0.02588
G1 X107.004 Y116.704 E0.15121
