; generated by PrusaSlicer 2.2.0+win64 on 2020-11-10 at 23:02:29 UTC

; 

; external perimeters extrusion width = 0.45mm
; perimeters extrusion width = 0.45mm
; infill extrusion width = 0.45mm
; solid infill extrusion width = 0.45mm
; top infill extrusion width = 0.40mm
; first layer extrusion width = 0.42mm

M73 P0 R9
M73 Q0 S9
M201 X1000 Y1000 Z1000 E5000 ; sets maximum accelerations, mm/sec^2
M203 X200 Y200 Z12 E120 ; sets maximum feedrates, mm/sec
M204 P1250 R1250 T1250 ; sets acceleration (P, T) and retract acceleration (R), mm/sec^2
M205 X8.00 Y8.00 Z0.40 E1.50 ; sets the jerk limits, mm/sec
M205 S0 T0 ; sets the minimum extruding and travel feed rate, mm/sec
M107
M862.3 P "MK3S" ; printer model check
M862.1 P0.4 ; nozzle diameter check
M115 U3.8.0 ; tell printer latest fw version
G90 ; use absolute coordinates
M83 ; extruder relative mode
M104 S215 ; set extruder temp
M140 S60 ; set bed temp
M190 S60 ; wait for bed temp
M109 S215 ; wait for extruder temp
G28 W ; home all without mesh bed level
G80 ; mesh bed leveling
G1 Y-3.0 F1000.0 ; go outside print area
G92 E0.0
G1 X60.0 E9.0 F1000.0 ; intro line
M73 Q0 S9
M73 P0 R9
G1 X100.0 E12.5 F1000.0 ; intro line
G92 E0.0
M221 S95
G21 ; set units to millimeters
G90 ; use absolute coordinates
M83 ; use relative distances for extrusion
M900 K0.05 ; Filament gcode LA 1.5
M900 K30 ; Filament gcode LA 1.0
;BEFORE_LAYER_CHANGE
G92 E0.0
;0.2


G1 E-0.80000 F2100.00000
G1 Z0.600 F10800.000
;AFTER_LAYER_CHANGE
;0.2
G1 X130.829 Y112.515
G1 Z0.200
G1 E0.80000 F2100.00000
M204 S1000
G1 F1200.000
G1 X132.459 Y112.515 E0.05109
G1 X132.720 Y113.111 E0.02040
G1 X133.243 Y114.038 E0.03338
G1 X133.858 Y114.907 E0.03338
G1 X134.558 Y115.709 E0.03338
G1 X135.335 Y116.436 E0.03338
G1 X136.182 Y117.081 E0.03338
G1 X137.091 Y117.636 E0.03338
G1 X138.051 Y118.096 E0.03338
G1 X139.052 Y118.456 E0.03338
G1 X140.085 Y118.713 E0.03338
G1 X141.139 Y118.864 E0.03338
G1 X141.692 Y118.887 E0.01736
G1 X142.689 Y125.178 E0.19972
G1 X119.615 Y130.000 E0.73910
G1 X120.170 Y129.035 E0.03491
G1 X120.717 Y127.848 E0.04096
G1 X121.169 Y126.558 E0.04288
G1 X121.476 Y125.355 E0.03892
G1 X121.684 Y124.066 E0.04092
G1 X121.773 Y122.764 E0.04093
G1 X121.745 Y121.459 E0.04092
G1 X121.598 Y120.162 E0.04093
G1 X121.334 Y118.884 E0.04092
G1 X120.955 Y117.635 E0.04092
G1 X120.465 Y116.425 E0.04093
G1 X119.867 Y115.265 E0.04092
G1 X119.357 Y114.462 E0.02982
G1 X120.301 Y112.515 E0.06786
G1 X130.769 Y112.515 E0.32823
G1 E-0.80000 F2100.00000
G1 Z0.800 F10800.000
G1 X124.504 Y129.363
G1 Z0.200
G1 E0.80000 F2100.00000
G1 F1200.000
G1 X118.781 Y130.559 E0.18333
G1 X119.201 Y129.963 E0.02286
G1 X119.835 Y128.862 E0.03985
G1 X120.367 Y127.707 E0.03987
G1 X120.808 Y126.448 E0.04181
G1 X121.107 Y125.278 E0.03787
G1 X121.309 Y124.023 E0.03985
G1 X121.396 Y122.755 E0.03985
G1 X121.368 Y121.484 E0.03985
G1 X121.225 Y120.222 E0.03985
G1 X120.968 Y118.977 E0.03985
G1 X120.600 Y117.760 E0.03985
G1 X120.122 Y116.582 E0.03985
G1 X119.540 Y115.453 E0.03985
G1 X118.926 Y114.487 E0.03588
G1 X120.065 Y112.138 E0.08187
G1 X132.705 Y112.138 E0.39634
G1 X133.057 Y112.942 E0.02753
G1 X133.562 Y113.836 E0.03218
G1 X134.155 Y114.673 E0.03218
G1 X134.829 Y115.447 E0.03218
G1 X135.579 Y116.148 E0.03218
G1 X136.395 Y116.769 E0.03218
G1 X137.271 Y117.304 E0.03218
G1 X138.196 Y117.748 E0.03218
G1 X139.162 Y118.095 E0.03218
G1 X140.158 Y118.343 E0.03218
G1 X141.174 Y118.488 E0.03218
G1 X142.016 Y118.523 E0.02644
G1 X143.117 Y125.474 E0.22067
G1 X124.563 Y129.351 E0.59432
G1 X124.205 Y129.098 F10800.000
G1 E-0.80000 F2100.00000
G1 Z0.800 F10800.000
G1 X120.450 Y129.710
G1 Z0.200
G1 E0.80000 F2100.00000
G1 F1200.000
G1 X120.233 Y129.492 E0.00968
G1 X120.428 Y129.151 E0.01238
G1 X120.750 Y129.474 E0.01437
G1 X121.194 Y129.381 E0.01427
G1 X120.597 Y128.784 E0.02659
G1 X120.766 Y128.417 E0.01273
G1 X121.637 Y129.288 E0.03882
G1 X122.080 Y129.196 E0.01427
G1 X120.935 Y128.050 E0.05104
G1 X121.082 Y127.661 E0.01311
G1 X122.524 Y129.103 E0.06426
G1 X122.967 Y129.010 E0.01427
G1 X121.221 Y127.264 E0.07782
G1 X121.360 Y126.867 E0.01326
G1 X123.410 Y128.918 E0.09139
G1 X123.854 Y128.825 E0.01427
G1 X121.486 Y126.457 E0.10552
G1 X121.595 Y126.031 E0.01389
G1 X124.297 Y128.732 E0.12042
G1 X124.741 Y128.640 E0.01427
G1 X121.705 Y125.604 E0.13532
G1 X121.794 Y125.158 E0.01434
G1 X125.184 Y128.547 E0.15107
G1 X125.627 Y128.454 E0.01427
G1 X121.869 Y124.696 E0.16752
G1 X121.943 Y124.234 E0.01474
G1 X126.071 Y128.362 E0.18397
G1 X126.514 Y128.269 E0.01427
G1 X121.989 Y123.744 E0.20167
G1 X122.024 Y123.243 E0.01584
G1 X126.957 Y128.177 E0.21989
G1 X127.401 Y128.084 E0.01427
G1 X122.056 Y122.739 E0.23823
G1 X122.044 Y122.191 E0.01728
G1 X127.844 Y127.991 E0.25853
G1 X128.287 Y127.899 E0.01427
G1 X122.031 Y121.643 E0.27883
G1 X121.984 Y121.059 E0.01845
G1 X128.731 Y127.806 E0.30071
G1 X129.174 Y127.713 E0.01427
G1 X121.915 Y120.455 E0.32352
G1 X121.877 Y120.118 E0.01069
G1 X121.816 Y119.819 E0.00962
G1 X129.618 Y127.621 E0.34773
G1 X130.061 Y127.528 E0.01427
G1 X121.676 Y119.143 E0.37370
G1 X121.608 Y118.814 E0.01060
G1 X121.489 Y118.420 E0.01298
G1 X130.504 Y127.435 E0.40181
G1 X130.948 Y127.343 E0.01427
G1 X121.256 Y117.651 E0.43196
G1 X120.910 Y116.769 E0.02987
G1 X131.391 Y127.250 E0.46715
G1 X131.834 Y127.157 E0.01427
G1 X120.445 Y115.768 E0.50762
G1 X120.113 Y115.124 E0.02284
G1 X119.722 Y114.509 E0.02296
G1 X132.278 Y127.065 E0.55960
G1 X132.721 Y126.972 E0.01427
G1 X119.848 Y114.099 E0.57377
G1 X120.023 Y113.738 E0.01264
G1 X133.164 Y126.879 E0.58573
G1 X133.608 Y126.787 E0.01427
G1 X120.198 Y113.377 E0.59769
G1 X120.373 Y113.016 E0.01264
G1 X134.051 Y126.694 E0.60965
G1 X134.495 Y126.601 E0.01427
G1 X120.690 Y112.797 E0.61524
G1 X121.226 Y112.797 E0.01689
G1 X134.938 Y126.509 E0.61111
G1 X135.381 Y126.416 E0.01427
G1 X121.762 Y112.797 E0.60698
G1 X122.298 Y112.797 E0.01689
G1 X135.825 Y126.324 E0.60285
G1 X136.268 Y126.231 E0.01427
G1 X122.834 Y112.797 E0.59872
G1 X123.370 Y112.797 E0.01689
G1 X136.711 Y126.138 E0.59459
G1 X137.155 Y126.046 E0.01427
G1 X123.907 Y112.797 E0.59047
G1 X124.443 Y112.797 E0.01689
G1 X137.598 Y125.953 E0.58634
G1 X138.041 Y125.860 E0.01427
G1 X124.979 Y112.797 E0.58221
G1 X125.515 Y112.797 E0.01689
G1 X138.485 Y125.768 E0.57808
G1 X138.928 Y125.675 E0.01427
G1 X126.051 Y112.797 E0.57395
G1 X126.587 Y112.797 E0.01689
G1 X139.371 Y125.582 E0.56982
G1 X139.815 Y125.490 E0.01427
G1 X127.123 Y112.797 E0.56569
G1 X127.659 Y112.797 E0.01689
G1 X140.258 Y125.397 E0.56156
G1 X140.702 Y125.304 E0.01427
G1 X128.195 Y112.797 E0.55743
G1 X128.731 Y112.797 E0.01689
G1 X141.145 Y125.212 E0.55330
G1 X141.588 Y125.119 E0.01427
G1 X129.267 Y112.797 E0.54917
G1 X129.803 Y112.797 E0.01689
G1 X142.032 Y125.026 E0.54504
G1 X142.367 Y124.956 E0.01080
G1 X142.343 Y124.801 E0.00494
G1 X130.339 Y112.797 E0.53502
G1 X130.875 Y112.797 E0.01689
G1 X142.446 Y124.369 E0.51573
G1 E-0.80000 F2100.00000
G1 Z0.800 F10800.000
G1 X141.740 Y119.911
G1 Z0.200
G1 E0.80000 F2100.00000
G1 F1200.000
G1 X140.953 Y119.123 E0.03509
G1 X140.327 Y119.034 E0.01992
G1 X141.637 Y120.343 E0.05837
G1 X141.737 Y120.980 E0.02032
G1 X139.655 Y118.898 E0.09281
G1 X138.937 Y118.715 E0.02336
G1 X141.838 Y121.617 E0.12932
G1 X141.939 Y122.254 E0.02032
G1 X138.099 Y118.414 E0.17114
G1 X137.941 Y118.357 E0.00529
G1 X137.106 Y117.957 E0.02919
G1 X142.040 Y122.891 E0.21991
G1 X142.141 Y123.528 E0.02032
G1 X131.411 Y112.797 E0.47825
G1 X131.947 Y112.797 E0.01689
G1 X133.017 Y113.868 E0.04772
G1 E-0.80000 F2100.00000
G1 Z0.800 F10800.000
G1 X113.624 Y106.189
G1 Z0.200
G1 E0.80000 F2100.00000
G1 F1200.000
G1 X114.180 Y105.224 E0.03491
G1 X114.726 Y104.037 E0.04096
G1 X115.178 Y102.746 E0.04288
G1 X115.486 Y101.544 E0.03892
G1 X115.693 Y100.255 E0.04092
G1 X115.783 Y98.953 E0.04093
G1 X115.754 Y97.648 E0.04092
G1 X115.607 Y96.351 E0.04093
G1 X115.343 Y95.073 E0.04092
G1 X114.965 Y93.823 E0.04092
G1 X114.475 Y92.614 E0.04093
G1 X113.877 Y91.453 E0.04092
G1 X113.366 Y90.651 E0.02982
G1 X114.310 Y88.703 E0.06786
G1 X126.468 Y88.703 E0.38120
G1 X126.729 Y89.299 E0.02040
G1 X127.252 Y90.226 E0.03338
G1 X127.867 Y91.096 E0.03338
G1 X128.567 Y91.898 E0.03338
G1 X129.345 Y92.625 E0.03338
G1 X130.192 Y93.269 E0.03338
G1 X131.100 Y93.825 E0.03338
G1 X132.060 Y94.285 E0.03338
G1 X133.062 Y94.645 E0.03338
G1 X134.095 Y94.902 E0.03338
G1 X135.149 Y95.053 E0.03338
G1 X135.702 Y95.076 E0.01736
G1 X136.698 Y101.367 E0.19972
G1 X113.683 Y106.176 E0.73722
G1 E-0.80000 F2100.00000
G1 Z0.800 F10800.000
G1 X115.015 Y106.283
G1 Z0.200
G1 E0.80000 F2100.00000
G1 F1200.000
G1 X112.790 Y106.748 E0.07127
G1 X113.210 Y106.152 E0.02286
G1 X113.844 Y105.050 E0.03985
G1 X114.376 Y103.896 E0.03987
G1 X114.817 Y102.637 E0.04181
G1 X115.116 Y101.467 E0.03787
G1 X115.318 Y100.212 E0.03985
G1 X115.405 Y98.944 E0.03985
G1 X115.377 Y97.673 E0.03985
G1 X115.234 Y96.410 E0.03985
G1 X114.978 Y95.166 E0.03985
G1 X114.609 Y93.949 E0.03985
G1 X114.132 Y92.771 E0.03985
G1 X113.549 Y91.641 E0.03985
G1 X112.935 Y90.676 E0.03588
G1 X114.074 Y88.326 E0.08187
G1 X126.715 Y88.326 E0.39634
G1 X127.067 Y89.131 E0.02753
G1 X127.571 Y90.024 E0.03218
G1 X128.164 Y90.862 E0.03218
G1 X128.839 Y91.635 E0.03218
G1 X129.588 Y92.336 E0.03218
G1 X130.405 Y92.958 E0.03218
G1 X131.280 Y93.493 E0.03218
G1 X132.206 Y93.936 E0.03218
G1 X133.171 Y94.284 E0.03218
G1 X134.167 Y94.532 E0.03218
G1 X135.183 Y94.677 E0.03218
G1 X136.026 Y94.711 E0.02644
G1 X137.127 Y101.662 E0.22067
G1 X115.074 Y106.271 E0.70638
G1 X114.720 Y106.013 F10800.000
G1 X114.460 Y105.898
G1 F1200.000
G1 X114.243 Y105.681 E0.00968
G1 X114.437 Y105.340 E0.01238
G1 X114.760 Y105.662 E0.01437
G1 X115.203 Y105.570 E0.01427
G1 X114.606 Y104.973 E0.02659
G1 X114.776 Y104.606 E0.01273
G1 X115.646 Y105.477 E0.03882
G1 X116.090 Y105.384 E0.01427
G1 X114.945 Y104.239 E0.05104
G1 X115.091 Y103.850 E0.01311
G1 X116.533 Y105.292 E0.06426
G1 X116.977 Y105.199 E0.01427
G1 X115.230 Y103.453 E0.07782
G1 X115.369 Y103.056 E0.01326
G1 X117.420 Y105.106 E0.09139
G1 X117.863 Y105.014 E0.01427
G1 X115.496 Y102.646 E0.10552
G1 X115.605 Y102.219 E0.01389
G1 X118.307 Y104.921 E0.12042
G1 X118.750 Y104.829 E0.01427
G1 X115.714 Y101.792 E0.13532
G1 X115.804 Y101.346 E0.01434
G1 X119.193 Y104.736 E0.15107
G1 X119.637 Y104.643 E0.01427
G1 X115.878 Y100.885 E0.16752
G1 X115.952 Y100.423 E0.01474
G1 X120.080 Y104.551 E0.18397
G1 X120.523 Y104.458 E0.01427
G1 X115.999 Y99.933 E0.20167
G1 X116.033 Y99.432 E0.01584
G1 X120.967 Y104.365 E0.21989
G1 X121.410 Y104.273 E0.01427
G1 X116.065 Y98.927 E0.23823
M73 Q12 S8
G1 X116.053 Y98.379 E0.01728
G1 X121.854 Y104.180 E0.25853
M73 P12 R8
G1 X122.297 Y104.087 E0.01427
G1 X116.041 Y97.831 E0.27883
G1 X115.993 Y97.248 E0.01845
G1 X122.740 Y103.995 E0.30071
G1 X123.184 Y103.902 E0.01427
G1 X115.925 Y96.643 E0.32352
G1 X115.887 Y96.306 E0.01069
G1 X115.825 Y96.007 E0.00962
G1 X123.627 Y103.809 E0.34773
G1 X124.070 Y103.717 E0.01427
G1 X115.686 Y95.332 E0.37370
G1 X115.618 Y95.003 E0.01060
G1 X115.498 Y94.609 E0.01298
G1 X124.514 Y103.624 E0.40181
G1 X124.957 Y103.531 E0.01427
G1 X115.265 Y93.840 E0.43196
G1 X114.919 Y92.957 E0.02987
G1 X125.400 Y103.439 E0.46715
G1 X125.844 Y103.346 E0.01427
G1 X114.454 Y91.957 E0.50762
G1 X114.122 Y91.312 E0.02284
G1 X113.731 Y90.698 E0.02296
G1 X126.287 Y103.253 E0.55960
G1 X126.730 Y103.161 E0.01427
G1 X113.857 Y90.287 E0.57377
G1 X114.032 Y89.926 E0.01264
G1 X127.174 Y103.068 E0.58573
G1 X127.617 Y102.976 E0.01427
G1 X114.207 Y89.565 E0.59769
G1 X114.382 Y89.204 E0.01264
G1 X128.061 Y102.883 E0.60965
G1 X128.504 Y102.790 E0.01427
G1 X114.700 Y88.986 E0.61524
G1 X115.236 Y88.986 E0.01689
G1 X128.947 Y102.698 E0.61111
G1 X129.391 Y102.605 E0.01427
G1 X115.772 Y88.986 E0.60698
G1 X116.308 Y88.986 E0.01689
G1 X129.834 Y102.512 E0.60285
G1 X130.277 Y102.420 E0.01427
G1 X116.844 Y88.986 E0.59872
G1 X117.380 Y88.986 E0.01689
G1 X130.721 Y102.327 E0.59459
G1 X131.164 Y102.234 E0.01427
G1 X117.916 Y88.986 E0.59047
G1 X118.452 Y88.986 E0.01689
G1 X131.607 Y102.142 E0.58634
G1 X132.051 Y102.049 E0.01427
G1 X118.988 Y88.986 E0.58221
G1 X119.524 Y88.986 E0.01689
G1 X132.494 Y101.956 E0.57808
G1 X132.938 Y101.864 E0.01427
G1 X120.060 Y88.986 E0.57395
G1 X120.596 Y88.986 E0.01689
G1 X133.381 Y101.771 E0.56982
G1 X133.824 Y101.678 E0.01427
G1 X121.132 Y88.986 E0.56569
G1 X121.668 Y88.986 E0.01689
G1 X134.268 Y101.586 E0.56156
G1 X134.711 Y101.493 E0.01427
G1 X122.204 Y88.986 E0.55743
G1 X122.740 Y88.986 E0.01689
G1 X135.154 Y101.400 E0.55330
G1 X135.598 Y101.308 E0.01427
G1 X123.276 Y88.986 E0.54917
G1 X123.812 Y88.986 E0.01689
G1 X136.041 Y101.215 E0.54504
G1 X136.377 Y101.145 E0.01080
G1 X136.352 Y100.990 E0.00494
G1 X124.348 Y88.986 E0.53502
G1 X124.884 Y88.986 E0.01689
G1 X136.455 Y100.557 E0.51573
G1 E-0.80000 F2100.00000
G1 Z0.800 F10800.000
G1 X135.749 Y96.099
G1 Z0.200
G1 E0.80000 F2100.00000
G1 F1200.000
G1 X134.962 Y95.312 E0.03509
G1 X134.336 Y95.222 E0.01992
G1 X135.646 Y96.532 E0.05837
G1 X135.747 Y97.169 E0.02032
G1 X133.665 Y95.087 E0.09281
G1 X132.946 Y94.904 E0.02336
G1 X135.848 Y97.806 E0.12932
G1 X135.949 Y98.443 E0.02032
G1 X132.109 Y94.603 E0.17114
G1 X131.951 Y94.546 E0.00529
G1 X131.115 Y94.146 E0.02919
G1 X136.050 Y99.080 E0.21991
G1 X136.150 Y99.716 E0.02032
G1 X125.420 Y88.986 E0.47825
G1 X125.956 Y88.986 E0.01689
G1 X127.027 Y90.057 E0.04772
G1 E-0.80000 F2100.00000
G1 Z0.800 F10800.000
G1 X125.000 Y81.529
G1 Z0.200
G1 E0.80000 F2100.00000
G1 F1200.000
G1 X92.520 Y81.529 E1.01838
G1 X92.477 Y79.003 E0.07921
G1 X157.523 Y79.003 E2.03948
G1 X157.480 Y81.529 E0.07921
G1 X125.060 Y81.529 E1.01650
G1 X125.000 Y81.906 F10800.000
G1 F1200.000
G1 X92.150 Y81.906 E1.03000
G1 X92.093 Y78.626 E0.10286
G1 X157.907 Y78.626 E2.06354
G1 X157.850 Y81.906 E0.10286
G1 X125.060 Y81.906 E1.02812
G1 X124.789 Y81.567 F10800.000
G1 E-0.80000 F2100.00000
G1 Z0.800 F10800.000
G1 X92.618 Y80.634
G1 Z0.200
G1 E0.80000 F2100.00000
G1 F1200.000
G1 X93.230 Y81.246 E0.02735
G1 X93.767 Y81.246 E0.01697
G1 X92.781 Y80.260 E0.04405
G1 X92.772 Y79.714 E0.01727
G1 X94.305 Y81.246 E0.06847
G1 X94.842 Y81.246 E0.01697
G1 X92.882 Y79.286 E0.08756
G1 X93.419 Y79.286 E0.01697
G1 X95.379 Y81.246 E0.08756
G1 X95.916 Y81.246 E0.01697
G1 X93.956 Y79.286 E0.08756
G1 X94.493 Y79.286 E0.01697
G1 X96.453 Y81.246 E0.08756
G1 X96.991 Y81.246 E0.01697
G1 X95.030 Y79.286 E0.08756
G1 X95.568 Y79.286 E0.01697
G1 X97.528 Y81.246 E0.08756
G1 X98.065 Y81.246 E0.01697
G1 X96.105 Y79.286 E0.08756
G1 X96.642 Y79.286 E0.01697
G1 X98.602 Y81.246 E0.08756
G1 X99.140 Y81.246 E0.01697
G1 X97.179 Y79.286 E0.08756
G1 X97.717 Y79.286 E0.01697
G1 X99.677 Y81.246 E0.08756
G1 X100.214 Y81.246 E0.01697
G1 X98.254 Y79.286 E0.08756
G1 X98.791 Y79.286 E0.01697
G1 X100.751 Y81.246 E0.08756
G1 X101.288 Y81.246 E0.01697
G1 X99.328 Y79.286 E0.08756
G1 X99.865 Y79.286 E0.01697
G1 X101.826 Y81.246 E0.08756
G1 X102.363 Y81.246 E0.01697
G1 X100.403 Y79.286 E0.08756
G1 X100.940 Y79.286 E0.01697
G1 X102.900 Y81.246 E0.08756
G1 X103.437 Y81.246 E0.01697
G1 X101.477 Y79.286 E0.08756
G1 X102.014 Y79.286 E0.01697
G1 X103.974 Y81.246 E0.08756
G1 X104.512 Y81.246 E0.01697
G1 X102.551 Y79.286 E0.08756
G1 X103.089 Y79.286 E0.01697
G1 X105.049 Y81.246 E0.08756
G1 X105.586 Y81.246 E0.01697
G1 X103.626 Y79.286 E0.08756
G1 X104.163 Y79.286 E0.01697
G1 X106.123 Y81.246 E0.08756
G1 X106.661 Y81.246 E0.01697
G1 X104.700 Y79.286 E0.08756
G1 X105.238 Y79.286 E0.01697
G1 X107.198 Y81.246 E0.08756
G1 X107.735 Y81.246 E0.01697
G1 X105.775 Y79.286 E0.08756
G1 X106.312 Y79.286 E0.01697
G1 X108.272 Y81.246 E0.08756
G1 X108.809 Y81.246 E0.01697
G1 X106.849 Y79.286 E0.08756
G1 X107.386 Y79.286 E0.01697
G1 X109.347 Y81.246 E0.08756
G1 X109.884 Y81.246 E0.01697
G1 X107.924 Y79.286 E0.08756
G1 X108.461 Y79.286 E0.01697
G1 X110.421 Y81.246 E0.08756
G1 X110.958 Y81.246 E0.01697
G1 X108.998 Y79.286 E0.08756
G1 X109.535 Y79.286 E0.01697
G1 X111.495 Y81.246 E0.08756
G1 X112.033 Y81.246 E0.01697
G1 X110.072 Y79.286 E0.08756
G1 X110.610 Y79.286 E0.01697
G1 X112.570 Y81.246 E0.08756
G1 X113.107 Y81.246 E0.01697
