; generated by PrusaSlicer 2.3.1+win64 on 2021-10-13 at 22:57:43 UTC

; 

; external perimeters extrusion width = 0.45mm
; perimeters extrusion width = 0.45mm
; infill extrusion width = 0.45mm
; solid infill extrusion width = 0.45mm
; top infill extrusion width = 0.40mm
; support material extrusion width = 0.35mm
; first layer extrusion width = 0.42mm

M73 P0 R17
M73 Q0 S17
M201 X1000 Y1000 Z1000 E5000 ; sets maximum accelerations, mm/sec^2
M203 X200 Y200 Z12 E120 ; sets maximum feedrates, mm/sec
M204 P1250 R1250 T1250 ; sets acceleration (P, T) and retract acceleration (R), mm/sec^2
M205 X8.00 Y8.00 Z0.40 E1.50 ; sets the jerk limits, mm/sec
M205 S0 T0 ; sets the minimum extruding and travel feed rate, mm/sec
M107
;TYPE:Custom
M862.3 P "MK3S" ; printer model check
M862.1 P0.4 ; nozzle diameter check
M115 U3.8.0 ; tell printer latest fw version
G90 ; use absolute coordinates
M83 ; extruder relative mode
M104 S215 ; set extruder temp
M140 S60 ; set bed temp
M190 S60 ; wait for bed temp
M109 S215 ; wait for extruder temp
G28 W ; home all without mesh bed level
G80 ; mesh bed leveling
G1 Y-3.0 F1000.0 ; go outside print area
G92 E0.0
G1 X60.0 E9.0 F1000.0 ; intro line
G1 X100.0 E12.5 F1000.0 ; intro line
G92 E0.0
M221 S95
G21 ; set units to millimeters
G90 ; use absolute coordinates
M83 ; use relative distances for extrusion
M900 K0.05 ; Filament gcode LA 1.5
M900 K30 ; Filament gcode LA 1.0
;LAYER_CHANGE
;Z:0.2
;HEIGHT:0.2
;BEFORE_LAYER_CHANGE
G92 E0.0
;0.2


G1 E-0.80000 F2100.000
G1 Z0.600 F10800.000
;AFTER_LAYER_CHANGE
;0.2
G1 X118.628 Y94.127
G1 Z0.200
G1 E0.80000 F2100.000
M204 S1000
;TYPE:Perimeter
;WIDTH:0.42
G1 F1200.000
G1 X119.746 Y93.558 E0.03934
G1 X129.955 Y93.535 E0.32010
G1 X130.252 Y94.897 E0.04374
G1 X128.404 Y99.178 E0.14618
G1 X119.374 Y95.334 E0.30774
G1 X118.659 Y94.178 E0.04260
G1 E-0.80000 F2100.000
G1 Z0.800 F10800.000
G1 X123.926 Y96.862
G1 Z0.200
G1 E0.80000 F2100.000
;TYPE:External perimeter
G1 F1200.000
G1 X119.632 Y95.034 E0.14634
G1 X119.164 Y94.277 E0.02788
G1 X119.836 Y93.935 E0.02366
G1 X129.652 Y93.912 E0.30775
M73 Q1 S17
G1 X129.858 Y94.859 E0.03039
G1 X128.207 Y98.684 E0.13062
M73 P1 R17
G1 X123.981 Y96.885 E0.14400
G1 X123.673 Y97.172 F10800.000
G1 E-0.80000 F2100.000
G1 Z0.800 F10800.000
G1 X125.616 Y99.845
G1 Z0.200
G1 E0.80000 F2100.000
;TYPE:Perimeter
G1 F1200.000
G1 X119.742 Y97.272 E0.20107
G1 X119.140 Y98.069 E0.03134
G1 X119.047 Y98.034 E0.00313
G1 X119.169 Y97.119 E0.02896
G1 X113.314 Y94.618 E0.19964
G1 X114.277 Y92.469 E0.07383
G1 X119.247 Y92.234 E0.15603
G1 X119.864 Y91.140 E0.03939
G1 X119.963 Y91.175 E0.00332
G1 X119.974 Y92.129 E0.02990
G1 X142.216 Y91.053 E0.69820
M73 P1 R16
M73 Q1 S16
G1 X141.271 Y93.457 E0.08098
G1 X132.999 Y93.523 E0.25940
G1 X130.257 Y99.850 E0.21618
G1 X132.477 Y101.034 E0.07888
G1 X131.901 Y102.462 E0.04829
G1 X126.889 Y100.403 E0.16992
G1 X125.671 Y99.869 E0.04167
G1 X125.520 Y100.215 F10800.000
;TYPE:External perimeter
G1 F1200.000
G1 X119.864 Y97.736 E0.19361
G1 X119.272 Y98.521 E0.03081
G1 X118.633 Y98.283 E0.02138
G1 X118.758 Y97.353 E0.02941
G1 X113.000 Y94.894 E0.19632
G1 X112.856 Y94.718 E0.00712
G1 X114.027 Y92.103 E0.08983
G1 X119.021 Y91.867 E0.15675
G1 X119.691 Y90.678 E0.04280
G1 X120.338 Y90.908 E0.02152
G1 X120.347 Y91.733 E0.02588
G1 X142.740 Y90.650 E0.70296
G1 X142.747 Y90.734 E0.00263
G1 X141.529 Y93.832 E0.10437
G1 X133.247 Y93.898 E0.25969
G1 X130.741 Y99.681 E0.19759
G1 X132.953 Y100.861 E0.07860
G1 X132.109 Y102.956 E0.07082
G1 X126.741 Y100.750 E0.18196
G1 X125.575 Y100.239 E0.03993
G1 X125.473 Y99.817 F10800.000
G1 E-0.80000 F2100.000
G1 Z0.800 F10800.000
G1 X128.670 Y98.849
G1 Z0.200
G1 E0.80000 F2100.000
;TYPE:Solid infill
;WIDTH:0.420638
G1 F1200.000
G1 X131.793 Y101.973 E0.13875
G1 X131.745 Y102.093 E0.00406
G1 X131.124 Y101.837 E0.02109
G1 X128.638 Y99.351 E0.11043
G1 X128.553 Y99.548 E0.00675
G1 X128.114 Y99.362 E0.01496
G1 X130.217 Y101.465 E0.09341
G1 X129.310 Y101.092 E0.03079
G1 X127.184 Y98.966 E0.09444
M73 Q2 S16
G1 X126.254 Y98.570 E0.03175
G1 X128.404 Y100.719 E0.09547
G1 X127.497 Y100.347 E0.03079
G1 X125.324 Y98.174 E0.09651
M73 P2 R16
G1 X124.394 Y97.778 E0.03175
G1 X126.570 Y99.954 E0.09666
G1 X125.619 Y99.538 E0.03260
G1 X123.464 Y97.382 E0.09575
G1 X122.534 Y96.986 E0.03175
G1 X124.669 Y99.121 E0.09483
G1 X123.718 Y98.705 E0.03260
G1 X121.603 Y96.590 E0.09391
G1 X120.673 Y96.194 E0.03175
G1 X122.767 Y98.288 E0.09300
G1 X121.816 Y97.871 E0.03260
G1 X119.743 Y95.798 E0.09208
G1 X119.180 Y95.559 E0.01921
G1 X118.657 Y94.712 E0.03127
G1 X116.588 Y92.643 E0.09190
G1 X117.098 Y92.619 E0.01604
G1 X118.403 Y93.924 E0.05798
G1 X118.757 Y93.744 E0.01248
G1 X117.608 Y92.595 E0.05104
G1 X118.118 Y92.571 E0.01604
G1 X119.111 Y93.564 E0.04411
G1 X119.465 Y93.383 E0.01248
G1 X118.628 Y92.547 E0.03718
G1 X119.138 Y92.522 E0.01604
G1 X119.891 Y93.275 E0.03343
G1 X120.424 Y93.274 E0.01674
G1 X119.504 Y92.354 E0.04085
G1 X119.690 Y92.024 E0.01189
G1 X119.694 Y92.425 E0.01259
G1 X120.090 Y92.406 E0.01245
G1 X120.957 Y93.273 E0.03849
G1 X121.490 Y93.272 E0.01674
G1 X120.600 Y92.382 E0.03953
G1 X121.109 Y92.357 E0.01602
G1 X122.023 Y93.270 E0.04057
G1 X122.556 Y93.269 E0.01674
G1 X121.619 Y92.332 E0.04161
G1 X122.128 Y92.308 E0.01602
G1 X123.089 Y93.268 E0.04265
G1 X123.622 Y93.267 E0.01674
G1 X122.638 Y92.283 E0.04369
G1 X123.147 Y92.258 E0.01602
G1 X124.154 Y93.265 E0.04473
G1 X124.687 Y93.264 E0.01674
G1 X123.657 Y92.234 E0.04577
G1 X124.167 Y92.209 E0.01602
G1 X125.220 Y93.263 E0.04681
G1 X125.753 Y93.262 E0.01674
G1 X124.676 Y92.184 E0.04785
G1 X125.186 Y92.160 E0.01602
G1 X126.286 Y93.260 E0.04888
G1 X126.819 Y93.259 E0.01674
G1 X125.695 Y92.135 E0.04992
G1 X126.205 Y92.110 E0.01602
G1 X127.352 Y93.258 E0.05096
G1 X127.885 Y93.257 E0.01674
G1 X126.714 Y92.086 E0.05200
G1 X127.224 Y92.061 E0.01602
G1 X128.418 Y93.255 E0.05304
G1 X128.951 Y93.254 E0.01674
G1 X127.733 Y92.037 E0.05408
G1 X128.243 Y92.012 E0.01602
G1 X129.653 Y93.422 E0.06264
G1 E-0.80000 F2100.000
G1 Z0.800 F10800.000
G1 X131.565 Y100.676
G1 Z0.200
G1 E0.80000 F2100.000
G1 F1200.000
G1 X132.100 Y101.211 E0.02379
G1 X131.947 Y101.592 E0.01289
G1 X130.832 Y100.477 E0.04952
G1 X129.894 Y99.977 E0.03339
G1 X130.026 Y99.671 E0.01045
G1 X128.960 Y98.605 E0.04736
G1 X129.121 Y98.232 E0.01276
G1 X130.188 Y99.299 E0.04738
G1 X130.349 Y98.926 E0.01276
G1 X129.282 Y97.859 E0.04740
G1 X129.443 Y97.486 E0.01276
G1 X130.511 Y98.553 E0.04742
G1 X130.672 Y98.181 E0.01276
G1 X129.604 Y97.112 E0.04744
G1 X129.765 Y96.739 E0.01276
G1 X130.834 Y97.808 E0.04746
G1 X130.995 Y97.435 E0.01276
G1 X129.926 Y96.366 E0.04748
G1 X130.087 Y95.993 E0.01276
G1 X131.157 Y97.063 E0.04750
G1 X131.318 Y96.690 E0.01276
G1 X130.248 Y95.620 E0.04752
G1 X130.409 Y95.247 E0.01276
G1 X131.480 Y96.317 E0.04754
G1 X131.641 Y95.944 E0.01276
G1 X130.527 Y94.830 E0.04948
G1 X130.378 Y94.147 E0.02196
G1 X131.803 Y95.572 E0.06327
G1 X131.964 Y95.199 E0.01276
G1 X128.752 Y91.987 E0.14266
G1 X129.262 Y91.963 E0.01602
G1 X132.126 Y94.826 E0.12720
G1 X132.287 Y94.454 E0.01276
G1 X129.771 Y91.938 E0.11174
G1 X130.281 Y91.913 E0.01602
G1 X132.449 Y94.081 E0.09628
G1 X132.610 Y93.708 E0.01276
G1 X130.790 Y91.889 E0.08083
G1 X131.300 Y91.864 E0.01602
G1 X132.772 Y93.336 E0.06537
G1 X132.812 Y93.242 E0.00321
G1 X133.209 Y93.239 E0.01246
G1 X131.810 Y91.839 E0.06216
G1 X132.319 Y91.815 E0.01602
G1 X133.739 Y93.235 E0.06306
G1 X134.269 Y93.230 E0.01664
G1 X132.829 Y91.790 E0.06397
G1 X133.338 Y91.766 E0.01602
G1 X134.799 Y93.226 E0.06487
G1 X135.329 Y93.222 E0.01664
G1 X133.848 Y91.741 E0.06578
G1 X134.357 Y91.716 E0.01602
G1 X135.858 Y93.218 E0.06668
G1 X136.388 Y93.213 E0.01664
G1 X134.867 Y91.692 E0.06759
G1 X135.376 Y91.667 E0.01602
G1 X136.918 Y93.209 E0.06849
G1 X137.448 Y93.205 E0.01664
G1 X135.886 Y91.642 E0.06940
G1 X136.395 Y91.618 E0.01602
G1 X137.978 Y93.200 E0.07030
G1 X138.508 Y93.196 E0.01664
G1 X136.905 Y91.593 E0.07120
G1 X137.414 Y91.568 E0.01602
G1 X139.038 Y93.192 E0.07211
G1 X139.568 Y93.188 E0.01664
G1 X137.924 Y91.544 E0.07301
G1 X138.433 Y91.519 E0.01602
G1 X140.098 Y93.183 E0.07392
G1 X140.628 Y93.179 E0.01664
G1 X138.943 Y91.494 E0.07482
G1 X139.453 Y91.470 E0.01602
G1 X141.101 Y93.118 E0.07320
G1 X141.251 Y92.735 E0.01294
G1 X139.962 Y91.445 E0.05727
M73 Q3 S16
G1 X140.472 Y91.421 E0.01602
G1 X141.402 Y92.351 E0.04133
G1 X141.553 Y91.968 E0.01294
G1 X140.981 Y91.396 E0.02539
G1 X141.491 Y91.371 E0.01602
G1 X141.834 Y91.715 E0.01527
G1 E-0.80000 F2100.000
M73 P3 R16
G1 Z0.800 F10800.000
G1 X121.195 Y97.785
G1 Z0.200
G1 E0.80000 F2100.000
G1 F1200.000
G1 X116.078 Y92.667 E0.22731
G1 X115.568 Y92.691 E0.01604
G1 X119.915 Y97.038 E0.19309
G1 X119.651 Y96.923 E0.00903
G1 X119.485 Y97.143 E0.00866
G1 X115.057 Y92.715 E0.19667
G1 X114.547 Y92.739 E0.01604
G1 X118.210 Y96.401 E0.16266
G1 X117.277 Y96.003 E0.03185
G1 X114.325 Y93.051 E0.13110
G1 X114.160 Y93.420 E0.01270
G1 X116.345 Y95.605 E0.09703
G1 X115.412 Y95.207 E0.03185
G1 X113.995 Y93.789 E0.06295
G1 X113.830 Y94.158 E0.01270
G1 X114.802 Y95.130 E0.04318
G1 E-0.80000 F2100.000
G1 Z0.800 F10800.000
G1 X121.596 Y110.822
G1 Z0.200
G1 E0.80000 F2100.000
;TYPE:Perimeter
;WIDTH:0.42
G1 F1200.000
G1 X130.626 Y114.666 E0.30774
G1 X131.372 Y115.873 E0.04448
G1 X130.255 Y116.442 E0.03932
G1 X120.045 Y116.465 E0.32013
G1 X119.748 Y115.106 E0.04363
G1 X121.572 Y110.877 E0.14439
G1 X122.084 Y111.440 F10800.000
;TYPE:External perimeter
G1 F1200.000
G1 X130.368 Y114.966 E0.28232
G1 X130.836 Y115.723 E0.02788
G1 X130.164 Y116.065 E0.02365
G1 X120.348 Y116.088 E0.30776
G1 X120.142 Y115.142 E0.03035
G1 X121.793 Y111.316 E0.13065
G1 X122.029 Y111.416 E0.00803
G1 X122.250 Y111.076 F10800.000
G1 E-0.80000 F2100.000
G1 Z0.800 F10800.000
G1 X108.300 Y117.634
G1 Z0.200
G1 E0.80000 F2100.000
;TYPE:Perimeter
G1 F1200.000
G1 X108.729 Y116.543 E0.03674
G1 X117.001 Y116.477 E0.25940
G1 X119.743 Y110.150 E0.21618
G1 X117.523 Y108.966 E0.07888
G1 X118.099 Y107.538 E0.04828
G1 X123.111 Y109.597 E0.16992
G1 X130.258 Y112.728 E0.24462
G1 X130.860 Y111.931 E0.03134
G1 X130.953 Y111.966 E0.00313
G1 X130.831 Y112.881 E0.02896
G1 X136.686 Y115.382 E0.19964
G1 X135.723 Y117.531 E0.07383
G1 X130.753 Y117.766 E0.15603
G1 X130.138 Y118.858 E0.03929
G1 X130.036 Y118.822 E0.00336
G1 X130.026 Y117.871 E0.02982
G1 X107.784 Y118.947 E0.69820
M73 P4 R16
M73 Q4 S16
G1 X108.278 Y117.690 E0.04236
G1 X107.927 Y117.552 F10800.000
;TYPE:External perimeter
G1 F1200.000
G1 X108.471 Y116.168 E0.04660
G1 X116.753 Y116.102 E0.25969
G1 X119.259 Y110.319 E0.19759
G1 X117.047 Y109.139 E0.07860
G1 X117.891 Y107.045 E0.07081
G1 X123.259 Y109.250 E0.18196
G1 X130.136 Y112.264 E0.23542
G1 X130.728 Y111.479 E0.03081
G1 X131.367 Y111.717 E0.02138
G1 X131.242 Y112.647 E0.02941
G1 X137.000 Y115.106 E0.19632
G1 X137.144 Y115.282 E0.00712
G1 X135.973 Y117.897 E0.08983
G1 X130.979 Y118.133 E0.15675
G1 X130.311 Y119.318 E0.04265
G1 X129.662 Y119.091 E0.02155
G1 X129.653 Y118.267 E0.02585
G1 X107.260 Y119.350 E0.70296
G1 X107.253 Y119.266 E0.00263
G1 X107.905 Y117.608 E0.05588
G1 X108.322 Y117.490 F10800.000
G1 E-0.80000 F2100.000
G1 Z0.800 F10800.000
G1 X108.671 Y118.791
G1 Z0.200
G1 E0.80000 F2100.000
;TYPE:Solid infill
;WIDTH:0.420638
G1 F1200.000
G1 X108.296 Y118.416 E0.01665
G1 X108.447 Y118.033 E0.01294
G1 X109.019 Y118.604 E0.02539
G1 X109.528 Y118.579 E0.01602
G1 X108.598 Y117.649 E0.04132
G1 X108.749 Y117.266 E0.01294
G1 X110.038 Y118.555 E0.05726
G1 X110.547 Y118.530 E0.01602
G1 X108.899 Y116.882 E0.07320
G1 X108.922 Y116.825 E0.00194
G1 X109.372 Y116.821 E0.01414
G1 X111.057 Y118.506 E0.07482
G1 X111.566 Y118.481 E0.01602
G1 X109.902 Y116.817 E0.07392
G1 X110.432 Y116.812 E0.01664
G1 X112.076 Y118.456 E0.07301
G1 X112.585 Y118.432 E0.01602
G1 X110.962 Y116.808 E0.07211
G1 X111.492 Y116.804 E0.01664
G1 X113.095 Y118.407 E0.07121
G1 X113.605 Y118.382 E0.01602
G1 X112.022 Y116.800 E0.07030
G1 X112.552 Y116.795 E0.01664
G1 X114.114 Y118.358 E0.06940
G1 X114.624 Y118.333 E0.01602
G1 X113.082 Y116.791 E0.06849
G1 X113.612 Y116.787 E0.01664
G1 X115.133 Y118.308 E0.06759
G1 X115.643 Y118.284 E0.01602
G1 X114.141 Y116.782 E0.06668
G1 X114.671 Y116.778 E0.01664
G1 X116.152 Y118.259 E0.06578
G1 X116.662 Y118.234 E0.01602
G1 X115.201 Y116.774 E0.06487
G1 X115.731 Y116.770 E0.01664
G1 X117.171 Y118.210 E0.06397
G1 X117.681 Y118.185 E0.01602
G1 X116.261 Y116.765 E0.06306
G1 X116.791 Y116.761 E0.01664
G1 X118.190 Y118.161 E0.06216
G1 X118.700 Y118.136 E0.01602
G1 X117.228 Y116.664 E0.06536
G1 X117.390 Y116.292 E0.01276
G1 X119.209 Y118.111 E0.08082
G1 X119.719 Y118.087 E0.01602
G1 X117.551 Y115.919 E0.09628
G1 X117.713 Y115.546 E0.01276
G1 X120.228 Y118.062 E0.11174
G1 X120.738 Y118.037 E0.01602
G1 X117.874 Y115.174 E0.12720
G1 X118.036 Y114.801 E0.01276
G1 X121.248 Y118.013 E0.14266
G1 X121.757 Y117.988 E0.01602
G1 X120.516 Y116.747 E0.05512
G1 X121.049 Y116.746 E0.01674
G1 X122.267 Y117.963 E0.05408
G1 X122.776 Y117.939 E0.01602
G1 X121.582 Y116.745 E0.05304
G1 X122.115 Y116.743 E0.01674
G1 X123.286 Y117.914 E0.05200
G1 X123.795 Y117.890 E0.01602
G1 X122.648 Y116.742 E0.05096
G1 X123.181 Y116.741 E0.01674
G1 X124.305 Y117.865 E0.04992
G1 X124.814 Y117.840 E0.01602
G1 X123.714 Y116.740 E0.04888
G1 X124.247 Y116.738 E0.01674
G1 X125.324 Y117.816 E0.04784
G1 X125.833 Y117.791 E0.01602
G1 X124.780 Y116.737 E0.04680
G1 X125.313 Y116.736 E0.01674
G1 X126.343 Y117.766 E0.04576
G1 X126.852 Y117.742 E0.01602
G1 X125.846 Y116.735 E0.04472
M73 Q5 S16
G1 X126.378 Y116.734 E0.01674
G1 X127.362 Y117.717 E0.04368
G1 X127.871 Y117.692 E0.01602
G1 X126.911 Y116.732 E0.04264
G1 X127.444 Y116.731 E0.01674
G1 X128.381 Y117.668 E0.04160
G1 X128.891 Y117.643 E0.01602
M73 P5 R16
G1 X127.977 Y116.730 E0.04056
G1 X128.510 Y116.729 E0.01674
G1 X129.400 Y117.618 E0.03952
G1 X129.910 Y117.594 E0.01602
G1 X129.043 Y116.727 E0.03849
G1 X129.576 Y116.726 E0.01674
G1 X130.496 Y117.646 E0.04085
G1 X130.583 Y117.491 E0.00559
G1 X130.862 Y117.478 E0.00876
G1 X130.109 Y116.725 E0.03343
G1 X130.323 Y116.724 E0.00672
G1 X130.535 Y116.617 E0.00747
G1 X131.372 Y117.453 E0.03717
G1 X131.882 Y117.429 E0.01604
G1 X130.889 Y116.436 E0.04411
G1 X131.243 Y116.256 E0.01248
G1 X132.392 Y117.405 E0.05104
G1 X132.902 Y117.381 E0.01604
G1 X131.597 Y116.076 E0.05798
G1 X131.774 Y115.986 E0.00626
G1 X131.343 Y115.288 E0.02575
G1 X133.574 Y117.519 E0.09910
G1 E-0.80000 F2100.000
G1 Z0.800 F10800.000
G1 X135.105 Y117.447
G1 Z0.200
G1 E0.80000 F2100.000
G1 F1200.000
G1 X130.515 Y112.857 E0.20387
G1 X130.349 Y113.077 E0.00866
G1 X130.085 Y112.962 E0.00904
G1 X134.432 Y117.309 E0.19310
G1 X133.922 Y117.333 E0.01604
G1 X129.134 Y112.545 E0.21267
G1 X128.183 Y112.128 E0.03260
G1 X130.257 Y114.202 E0.09208
G1 X129.326 Y113.806 E0.03175
G1 X127.233 Y111.712 E0.09300
G1 X126.282 Y111.295 E0.03260
G1 X128.396 Y113.410 E0.09391
G1 X127.466 Y113.014 E0.03175
G1 X125.331 Y110.879 E0.09483
G1 X124.380 Y110.462 E0.03260
G1 X126.536 Y112.618 E0.09575
G1 X125.606 Y112.222 E0.03175
G1 X123.430 Y110.046 E0.09666
G1 X122.503 Y109.653 E0.03160
G1 X124.676 Y111.826 E0.09651
G1 X123.746 Y111.430 E0.03175
G1 X121.596 Y109.281 E0.09547
G1 X120.690 Y108.908 E0.03079
G1 X122.816 Y111.034 E0.09443
G1 X121.886 Y110.638 E0.03175
G1 X119.783 Y108.535 E0.09339
G1 X118.876 Y108.163 E0.03079
G1 X121.362 Y110.649 E0.11043
G1 X121.201 Y111.022 E0.01276
G1 X118.206 Y108.027 E0.13301
G1 X118.053 Y108.408 E0.01289
G1 X119.168 Y109.523 E0.04951
G1 X118.023 Y108.912 E0.04076
G1 X117.769 Y108.659 E0.01126
G1 E-0.80000 F2100.000
G1 Z0.800 F10800.000
G1 X121.169 Y111.524
G1 Z0.200
G1 E0.80000 F2100.000
G1 F1200.000
G1 X119.974 Y110.329 E0.05310
G1 X119.812 Y110.702 E0.01276
G1 X120.879 Y111.768 E0.04738
G1 X120.718 Y112.141 E0.01276
G1 X119.651 Y111.074 E0.04740
G1 X119.489 Y111.447 E0.01276
G1 X120.557 Y112.514 E0.04742
G1 X120.396 Y112.887 E0.01276
G1 X119.328 Y111.820 E0.04743
G1 X119.166 Y112.192 E0.01276
G1 X120.235 Y113.261 E0.04745
G1 X120.074 Y113.634 E0.01276
G1 X119.005 Y112.565 E0.04747
G1 X118.843 Y112.938 E0.01276
G1 X119.912 Y114.007 E0.04749
