; generated by PrusaSlicer 2.4.2+win64 on 2022-06-16 at 17:00:15 UTC

; 

; external perimeters extrusion width = 0.45mm
; perimeters extrusion width = 0.45mm
; infill extrusion width = 0.45mm
; solid infill extrusion width = 0.45mm
; top infill extrusion width = 0.40mm
; first layer extrusion width = 0.42mm

M73 P0 R35
M73 Q0 S35
M107
;TYPE:Custom
M862.3 P "MK3S" ; printer model check
M862.1 P0.4 ; nozzle diameter check
M115 U3.8.0 ; tell printer latest fw version
G90 ; use absolute coordinates
M83 ; extruder relative mode
M104 S215 ; set extruder temp
M140 S60 ; set bed temp
M190 S60 ; wait for bed temp
M109 S215 ; wait for extruder temp
G28 W ; home all without mesh bed level
G80 ; mesh bed leveling
G1 Y-3.0 F1000.0 ; go outside print area
G92 E0.0
G1 X60.0 E9.0 F1000.0 ; intro line
G1 X100.0 E12.5 F1000.0 ; intro line
G92 E0.0
M221 S95
G21 ; set units to millimeters
G90 ; use absolute coordinates
M83 ; use relative distances for extrusion
M900 K0.05 ; Filament gcode LA 1.5
M900 K30 ; Filament gcode LA 1.0
M107
;LAYER_CHANGE
;Z:0.2
;HEIGHT:0.2
;BEFORE_LAYER_CHANGE
G92 E0.0
;0.2


G1 E-.8 F2100
G1 Z.6 F10800
;AFTER_LAYER_CHANGE
;0.2
G1 X116.825 Y58.001
G1 Z.2
G1 E.8 F2100
M204 S1000
;TYPE:Skirt/Brim
;WIDTH:0.42
G1 F1200
G1 X117.338 Y56.969 E.03613
G1 X118.284 Y55.504 E.05469
G1 X119.318 Y54.483 E.04554
G1 X120.368 Y53.775 E.0397
G1 X121.741 Y53.19 E.04682
G1 X123.141 Y52.897 E.04484
G1 X139.912 Y52.854 E.52586
G1 X142.831 Y53.049 E.0917
G1 X145.701 Y53.627 E.09181
G1 X148.47 Y54.579 E.09181
G1 X151.09 Y55.886 E.0918
G1 X153.551 Y57.556 E.09326
G1 X155.738 Y59.511 E.09197
G1 X157.644 Y61.731 E.09174
G1 X159.218 Y64.141 E.09025
G1 X160.112 Y65.907 E.06204
G1 X160.969 Y68.125 E.07458
G1 X161.601 Y70.465 E.076
G1 X161.926 Y72.444 E.06288
G1 X163.184 Y89.516 E.53672
G1 X163.081 Y91.176 E.05214
G1 X162.721 Y92.487 E.04262
G1 X132.662 Y153.031 E2.11943
G1 X132.097 Y153.995 E.03503
G1 X131.294 Y154.963 E.03944
G1 X130.18 Y155.889 E.04541
G1 X129.069 Y156.507 E.03985
G1 X127.654 Y156.971 E.04671
G1 X126.232 Y157.143 E.04489
G1 X109.062 Y157.121 E.53837
G1 X107.169 Y156.951 E.05958
G1 X105.328 Y156.625 E.05863
M73 P0 R34
G1 X102.462 Y155.788 E.0936
G1 X100.59 Y155.001 E.06368
G1 X98.13 Y153.636 E.0882
G1 X96.449 Y152.444 E.06464
G1 X94.335 Y150.563 E.08871
G1 X92.958 Y149.036 E.06445
G1 X91.779 Y147.462 E.06169
G1 X90.346 Y145.044 E.08812
G1 X89.505 Y143.192 E.06377
G1 X88.587 Y140.352 E.09359
G1 X88.21 Y138.523 E.05855
G1 X87.986 Y136.636 E.05958
G1 X86.816 Y120.484 E.50776
G1 X86.919 Y118.824 E.05214
G1 X87.279 Y117.513 E.04262
G1 X116.799 Y58.054 E2.08142
; printing object cage-silver.STL id:1 copy 0
G1 E-.8 F2100
M73 P1 R34
M73 Q1 S35
G1 Z.8 F10800
G1 X111.319 Y121.15
G1 Z.2
G1 E.8 F2100
;TYPE:Perimeter
G1 F1200
G1 X112.078 Y121.237 E.02396
G1 X112.832 Y121.367 E.02396
G1 X113.577 Y121.538 E.02396
G1 X114.311 Y121.75 E.02396
G1 X115.033 Y122.002 E.02396
G1 X115.739 Y122.293 E.02396
G1 X116.429 Y122.622 E.02396
G1 X117.099 Y122.99 E.02396
G1 X117.748 Y123.393 E.02396
G1 X118.374 Y123.832 E.02396
G1 X118.975 Y124.304 E.02396
G1 X119.548 Y124.809 E.02396
G1 X120.093 Y125.345 E.02396
G1 X120.608 Y125.91 E.02396
G1 X121.091 Y126.502 E.02396
G1 X121.54 Y127.12 E.02396
G1 X121.955 Y127.762 E.02396
G1 X122.334 Y128.426 E.02396
G1 X122.676 Y129.11 E.02396
G1 X122.979 Y129.811 E.02396
G1 X123.243 Y130.528 E.02396
G1 X123.468 Y131.259 E.02396
G1 X123.652 Y132.001 E.02396
G1 X123.794 Y132.752 E.02396
G1 X123.895 Y133.509 E.02396
G1 X123.955 Y134.271 E.02396
G1 X123.972 Y135.035 E.02396
G1 X123.947 Y135.799 E.02396
G1 X123.88 Y136.56 E.02396
G1 X123.774 Y137.296 E.02329
G1 X123.621 Y138.066 E.02462
G1 X123.429 Y138.806 E.02398
G1 X123.197 Y139.534 E.02396
G1 X122.926 Y140.249 E.02396
G1 X122.615 Y140.947 E.02396
G1 X122.267 Y141.627 E.02396
G1 X121.881 Y142.287 E.02396
G1 X121.46 Y142.925 E.02396
G1 X121.004 Y143.538 E.02396
G1 X120.515 Y144.126 E.02396
G1 X119.995 Y144.685 E.02396
G1 X119.444 Y145.216 E.02396
G1 X118.865 Y145.715 E.02396
G1 X118.26 Y146.181 E.02396
G1 X117.63 Y146.613 E.02396
G1 X116.976 Y147.01 E.02396
G1 X116.302 Y147.37 E.02396
G1 X115.61 Y147.693 E.02396
G1 X114.9 Y147.977 E.02396
G1 X114.176 Y148.222 E.02396
G1 X113.439 Y148.426 E.02396
G1 X112.693 Y148.589 E.02396
G1 X111.938 Y148.711 E.02396
G1 X111.178 Y148.791 E.02396
G1 X110.415 Y148.829 E.02396
G1 X109.651 Y148.826 E.02396
G1 X108.888 Y148.78 E.02396
G1 X108.129 Y148.692 E.02396
G1 X107.375 Y148.562 E.02396
G1 X106.631 Y148.391 E.02396
G1 X105.896 Y148.179 E.02396
G1 X105.175 Y147.927 E.02396
G1 X104.468 Y147.636 E.02396
G1 X103.779 Y147.307 E.02396
G1 X103.108 Y146.939 E.02396
G1 X102.459 Y146.536 E.02396
G1 X101.833 Y146.097 E.02396
G1 X101.233 Y145.625 E.02396
G1 X100.659 Y145.12 E.02396
G1 X100.114 Y144.584 E.02396
G1 X99.599 Y144.019 E.02396
G1 X99.116 Y143.427 E.02396
G1 X98.667 Y142.809 E.02396
G1 X98.252 Y142.167 E.02396
G1 X97.873 Y141.503 E.02396
G1 X97.532 Y140.819 E.02396
G1 X97.228 Y140.118 E.02396
G1 X96.964 Y139.401 E.02396
G1 X96.739 Y138.67 E.02396
G1 X96.556 Y137.928 E.02396
G1 X96.413 Y137.177 E.02396
G1 X96.312 Y136.42 E.02396
G1 X96.253 Y135.658 E.02396
G1 X96.235 Y134.894 E.02396
G1 X96.26 Y134.13 E.02396
G1 X96.327 Y133.369 E.02396
G1 X96.433 Y132.633 E.02329
G1 X96.586 Y131.863 E.02462
G1 X96.778 Y131.123 E.02398
G1 X97.01 Y130.395 E.02396
G1 X97.281 Y129.68 E.02396
G1 X97.592 Y128.982 E.02396
G1 X97.941 Y128.302 E.02396
G1 X98.326 Y127.642 E.02396
G1 X98.747 Y127.004 E.02396
G1 X99.203 Y126.391 E.02396
G1 X99.692 Y125.803 E.02396
G1 X100.212 Y125.244 E.02396
G1 X100.763 Y124.713 E.02396
G1 X101.342 Y124.214 E.02396
G1 X101.947 Y123.748 E.02396
G1 X102.578 Y123.316 E.02396
G1 X103.231 Y122.919 E.02396
G1 X103.905 Y122.559 E.02396
G1 X104.598 Y122.236 E.02396
G1 X105.307 Y121.952 E.02396
G1 X106.031 Y121.708 E.02396
G1 X106.768 Y121.503 E.02396
G1 X107.514 Y121.34 E.02396
G1 X108.269 Y121.218 E.02396
G1 X109.029 Y121.138 E.02396
G1 X109.771 Y121.101 E.02329
G1 X110.556 Y121.104 E.02462
G1 X111.259 Y121.146 E.0221
G1 X111.286 Y121.525 F10800
;TYPE:External perimeter
G1 F1200
G1 X112.025 Y121.611 E.02331
G1 X112.757 Y121.737 E.02331
G1 X113.482 Y121.903 E.02331
G1 X114.197 Y122.109 E.02331
G1 X114.898 Y122.354 E.02331
G1 X115.586 Y122.637 E.02331
G1 X116.257 Y122.958 E.02331
G1 X116.909 Y123.315 E.02331
G1 X117.54 Y123.708 E.02331
G1 X118.149 Y124.135 E.02331
G1 X118.733 Y124.594 E.02331
G1 X119.291 Y125.085 E.02331
G1 X119.822 Y125.607 E.02331
G1 X120.322 Y126.156 E.02331
G1 X120.792 Y126.732 E.02331
G1 X121.229 Y127.334 E.02331
G1 X121.633 Y127.958 E.02331
G1 X122.001 Y128.604 E.02331
G1 X122.334 Y129.269 E.02331
G1 X122.629 Y129.951 E.02331
G1 X122.886 Y130.649 E.02331
G1 X123.104 Y131.36 E.02331
G1 X123.283 Y132.081 E.02331
G1 X123.422 Y132.812 E.02331
G1 X123.52 Y133.549 E.02331
G1 X123.578 Y134.29 E.02331
G1 X123.595 Y135.033 E.02331
G1 X123.57 Y135.776 E.02331
G1 X123.505 Y136.517 E.02331
G1 X123.402 Y137.232 E.02265
G1 X123.253 Y137.982 E.02397
G1 X123.067 Y138.702 E.02332
G1 X122.841 Y139.41 E.02331
G1 X122.577 Y140.105 E.02331
G1 X122.275 Y140.784 E.02331
G1 X121.936 Y141.446 E.02331
G1 X121.561 Y142.088 E.02331
G1 X121.151 Y142.708 E.02331
G1 X120.708 Y143.305 E.02331
G1 X120.232 Y143.877 E.02331
G1 X119.726 Y144.421 E.02331
G1 X119.19 Y144.937 E.02331
G1 X118.627 Y145.422 E.02331
G1 X118.038 Y145.876 E.02331
G1 X117.425 Y146.296 E.02331
G1 X116.789 Y146.682 E.02331
G1 X116.134 Y147.033 E.02331
G1 X115.46 Y147.347 E.02331
G1 X114.77 Y147.623 E.02331
G1 X114.065 Y147.861 E.02331
G1 X113.349 Y148.06 E.02331
G1 X112.622 Y148.218 E.02331
G1 X111.888 Y148.337 E.02331
G1 X111.149 Y148.415 E.02331
G1 X110.407 Y148.452 E.02331
G1 X109.663 Y148.448 E.02331
G1 X108.921 Y148.404 E.02331
G1 X108.182 Y148.318 E.02331
G1 X107.45 Y148.192 E.02331
G1 X106.725 Y148.026 E.02331
G1 X106.011 Y147.82 E.02331
M73 Q1 S34
G1 X105.309 Y147.575 E.02331
G1 X104.621 Y147.292 E.02331
G1 X103.951 Y146.971 E.02331
G1 X103.299 Y146.614 E.02331
G1 X102.667 Y146.221 E.02331
G1 X102.058 Y145.794 E.02331
G1 X101.474 Y145.335 E.02331
G1 X100.916 Y144.844 E.02331
G1 X100.386 Y144.322 E.02331
G1 X99.885 Y143.773 E.02331
G1 X99.415 Y143.197 E.02331
G1 X98.978 Y142.595 E.02331
G1 X98.574 Y141.971 E.02331
G1 X98.206 Y141.325 E.02331
G1 X97.874 Y140.66 E.02331
G1 X97.578 Y139.978 E.02331
G1 X97.321 Y139.28 E.02331
G1 X97.103 Y138.569 E.02331
G1 X96.924 Y137.848 E.02331
G1 X96.785 Y137.117 E.02331
G1 X96.687 Y136.38 E.02331
G1 X96.629 Y135.639 E.02331
G1 X96.613 Y134.896 E.02331
G1 X96.637 Y134.153 E.02331
G1 X96.702 Y133.412 E.02331
G1 X96.805 Y132.697 E.02265
G1 X96.954 Y131.947 E.02397
G1 X97.14 Y131.227 E.02332
G1 X97.366 Y130.519 E.02331
G1 X97.63 Y129.824 E.02331
G1 X97.932 Y129.145 E.02331
G1 X98.271 Y128.483 E.02331
G1 X98.646 Y127.841 E.02331
G1 X99.056 Y127.221 E.02331
G1 X99.5 Y126.624 E.02331
G1 X99.975 Y126.052 E.02331
G1 X100.481 Y125.508 E.02331
G1 X101.017 Y124.992 E.02331
G1 X101.58 Y124.507 E.02331
G1 X102.169 Y124.053 E.02331
G1 X102.782 Y123.633 E.02331
G1 X103.418 Y123.247 E.02331
G1 X104.073 Y122.896 E.02331
G1 X104.747 Y122.582 E.02331
G1 X105.438 Y122.306 E.02331
G1 X106.142 Y122.068 E.02331
G1 X106.858 Y121.869 E.02331
G1 X107.585 Y121.711 E.02331
G1 X108.319 Y121.592 E.02331
G1 X109.058 Y121.514 E.02331
G1 X109.779 Y121.478 E.02265
G1 X110.544 Y121.481 E.02397
G1 X111.226 Y121.522 E.02144
G1 X111.516 Y121.198 F10800
G1 E-.8 F2100
G1 Z.8 F10800
G1 X125.202 Y145.972
G1 Z.2
G1 E.8 F2100
;TYPE:Perimeter
G1 F1200
G1 X126.528 Y146.093 E.04175
G1 X126.851 Y146.146 E.01026
G1 X127.163 Y146.226 E.01011
G1 X127.48 Y146.337 E.01051
G1 X127.774 Y146.47 E.01014
G1 X128.051 Y146.624 E.00994
G1 X128.295 Y146.789 E.00923
G1 X128.572 Y147.011 E.01115
G1 X128.804 Y147.235 E.01011
G1 X129.017 Y147.48 E.01016
G1 X129.21 Y147.744 E.01026
G1 X129.377 Y148.021 E.01014
G1 X129.519 Y148.31 E.0101
G1 X129.625 Y148.579 E.00906
G1 X129.729 Y148.925 E.01132
G1 X129.792 Y149.24 E.01009
G1 X129.829 Y149.562 E.01015
G1 X129.837 Y149.885 E.01015
G1 X129.818 Y150.209 E.01016
G1 X129.777 Y150.492 E.00897
G1 X129.696 Y150.846 E.0114
G1 X129.595 Y151.152 E.01008
G1 X129.468 Y151.449 E.01015
G1 X129.316 Y151.734 E.01013
G1 X128.938 Y152.263 E.02038
G1 X128.719 Y152.499 E.01008
G1 X128.48 Y152.714 E.01008
G1 X127.947 Y153.084 E.02035
G1 X127.662 Y153.232 E.01008
G1 X127.324 Y153.368 E.01141
G1 X127.051 Y153.453 E.00896
G1 X126.735 Y153.523 E.01016
G1 X126.416 Y153.566 E.01008
G1 X126.054 Y153.58 E.01136
G1 X125.767 Y153.568 E.009
G1 X125.446 Y153.527 E.01015
G1 X125.131 Y153.459 E.01011
G1 X124.788 Y153.35 E.01129
G1 X124.519 Y153.241 E.00909
G1 X124.232 Y153.095 E.01011
G1 X123.93 Y152.903 E.01122
G1 X123.697 Y152.728 E.00915
G1 X123.456 Y152.512 E.01012
G1 X123.214 Y152.252 E.01115
G1 X123.032 Y152.021 E.00923
G1 X122.858 Y151.756 E.00994
G1 X122.701 Y151.466 E.01032
G1 X122.563 Y151.143 E.01103
G1 X122.46 Y150.827 E.01044
G1 X122.392 Y150.539 E.00926
G1 X122.173 Y149.208 E.0423
G1 X120.829 Y150.181 E.05201
G1 X120.202 Y150.604 E.02371
G1 X119.476 Y151.05 E.02674
G1 X118.686 Y151.484 E.02825
G1 X118.024 Y151.812 E.02315
G1 X117.285 Y152.14 E.02536
G1 X116.512 Y152.443 E.02603
G1 X115.737 Y152.708 E.02569
G1 X114.955 Y152.938 E.02556
G1 X113.222 Y153.339 E.05577
G1 X112.907 Y153.433 E.0103
G1 X113.059 Y153.015 E.01393
G1 X113.11 Y152.618 E.01256
G1 X113.077 Y152.226 E.01234
G1 X112.979 Y151.857 E.01195
G1 X112.823 Y151.515 E.01179
G1 X112.617 Y151.204 E.01172
G1 X112.364 Y150.929 E.0117
G1 X112.072 Y150.697 E.0117
G1 X111.747 Y150.514 E.01169
G1 X111.398 Y150.384 E.0117
G1 X111.025 Y150.308 E.01193
G1 X110.597 Y150.301 E.0134
G1 X110.289 Y150.337 E.00973
G1 X109.929 Y150.437 E.0117
G1 X109.59 Y150.592 E.0117
G1 X109.28 Y150.798 E.01169
G1 X109.005 Y151.051 E.0117
G1 X108.773 Y151.343 E.0117
G1 X108.589 Y151.669 E.01172
G1 X108.459 Y152.021 E.01179
G1 X108.388 Y152.395 E.01194
G1 X108.383 Y152.789 E.01234
G1 X108.462 Y153.182 E.01256
G1 X108.646 Y153.589 E.01402
G1 X108.526 Y153.555 E.0039
G1 X106.832 Y153.292 E.05375
G1 X106.029 Y153.13 E.02571
G1 X105.231 Y152.932 E.02577
G1 X104.446 Y152.701 E.02565
G1 X103.67 Y152.434 E.02573
G1 X102.905 Y152.133 E.02576
G1 X102.157 Y151.8 E.02569
G1 X101.424 Y151.434 E.02569
G1 X100.707 Y151.036 E.02569
G1 X100.009 Y150.607 E.02569
G1 X99.331 Y150.148 E.0257
G1 X98.674 Y149.659 E.02566
G1 X98.038 Y149.142 E.02571
G1 X97.425 Y148.597 E.02571
G1 X96.837 Y148.025 E.02571
G1 X96.276 Y147.429 E.02568
G1 X95.74 Y146.809 E.02569
G1 X95.233 Y146.165 E.02569
G1 X94.755 Y145.5 E.0257
G1 X94.306 Y144.814 E.02569
G1 X93.888 Y144.109 E.02569
G1 X93.501 Y143.387 E.02569
G1 X93.146 Y142.646 E.02576
G1 X92.824 Y141.893 E.02569
G1 X92.568 Y141.211 E.02284
G1 X92.281 Y140.345 E.02857
G1 X92.061 Y139.554 E.02575
G1 X91.676 Y137.884 E.05375
G1 X91.633 Y137.767 E.00391
G1 X92.053 Y137.921 E.01402
G1 X92.451 Y137.971 E.01256
G1 X92.843 Y137.938 E.01234
G1 X93.211 Y137.84 E.01194
G1 X93.553 Y137.684 E.01179
G1 X93.864 Y137.478 E.01172
G1 X94.139 Y137.225 E.0117
G1 X94.371 Y136.933 E.0117
G1 X94.554 Y136.608 E.01169
G1 X94.685 Y136.259 E.0117
G1 X94.758 Y135.893 E.01169
G1 X94.774 Y135.52 E.01169
G1 X94.731 Y135.15 E.0117
G1 X94.631 Y134.79 E.0117
G1 X94.476 Y134.451 E.0117
G1 X94.27 Y134.14 E.01169
G1 X94.017 Y133.866 E.0117
G1 X93.725 Y133.634 E.0117
G1 X93.399 Y133.45 E.01172
G1 X93.047 Y133.32 E.01178
G1 X92.665 Y133.247 E.01219
G1 X92.214 Y133.254 E.01414
G1 X91.883 Y133.325 E.01062
G1 X91.481 Y133.505 E.01381
G1 X91.551 Y133.185 E.01028
G1 X91.826 Y131.428 E.05577
G1 X91.998 Y130.631 E.02556
G1 X92.206 Y129.838 E.02569
G1 X92.453 Y129.046 E.02603
G1 X92.727 Y128.284 E.02536
G1 X93.006 Y127.601 E.02315
G1 X93.382 Y126.782 E.02825
G1 X93.772 Y126.029 E.0266
G1 X95.005 Y123.957 E.0756
G1 X93.678 Y123.836 E.04178
G1 X93.389 Y123.789 E.00918
G1 X93.043 Y123.703 E.01119
G1 X92.727 Y123.592 E.01049
G1 X92.439 Y123.463 E.0099
G1 X92.156 Y123.305 E.01017
G1 X91.888 Y123.123 E.01017
G1 X91.66 Y122.938 E.0092
G1 X91.402 Y122.692 E.01117
G1 X91.19 Y122.449 E.01012
G1 X91.018 Y122.214 E.00913
G1 X90.83 Y121.908 E.01124
G1 X90.688 Y121.619 E.01011
G1 X90.583 Y121.35 E.00906
G1 X90.479 Y121.004 E.01132
G1 X90.415 Y120.689 E.01009
G1 X90.382 Y120.403 E.00901
G1 X90.37 Y120.041 E.01136
G1 X90.389 Y119.72 E.01009
G1 X90.431 Y119.437 E.00897
G1 X90.511 Y119.083 E.0114
G1 X90.612 Y118.777 E.01008
G1 X90.724 Y118.516 E.00893
G1 X90.894 Y118.192 E.01146
G1 X91.068 Y117.923 E.01004
G1 X91.268 Y117.668 E.01016
G1 X91.488 Y117.431 E.01016
G1 X91.729 Y117.213 E.01016
G1 X91.986 Y117.018 E.01012
G1 X92.258 Y116.846 E.0101
G1 X92.583 Y116.682 E.01142
G1 X92.847 Y116.573 E.00895
G1 X93.156 Y116.476 E.01016
G1 X93.472 Y116.406 E.01015
G1 X93.793 Y116.363 E.01015
G1 X94.116 Y116.348 E.01015
G1 X94.44 Y116.361 E.01015
G1 X94.761 Y116.402 E.01016
G1 X95.077 Y116.47 E.01013
G1 X95.388 Y116.566 E.01019
G1 X95.684 Y116.686 E.01003
G1 X96.005 Y116.852 E.01132
G1 X96.251 Y117.007 E.00913
G1 X96.511 Y117.201 E.01017
G1 X96.752 Y117.418 E.01016
G1 X96.974 Y117.654 E.01016
G1 X97.175 Y117.909 E.01016
G1 X97.353 Y118.179 E.01016
G1 X97.506 Y118.463 E.01012
G1 X97.636 Y118.764 E.01026
G1 X97.747 Y119.103 E.01119
G1 X97.815 Y119.39 E.00925
G1 X98.035 Y120.721 E.0423
G1 X99.377 Y119.748 E.05198
G1 X100.033 Y119.307 E.02479
G1 X100.732 Y118.878 E.0257
G1 X101.438 Y118.488 E.02529
G1 X102.257 Y118.083 E.02865
G1 X102.932 Y117.785 E.02313
G1 X103.695 Y117.486 E.0257
G1 X104.47 Y117.221 E.02569
G1 X105.244 Y116.993 E.02528
G1 X106.985 Y116.59 E.05605
G1 X107.304 Y116.495 E.01042
G1 X107.148 Y116.912 E.01394
G1 X107.098 Y117.311 E.01262
G1 X107.13 Y117.703 E.01234
G1 X107.229 Y118.072 E.01195
G1 X107.384 Y118.414 E.01179
G1 X107.59 Y118.725 E.01172
G1 X107.843 Y119 E.0117
G1 X108.141 Y119.237 E.01193
G1 X108.519 Y119.437 E.0134
G1 X108.81 Y119.545 E.00973
G1 X109.175 Y119.619 E.01169
G1 X109.548 Y119.635 E.01169
G1 X109.926 Y119.592 E.01193
G1 X110.335 Y119.466 E.0134
G1 X110.617 Y119.337 E.00973
G1 X110.928 Y119.131 E.01169
G1 X111.202 Y118.878 E.0117
G1 X111.434 Y118.586 E.0117
