; generated by PrusaSlicer 2.4.2+win64 on 2022-07-28 at 17:17:56 UTC

; 

; external perimeters extrusion width = 0.45mm
; perimeters extrusion width = 0.45mm
; infill extrusion width = 0.45mm
; solid infill extrusion width = 0.45mm
; top infill extrusion width = 0.40mm
; support material extrusion width = 0.35mm
; first layer extrusion width = 0.42mm

M73 P0 R109
M73 Q0 S109
M201 X1000 Y1000 Z200 E5000 ; sets maximum accelerations, mm/sec^2
M203 X200 Y200 Z12 E120 ; sets maximum feedrates, mm / sec
M204 P1250 R1250 T1250 ; sets acceleration (P, T) and retract acceleration (R), mm/sec^2
M205 X8.00 Y8.00 Z0.40 E4.50 ; sets the jerk limits, mm/sec
M205 S0 T0 ; sets the minimum extruding and travel feed rate, mm/sec
M107
;TYPE:Custom
M862.3 P "MK3S" ; printer model check
M862.1 P0.4 ; nozzle diameter check
M115 U3.10.1 ; tell printer latest fw version
G90 ; use absolute coordinates
M83 ; extruder relative mode
M104 S215 ; set extruder temp
M140 S60 ; set bed temp
M190 S60 ; wait for bed temp
M109 S215 ; wait for extruder temp
G28 W ; home all without mesh bed level
G80 ; mesh bed leveling
G1 Z0.2 F720
G1 Y-3 F1000 ; go outside print area
G92 E0
G1 X60 E9 F1000 ; intro line
G1 X100 E12.5 F1000 ; intro line
G92 E0
M221 S95

; Don't change E values below. Excessive value can damage the printer.

G21 ; set units to millimeters
G90 ; use absolute coordinates
M83 ; use relative distances for extrusion
M900 K0.05 ; Filament gcode LA 1.5
M900 K30 ; Filament gcode LA 1.0
M107
;LAYER_CHANGE
;Z:0.2
;HEIGHT:0.2
;BEFORE_LAYER_CHANGE
G92 E0.0
;0.2


G1 E-.8 F2100
G1 Z.4 F720
;AFTER_LAYER_CHANGE
;0.2
G1 X29.691 Y29.691 F10800
G1 Z.2 F720
G1 E.8 F2100
M204 S800
;TYPE:Skirt/Brim
;WIDTH:0.42
G1 F600
G1 X45.049 Y14.333 E.68099
G1 X46.513 Y13.427 E.05397
G1 X47.704 Y13.234 E.03783
G1 X85.89 Y13.234 E1.1973
G1 X87.565 Y13.628 E.05397
G1 X88.544 Y14.333 E.03783
G1 X115.546 Y41.335 E1.1973
G1 X116.452 Y42.799 E.05397
G1 X116.645 Y43.989 E.03783
G1 X116.645 Y82.176 E1.1973
G1 X116.251 Y83.851 E.05397
M73 P0 R108
G1 X115.546 Y84.83 E.03783
G1 X100.154 Y100.222 E.68252
G1 X98.69 Y101.128 E.05397
G1 X97.499 Y101.322 E.03783
G1 X42.503 Y101.322 E1.72437
G1 X40.91 Y100.968 E.05115
G1 X28.855 Y95.32 E.41741
G1 X27.792 Y94.575 E.04068
G1 X18.047 Y84.83 E.43212
G1 X17.142 Y83.366 E.05397
G1 X16.948 Y82.176 E.03783
G1 X16.948 Y43.989 E1.1973
G1 X17.342 Y42.314 E.05397
M73 Q0 S108
G1 X18.047 Y41.335 E.03783
G1 X29.649 Y29.734 E.51442
M204 S1000
G1 X29.915 Y30 F10800
M204 S800
G1 F600
G1 X45.316 Y14.6 E.68288
G1 X46.714 Y13.759 E.05115
G1 X47.704 Y13.611 E.03138
G1 X85.89 Y13.611 E1.1973
G1 X87.473 Y14.005 E.05115
G1 X88.278 Y14.6 E.03138
G1 X115.279 Y41.601 E1.1973
G1 X116.12 Y43 E.05115
G1 X116.268 Y43.989 E.03138
G1 X116.268 Y82.176 E1.1973
G1 X115.874 Y83.759 E.05115
G1 X115.279 Y84.564 E.03138
G1 X99.887 Y99.956 E.68252
G1 X98.489 Y100.797 E.05115
G1 X97.499 Y100.945 E.03138
G1 X42.503 Y100.945 E1.72437
G1 X41.07 Y100.626 E.04602
G1 X29.015 Y94.979 E.41741
G1 X28.059 Y94.309 E.03659
G1 X18.314 Y84.563 E.43212
G1 X17.473 Y83.165 E.05115
G1 X17.325 Y82.176 E.03138
G1 X17.325 Y43.989 E1.1973
G1 X17.719 Y42.406 E.05115
M73 P1 R108
M73 Q1 S108
G1 X18.314 Y41.601 E.03138
G1 X29.873 Y30.043 E.51254
M204 S1000
; printing object Hypersleep Console Floor.stl id:0 copy 0
;WIPE_START
G1 F8640
G1 X32.2 Y27.715 E-.76
;WIPE_END
G1 E-.04 F2100
G1 Z.6 F720
G1 X21.866 Y44.472 F10800
G1 Z.2 F720
G1 E.8 F2100
M204 S800
;TYPE:Perimeter
G1 F540
G1 X48.186 Y18.152 E1.16706
G1 X85.407 Y18.152 E1.16706
G1 X111.727 Y44.472 E1.16706
G1 X111.727 Y81.693 E1.16706
M73 P1 R107
G1 X97.017 Y96.404 E.65228
G1 X43.667 Y96.404 E1.67275
G1 X43.667 Y91.311 E.15968
M73 Q1 S107
G1 X43.465 Y89.776 E.04855
G1 X42.843 Y88.274 E.05096
G1 X41.853 Y86.985 E.05096
G1 X40.564 Y85.996 E.05096
G1 X39.062 Y85.374 E.05096
G1 X37.527 Y85.171 E.04855
G1 X36.258 Y85.171 E.03979
G1 X34.723 Y85.374 E.04855
G1 X33.222 Y85.996 E.05096
G1 X31.932 Y86.985 E.05096
G1 X30.943 Y88.274 E.05096
G1 X30.321 Y89.776 E.05096
G1 X30.278 Y90.105 E.0104
G1 X21.866 Y81.693 E.37298
G1 X21.866 Y44.532 E1.16518
M204 S1000
G1 X21.489 Y44.315 F10800
M204 S800
G1 F540
G1 X48.03 Y17.775 E1.17685
G1 X85.564 Y17.775 E1.17685
G1 X112.104 Y44.315 E1.17685
G1 X112.104 Y81.85 E1.17685
G1 X97.173 Y96.781 E.66208
G1 X43.29 Y96.781 E1.68947
G1 X43.29 Y91.336 E.17073
G1 X43.097 Y89.874 E.04621
G1 X42.513 Y88.465 E.04785
G1 X41.585 Y87.254 E.04785
G1 X40.374 Y86.325 E.04785
G1 X38.964 Y85.741 E.04785
G1 X37.503 Y85.549 E.04621
G1 X36.283 Y85.549 E.03824
G1 X34.822 Y85.741 E.04621
G1 X33.412 Y86.325 E.04785
G1 X32.201 Y87.254 E.04785
G1 X31.272 Y88.465 E.04785
M73 P2 R107
G1 X30.688 Y89.874 E.04785
M73 Q2 S107
G1 X30.552 Y90.912 E.03282
G1 X21.489 Y81.85 E.40186
G1 X21.489 Y44.375 E1.17497
M204 S1000
G1 X21.112 Y44.159 F10800
M204 S800
;TYPE:External perimeter
G1 F300
G1 X47.873 Y17.398 E1.18665
G1 X85.72 Y17.398 E1.18665
M73 P2 R106
G1 X112.481 Y44.159 E1.18665
G1 X112.481 Y82.006 E1.18665
M73 Q2 S106
G1 X97.329 Y97.158 E.67187
G1 X42.913 Y97.158 E1.70619
G1 X42.913 Y91.36 E.18178
G1 X42.73 Y89.973 E.04388
G1 X42.184 Y88.655 E.04473
G1 X41.316 Y87.523 E.04473
G1 X40.184 Y86.654 E.04473
G1 X38.866 Y86.108 E.04473
G1 X37.478 Y85.926 E.04388
G1 X36.308 Y85.926 E.03669
G1 X34.92 Y86.108 E.04388
G1 X33.602 Y86.654 E.04473
G1 X32.47 Y87.523 E.04473
G1 X31.602 Y88.655 E.04473
G1 X31.056 Y89.973 E.04473
G1 X30.885 Y91.272 E.04107
G1 X30.789 Y91.442 E.00613
G1 X30.731 Y91.493 E.00241
G1 X30.626 Y91.52 E.00341
G1 X21.112 Y82.006 E.42187
G1 X21.112 Y44.219 E1.18477
M204 S1000
G1 X21.511 Y44.133 F10800
;WIPE_START
M73 P3 R106
M73 Q3 S106
G1 F8640
G1 X23.437 Y41.889 E-.76
;WIPE_END
G1 E-.04 F2100
G1 Z.6 F720
G1 X111.614 Y44.759 F10800
G1 Z.2 F720
G1 E.8 F2100
M204 S800
;TYPE:Solid infill
;WIDTH:0.421285
G1 F960
G1 X85.289 Y18.435 E1.17126
G1 X84.754 Y18.435 E.01683
M73 P3 R105
G1 X111.444 Y45.125 E1.18752
G1 X111.444 Y45.66 E.01683
G1 X84.219 Y18.435 E1.21133
G1 X83.684 Y18.435 E.01683
G1 X111.444 Y46.195 E1.23513
G1 X111.444 Y46.73 E.01683
G1 X83.149 Y18.435 E1.25894
G1 X82.614 Y18.435 E.01683
G1 X111.444 Y47.265 E1.28275
G1 X111.444 Y47.8 E.01683
G1 X82.079 Y18.435 E1.30656
G1 X81.544 Y18.435 E.01683
M73 Q3 S105
G1 X111.444 Y48.335 E1.33036
G1 X111.444 Y48.87 E.01683
G1 X81.009 Y18.435 E1.35417
G1 X80.474 Y18.435 E.01683
G1 X111.444 Y49.406 E1.37798
G1 X111.444 Y49.941 E.01683
G1 X79.938 Y18.435 E1.40179
G1 X79.403 Y18.435 E.01683
G1 X111.444 Y50.476 E1.42559
G1 X111.444 Y51.011 E.01683
G1 X78.868 Y18.435 E1.4494
G1 X78.333 Y18.435 E.01683
G1 X111.444 Y51.546 E1.47321
G1 X111.444 Y52.081 E.01683
G1 X77.798 Y18.435 E1.49702
G1 X77.263 Y18.435 E.01683
G1 X111.444 Y52.616 E1.52082
G1 X111.444 Y53.151 E.01683
G1 X76.728 Y18.435 E1.54463
G1 X76.193 Y18.435 E.01683
G1 X111.444 Y53.686 E1.56844
G1 X111.444 Y54.221 E.01683
G1 X75.658 Y18.435 E1.59225
G1 X75.123 Y18.435 E.01683
G1 X111.444 Y54.756 E1.61606
G1 X111.444 Y55.292 E.01683
G1 X74.588 Y18.435 E1.63986
G1 X74.052 Y18.435 E.01683
G1 X111.444 Y55.827 E1.66367
G1 X111.444 Y56.362 E.01683
M73 P3 R104
G1 X73.517 Y18.435 E1.68748
G1 X72.982 Y18.435 E.01683
M73 P4 R104
M73 Q4 S105
G1 X111.444 Y56.897 E1.71129
G1 X111.444 Y57.432 E.01683
G1 X72.447 Y18.435 E1.73509
G1 X71.912 Y18.435 E.01683
G1 X111.444 Y57.967 E1.7589
G1 X111.444 Y58.502 E.01683
M73 Q4 S104
G1 X71.377 Y18.435 E1.78271
G1 X70.842 Y18.435 E.01683
G1 X111.444 Y59.037 E1.80652
G1 X111.444 Y59.572 E.01683
G1 X70.307 Y18.435 E1.83032
G1 X69.772 Y18.435 E.01683
G1 X111.444 Y60.107 E1.85413
G1 X111.444 Y60.642 E.01683
G1 X69.237 Y18.435 E1.87794
G1 X68.702 Y18.435 E.01683
G1 X111.444 Y61.178 E1.90175
G1 X111.444 Y61.713 E.01683
G1 X68.166 Y18.435 E1.92555
G1 X67.631 Y18.435 E.01683
G1 X111.444 Y62.248 E1.94936
G1 X111.444 Y62.783 E.01683
G1 X67.096 Y18.435 E1.97317
G1 X66.561 Y18.435 E.01683
G1 X111.444 Y63.318 E1.99698
G1 X111.444 Y63.853 E.01683
G1 X66.026 Y18.435 E2.02078
G1 X65.491 Y18.435 E.01683
G1 X111.444 Y64.388 E2.04459
G1 X111.444 Y64.923 E.01683
M73 P4 R103
G1 X64.956 Y18.435 E2.0684
G1 X64.421 Y18.435 E.01683
G1 X111.444 Y65.458 E2.09221
G1 X111.444 Y65.993 E.01683
M73 P5 R103
M73 Q5 S104
G1 X63.886 Y18.435 E2.11601
G1 X63.351 Y18.435 E.01683
G1 X111.444 Y66.528 E2.13982
G1 X111.444 Y67.063 E.01683
M73 Q5 S103
G1 X62.816 Y18.435 E2.16363
G1 X62.281 Y18.435 E.01683
G1 X111.444 Y67.599 E2.18744
G1 X111.444 Y68.134 E.01683
G1 X61.745 Y18.435 E2.21125
G1 X61.21 Y18.435 E.01683
G1 X111.444 Y68.669 E2.23505
G1 X111.444 Y69.204 E.01683
G1 X60.675 Y18.435 E2.25886
G1 X60.14 Y18.435 E.01683
G1 X111.444 Y69.739 E2.28267
G1 X111.444 Y70.274 E.01683
G1 X59.605 Y18.435 E2.30648
G1 X59.07 Y18.435 E.01683
G1 X111.444 Y70.809 E2.33028
G1 X111.444 Y71.344 E.01683
G1 X58.535 Y18.435 E2.35409
G1 X58 Y18.435 E.01683
G1 X111.444 Y71.879 E2.3779
G1 X111.444 Y72.414 E.01683
M73 P5 R102
G1 X57.465 Y18.435 E2.40171
G1 X56.93 Y18.435 E.01683
G1 X111.444 Y72.949 E2.42551
G1 X111.444 Y73.485 E.01683
G1 X56.395 Y18.435 E2.44932
G1 X55.859 Y18.435 E.01683
M73 P6 R102
M73 Q6 S102
G1 X111.444 Y74.02 E2.47313
G1 X111.444 Y74.555 E.01683
G1 X55.324 Y18.435 E2.49694
G1 X54.789 Y18.435 E.01683
G1 X111.444 Y75.09 E2.52074
G1 X111.444 Y75.625 E.01683
G1 X54.254 Y18.435 E2.54455
G1 X53.719 Y18.435 E.01683
G1 X111.444 Y76.16 E2.56836
G1 X111.444 Y76.695 E.01683
G1 X53.184 Y18.435 E2.59217
G1 X52.649 Y18.435 E.01683
G1 X111.444 Y77.23 E2.61597
G1 X111.444 Y77.765 E.01683
G1 X52.114 Y18.435 E2.63978
G1 X51.579 Y18.435 E.01683
G1 X111.444 Y78.3 E2.66359
G1 X111.444 Y78.835 E.01683
M73 P6 R101
G1 X51.044 Y18.435 E2.6874
G1 X50.509 Y18.435 E.01683
G1 X111.444 Y79.371 E2.71121
G1 X111.444 Y79.906 E.01683
M73 Q6 S101
G1 X49.973 Y18.435 E2.73501
G1 X49.438 Y18.435 E.01683
M73 P7 R101
M73 Q7 S101
G1 X111.444 Y80.441 E2.75882
G1 X111.444 Y80.976 E.01683
G1 X48.903 Y18.435 E2.78263
G1 X48.368 Y18.435 E.01683
G1 X111.444 Y81.511 E2.80644
G1 X111.444 Y81.576 E.00206
G1 X111.209 Y81.811 E.01045
G1 X48.068 Y18.67 E2.80934
G1 X47.8 Y18.937 E.0119
G1 X110.942 Y82.079 E2.80934
G1 X110.674 Y82.346 E.0119
G1 X47.533 Y19.205 E2.80934
G1 X47.265 Y19.472 E.0119
G1 X110.407 Y82.614 E2.80934
G1 X110.139 Y82.881 E.0119
G1 X46.998 Y19.74 E2.80934
G1 X46.73 Y20.007 E.0119
M73 P7 R100
G1 X109.872 Y83.149 E2.80934
G1 X109.604 Y83.416 E.0119
G1 X46.463 Y20.275 E2.80934
G1 X46.195 Y20.542 E.0119
M73 Q7 S100
G1 X109.337 Y83.684 E2.80934
G1 X109.069 Y83.951 E.0119
G1 X45.928 Y20.81 E2.80934
G1 X45.66 Y21.078 E.0119
M73 P8 R100
M73 Q8 S100
G1 X108.802 Y84.219 E2.80934
G1 X108.534 Y84.487 E.0119
G1 X45.393 Y21.345 E2.80934
G1 X45.125 Y21.613 E.0119
G1 X108.266 Y84.754 E2.80934
G1 X107.999 Y85.022 E.0119
G1 X44.857 Y21.88 E2.80934
G1 X44.59 Y22.148 E.0119
G1 X107.731 Y85.289 E2.80934
G1 X107.464 Y85.557 E.0119
G1 X44.322 Y22.415 E2.80934
G1 X44.055 Y22.683 E.0119
M73 P8 R99
G1 X107.196 Y85.824 E2.80934
G1 X106.929 Y86.092 E.0119
G1 X43.787 Y22.95 E2.80934
G1 X43.52 Y23.218 E.0119
G1 X106.661 Y86.359 E2.80934
G1 X106.394 Y86.627 E.0119
M73 Q8 S99
G1 X43.252 Y23.485 E2.80934
G1 X42.985 Y23.753 E.0119
G1 X106.126 Y86.894 E2.80934
G1 X105.859 Y87.162 E.0119
G1 X42.717 Y24.021 E2.80934
G1 X42.45 Y24.288 E.0119
M73 P9 R99
M73 Q9 S99
G1 X105.591 Y87.43 E2.80934
G1 X105.323 Y87.697 E.0119
G1 X42.182 Y24.556 E2.80934
G1 X41.914 Y24.823 E.0119
G1 X105.056 Y87.965 E2.80934
G1 X104.788 Y88.232 E.0119
G1 X41.647 Y25.091 E2.80934
G1 X41.379 Y25.358 E.0119
G1 X104.521 Y88.5 E2.80934
G1 X104.253 Y88.767 E.0119
M73 P9 R98
G1 X41.112 Y25.626 E2.80934
G1 X40.844 Y25.893 E.0119
G1 X103.986 Y89.035 E2.80934
G1 X103.718 Y89.302 E.0119
G1 X40.577 Y26.161 E2.80934
G1 X40.309 Y26.428 E.0119
M73 Q9 S98
G1 X103.451 Y89.57 E2.80934
G1 X103.183 Y89.837 E.0119
G1 X40.042 Y26.696 E2.80934
G1 X39.774 Y26.964 E.0119
G1 X102.916 Y90.105 E2.80934
G1 X102.648 Y90.373 E.0119
M73 P10 R98
M73 Q10 S98
G1 X39.507 Y27.231 E2.80934
G1 X39.239 Y27.499 E.0119
G1 X102.38 Y90.64 E2.80934
G1 X102.113 Y90.908 E.0119
G1 X38.971 Y27.766 E2.80934
G1 X38.704 Y28.034 E.0119
G1 X101.845 Y91.175 E2.80934
G1 X101.578 Y91.443 E.0119
G1 X38.436 Y28.301 E2.80934
G1 X38.169 Y28.569 E.0119
M73 P10 R97
G1 X101.31 Y91.71 E2.80934
G1 X101.043 Y91.978 E.0119
G1 X37.901 Y28.836 E2.80934
G1 X37.634 Y29.104 E.0119
M73 Q10 S97
G1 X100.775 Y92.245 E2.80934
G1 X100.508 Y92.513 E.0119
G1 X37.366 Y29.371 E2.80934
G1 X37.099 Y29.639 E.0119
G1 X100.24 Y92.78 E2.80934
G1 X99.973 Y93.048 E.0119
G1 X36.831 Y29.907 E2.80934
G1 X36.564 Y30.174 E.0119
G1 X99.705 Y93.316 E2.80934
G1 X99.437 Y93.583 E.0119
M73 P11 R97
M73 Q11 S97
G1 X36.296 Y30.442 E2.80934
G1 X36.029 Y30.709 E.0119
G1 X99.17 Y93.851 E2.80934
G1 X98.902 Y94.118 E.0119
G1 X35.761 Y30.977 E2.80934
G1 X35.493 Y31.244 E.0119
M73 P11 R96
G1 X98.635 Y94.386 E2.80934
G1 X98.367 Y94.653 E.0119
G1 X35.226 Y31.512 E2.80934
G1 X34.958 Y31.779 E.0119
G1 X98.1 Y94.921 E2.80934
G1 X97.832 Y95.188 E.0119
M73 Q11 S96
G1 X34.691 Y32.047 E2.80934
G1 X34.423 Y32.314 E.0119
G1 X97.565 Y95.456 E2.80934
G1 X97.297 Y95.723 E.0119
G1 X34.156 Y32.582 E2.80934
G1 X33.888 Y32.85 E.0119
G1 X97.03 Y95.991 E2.80934
G1 X96.9 Y96.121 E.00578
G1 X96.624 Y96.121 E.00866
G1 X33.621 Y33.117 E2.80322
G1 X33.353 Y33.385 E.0119
G1 X96.089 Y96.121 E2.79132
G1 X95.554 Y96.121 E.01683
M73 P12 R96
M73 Q12 S96
G1 X33.086 Y33.652 E2.77941
G1 X32.818 Y33.92 E.0119
G1 X95.019 Y96.121 E2.76751
G1 X94.484 Y96.121 E.01683
M73 P12 R95
G1 X32.55 Y34.187 E2.75561
G1 X32.283 Y34.455 E.0119
G1 X93.949 Y96.121 E2.7437
G1 X93.414 Y96.121 E.01683
G1 X32.015 Y34.722 E2.7318
G1 X31.748 Y34.99 E.0119
M73 Q12 S95
G1 X92.879 Y96.121 E2.71989
G1 X92.344 Y96.121 E.01683
G1 X31.48 Y35.257 E2.70799
G1 X31.213 Y35.525 E.0119
G1 X91.809 Y96.121 E2.69609
G1 X91.274 Y96.121 E.01683
G1 X30.945 Y35.792 E2.68418
G1 X30.678 Y36.06 E.0119
G1 X90.739 Y96.121 E2.67228
G1 X90.203 Y96.121 E.01683
G1 X30.41 Y36.328 E2.66038
G1 X30.143 Y36.595 E.0119
G1 X89.668 Y96.121 E2.64847
G1 X89.133 Y96.121 E.01683
M73 P13 R95
M73 Q13 S95
G1 X29.875 Y36.863 E2.63657
G1 X29.607 Y37.13 E.0119
M73 P13 R94
G1 X88.598 Y96.121 E2.62466
G1 X88.063 Y96.121 E.01683
G1 X29.34 Y37.398 E2.61276
G1 X29.072 Y37.665 E.0119
G1 X87.528 Y96.121 E2.60086
G1 X86.993 Y96.121 E.01683
M73 Q13 S94
G1 X28.805 Y37.933 E2.58895
G1 X28.537 Y38.2 E.0119
G1 X86.458 Y96.121 E2.57705
G1 X85.923 Y96.121 E.01683
G1 X28.27 Y38.468 E2.56515
G1 X28.002 Y38.735 E.0119
G1 X85.388 Y96.121 E2.55324
G1 X84.853 Y96.121 E.01683
G1 X27.735 Y39.003 E2.54134
G1 X27.467 Y39.271 E.0119
G1 X84.317 Y96.121 E2.52943
G1 X83.782 Y96.121 E.01683
G1 X27.2 Y39.538 E2.51753
G1 X26.932 Y39.806 E.0119
G1 X83.247 Y96.121 E2.50563
G1 X82.712 Y96.121 E.01683
G1 X26.664 Y40.073 E2.49372
M73 P14 R94
G1 X26.397 Y40.341 E.0119
M73 P14 R93
M73 Q14 S94
G1 X82.177 Y96.121 E2.48182
G1 X81.642 Y96.121 E.01683
G1 X26.129 Y40.608 E2.46991
G1 X25.862 Y40.876 E.0119
G1 X81.107 Y96.121 E2.45801
G1 X80.572 Y96.121 E.01683
M73 Q14 S93
G1 X25.594 Y41.143 E2.44611
G1 X25.327 Y41.411 E.0119
G1 X80.037 Y96.121 E2.4342
G1 X79.502 Y96.121 E.01683
G1 X25.059 Y41.678 E2.4223
G1 X24.792 Y41.946 E.0119
G1 X78.967 Y96.121 E2.4104
G1 X78.431 Y96.121 E.01683
G1 X24.524 Y42.214 E2.39849
G1 X24.257 Y42.481 E.0119
G1 X77.896 Y96.121 E2.38659
G1 X77.361 Y96.121 E.01683
G1 X23.989 Y42.749 E2.37468
G1 X23.721 Y43.016 E.0119
G1 X76.826 Y96.121 E2.36278
G1 X76.291 Y96.121 E.01683
G1 X23.454 Y43.284 E2.35088
G1 X23.186 Y43.551 E.0119
M73 P14 R92
G1 X75.756 Y96.121 E2.33897
G1 X75.221 Y96.121 E.01683
M73 P15 R92
M73 Q15 S93
G1 X22.919 Y43.819 E2.32707
G1 X22.651 Y44.086 E.0119
G1 X74.686 Y96.121 E2.31517
G1 X74.151 Y96.121 E.01683
M73 Q15 S92
G1 X22.384 Y44.354 E2.30326
G1 X22.149 Y44.589 E.01045
G1 X22.149 Y44.654 E.00206
G1 X73.616 Y96.121 E2.2899
G1 X73.081 Y96.121 E.01683
G1 X22.149 Y45.189 E2.2661
G1 X22.149 Y45.724 E.01683
G1 X72.545 Y96.121 E2.24229
G1 X72.01 Y96.121 E.01683
G1 X22.149 Y46.259 E2.21848
G1 X22.149 Y46.794 E.01683
G1 X71.475 Y96.121 E2.19467
G1 X70.94 Y96.121 E.01683
G1 X22.149 Y47.33 E2.17087
G1 X22.149 Y47.865 E.01683
G1 X70.405 Y96.121 E2.14706
