; generated by PrusaSlicer 2.4.2+win64 on 2022-07-28 at 00:16:49 UTC

; 

; external perimeters extrusion width = 0.45mm
; perimeters extrusion width = 0.45mm
; infill extrusion width = 0.45mm
; solid infill extrusion width = 0.45mm
; top infill extrusion width = 0.40mm
; support material extrusion width = 0.35mm
; first layer extrusion width = 0.42mm

M73 P0 R3
M73 Q0 S3
M201 X1000 Y1000 Z200 E5000 ; sets maximum accelerations, mm/sec^2
M203 X200 Y200 Z12 E120 ; sets maximum feedrates, mm / sec
M204 P1250 R1250 T1250 ; sets acceleration (P, T) and retract acceleration (R), mm/sec^2
M205 X8.00 Y8.00 Z0.40 E4.50 ; sets the jerk limits, mm/sec
M205 S0 T0 ; sets the minimum extruding and travel feed rate, mm/sec
M107
;TYPE:Custom
M862.3 P "MK3S" ; printer model check
M862.1 P0.4 ; nozzle diameter check
M115 U3.10.1 ; tell printer latest fw version
G90 ; use absolute coordinates
M83 ; extruder relative mode
M104 S215 ; set extruder temp
M140 S60 ; set bed temp
M190 S60 ; wait for bed temp
M109 S215 ; wait for extruder temp
G28 W ; home all without mesh bed level
G80 ; mesh bed leveling
G1 Z0.2 F720
G1 Y-3 F1000 ; go outside print area
G92 E0
G1 X60 E9 F1000 ; intro line
G1 X100 E12.5 F1000 ; intro line
G92 E0
M221 S95

; Don't change E values below. Excessive value can damage the printer.

G21 ; set units to millimeters
G90 ; use absolute coordinates
M83 ; use relative distances for extrusion
M900 K0.05 ; Filament gcode LA 1.5
M900 K30 ; Filament gcode LA 1.0
M107
;LAYER_CHANGE
;Z:0.2
;HEIGHT:0.2
;BEFORE_LAYER_CHANGE
G92 E0.0
;0.2


M73 P2 R2
M73 Q2 S2
G1 E-.8 F2100
M73 P3 R2
M73 Q3 S2
G1 Z.4 F720
;AFTER_LAYER_CHANGE
;0.2
G1 X116.493 Y97.689 F10800
G1 Z.2 F720
M73 Q4 S2
G1 E.8 F2100
M204 S800
;TYPE:Skirt/Brim
;WIDTH:0.42
G1 F600
G1 X117.282 Y96.864 E.0358
G1 X118.099 Y96.158 E.03386
M73 P4 R2
G1 X118.996 Y95.529 E.03434
G1 X119.944 Y94.988 E.03423
G1 X120.959 Y94.539 E.03481
G1 X122.003 Y94.191 E.03449
G1 X123.103 Y93.947 E.03533
G1 X124.16 Y93.815 E.03341
G1 X125.194 Y93.788 E.03243
G1 X126.353 Y93.865 E.03639
G1 X127.452 Y94.057 E.035
G1 X128.505 Y94.345 E.03421
G1 X129.54 Y94.746 E.03481
G1 X130.524 Y95.238 E.03449
G1 X131.453 Y95.828 E.03451
G1 X132.322 Y96.503 E.03451
M73 Q5 S2
G1 X133.136 Y97.282 E.03533
G1 X133.842 Y98.099 E.03386
G1 X134.486 Y99.018 E.03516
M73 P5 R2
G1 X135.012 Y99.944 E.03341
G1 X135.47 Y100.983 E.03561
G1 X135.806 Y101.994 E.03341
G1 X136.053 Y103.103 E.0356
G1 X136.185 Y104.16 E.03341
G1 X136.211 Y105.296 E.03561
G1 X136.134 Y106.359 E.03341
G1 X135.937 Y107.477 E.03561
G1 X135.651 Y108.518 E.03386
G1 X135.244 Y109.563 E.03516
G1 X134.762 Y110.524 E.03369
G1 X134.171 Y111.453 E.03453
G1 X133.493 Y112.326 E.03466
M73 Q6 S2
G1 X132.736 Y113.118 E.03436
G1 X131.905 Y113.839 E.03449
G1 X130.982 Y114.486 E.03533
M73 P6 R2
G1 X130.048 Y115.016 E.03369
G1 X129.017 Y115.47 E.03534
G1 X128.006 Y115.806 E.03341
G1 X126.897 Y116.053 E.03561
G1 X125.846 Y116.185 E.03322
G1 X124.704 Y116.211 E.0358
G1 X123.627 Y116.132 E.03386
G1 X122.523 Y115.937 E.03516
G1 X121.501 Y115.657 E.03322
G1 X120.46 Y115.254 E.035
G1 X119.476 Y114.762 E.03449
G1 X118.526 Y114.157 E.03533
G1 X117.678 Y113.497 E.03369
G1 X116.882 Y112.737 E.03451
M73 Q7 S2
G1 X116.161 Y111.905 E.03451
G1 X115.529 Y111.004 E.03451
G1 X114.981 Y110.043 E.03468
M73 P7 R2
G1 X114.539 Y109.041 E.03434
G1 X114.194 Y108.006 E.03423
G1 X113.947 Y106.897 E.03561
G1 X113.815 Y105.846 E.03322
G1 X113.789 Y104.704 E.0358
G1 X113.867 Y103.633 E.03369
G1 X114.057 Y102.549 E.03451
G1 X114.343 Y101.501 E.03404
G1 X114.756 Y100.437 E.0358
G1 X115.233 Y99.484 E.03341
G1 X115.828 Y98.547 E.03479
G1 X116.457 Y97.737 E.03216
M204 S1000
G1 X116.737 Y97.994 F10800
M204 S800
M73 Q8 S2
G1 F600
G1 X117.36 Y97.314 E.02892
G1 X118.17 Y96.583 E.03422
G1 X119.007 Y95.971 E.03248
G1 X119.949 Y95.409 E.0344
M73 P8 R2
G1 X120.883 Y94.976 E.0323
G1 X121.898 Y94.614 E.03378
G1 X122.918 Y94.365 E.03292
G1 X123.998 Y94.207 E.03422
G1 X125.033 Y94.163 E.03248
G1 X126.109 Y94.218 E.03378
G1 X127.146 Y94.378 E.03291
G1 X128.21 Y94.647 E.0344
G1 X129.177 Y95.001 E.0323
G1 X130.151 Y95.463 E.03378
G1 X131.048 Y96.008 E.03291
G1 X131.912 Y96.651 E.03378
G1 X132.686 Y97.36 E.03291
G1 X133.421 Y98.175 E.0344
M73 Q9 S2
G1 X134.029 Y99.007 E.0323
G1 X134.588 Y99.944 E.03422
G1 X135.024 Y100.883 E.03248
M73 P9 R2
G1 X135.392 Y101.917 E.0344
G1 X135.635 Y102.918 E.0323
G1 X135.794 Y104.003 E.0344
G1 X135.837 Y105.033 E.0323
G1 X135.781 Y106.128 E.0344
G1 X135.622 Y107.146 E.0323
G1 X135.353 Y108.21 E.0344
G1 X134.999 Y109.177 E.0323
G1 X134.537 Y110.151 E.03378
G1 X133.992 Y111.048 E.03291
G1 X133.337 Y111.928 E.0344
G1 X132.64 Y112.686 E.0323
G1 X131.835 Y113.412 E.03398
G1 X130.993 Y114.029 E.03272
M73 Q10 S2
G1 X130.063 Y114.584 E.03398
G1 X129.117 Y115.024 E.03271
G1 X128.089 Y115.39 E.03422
M73 P10 R2
G1 X127.082 Y115.635 E.03248
G1 X126.01 Y115.792 E.03399
G1 X124.967 Y115.837 E.03271
G1 X123.877 Y115.781 E.03422
G1 X122.854 Y115.622 E.03248
G1 X121.803 Y115.357 E.03398
G1 X120.823 Y114.999 E.03272
G1 X119.844 Y114.534 E.03398
G1 X118.952 Y113.992 E.03272
G1 X118.088 Y113.349 E.03378
G1 X117.314 Y112.64 E.03291
G1 X116.588 Y111.835 E.03398
G1 X115.971 Y110.993 E.03271
G1 X115.412 Y110.056 E.03422
M73 Q11 S2
G1 X114.976 Y109.117 E.03248
G1 X114.61 Y108.089 E.03422
G1 X114.365 Y107.082 E.03248
M73 P11 R2
G1 X114.208 Y106.01 E.03398
G1 X114.163 Y104.967 E.03271
G1 X114.218 Y103.891 E.03378
G1 X114.378 Y102.854 E.03291
G1 X114.643 Y101.803 E.03398
G1 X115.001 Y100.823 E.03271
G1 X115.469 Y99.837 E.03422
G1 X116.008 Y98.952 E.03248
G1 X116.696 Y98.038 E.03588
M204 S1000
; printing object Diff.stl id:0 copy 0
;WIPE_START
G1 F8640
G1 X117.36 Y97.314 E-.22685
G1 X118.17 Y96.583 E-.25199
G1 X119.007 Y95.971 E-.23921
G1 X119.163 Y95.878 E-.04195
;WIPE_END
G1 E-.04 F2100
G1 Z.6 F720
G1 X124.814 Y104.824 F10800
G1 Z.2 F720
G1 E.8 F2100
M204 S800
;TYPE:Perimeter
M73 Q12 S2
G1 F300
G1 X124.895 Y104.767 E.00313
G1 X124.99 Y104.745 E.00306
G1 X125.091 Y104.761 E.0032
G1 X125.176 Y104.814 E.00313
G1 X125.233 Y104.895 E.00313
G1 X125.256 Y104.993 E.00313
G1 X125.216 Y105.137 E.00471
G1 X125.148 Y105.208 E.00307
G1 X125.057 Y105.249 E.00313
G1 X124.957 Y105.252 E.00313
G1 X124.864 Y105.217 E.00313
G1 X124.792 Y105.148 E.00313
G1 X124.751 Y105.057 E.00313
M73 P12 R2
G1 X124.748 Y104.957 E.00313
G1 X124.779 Y104.873 E.00282
M204 S1000
G1 X124.528 Y104.577 F10800
M204 S800
G1 F300
G1 X124.726 Y104.429 E.00775
G1 X124.968 Y104.367 E.00782
G1 X125.21 Y104.403 E.00768
G1 X125.423 Y104.528 E.00775
G1 X125.571 Y104.726 E.00775
G1 X125.632 Y104.966 E.00775
G1 X125.597 Y105.21 E.00774
G1 X125.472 Y105.423 E.00775
G1 X125.274 Y105.571 E.00775
G1 X125.034 Y105.632 E.00775
G1 X124.79 Y105.597 E.00775
G1 X124.577 Y105.472 E.00775
G1 X124.429 Y105.274 E.00775
G1 X124.368 Y105.034 E.00775
G1 X124.403 Y104.79 E.00775
G1 X124.492 Y104.625 E.00588
M204 S1000
G1 X124.243 Y104.33 F10800
M204 S800
G1 F300
G1 X124.388 Y104.195 E.00621
G1 X124.557 Y104.091 E.00621
G1 X124.743 Y104.022 E.00621
G1 X124.941 Y103.991 E.00628
G1 X125.141 Y103.999 E.00628
G1 X125.329 Y104.044 E.00608
G1 X125.509 Y104.127 E.00621
G1 X125.67 Y104.243 E.00621
G1 X125.805 Y104.388 E.00621
G1 X125.909 Y104.557 E.00621
G1 X125.978 Y104.743 E.00621
G1 X126.009 Y104.939 E.00622
G1 X126.002 Y105.136 E.00621
G1 X125.956 Y105.329 E.00621
G1 X125.873 Y105.509 E.00621
G1 X125.757 Y105.67 E.00621
M73 Q13 S2
G1 X125.612 Y105.805 E.00621
G1 X125.443 Y105.909 E.00621
G1 X125.257 Y105.978 E.00621
G1 X125.062 Y106.009 E.00621
G1 X124.864 Y106.002 E.00621
G1 X124.671 Y105.956 E.00621
G1 X124.491 Y105.873 E.00621
G1 X124.33 Y105.757 E.00621
M73 P13 R2
G1 X124.195 Y105.612 E.00621
G1 X124.091 Y105.443 E.00621
G1 X124.022 Y105.257 E.00621
G1 X123.991 Y105.062 E.00621
G1 X123.998 Y104.863 E.00621
G1 X124.044 Y104.671 E.00621
G1 X124.127 Y104.491 E.00621
G1 X124.206 Y104.377 E.00433
M204 S1000
G1 X123.958 Y104.083 F10800
M204 S800
G1 F300
G1 X124.157 Y103.897 E.00854
G1 X124.388 Y103.754 E.00853
G1 X124.643 Y103.658 E.00853
G1 X124.913 Y103.614 E.0086
G1 X125.187 Y103.624 E.0086
G1 X125.448 Y103.686 E.00841
G1 X125.696 Y103.799 E.00853
G1 X125.917 Y103.958 E.00854
G1 X126.103 Y104.157 E.00853
G1 X126.246 Y104.388 E.00853
G1 X126.342 Y104.643 E.00853
G1 X126.386 Y104.911 E.00854
G1 X126.376 Y105.183 E.00853
G1 X126.314 Y105.448 E.00853
G1 X126.201 Y105.696 E.00853
G1 X126.042 Y105.917 E.00853
G1 X125.843 Y106.103 E.00854
G1 X125.612 Y106.246 E.00853
G1 X125.357 Y106.342 E.00853
G1 X125.089 Y106.386 E.00854
G1 X124.817 Y106.376 E.00853
G1 X124.552 Y106.314 E.00853
M73 Q14 S2
G1 X124.304 Y106.201 E.00853
G1 X124.083 Y106.042 E.00853
G1 X123.897 Y105.843 E.00853
G1 X123.754 Y105.612 E.00853
G1 X123.658 Y105.357 E.00853
G1 X123.614 Y105.089 E.00854
M73 P14 R2
G1 X123.624 Y104.817 E.00853
G1 X123.686 Y104.552 E.00853
G1 X123.799 Y104.304 E.00853
G1 X123.921 Y104.13 E.00665
M204 S1000
G1 X123.672 Y103.836 F10800
M204 S800
G1 F300
G1 X123.925 Y103.599 E.01086
G1 X124.219 Y103.416 E.01085
G1 X124.543 Y103.294 E.01086
G1 X124.886 Y103.238 E.01092
G1 X125.234 Y103.25 E.01091
G1 X125.568 Y103.328 E.01074
G1 X125.883 Y103.471 E.01085
G1 X126.164 Y103.672 E.01086
G1 X126.401 Y103.925 E.01085
G1 X126.584 Y104.219 E.01085
G1 X126.706 Y104.543 E.01086
G1 X126.762 Y104.884 E.01086
G1 X126.751 Y105.23 E.01085
G1 X126.672 Y105.568 E.01085
G1 X126.529 Y105.883 E.01085
G1 X126.328 Y106.164 E.01085
G1 X126.075 Y106.401 E.01086
G1 X125.781 Y106.584 E.01085
G1 X125.457 Y106.706 E.01086
M73 Q15 S2
G1 X125.116 Y106.762 E.01086
G1 X124.77 Y106.751 E.01085
G1 X124.433 Y106.672 E.01085
G1 X124.117 Y106.529 E.01086
M73 P15 R2
G1 X123.836 Y106.328 E.01086
G1 X123.599 Y106.075 E.01085
G1 X123.416 Y105.781 E.01085
G1 X123.294 Y105.457 E.01085
G1 X123.238 Y105.116 E.01086
G1 X123.249 Y104.77 E.01085
G1 X123.328 Y104.432 E.01085
G1 X123.471 Y104.117 E.01085
G1 X123.635 Y103.883 E.00897
M204 S1000
G1 X123.387 Y103.589 F10800
M204 S800
G1 F300
G1 X123.693 Y103.301 E.01318
G1 X124.05 Y103.079 E.01317
G1 X124.443 Y102.93 E.01318
G1 X124.859 Y102.861 E.01323
G1 X125.281 Y102.875 E.01323
G1 X125.687 Y102.969 E.01307
G1 X126.07 Y103.142 E.01317
G1 X126.411 Y103.387 E.01318
G1 X126.699 Y103.693 E.01317
G1 X126.921 Y104.05 E.01318
G1 X127.07 Y104.443 E.01318
M73 Q16 S2
G1 X127.139 Y104.857 E.01318
G1 X127.126 Y105.277 E.01317
G1 X127.031 Y105.687 E.01318
M73 P16 R2
G1 X126.858 Y106.07 E.01318
G1 X126.613 Y106.411 E.01317
G1 X126.307 Y106.699 E.01318
G1 X125.95 Y106.921 E.01318
G1 X125.557 Y107.07 E.01318
G1 X125.143 Y107.139 E.01318
G1 X124.723 Y107.126 E.01317
G1 X124.313 Y107.031 E.01318
G1 X123.93 Y106.858 E.01318
G1 X123.589 Y106.613 E.01318
G1 X123.301 Y106.307 E.01318
G1 X123.079 Y105.95 E.01318
G1 X122.93 Y105.557 E.01318
G1 X122.861 Y105.143 E.01318
G1 X122.874 Y104.723 E.01318
G1 X122.969 Y104.313 E.01318
G1 X123.142 Y103.93 E.01317
G1 X123.35 Y103.636 E.0113
M204 S1000
M73 Q17 S2
G1 X123.101 Y103.341 F10800
M204 S800
G1 F300
G1 X123.461 Y103.003 E.0155
G1 X123.88 Y102.741 E.0155
G1 X124.343 Y102.566 E.0155
M73 P17 R2
G1 X124.832 Y102.484 E.01555
G1 X125.327 Y102.5 E.01555
G1 X125.806 Y102.611 E.0154
G1 X126.256 Y102.814 E.01549
G1 X126.659 Y103.101 E.0155
G1 X126.997 Y103.461 E.0155
G1 X127.259 Y103.881 E.0155
G1 X127.434 Y104.343 E.0155
G1 X127.515 Y104.83 E.0155
G1 X127.5 Y105.324 E.01549
G1 X127.389 Y105.806 E.0155
G1 X127.186 Y106.256 E.0155
G1 X126.899 Y106.659 E.0155
G1 X126.539 Y106.997 E.0155
G1 X126.12 Y107.259 E.0155
G1 X125.657 Y107.434 E.0155
M73 Q18 S2
G1 X125.17 Y107.515 E.0155
G1 X124.676 Y107.5 E.0155
G1 X124.194 Y107.389 E.0155
M73 P18 R2
G1 X123.744 Y107.186 E.0155
G1 X123.341 Y106.899 E.0155
G1 X123.003 Y106.539 E.0155
G1 X122.741 Y106.119 E.0155
G1 X122.566 Y105.657 E.0155
G1 X122.485 Y105.17 E.0155
G1 X122.5 Y104.676 E.0155
G1 X122.611 Y104.194 E.0155
G1 X122.814 Y103.744 E.0155
G1 X123.064 Y103.389 E.01362
M204 S1000
G1 X122.816 Y103.094 F10800
M204 S800
G1 F300
G1 X122.997 Y102.906 E.00819
G1 X123.23 Y102.705 E.00965
G1 X123.444 Y102.555 E.00819
G1 X123.711 Y102.403 E.00965
G1 X123.951 Y102.299 E.00819
G1 X124.243 Y102.202 E.00965
G1 X124.498 Y102.146 E.00819
M73 Q19 S2
G1 X124.805 Y102.108 E.0097
G1 X125.052 Y102.103 E.00777
G1 X125.374 Y102.126 E.01011
G1 X125.628 Y102.171 E.00809
G1 X125.925 Y102.253 E.00965
M73 P19 R2
G1 X126.168 Y102.348 E.00819
G1 X126.443 Y102.486 E.00965
G1 X126.663 Y102.627 E.00819
G1 X126.906 Y102.816 E.00965
G1 X127.094 Y102.997 E.00819
G1 X127.295 Y103.23 E.00965
G1 X127.445 Y103.444 E.00819
G1 X127.597 Y103.711 E.00965
G1 X127.701 Y103.951 E.00819
G1 X127.798 Y104.243 E.00965
G1 X127.854 Y104.498 E.00818
G1 X127.892 Y104.803 E.00965
G1 X127.897 Y105.064 E.00818
G1 X127.875 Y105.371 E.00965
G1 X127.829 Y105.628 E.00819
G1 X127.747 Y105.925 E.00965
G1 X127.652 Y106.168 E.00819
G1 X127.514 Y106.443 E.00965
G1 X127.373 Y106.663 E.00819
G1 X127.184 Y106.906 E.00965
G1 X127.003 Y107.094 E.00819
G1 X126.77 Y107.295 E.00965
G1 X126.556 Y107.445 E.00819
G1 X126.289 Y107.597 E.00965
G1 X126.049 Y107.701 E.00819
G1 X125.757 Y107.798 E.00965
G1 X125.502 Y107.854 E.00819
M73 Q20 S2
G1 X125.197 Y107.892 E.00965
G1 X124.936 Y107.897 E.00819
G1 X124.629 Y107.875 E.00965
G1 X124.372 Y107.829 E.00819
G1 X124.075 Y107.747 E.00965
M73 P20 R2
G1 X123.832 Y107.652 E.00819
G1 X123.557 Y107.514 E.00965
G1 X123.337 Y107.373 E.00819
G1 X123.094 Y107.184 E.00965
G1 X122.906 Y107.003 E.00819
G1 X122.705 Y106.77 E.00965
G1 X122.555 Y106.556 E.00819
G1 X122.403 Y106.289 E.00965
G1 X122.299 Y106.049 E.00819
G1 X122.202 Y105.757 E.00964
G1 X122.146 Y105.502 E.00819
G1 X122.108 Y105.197 E.00965
G1 X122.103 Y104.936 E.00819
G1 X122.125 Y104.629 E.00965
G1 X122.171 Y104.372 E.00819
G1 X122.253 Y104.075 E.00965
G1 X122.348 Y103.832 E.00819
G1 X122.486 Y103.557 E.00965
G1 X122.779 Y103.142 E.01594
M204 S1000
G1 X122.53 Y102.847 F10800
M204 S800
G1 F300
G1 X122.737 Y102.632 E.00935
G1 X122.998 Y102.407 E.01081
G1 X123.243 Y102.236 E.00935
G1 X123.542 Y102.066 E.01081
G1 X123.815 Y101.946 E.00935
G1 X124.143 Y101.838 E.01081
M73 Q21 S2
G1 X124.434 Y101.774 E.00935
G1 X124.778 Y101.731 E.01085
G1 X125.062 Y101.725 E.00892
G1 X125.421 Y101.751 E.01128
G1 X125.712 Y101.803 E.00926
M73 P21 R2
G1 X126.044 Y101.894 E.01081
G1 X126.322 Y102.003 E.00935
G1 X126.63 Y102.158 E.01081
G1 X126.881 Y102.319 E.00935
G1 X127.153 Y102.53 E.01081
G1 X127.368 Y102.737 E.00935
G1 X127.593 Y102.998 E.01081
G1 X127.764 Y103.242 E.00935
G1 X127.934 Y103.542 E.01081
G1 X128.054 Y103.816 E.00935
G1 X128.162 Y104.143 E.01081
G1 X128.226 Y104.434 E.00935
G1 X128.269 Y104.776 E.01082
G1 X128.275 Y105.074 E.00935
G1 X128.25 Y105.418 E.01081
G1 X128.197 Y105.712 E.00935
G1 X128.106 Y106.044 E.01081
G1 X127.997 Y106.322 E.00935
G1 X127.842 Y106.63 E.01081
G1 X127.681 Y106.881 E.00935
G1 X127.47 Y107.153 E.01081
G1 X127.263 Y107.368 E.00935
G1 X127.002 Y107.593 E.01081
G1 X126.757 Y107.764 E.00935
M73 Q22 S2
G1 X126.458 Y107.934 E.01081
G1 X126.184 Y108.054 E.00935
G1 X125.857 Y108.162 E.01081
G1 X125.566 Y108.226 E.00935
M73 P22 R2
G1 X125.224 Y108.269 E.01081
G1 X124.926 Y108.275 E.00935
G1 X124.582 Y108.25 E.01081
G1 X124.288 Y108.197 E.00935
G1 X123.956 Y108.106 E.01081
G1 X123.678 Y107.997 E.00935
G1 X123.37 Y107.842 E.01081
G1 X123.119 Y107.681 E.00935
G1 X122.847 Y107.47 E.01081
G1 X122.632 Y107.263 E.00935
G1 X122.407 Y107.002 E.01081
G1 X122.236 Y106.758 E.00935
G1 X122.066 Y106.458 E.01081
G1 X121.946 Y106.184 E.00935
G1 X121.838 Y105.857 E.01081
G1 X121.774 Y105.566 E.00935
G1 X121.731 Y105.224 E.01081
G1 X121.725 Y104.926 E.00935
G1 X121.75 Y104.582 E.01081
G1 X121.803 Y104.288 E.00935
G1 X121.894 Y103.956 E.01081
G1 X122.003 Y103.678 E.00935
G1 X122.158 Y103.37 E.01081
G1 X122.319 Y103.119 E.00935
M73 Q23 S2
G1 X122.493 Y102.894 E.00893
M204 S1000
G1 X122.245 Y102.6 F10800
M204 S800
G1 F300
G1 X122.477 Y102.358 E.01051
G1 X122.766 Y102.108 E.01197
G1 X123.041 Y101.917 E.01051
M73 P23 R2
G1 X123.373 Y101.728 E.01197
G1 X123.68 Y101.594 E.01051
G1 X124.043 Y101.474 E.01197
