; generated by PrusaSlicer 2.5.0+win64 on 2022-11-29 at 00:11:13 UTC

; 

; external perimeters extrusion width = 0.45mm
; perimeters extrusion width = 0.45mm
; infill extrusion width = 0.45mm
; solid infill extrusion width = 0.45mm
; top infill extrusion width = 0.40mm
; support material extrusion width = 0.35mm
; first layer extrusion width = 0.42mm

M73 P0 R50
M73 Q0 S50
M107
;TYPE:Custom
M862.3 P "MK3S" ; printer model check
M862.1 P0.4 ; nozzle diameter check
M115 U3.9.3 ; tell printer latest fw version
G90 ; use absolute coordinates
M83 ; extruder relative mode
M104 S215 ; set extruder temp
M140 S60 ; set bed temp
M190 S60 ; wait for bed temp
M109 S215 ; wait for extruder temp
G28 W ; home all without mesh bed level
G80 ; mesh bed leveling
G1 Y-3.0 F1000.0 ; go outside print area
G92 E0.0
G1 X60.0 E9.0 F1000.0 ; intro line
G1 X100.0 E12.5 F1000.0 ; intro line
G92 E0.0
M221 S95

; Don't change E values below. Excessive value can damage the printer.
M907 E430 ; set extruder motor current
G21 ; set units to millimeters
G90 ; use absolute coordinates
M83 ; use relative distances for extrusion
M900 K0.05 ; Filament gcode LA 1.5
M900 K30 ; Filament gcode LA 1.0
M107
;LAYER_CHANGE
;Z:0.2
;HEIGHT:0.2
;BEFORE_LAYER_CHANGE
G92 E0.0
;0.2


G1 E-.8 F2100
G1 Z.4 F10800
;AFTER_LAYER_CHANGE
;0.2
G1 X119.715 Y91.212
G1 Z.2
G1 E.8 F2100
M204 S1000
;TYPE:Skirt/Brim
;WIDTH:0.42
G1 F1200
G1 X120.295 Y90.636 E.02564
G1 X120.964 Y90.121 E.02648
G1 X122.321 Y89.423 E.04784
G1 X123.336 Y89.134 E.0331
G1 X124.517 Y89.008 E.03723
G1 X137.289 Y89.008 E.40044
G1 X138.604 Y89.159 E.04152
G1 X139.81 Y89.55 E.03974
G1 X140.841 Y90.112 E.03682
G1 X141.839 Y90.931 E.04048
G1 X142.72 Y92.024 E.04402
G1 X146.362 Y97.736 E.21242
G1 X146.725 Y98.485 E.02609
G1 X146.863 Y98.986 E.01629
G1 X146.935 Y99.698 E.02244
G1 X146.935 Y117.351 E.5535
G1 X146.863 Y118.063 E.02244
G1 X146.725 Y118.564 E.01629
G1 X146.245 Y119.482 E.0325
G1 X145.525 Y120.227 E.0325
G1 X144.981 Y120.577 E.02026
G1 X144.128 Y120.895 E.02856
G1 X143.292 Y120.994 E.02639
G1 X117.892 Y120.994 E.7964
G1 X117.18 Y120.922 E.02244
G1 X116.679 Y120.784 E.01629
G1 X115.761 Y120.303 E.0325
G1 X115.276 Y119.883 E.02012
G1 X114.674 Y119.055 E.0321
G1 X114.348 Y118.187 E.02909
G1 X114.256 Y117.553 E.02009
G1 X114.249 Y99.698 E.55983
G1 X114.321 Y98.986 E.02244
G1 X114.458 Y98.485 E.01629
G1 X114.936 Y97.571 E.03233
G1 X119.679 Y91.26 E.24751
G1 X119.978 Y91.485 F10800
G1 F1200
G1 X120.545 Y90.917 E.02516
G1 X121.179 Y90.431 E.02506
G1 X122.437 Y89.783 E.04436
G1 X123.39 Y89.508 E.03111
G1 X124.543 Y89.385 E.03636
G1 X137.276 Y89.385 E.39921
G1 X138.52 Y89.527 E.03928
G1 X139.665 Y89.898 E.03774
G1 X140.639 Y90.431 E.03481
G1 X141.603 Y91.228 E.03921
G1 X142.36 Y92.164 E.03774
G1 X146.044 Y97.939 E.21478
G1 X146.468 Y98.942 E.03414
G1 X146.558 Y99.698 E.02386
G1 X146.558 Y117.351 E.5535
G1 X146.372 Y118.432 E.0344
G1 X145.943 Y119.256 E.02913
G1 X145.299 Y119.926 E.02913
G1 X144.8 Y120.246 E.01857
G1 X144.048 Y120.526 E.02519
G1 X143.292 Y120.617 E.02386
G1 X117.892 Y120.617 E.7964
G1 X116.811 Y120.431 E.0344
G1 X115.987 Y120.002 E.02913
G1 X115.542 Y119.617 E.01845
G1 X115.004 Y118.872 E.02879
G1 X114.716 Y118.106 E.02566
G1 X114.626 Y117.356 E.02369
G1 X114.626 Y99.698 E.55367
G1 X114.812 Y98.617 E.0344
G1 X115.238 Y97.797 E.02898
G1 X119.942 Y91.533 E.2456
; printing object Alien stand up target splint v3 id:0 copy 0
;WIPE_START
G1 F8640
G1 X120.545 Y90.917 E-.19899
G1 X121.179 Y90.431 E-.18456
G1 X122.437 Y89.783 E-.32666
G1 X122.644 Y89.723 E-.04979
;WIPE_END
G1 E-.04 F2100
G1 Z.6 F10800
G1 X143.017 Y117.076
G1 Z.2
G1 E.8 F2100
;TYPE:Perimeter
;WIDTH:0.419999
G1 F1200
G1 X121.532 Y117.088 E.67366
G1 X121.218 Y116.229 E.02867
G1 X136.465 Y116.229 E.47805
G1 X136.628 Y116.215 E.00513
G1 X137.031 Y116.04 E.01376
G1 X137.335 Y115.649 E.01555
G1 X137.408 Y115.286 E.01159
G1 X137.408 Y105.624 E.30294
G1 X141.227 Y105.624 E.11977
G1 X141.59 Y105.552 E.01159
G1 X141.982 Y105.247 E.01555
G1 X142.156 Y104.845 E.01376
G1 X142.17 Y104.682 E.00513
G1 X142.17 Y101.762 E.09154
G1 X141.892 Y101.094 E.0227
G1 X141.56 Y100.88 E.01237
G1 X141.227 Y100.82 E.01061
G1 X121.231 Y100.82 E.62698
G1 X121.561 Y100.018 E.0272
G1 X121.631 Y99.612 E.0129
G1 X121.519 Y99.211 E.01304
G1 X121.737 Y98.868 E.01274
G1 X121.907 Y98.41 E.01533
G1 X121.965 Y98.085 E.01034
G1 X121.972 Y97.216 E.02725
;WIDTH:0.447276
G1 X121.988 Y96.886 E.01112
;WIDTH:0.474553
G1 X122.004 Y96.555 E.01187
G1 X121.989 Y96.034 E.0187
;WIDTH:0.439651
G1 X121.996 Y95.4 E.02094
;WIDTH:0.440127
G1 X122.048 Y95.025 E.01249
G1 X122.194 Y94.544 E.01662
;WIDTH:0.420807
G1 X122.488 Y93.982 E.01993
;WIDTH:0.381731
G1 X122.718 Y93.69 E.01047
;WIDTH:0.351238
G1 X123.168 Y93.327 E.01483
G1 X123.578 Y93.119 E.01178
G1 X123.282 Y93.435 E.01109
;WIDTH:0.381731
G1 X122.786 Y94.14 E.0243
;WIDTH:0.430375
G1 X122.522 Y94.759 E.02168
;WIDTH:0.436984
G1 X122.396 Y95.356 E.01998
G1 X122.376 Y95.874 E.017
;WIDTH:0.471625
G1 X122.43 Y96.491 E.02207
G1 X122.478 Y96.657 E.00617
;WIDTH:0.450179
G1 X122.73 Y97.305 E.02353
;WIDTH:0.419999
G1 X123.229 Y98.095 E.02931
G1 X123.691 Y98.555 E.02044
G1 X124.232 Y98.929 E.02061
G1 X124.884 Y99.213 E.02232
G1 X125.779 Y99.391 E.02859
G1 X126.43 Y99.376 E.02044
G1 X127.069 Y99.244 E.02045
G1 X127.71 Y98.978 E.02176
G1 X128.315 Y98.579 E.02273
G1 X128.811 Y98.095 E.02174
G1 X129.167 Y97.582 E.01957
G1 X129.31 Y97.299 E.00995
G1 X129.505 Y96.804 E.01667
G1 X129.638 Y96.109 E.02219
G1 X129.644 Y95.47 E.02003
G1 X129.533 Y94.829 E.0204
G1 X129.183 Y93.962 E.02931
G1 X128.811 Y93.427 E.02044
G1 X128.292 Y92.925 E.02265
G1 X133.528 Y92.925 E.16416
G1 X133.086 Y93.342 E.01906
G1 X132.557 Y94.11 E.02925
G1 X132.322 Y94.693 E.01968
G1 X132.207 Y95.184 E.01581
G1 X132.162 Y95.84 E.02061
G1 X132.234 Y96.488 E.02045
G1 X132.413 Y97.031 E.01794
G1 X132.652 Y97.582 E.01882
G1 X133.008 Y98.095 E.01957
G1 X133.47 Y98.555 E.02045
G1 X134.006 Y98.926 E.02045
G1 X134.641 Y99.206 E.02176
G1 X135.348 Y99.367 E.02273
G1 X136.041 Y99.391 E.02174
G1 X136.685 Y99.289 E.02045
G1 X137.301 Y99.074 E.02045
G1 X137.868 Y98.753 E.02045
G1 X138.369 Y98.335 E.02045
G1 X138.586 Y98.088 E.01033
G1 X138.9 Y97.656 E.01673
G1 X139.284 Y96.804 E.02931
;WIDTH:0.446467
G1 X139.428 Y96.166 E.02194
G1 X139.444 Y95.639 E.0177
;WIDTH:0.437299
G1 X139.376 Y95.058 E.01917
G1 X139.302 Y94.786 E.00924
;WIDTH:0.431993
G1 X139.041 Y94.157 E.02205
;WIDTH:0.384715
G1 X138.868 Y93.885 E.00916
;WIDTH:0.388874
G1 X138.813 Y93.771 E.00363
;WIDTH:0.428671
G1 X138.759 Y93.657 E.00405
;WIDTH:0.468469
G1 X138.705 Y93.542 E.00447
;WIDTH:0.508266
G1 X138.651 Y93.428 E.00488
G1 X138.761 Y93.492 E.00491
;WIDTH:0.468469
G1 X138.871 Y93.555 E.00449
;WIDTH:0.428671
G1 X138.981 Y93.618 E.00407
;WIDTH:0.388874
G1 X139.091 Y93.681 E.00365
;WIDTH:0.384715
G1 X139.345 Y94.004 E.01167
;WIDTH:0.431993
G1 X139.661 Y94.637 E.0229
;WIDTH:0.437299
G1 X139.767 Y95.01 E.01273
G1 X139.835 Y95.69 E.0224
;WIDTH:0.448957
G1 X139.848 Y97.146 E.04916
;WIDTH:0.419999
G1 X139.856 Y98.158 E.03173
G1 X140.009 Y98.731 E.01857
G1 X140.262 Y99.157 E.01556
G1 X140.677 Y99.567 E.01828
G1 X140.965 Y99.738 E.01051
G1 X141.394 Y99.897 E.01433
G1 X141.731 Y99.962 E.01078
G1 X143.017 Y99.971 E.04031
G1 X143.017 Y117.016 E.53442
G1 X143.224 Y117.453 F10800
G1 F1200
G1 X122.374 Y117.453 E.65374
G1 X121.093 Y117.487 E.0402
G1 X121.2 Y117.347 E.00556
G1 X121.083 Y116.94 E.01328
G1 X120.656 Y115.852 E.03664
G1 X136.465 Y115.852 E.49567
G1 X136.804 Y115.739 E.01122
G1 X136.987 Y115.504 E.00933
G1 X137.031 Y115.286 E.00696
G1 X137.031 Y105.247 E.31476
G1 X141.227 Y105.247 E.13159
G1 X141.445 Y105.204 E.00696
G1 X141.68 Y105.021 E.00933
G1 X141.793 Y104.682 E.01122
G1 X141.793 Y101.762 E.09154
G1 X141.626 Y101.361 E.01362
G1 X141.427 Y101.233 E.00742
G1 X141.227 Y101.197 E.00637
G1 X120.658 Y101.197 E.64494
G1 X121.212 Y99.874 E.04497
M73 P1 R50
M73 Q1 S50
G1 X121.238 Y99.524 E.01101
G1 X121.083 Y99.253 E.00978
G1 X120.96 Y99.187 E.00439
G1 X121.213 Y98.961 E.01062
G1 X121.448 Y98.607 E.01336
G1 X121.588 Y98.082 E.01701
G1 X121.609 Y95.397 E.08421
G1 X121.682 Y94.888 E.01611
G1 X121.921 Y94.232 E.0219
G1 X122.187 Y93.788 E.01623
G1 X122.479 Y93.442 E.01418
G1 X122.988 Y93.031 E.02052
G1 X123.57 Y92.74 E.02039
G1 X124.179 Y92.585 E.01972
G1 X124.652 Y92.547 E.01487
;WIDTH:0.447856
G1 X124.926 Y92.561 E.00923
;WIDTH:0.475712
G1 X125.199 Y92.575 E.00986
G1 X125.096 Y92.611 E.00393
;WIDTH:0.460107
G1 X124.341 Y92.974 E.02905
;WIDTH:0.419999
G1 X123.9 Y93.294 E.0171
G1 X123.559 Y93.636 E.01514
G1 X123.114 Y94.282 E.02457
G1 X122.894 Y94.846 E.01901
G1 X122.779 Y95.428 E.01858
G1 X122.764 Y95.958 E.01663
G1 X122.851 Y96.536 E.01834
G1 X123.053 Y97.111 E.01912
G1 X123.502 Y97.834 E.02667
G1 X123.912 Y98.25 E.01832
G1 X124.394 Y98.588 E.01844
G1 X124.967 Y98.845 E.01971
G1 X125.779 Y99.014 E.02598
G1 X126.363 Y99.005 E.01832
G1 X126.937 Y98.891 E.01834
G1 X127.502 Y98.664 E.01912
G1 X128.204 Y98.183 E.02668
G1 X128.602 Y97.755 E.01832
G1 X128.916 Y97.262 E.01834
G1 X129.138 Y96.72 E.01834
G1 X129.261 Y96.092 E.02008
G1 X129.27 Y95.521 E.01791
G1 X129.18 Y94.962 E.01776
G1 X128.868 Y94.17 E.02668
G1 X128.538 Y93.688 E.01832
G1 X128.128 Y93.271 E.01834
G1 X127.649 Y92.935 E.01834
G1 X127.094 Y92.683 E.01912
G1 X126.384 Y92.534 E.02273
G1 X134.384 Y92.548 E.25081
;WIDTH:0.447728
G1 X134.681 Y92.561 E.01002
;WIDTH:0.475456
G1 X134.978 Y92.575 E.01071
G1 X134.875 Y92.611 E.00393
;WIDTH:0.459926
G1 X134.338 Y92.844 E.0203
;WIDTH:0.419999
G1 X133.841 Y93.152 E.01834
G1 X133.391 Y93.564 E.01912
G1 X132.903 Y94.259 E.02664
G1 X132.689 Y94.779 E.01761
G1 X132.574 Y95.27 E.01581
G1 X132.538 Y95.856 E.01843
G1 X132.603 Y96.4 E.01715
G1 X132.766 Y96.899 E.01647
G1 X132.966 Y97.374 E.01618
G1 X133.281 Y97.834 E.01746
G1 X133.691 Y98.25 E.01834
G1 X134.17 Y98.587 E.01834
G1 X134.725 Y98.838 E.01912
G1 X135.558 Y99.014 E.02668
G1 X136.142 Y99.005 E.01832
G1 X136.716 Y98.891 E.01834
G1 X137.26 Y98.677 E.01834
G1 X137.757 Y98.37 E.01834
G1 X138.191 Y97.978 E.01834
G1 X138.56 Y97.493 E.01912
G1 X138.917 Y96.72 E.02667
G1 X139.038 Y96.148 E.01832
G1 X139.055 Y95.564 E.01834
G1 X138.959 Y94.962 E.01912
G1 X138.704 Y94.283 E.02273
G1 X138.583 Y94.073 E.00762
G1 X138.287 Y93.656 E.01602
G1 X137.907 Y93.271 E.01696
G1 X137.428 Y92.935 E.01834
G1 X136.873 Y92.683 E.01912
G1 X136.163 Y92.535 E.02273
G1 X137.186 Y92.548 E.03206
G1 X137.691 Y92.594 E.01592
G1 X138.198 Y92.728 E.01644
G1 X138.786 Y93.004 E.02036
G1 X139.02 Y93.185 E.00928
G1 X139.476 Y93.6 E.01932
G1 X139.825 Y94.087 E.0188
G1 X140.01 Y94.478 E.01354
G1 X140.145 Y94.917 E.01442
G1 X140.219 Y95.606 E.02172
G1 X140.229 Y98.08 E.07758
G1 X140.341 Y98.541 E.01486
G1 X140.579 Y98.953 E.01493
G1 X140.924 Y99.282 E.01493
G1 X141.525 Y99.544 E.02057
G1 X141.734 Y99.585 E.00667
G1 X143.231 Y99.595 E.04694
G1 X143.352 Y99.632 E.00398
G1 X143.394 Y99.757 E.00413
G1 X143.394 Y117.263 E.54886
G1 X143.371 Y117.388 E.00399
M73 P1 R49
G1 X143.279 Y117.429 E.00316
G1 X143.264 Y117.83 F10800
;TYPE:External perimeter
G1 F1200
G1 X122.371 Y117.83 E.65508
G1 X121.363 Y117.845 E.03162
;WIDTH:0.420224
G1 X120.367 Y117.92 E.03134
;WIDTH:0.422532
G1 X118.737 Y117.921 E.05144
;WIDTH:0.422947
G1 X118.713 Y117.92 E.00076
;WIDTH:0.445278
G1 X117.769 Y117.892 E.03161
G1 X117.538 Y117.801 E.00831
;WIDTH:0.423285
G1 X117.371 Y117.636 E.00741
;WIDTH:0.406303
G1 X117.283 Y117.434 E.00667
;WIDTH:0.39958
G1 X117.274 Y117.164 E.00802
;WIDTH:0.448883
G1 X117.368 Y116.495 E.02279
G1 X117.826 Y116.5 E.01547
G1 X117.744 Y116.761 E.00923
G1 X117.683 Y117.049 E.00994
;WIDTH:0.422084
G1 X117.622 Y117.338 E.00929
;WIDTH:0.423285
G1 X117.708 Y117.46 E.00474
;WIDTH:0.449187
G1 X117.935 Y117.502 E.00781
G1 X118.738 Y117.541 E.02715
;WIDTH:0.422532
G1 X120.367 Y117.543 E.05144
;WIDTH:0.420224
G1 X120.649 Y117.537 E.00884
;WIDTH:0.419999
G1 X120.823 Y117.352 E.00798
G1 X120.397 Y116.19 E.03879
G1 X120.067 Y115.475 E.02471
G1 X136.465 Y115.475 E.51414
G1 X136.578 Y115.437 E.00374
G1 X136.653 Y115.286 E.00529
G1 X136.653 Y104.87 E.32658
G1 X141.227 Y104.87 E.14341
G1 X141.378 Y104.795 E.00529
G1 X141.416 Y104.682 E.00374
G1 X141.416 Y101.762 E.09154
G1 X141.36 Y101.629 E.00454
G1 X141.23 Y101.574 E.00445
G1 X120.068 Y101.574 E.66351
G1 X120.402 Y100.852 E.02494
G1 X120.863 Y99.73 E.03803
G1 X120.855 Y99.569 E.00506
G1 X120.729 Y99.474 E.00494
G1 X120.619 Y99.473 E.00346
;WIDTH:0.421808
G1 X119.999 Y99.503 E.01956
;WIDTH:0.423518
G1 X118.737 Y99.507 E.03993
;WIDTH:0.423906
G1 X118.725 Y99.507 E.00037
;WIDTH:0.444839
G1 X117.793 Y99.558 E.0312
G1 X117.666 Y99.624 E.00478
;WIDTH:0.411516
G1 X117.617 Y99.722 E.00337
;WIDTH:0.433361
G1 X117.67 Y100.024 E.00996
;WIDTH:0.455047
G1 X117.822 Y100.545 E.01861
G1 X117.364 Y100.55 E.01571
G1 X117.297 Y100.044 E.0175
;WIDTH:0.42783
G1 X117.255 Y99.716 E.01056
;WIDTH:0.411864
G1 X117.361 Y99.419 E.00969
;WIDTH:0.432621
G1 X117.578 Y99.218 E.00959
;WIDTH:0.4492
G1 X117.922 Y99.14 E.01189
G1 X118.736 Y99.126 E.02751
;WIDTH:0.423518
G1 X119.998 Y99.124 E.03993
;WIDTH:0.421808
G1 X120.549 Y99.007 E.01776
;WIDTH:0.419999
G1 X120.865 Y98.786 E.01208
G1 X121.084 Y98.488 E.01159
G1 X121.211 Y98.079 E.01342
G1 X121.232 Y95.394 E.08421
G1 X121.279 Y95.001 E.01242
G1 X121.419 Y94.447 E.01791
G1 X121.578 Y94.075 E.01266
G1 X121.87 Y93.584 E.01792
G1 X122.216 Y93.17 E.01691
G1 X122.783 Y92.712 E.02285
G1 X123.437 Y92.385 E.02294
G1 X124.086 Y92.219 E.02099
G1 X124.634 Y92.17 E.01725
G1 X137.033 Y92.171 E.38876
G1 X137.552 Y92.196 E.01629
G1 X138.106 Y92.298 E.01765
G1 X138.557 Y92.459 E.01502
G1 X139.029 Y92.707 E.01672
G1 X139.542 Y93.121 E.02068
G1 X139.761 Y93.353 E.00999
G1 X140.143 Y93.883 E.02049
G1 X140.353 Y94.321 E.01522
G1 X140.516 Y94.844 E.01717
G1 X140.596 Y95.585 E.02338
G1 X140.607 Y98.079 E.07819
G1 X140.703 Y98.434 E.01156
G1 X140.897 Y98.749 E.01158
G1 X141.228 Y99.031 E.01365
G1 X141.736 Y99.208 E.01686
G1 X143.328 Y99.227 E.0499
G1 X143.608 Y99.343 E.00951
G1 X143.716 Y99.492 E.00579
G1 X143.771 Y99.757 E.00849
G1 X143.771 Y117.263 E.54886
G1 X143.723 Y117.547 E.00905
M73 Q1 S49
G1 X143.547 Y117.747 E.00834
G1 X143.322 Y117.813 E.00737
G1 X143.004 Y117.526 F10800
;WIPE_START
G1 F8640
G1 X140.03 Y117.816 E-.76
;WIPE_END
G1 E-.04 F2100
G1 Z.6 F10800
G1 X135.682 Y98.636
G1 Z.2
G1 E.8 F2100
G1 F1200
G1 X135.558 Y98.637 E.0039
G1 X134.809 Y98.471 E.02404
G1 X134.333 Y98.247 E.01648
G1 X133.913 Y97.945 E.01622
G1 X133.553 Y97.573 E.01622
G1 X133.266 Y97.144 E.01621
G1 X132.992 Y96.427 E.02404
G1 X132.917 Y95.907 E.01648
G1 X132.937 Y95.39 E.01623
G1 X133.054 Y94.875 E.01655
G1 X133.25 Y94.408 E.01589
G1 X133.696 Y93.785 E.02403
G1 X134.089 Y93.436 E.01648
G1 X134.532 Y93.168 E.01622
G1 X135.015 Y92.983 E.01623
G1 X135.545 Y92.887 E.0169
G1 X136.082 Y92.89 E.01684
G1 X136.789 Y93.051 E.02273
G1 X137.265 Y93.275 E.01648
G1 X137.685 Y93.576 E.01622
G1 X138.014 Y93.916 E.01484
G1 X138.332 Y94.378 E.01757
G1 X138.591 Y95.053 E.02268
G1 X138.681 Y95.614 E.01782
G1 X138.661 Y96.131 E.01622
G1 X138.549 Y96.636 E.01621
G1 X138.221 Y97.329 E.02404
G1 X137.897 Y97.743 E.01648
G1 X137.509 Y98.086 E.01622
G1 X137.066 Y98.354 E.01622
G1 X136.583 Y98.538 E.01622
G1 X136.074 Y98.634 E.01622
G1 X135.742 Y98.636 E.01043
G1 X135.624 Y98.746 F10800
;WIPE_START
G1 F8640
G1 X135.558 Y98.637 E-.04255
G1 X134.809 Y98.471 E-.17706
G1 X134.333 Y98.247 E-.12139
G1 X133.913 Y97.945 E-.11948
G1 X133.553 Y97.573 E-.11947
G1 X133.266 Y97.144 E-.11936
G1 X133.172 Y96.898 E-.06069
;WIPE_END
G1 E-.04 F2100
G1 Z.6 F10800
G1 X134.978 Y92.575
G1 Z.2
G1 E.8 F2100
;TYPE:Perimeter
;WIDTH:0.475456
G1 F1200
G1 X135.231 Y92.553 E.0091
;WIDTH:0.431477
G1 X135.483 Y92.531 E.00818
;WIDTH:0.387498
G1 X136.041 Y92.528 E.01601
;WIDTH:0.393958
G1 X136.163 Y92.535 E.00356
;WIPE_START
G1 F8640
G1 X136.041 Y92.528 E-.02817
G1 X135.483 Y92.531 E-.12902
G1 X135.231 Y92.553 E-.05843
G1 X134.978 Y92.575 E-.05843
;WIPE_END
G1 E-.52594 F2100
G1 Z.6 F10800
G1 X125.875 Y98.636
G1 Z.2
G1 E.8 F2100
;TYPE:External perimeter
;WIDTH:0.419999
G1 F1200
