; generated by PrusaSlicer 2.5.0+win64 on 2022-10-04 at 21:57:29 UTC

; 

; external perimeters extrusion width = 0.45mm
; perimeters extrusion width = 0.45mm
; infill extrusion width = 0.45mm
; solid infill extrusion width = 0.45mm
; top infill extrusion width = 0.40mm
; support material extrusion width = 0.35mm
; first layer extrusion width = 0.42mm

M73 P0 R29
M73 Q0 S29
M107
;TYPE:Custom
M862.3 P "MK3S" ; printer model check
M862.1 P0.4 ; nozzle diameter check
M115 U3.8.0 ; tell printer latest fw version
G90 ; use absolute coordinates
M83 ; extruder relative mode
M104 S215 ; set extruder temp
M140 S60 ; set bed temp
M190 S60 ; wait for bed temp
M109 S215 ; wait for extruder temp
G28 W ; home all without mesh bed level
G80 ; mesh bed leveling
G1 Y-3.0 F1000.0 ; go outside print area
G92 E0.0
G1 X60.0 E9.0 F1000.0 ; intro line
G1 X100.0 E12.5 F1000.0 ; intro line
G92 E0.0
M221 S95
G21 ; set units to millimeters
G90 ; use absolute coordinates
M83 ; use relative distances for extrusion
M900 K0.05 ; Filament gcode LA 1.5
M900 K30 ; Filament gcode LA 1.0
M107
;LAYER_CHANGE
;Z:0.2
;HEIGHT:0.2
;BEFORE_LAYER_CHANGE
G92 E0.0
;0.2


G1 E-.8 F2100
G1 Z.6 F10800
;AFTER_LAYER_CHANGE
;0.2
G1 X94.106 Y77.262
G1 Z.2
G1 E.8 F2100
M204 S1000
;TYPE:Skirt/Brim
;WIDTH:0.42
G1 F1200
G1 X94.828 Y76.627 E.03015
G1 X95.657 Y76.148 E.03001
G1 X96.266 Y75.917 E.02043
G1 X96.891 Y75.771 E.02013
G1 X97.686 Y75.702 E.02502
G1 X152.46 Y75.707 E1.71741
G1 X153.1 Y75.769 E.02016
G1 X154.041 Y76.021 E.03054
G1 X154.896 Y76.443 E.02987
G1 X155.662 Y77.03 E.03027
G1 X156.297 Y77.752 E.03014
G1 X156.776 Y78.58 E.03001
G1 X157.004 Y79.181 E.02015
G1 X157.193 Y80.115 E.02987
G1 X157.222 Y117.322 E1.16659
G1 X157.131 Y118.047 E.02293
G1 X156.914 Y118.644 E.0199
G1 X156.403 Y119.382 E.02815
G1 X155.982 Y119.755 E.01766
G1 X128.166 Y133.597 E.97415
G1 X126.648 Y134.118 E.05034
G1 X125.48 Y134.286 E.03698
G1 X124.758 Y134.298 E.02264
G1 X123.352 Y134.118 E.04444
G1 X121.834 Y133.597 E.05034
G1 X94.416 Y120.001 E.95954
G1 X93.73 Y119.515 E.02638
G1 X93.356 Y119.094 E.01766
G1 X92.897 Y118.154 E.03278
G1 X92.778 Y117.325 E.02627
G1 X92.783 Y80.463 E1.15576
G1 X92.986 Y79.213 E.03971
M73 Q1 S29
G1 X93.363 Y78.298 E.03106
G1 X94.071 Y77.311 E.03807
; printing object ULEK-RAPTOR-BRACKET-BLACK-REV-A.STL id:0 copy 0
G1 E-.8 F2100
M73 P1 R29
G1 Z.8 F10800
G1 X125.724 Y92.823
G1 Z.2
G1 E.8 F2100
;TYPE:Support material
G1 F1200
G1 X126.486 Y92.891 E.02399
G1 X127.222 Y93.004 E.02335
G1 X127.95 Y93.16 E.02335
G1 X128.668 Y93.36 E.02335
G1 X129.372 Y93.603 E.02335
G1 X130.06 Y93.888 E.02335
G1 X130.729 Y94.214 E.02335
G1 X131.378 Y94.58 E.02335
G1 X132.003 Y94.984 E.02335
G1 X132.603 Y95.425 E.02335
G1 X133.175 Y95.902 E.02335
G1 X133.717 Y96.412 E.02335
G1 X134.228 Y96.955 E.02335
G1 X134.705 Y97.527 E.02335
G1 X135.146 Y98.127 E.02335
G1 X135.55 Y98.752 E.02335
G1 X135.916 Y99.401 E.02335
G1 X136.242 Y100.07 E.02335
G1 X136.527 Y100.758 E.02335
G1 X136.763 Y101.443 E.0227
G1 X136.97 Y102.18 E.02399
G1 X137.126 Y102.908 E.02335
G1 X137.238 Y103.644 E.02335
G1 X137.306 Y104.386 E.02335
G1 X137.328 Y105.13 E.02335
G1 X137.306 Y105.874 E.02335
G1 X137.238 Y106.616 E.02335
G1 X137.126 Y107.352 E.02335
G1 X136.97 Y108.08 E.02335
G1 X136.77 Y108.798 E.02335
G1 X136.527 Y109.502 E.02335
G1 X136.242 Y110.19 E.02335
G1 X135.916 Y110.859 E.02335
G1 X135.55 Y111.508 E.02335
G1 X135.157 Y112.116 E.0227
G1 X134.705 Y112.733 E.02399
G1 X134.228 Y113.305 E.02335
G1 X133.717 Y113.847 E.02335
G1 X133.175 Y114.358 E.02335
G1 X132.603 Y114.835 E.02335
G1 X132.003 Y115.276 E.02335
G1 X131.378 Y115.68 E.02335
G1 X130.747 Y116.036 E.0227
G1 X130.06 Y116.372 E.02399
G1 X129.372 Y116.657 E.02335
G1 X128.668 Y116.9 E.02335
G1 X127.95 Y117.1 E.02335
G1 X127.222 Y117.256 E.02335
G1 X126.486 Y117.368 E.02335
G1 X125.744 Y117.436 E.02335
G1 X125 Y117.458 E.02335
G1 X124.256 Y117.436 E.02335
G1 X123.514 Y117.368 E.02335
G1 X122.778 Y117.256 E.02335
G1 X122.05 Y117.1 E.02335
G1 X121.352 Y116.905 E.0227
G1 X120.628 Y116.657 E.02399
G1 X119.94 Y116.372 E.02335
G1 X119.271 Y116.046 E.02335
G1 X118.622 Y115.68 E.02335
G1 X117.997 Y115.276 E.02335
G1 X117.397 Y114.835 E.02335
G1 X116.825 Y114.358 E.02335
G1 X116.283 Y113.847 E.02335
G1 X115.772 Y113.305 E.02335
G1 X115.295 Y112.733 E.02335
G1 X114.854 Y112.133 E.02335
G1 X114.45 Y111.508 E.02335
G1 X114.084 Y110.859 E.02335
G1 X113.758 Y110.19 E.02335
G1 X113.473 Y109.502 E.02335
G1 X113.23 Y108.798 E.02335
G1 X113.03 Y108.08 E.02335
G1 X112.874 Y107.352 E.02335
G1 X112.762 Y106.616 E.02335
G1 X112.694 Y105.874 E.02335
G1 X112.672 Y105.13 E.02335
G1 X112.694 Y104.386 E.02335
G1 X112.762 Y103.644 E.02335
G1 X112.871 Y102.928 E.0227
G1 X113.03 Y102.18 E.02399
G1 X113.23 Y101.462 E.02335
G1 X113.473 Y100.758 E.02335
G1 X113.758 Y100.07 E.02335
G1 X114.084 Y99.401 E.02335
G1 X114.45 Y98.752 E.02335
G1 X114.854 Y98.127 E.02335
G1 X115.295 Y97.527 E.02335
G1 X115.772 Y96.955 E.02335
G1 X116.268 Y96.427 E.0227
G1 X116.825 Y95.902 E.02399
G1 X117.397 Y95.425 E.02335
G1 X117.997 Y94.984 E.02335
G1 X118.622 Y94.58 E.02335
G1 X119.271 Y94.214 E.02335
G1 X119.94 Y93.888 E.02335
G1 X120.628 Y93.603 E.02335
G1 X121.332 Y93.36 E.02335
G1 X122.05 Y93.16 E.02335
G1 X122.778 Y93.004 E.02335
G1 X123.514 Y92.891 E.02335
G1 X124.256 Y92.824 E.02335
G1 X125 Y92.802 E.02335
G1 X125.667 Y92.822 E.02093
G1 X121.022 Y101.022 F10800
G1 F1200
G1 X121.022 Y108.978 E.24944
G1 X128.978 Y108.978 E.24944
G1 X128.978 Y103.329 E.17711
G1 X126.671 Y103.329 E.07234
G1 X126.671 Y101.022 E.07234
G1 X121.079 Y101.022 E.17533
G1 E-.8 F2100
G1 Z.8 F10800
G1 X136.731 Y108.305
G1 Z.2
G1 E.8 F2100
G1 F1200
G1 X136.731 Y102.684 E.17622
G1 X136.64 Y102.261 E.01359
G1 X136.446 Y101.563 E.02271
G1 X136.312 Y101.176 E.01284
G1 X136.312 Y109.084 E.24793
G1 X136.21 Y109.381 E.00987
G1 X135.893 Y110.131 E.02551
G1 X135.893 Y100.129 E.31359
G1 X135.474 Y99.308 E.0289
G1 X135.474 Y110.952 E.36507
G1 X135.055 Y111.648 E.02549
G1 X135.055 Y98.612 E.40875
G1 X134.636 Y98.007 E.02307
G1 X134.636 Y112.253 E.44668
G1 X134.217 Y112.787 E.02129
G1 X134.217 Y97.472 E.48019
G1 X133.799 Y96.994 E.01994
G1 X133.799 Y113.266 E.51021
G1 X133.38 Y113.699 E.0189
G1 X133.38 Y96.56 E.53738
G1 X132.961 Y96.166 E.01804
G1 X132.961 Y114.094 E.56211
G1 X132.542 Y114.444 E.01712
G1 X132.542 Y95.816 E.58408
G1 X132.123 Y95.493 E.01658
G1 X132.123 Y114.767 E.60431
G1 X131.704 Y115.065 E.01613
G1 X131.704 Y95.194 E.62305
G1 X131.285 Y94.923 E.01564
G1 X131.285 Y115.336 E.64003
G1 X130.866 Y115.579 E.01519
M73 Q2 S29
G1 X130.866 Y94.68 E.65528
G1 X130.447 Y94.454 E.01494
M73 P2 R29
G1 X130.447 Y115.806 E.66949
G1 X130.028 Y116.01 E.01461
G1 X130.028 Y94.25 E.68229
G1 X129.609 Y94.068 E.01431
G1 X129.609 Y116.192 E.69366
G1 X129.19 Y116.361 E.01417
G1 X129.19 Y93.899 E.70428
G1 X128.771 Y93.754 E.0139
G1 X128.771 Y102.99 E.28957
G1 X128.352 Y102.99 E.01314
G1 X128.352 Y93.624 E.29366
G1 X127.933 Y93.507 E.01364
G1 X127.933 Y102.99 E.29732
G1 X127.514 Y102.99 E.01314
G1 X127.514 Y93.413 E.30027
G1 X127.095 Y93.327 E.01341
G1 X127.095 Y102.99 E.30296
G1 X127.01 Y102.99 E.00266
G1 X127.01 Y100.683 E.07234
G1 X126.676 Y100.683 E.01048
G1 X126.676 Y93.264 E.23262
G1 X126.257 Y93.211 E.01324
G1 X126.257 Y100.683 E.23426
G1 X125.838 Y100.683 E.01314
G1 X125.838 Y93.173 E.23545
G1 X125.419 Y93.154 E.01315
G1 X125.419 Y100.683 E.23607
G1 X125 Y100.683 E.01314
G1 X125 Y93.141 E.23647
G1 X124.581 Y93.154 E.01314
G1 X124.581 Y100.683 E.23607
G1 X124.162 Y100.683 E.01314
G1 X124.162 Y93.173 E.23545
G1 X123.743 Y93.211 E.01319
G1 X123.743 Y100.683 E.23426
G1 X123.324 Y100.683 E.01314
G1 X123.324 Y93.264 E.23262
G1 X122.905 Y93.327 E.01329
G1 X122.905 Y100.683 E.23062
G1 X122.486 Y100.683 E.01314
G1 X122.486 Y93.413 E.22793
G1 X122.067 Y93.507 E.01346
G1 X122.067 Y100.683 E.22499
G1 X121.648 Y100.683 E.01314
G1 X121.648 Y93.624 E.22132
G1 X121.229 Y93.754 E.01376
G1 X121.229 Y100.853 E.22256
G1 E-.8 F2100
M73 P2 R28
G1 Z.8 F10800
G1 X128.771 Y116.685
G1 Z.2
G1 E.8 F2100
G1 F1200
G1 X128.771 Y109.317 E.23101
G1 X128.352 Y109.317 E.01314
G1 X128.352 Y116.636 E.22947
G1 X127.933 Y116.753 E.01364
G1 X127.933 Y109.317 E.23313
G1 X127.514 Y109.317 E.01314
G1 X127.514 Y116.847 E.23608
G1 X127.095 Y116.932 E.01341
G1 X127.095 Y109.317 E.23877
G1 X126.676 Y109.317 E.01314
G1 X126.676 Y116.996 E.24077
G1 X126.257 Y117.048 E.01324
G1 X126.257 Y109.317 E.24241
G1 X125.838 Y109.317 E.01314
G1 X125.838 Y117.086 E.2436
G1 X125.419 Y117.106 E.01315
G1 X125.419 Y109.317 E.24421
G1 X125 Y109.317 E.01314
M73 P3 R28
M73 Q3 S29
G1 X125 Y117.119 E.24461
G1 X124.581 Y117.106 E.01314
G1 X124.581 Y109.317 E.24421
G1 X124.162 Y109.317 E.01314
G1 X124.162 Y117.086 E.2436
G1 X123.743 Y117.048 E.01319
G1 X123.743 Y109.317 E.24241
G1 X123.324 Y109.317 E.01314
G1 X123.324 Y116.996 E.24077
G1 X122.905 Y116.932 E.01329
G1 X122.905 Y109.317 E.23877
G1 X122.486 Y109.317 E.01314
G1 X122.486 Y116.847 E.23608
G1 X122.067 Y116.753 E.01346
G1 X122.067 Y109.317 E.23313
G1 X121.648 Y109.317 E.01314
G1 X121.648 Y116.636 E.22947
G1 X121.229 Y116.505 E.01376
G1 X121.229 Y109.147 E.2307
G1 X120.81 Y116.54 F10800
G1 F1200
G1 X120.81 Y93.899 E.7099
G1 X120.391 Y94.068 E.01417
M73 Q3 S28
G1 X120.391 Y116.192 E.69366
G1 X119.972 Y116.01 E.01431
G1 X119.972 Y94.25 E.68229
G1 X119.553 Y94.454 E.01461
G1 X119.553 Y115.806 E.66949
G1 X119.134 Y115.579 E.01494
G1 X119.134 Y94.68 E.65528
G1 X118.715 Y94.923 E.01519
G1 X118.715 Y115.336 E.64003
G1 X118.296 Y115.065 E.01564
G1 X118.296 Y95.194 E.62305
G1 X117.877 Y95.493 E.01613
G1 X117.877 Y114.767 E.60431
G1 X117.458 Y114.444 E.01658
G1 X117.458 Y95.816 E.58408
G1 X117.039 Y96.166 E.01712
G1 X117.039 Y114.094 E.56211
G1 X116.62 Y113.699 E.01804
G1 X116.62 Y96.56 E.53738
G1 X116.201 Y96.994 E.0189
G1 X116.201 Y113.266 E.51021
G1 X115.783 Y112.787 E.01994
G1 X115.783 Y97.472 E.48019
G1 X115.364 Y98.007 E.02129
G1 X115.364 Y112.253 E.44668
G1 X114.945 Y111.648 E.02307
M73 P4 R28
M73 Q4 S28
G1 X114.945 Y98.612 E.40875
G1 X114.526 Y99.308 E.02549
G1 X114.526 Y110.952 E.36507
G1 X114.107 Y110.131 E.0289
G1 X114.107 Y100.129 E.31359
G1 X113.79 Y100.879 E.02551
G1 X113.688 Y101.176 E.00987
G1 X113.688 Y109.084 E.24793
G1 X113.554 Y108.697 E.01284
G1 X113.36 Y107.999 E.02271
G1 X113.269 Y107.575 E.01359
G1 X113.269 Y101.955 E.17622
G1 E-.8 F2100
G1 Z.8 F10800
G1 X113.279 Y98.266
G1 Z.2
G1 E.8 F2100
;TYPE:Perimeter
;WIDTH:0.494307
G1 F1200
G1 X113.665 Y97.646 E.02744
;WIDTH:0.494677
G1 X114.114 Y97.007 E.02933
;WIDTH:0.494811
G1 X114.588 Y96.408 E.02871
G1 X115.095 Y95.836 E.02872
G1 X115.634 Y95.293 E.02872
G1 X116.005 Y94.949 E.01902
;WIDTH:0.489648
G1 X116.607 Y94.447 E.02914
;WIDTH:0.489982
G1 X117.268 Y93.96 E.03051
;WIDTH:0.490431
G1 X117.956 Y93.513 E.03054
;WIDTH:0.490993
G1 X118.67 Y93.109 E.03058
;WIDTH:0.491666
G1 X119.407 Y92.748 E.03062
;WIDTH:0.492414
G1 X120.125 Y92.449 E.02904
;WIDTH:0.493101
G1 X120.862 Y92.191 E.02923
;WIDTH:0.493682
G1 X121.596 Y91.979 E.02864
;WIDTH:0.494136
G1 X122.341 Y91.809 E.02868
;WIDTH:0.494476
G1 X123.095 Y91.681 E.0287
;WIDTH:0.494703
G1 X123.855 Y91.596 E.02872
;WIDTH:0.49482
G1 X124.618 Y91.553 E.02872
;WIDTH:0.49543
G1 X125.383 Y91.554 E.02879
G1 X126.145 Y91.596 E.02874
;WIDTH:0.494704
G1 X126.656 Y91.646 E.01925
;WIDTH:0.489679
G1 X127.431 Y91.764 E.02914
;WIDTH:0.490026
G1 X128.234 Y91.935 E.03051
;WIDTH:0.490486
G1 X129.024 Y92.154 E.03054
;WIDTH:0.491062
G1 X129.801 Y92.42 E.03058
;WIDTH:0.491751
G1 X130.559 Y92.733 E.03063
;WIDTH:0.492515
G1 X131.267 Y93.076 E.0294
;WIDTH:0.493135
G1 X131.921 Y93.441 E.02803
;WIDTH:0.49373
G1 X132.581 Y93.858 E.02927
;WIDTH:0.494182
G1 X133.364 Y94.425 E.03627
;WIDTH:0.49451
G1 X133.798 Y94.782 E.02111
;WIDTH:0.494724
G1 X134.366 Y95.293 E.02872
G1 X134.905 Y95.836 E.02872
G1 X135.412 Y96.408 E.02872
G1 X135.886 Y97.007 E.02872
G1 X136.191 Y97.428 E.01949
;WIDTH:0.489678
G1 X136.617 Y98.086 E.02914
;WIDTH:0.490071
G1 X137.021 Y98.8 E.03051
;WIDTH:0.490547
G1 X137.381 Y99.538 E.03054
;WIDTH:0.491134
G1 X137.697 Y100.295 E.03059
;WIDTH:0.491836
G1 X137.966 Y101.071 E.03063
;WIDTH:0.492596
G1 X138.177 Y101.821 E.02916
;WIDTH:0.493251
G1 X138.341 Y102.568 E.02863
;WIDTH:0.493797
G1 X138.463 Y103.323 E.02866
;WIDTH:0.494225
G1 X138.543 Y104.083 E.02869
;WIDTH:0.49454
G1 X138.58 Y104.847 E.02871
;WIDTH:0.494741
G1 X138.574 Y105.611 E.02872
;WIDTH:0.494873
G1 X138.525 Y106.378 E.02885
;WIDTH:0.501379
G1 X138.41 Y107.308 E.03573
G1 X138.341 Y107.574 E.01049
;WIDTH:0.460689
G1 X138.271 Y107.84 E.00956
;WIDTH:0.419999
G1 X138.161 Y108.356 E.01654
G1 X137.953 Y109.107 E.02442
G1 X137.676 Y109.917 E.02686
G1 X137.364 Y110.676 E.02572
G1 X137.119 Y111.18 E.01758
G1 X136.605 Y112.125 E.03374
G1 X136.161 Y112.813 E.02566
G1 X135.677 Y113.473 E.02567
G1 X135.154 Y114.103 E.02566
G1 X134.594 Y114.699 E.02566
G1 X133.998 Y115.261 E.02566
G1 X133.37 Y115.786 E.02566
G1 X132.712 Y116.272 E.02566
G1 X132.246 Y116.574 E.01741
;WIDTH:0.46438
G1 X132.087 Y116.699 E.00707
;WIDTH:0.50876
G1 X131.928 Y116.824 E.00782
G1 X131.33 Y117.151 E.02643
;WIDTH:0.505812
G1 X130.613 Y117.509 E.03083
G1 X130.217 Y117.652 E.0162
;WIDTH:0.462906
G1 X129.821 Y117.794 E.0147
;WIDTH:0.419999
G1 X129.048 Y118.062 E.02567
G1 X128.259 Y118.282 E.02566
G1 X127.632 Y118.418 E.02012
G1 X127.062 Y118.517 E.01814
G1 X126.113 Y118.629 E.02998
G1 X124.983 Y118.68 E.03546
G1 X124.199 Y118.657 E.02459
G1 X123.422 Y118.587 E.02446
G1 X122.574 Y118.461 E.02687
G1 X121.916 Y118.321 E.02111
G1 X121.316 Y118.164 E.01943
G1 X120.394 Y117.869 E.03038
;WIDTH:0.452215
G1 X119.967 Y117.716 E.01543
;WIDTH:0.484431
G1 X119.54 Y117.564 E.01665
;WIDTH:0.490454
G1 X118.703 Y117.168 E.03446
;WIDTH:0.495124
G1 X117.961 Y116.74 E.03221
;WIDTH:0.474247
G1 X117.757 Y116.592 E.00903
;WIDTH:0.447123
G1 X117.553 Y116.444 E.00846
;WIDTH:0.419999
G1 X116.657 Y115.807 E.03448
G1 X116.027 Y115.284 E.02566
G1 X115.43 Y114.724 E.02566
G1 X114.869 Y114.128 E.02566
G1 X114.344 Y113.5 E.02566
G1 X113.858 Y112.841 E.02566
G1 X113.413 Y112.155 E.02566
G1 X113.01 Y111.442 E.02566
G1 X112.65 Y110.707 E.02566
G1 X112.336 Y109.951 E.02566
G1 X112.068 Y109.177 E.02567
G1 X111.866 Y108.455 E.02353
G1 X111.729 Y107.84 E.01974
;WIDTH:0.460691
G1 X111.659 Y107.574 E.00956
;WIDTH:0.501382
G1 X111.59 Y107.308 E.01049
G1 X111.515 Y106.786 E.02011
;WIDTH:0.491094
G1 X111.441 Y105.968 E.03058
;WIDTH:0.489407
G1 X111.415 Y105.148 E.03047
;WIDTH:0.489615
G1 X111.438 Y104.328 E.03048
;WIDTH:0.489937
G1 X111.511 Y103.51 E.0305
;WIDTH:0.490373
G1 X111.634 Y102.699 E.03053
;WIDTH:0.490921
G1 X111.805 Y101.896 E.03057
;WIDTH:0.491583
G1 X112.024 Y101.105 E.03062
;WIDTH:0.492345
G1 X112.283 Y100.349 E.02987
;WIDTH:0.493042
G1 X112.573 Y99.642 E.02862
;WIDTH:0.493623
G1 X112.902 Y98.952 E.02865
;WIDTH:0.494092
G1 X113.249 Y98.319 E.02709
G1 X113.63 Y98.485 F10800
;TYPE:External perimeter
;WIDTH:0.419999
G1 F1200
G1 X114.013 Y97.871 E.02269
G1 X114.448 Y97.253 E.0237
G1 X114.907 Y96.673 E.02317
G1 X115.397 Y96.12 E.02318
G1 X115.918 Y95.595 E.02318
G1 X116.871 Y94.763 E.03967
G1 X117.512 Y94.292 E.02495
G1 X118.18 Y93.859 E.02495
G1 X118.873 Y93.468 E.02495
G1 X119.588 Y93.119 E.02495
G1 X120.283 Y92.831 E.02358
G1 X120.997 Y92.582 E.0237
G1 X121.707 Y92.378 E.02317
G1 X122.428 Y92.214 E.02319
G1 X123.157 Y92.091 E.02318
G1 X123.892 Y92.009 E.02319
G1 X124.63 Y91.967 E.02318
G1 X125.372 Y91.969 E.02324
G1 X126.108 Y92.009 E.02312
G1 X126.843 Y92.091 E.02319
G1 X127.372 Y92.172 E.0168
G1 X128.147 Y92.338 E.02484
G1 X128.914 Y92.551 E.02495
G1 X129.666 Y92.81 E.02495
G1 X130.401 Y93.115 E.02495
G1 X131.086 Y93.448 E.02388
G1 X131.718 Y93.801 E.02269
G1 X132.356 Y94.206 E.0237
G1 X133.12 Y94.756 E.02952
G1 X133.533 Y95.1 E.01685
G1 X134.082 Y95.595 E.02319
G1 X134.603 Y96.12 E.02318
G1 X135.093 Y96.673 E.02318
G1 X135.552 Y97.253 E.02318
G1 X135.97 Y97.844 E.02269
G1 X136.272 Y98.312 E.01749
G1 X136.662 Y99.003 E.02485
G1 X137.011 Y99.718 E.02495
G1 X137.315 Y100.453 E.02495
G1 X137.575 Y101.205 E.02495
G1 X137.778 Y101.932 E.02367
G1 X137.936 Y102.655 E.02319
