; generated by PrusaSlicer 2.3.1+win64 on 2021-08-19 at 17:12:28 UTC

; 

; external perimeters extrusion width = 0.45mm
; perimeters extrusion width = 0.45mm
; infill extrusion width = 0.45mm
; solid infill extrusion width = 0.45mm
; top infill extrusion width = 0.40mm
; support material extrusion width = 0.35mm
; first layer extrusion width = 0.42mm

M73 P0 R198
M73 Q0 S199
M201 X1000 Y1000 Z1000 E5000 ; sets maximum accelerations, mm/sec^2
M203 X200 Y200 Z12 E120 ; sets maximum feedrates, mm/sec
M204 P1250 R1250 T1250 ; sets acceleration (P, T) and retract acceleration (R), mm/sec^2
M205 X8.00 Y8.00 Z0.40 E1.50 ; sets the jerk limits, mm/sec
M205 S0 T0 ; sets the minimum extruding and travel feed rate, mm/sec
M107
;TYPE:Custom
M862.3 P "MK3S" ; printer model check
M862.1 P0.4 ; nozzle diameter check
M115 U3.8.0 ; tell printer latest fw version
G90 ; use absolute coordinates
M83 ; extruder relative mode
M104 S215 ; set extruder temp
M140 S60 ; set bed temp
M190 S60 ; wait for bed temp
M109 S215 ; wait for extruder temp
G28 W ; home all without mesh bed level
G80 ; mesh bed leveling
G1 Y-3.0 F1000.0 ; go outside print area
G92 E0.0
G1 X60.0 E9.0 F1000.0 ; intro line
G1 X100.0 E12.5 F1000.0 ; intro line
G92 E0.0
M221 S95
G21 ; set units to millimeters
G90 ; use absolute coordinates
M83 ; use relative distances for extrusion
M900 K0.05 ; Filament gcode LA 1.5
M900 K30 ; Filament gcode LA 1.0
;LAYER_CHANGE
;Z:0.2
;HEIGHT:0.2
;BEFORE_LAYER_CHANGE
G92 E0.0
;0.2


G1 E-0.80000 F2100.000
G1 Z0.600 F10800.000
;AFTER_LAYER_CHANGE
;0.2
G1 X97.163 Y133.823
G1 Z0.200
G1 E0.80000 F2100.000
M204 S1000
;TYPE:Perimeter
;WIDTH:0.42
G1 F1200.000
G1 X101.837 Y133.823 E0.14655
G1 X101.837 Y168.797 E1.09659
G1 X97.163 Y168.797 E0.14655
G1 X97.163 Y133.883 E1.09471
G1 X97.540 Y134.200 F10800.000
;TYPE:External perimeter
G1 F1200.000
G1 X101.460 Y134.200 E0.12291
G1 X101.460 Y168.420 E1.07294
G1 X97.540 Y168.420 E0.12291
G1 X97.540 Y134.260 E1.07106
G1 X97.525 Y133.800 F10800.000
G1 E-0.80000 F2100.000
G1 Z0.800 F10800.000
G1 X96.152 Y132.814
G1 Z0.200
G1 E0.80000 F2100.000
;TYPE:Perimeter
G1 F1200.000
G1 X96.322 Y132.762 E0.00559
G1 X96.529 Y132.742 E0.00650
G1 X102.504 Y132.745 E0.18734
G1 X102.678 Y132.762 E0.00548
G1 X102.848 Y132.814 E0.00559
G1 X103.006 Y132.898 E0.00559
G1 X103.144 Y133.011 E0.00559
G1 X103.257 Y133.149 E0.00559
G1 X103.341 Y133.307 E0.00559
G1 X103.393 Y133.477 E0.00559
G1 X103.413 Y133.684 E0.00650
G1 X103.413 Y168.936 E1.10531
G1 X103.393 Y169.143 E0.00650
G1 X103.341 Y169.313 E0.00559
G1 X103.257 Y169.471 E0.00559
G1 X103.144 Y169.609 E0.00559
G1 X103.006 Y169.722 E0.00559
G1 X102.848 Y169.806 E0.00559
G1 X102.678 Y169.858 E0.00559
G1 X102.471 Y169.878 E0.00650
G1 X96.529 Y169.878 E0.18632
G1 X96.322 Y169.858 E0.00650
G1 X96.152 Y169.806 E0.00559
G1 X95.994 Y169.722 E0.00559
G1 X95.856 Y169.609 E0.00559
G1 X95.743 Y169.471 E0.00559
G1 X95.659 Y169.313 E0.00559
G1 X95.607 Y169.143 E0.00559
G1 X95.587 Y168.936 E0.00650
G1 X95.587 Y133.684 E1.10531
M73 P0 R197
G1 X95.607 Y133.477 E0.00650
G1 X95.659 Y133.307 E0.00559
G1 X95.743 Y133.149 E0.00559
G1 X95.856 Y133.011 E0.00559
G1 X95.994 Y132.898 E0.00559
G1 X96.099 Y132.842 E0.00371
G1 X95.921 Y132.510 F10800.000
;TYPE:External perimeter
G1 F1200.000
G1 X96.007 Y132.464 E0.00305
G1 X96.249 Y132.391 E0.00792
G1 X96.510 Y132.365 E0.00825
G1 X102.522 Y132.368 E0.18850
G1 X102.751 Y132.391 E0.00723
G1 X102.993 Y132.464 E0.00792
G1 X103.216 Y132.583 E0.00792
G1 X103.411 Y132.744 E0.00792
G1 X103.572 Y132.939 E0.00792
G1 X103.691 Y133.162 E0.00792
G1 X103.764 Y133.404 E0.00792
G1 X103.790 Y133.665 E0.00825
G1 X103.790 Y168.955 E1.10647
G1 X103.764 Y169.216 E0.00825
G1 X103.691 Y169.458 E0.00792
G1 X103.572 Y169.681 E0.00792
G1 X103.411 Y169.876 E0.00792
G1 X103.216 Y170.037 E0.00792
G1 X102.993 Y170.156 E0.00792
G1 X102.751 Y170.229 E0.00792
G1 X102.490 Y170.255 E0.00825
G1 X96.510 Y170.255 E0.18748
G1 X96.249 Y170.229 E0.00825
G1 X96.007 Y170.156 E0.00792
G1 X95.784 Y170.037 E0.00792
G1 X95.589 Y169.876 E0.00792
G1 X95.428 Y169.681 E0.00792
G1 X95.309 Y169.458 E0.00792
G1 X95.236 Y169.216 E0.00792
G1 X95.210 Y168.955 E0.00825
G1 X95.210 Y133.665 E1.10647
G1 X95.236 Y133.404 E0.00825
G1 X95.309 Y133.162 E0.00792
G1 X95.428 Y132.939 E0.00792
G1 X95.589 Y132.744 E0.00792
G1 X95.784 Y132.583 E0.00792
G1 X95.868 Y132.538 E0.00300
G1 X96.006 Y132.558 F10800.000
G1 E-0.80000 F2100.000
G1 Z0.800 F10800.000
G1 X103.287 Y133.558
G1 Z0.200
G1 E0.80000 F2100.000
;TYPE:Solid infill
;WIDTH:0.423676
G1 F1200.000
G1 X102.935 Y133.206 E0.01576
G1 X102.740 Y133.077 E0.00742
G1 X102.622 Y133.041 E0.00388
G1 X102.490 Y133.028 E0.00422
G1 X102.218 Y133.028 E0.00859
G1 X103.130 Y133.940 E0.04083
G1 X103.130 Y134.478 E0.01705
G1 X101.679 Y133.028 E0.06495
G1 X101.141 Y133.027 E0.01706
G1 X101.654 Y133.540 E0.02296
G1 X101.115 Y133.540 E0.01705
G1 X100.602 Y133.027 E0.02297
G1 X100.063 Y133.027 E0.01706
G1 X100.577 Y133.540 E0.02298
G1 X100.038 Y133.540 E0.01705
G1 X99.524 Y133.026 E0.02300
G1 X98.986 Y133.026 E0.01706
G1 X99.500 Y133.540 E0.02301
G1 X98.961 Y133.540 E0.01705
G1 X98.447 Y133.026 E0.02302
G1 X97.908 Y133.026 E0.01706
G1 X98.423 Y133.540 E0.02304
G1 X97.884 Y133.540 E0.01705
G1 X97.369 Y133.025 E0.02305
G1 X96.831 Y133.025 E0.01706
G1 X97.346 Y133.540 E0.02306
G1 X96.880 Y133.540 E0.01474
G1 X96.880 Y133.613 E0.00231
G1 X96.324 Y133.057 E0.02488
G1 X96.260 Y133.077 E0.00212
G1 X96.152 Y133.135 E0.00388
G1 X96.005 Y133.276 E0.00647
G1 X96.880 Y134.151 E0.03918
G1 X96.880 Y134.690 E0.01705
G1 X95.871 Y133.681 E0.04516
G1 X95.870 Y134.218 E0.01700
G1 X96.880 Y135.228 E0.04523
G1 X96.880 Y135.767 E0.01705
G1 X95.870 Y134.757 E0.04523
G1 X95.870 Y135.295 E0.01705
G1 X96.880 Y136.305 E0.04523
G1 X96.880 Y136.844 E0.01705
G1 X95.870 Y135.834 E0.04523
G1 X95.870 Y136.372 E0.01705
G1 X96.880 Y137.382 E0.04523
G1 X96.880 Y137.921 E0.01705
G1 X95.870 Y136.910 E0.04523
G1 X95.870 Y137.449 E0.01705
G1 X96.880 Y138.459 E0.04523
G1 X96.880 Y138.998 E0.01705
G1 X95.870 Y137.987 E0.04523
G1 X95.870 Y138.526 E0.01705
G1 X96.880 Y139.536 E0.04523
G1 X96.880 Y140.075 E0.01705
G1 X95.870 Y139.064 E0.04523
G1 X95.870 Y139.603 E0.01705
G1 X96.880 Y140.613 E0.04523
G1 X96.880 Y141.152 E0.01705
G1 X95.870 Y140.141 E0.04523
G1 X95.870 Y140.680 E0.01705
G1 X96.880 Y141.690 E0.04523
G1 X96.880 Y142.228 E0.01705
G1 X95.870 Y141.218 E0.04523
G1 X95.870 Y141.757 E0.01705
G1 X96.880 Y142.767 E0.04523
G1 X96.880 Y143.305 E0.01705
G1 X95.870 Y142.295 E0.04523
G1 X95.870 Y142.834 E0.01705
G1 X96.880 Y143.844 E0.04523
G1 X96.880 Y144.382 E0.01705
G1 X95.870 Y143.372 E0.04523
G1 X95.870 Y143.911 E0.01705
G1 X96.880 Y144.921 E0.04523
G1 X96.880 Y145.459 E0.01705
G1 X95.870 Y144.449 E0.04523
G1 X95.870 Y144.988 E0.01705
G1 X96.880 Y145.998 E0.04523
G1 X96.880 Y146.536 E0.01705
G1 X95.870 Y145.526 E0.04523
G1 X95.870 Y146.064 E0.01705
G1 X96.880 Y147.075 E0.04523
G1 X96.880 Y147.613 E0.01705
G1 X95.870 Y146.603 E0.04523
G1 X95.870 Y147.141 E0.01705
G1 X96.880 Y148.152 E0.04523
G1 X96.880 Y148.690 E0.01705
G1 X95.870 Y147.680 E0.04523
G1 X95.870 Y148.218 E0.01705
G1 X96.880 Y149.229 E0.04523
G1 X96.880 Y149.767 E0.01705
G1 X95.870 Y148.757 E0.04523
G1 X95.870 Y149.295 E0.01705
G1 X96.880 Y150.306 E0.04523
G1 X96.880 Y150.844 E0.01705
G1 X95.870 Y149.834 E0.04523
G1 X95.870 Y150.372 E0.01705
G1 X96.880 Y151.382 E0.04523
G1 X96.880 Y151.921 E0.01705
G1 X95.870 Y150.911 E0.04523
G1 X95.870 Y151.449 E0.01705
G1 X96.880 Y152.459 E0.04523
G1 X96.880 Y152.998 E0.01705
G1 X95.870 Y151.988 E0.04523
G1 X95.870 Y152.526 E0.01705
G1 X96.880 Y153.536 E0.04523
G1 X96.880 Y154.075 E0.01705
G1 X95.870 Y153.065 E0.04523
G1 X95.870 Y153.603 E0.01705
G1 X96.880 Y154.613 E0.04523
G1 X96.880 Y155.152 E0.01705
G1 X95.870 Y154.142 E0.04523
G1 X95.870 Y154.680 E0.01705
G1 X96.880 Y155.690 E0.04523
G1 X96.880 Y156.229 E0.01705
G1 X95.870 Y155.218 E0.04523
G1 X95.870 Y155.757 E0.01705
G1 X96.880 Y156.767 E0.04523
G1 X96.880 Y157.306 E0.01705
G1 X95.870 Y156.295 E0.04523
G1 X95.870 Y156.834 E0.01705
G1 X96.880 Y157.844 E0.04523
G1 X96.880 Y158.383 E0.01705
G1 X95.870 Y157.372 E0.04523
G1 X95.870 Y157.911 E0.01705
G1 X96.880 Y158.921 E0.04523
G1 X96.880 Y159.460 E0.01705
G1 X95.870 Y158.449 E0.04523
G1 X95.870 Y158.988 E0.01705
G1 X96.880 Y159.998 E0.04523
G1 X96.880 Y160.536 E0.01705
G1 X95.870 Y159.526 E0.04523
G1 X95.870 Y160.065 E0.01705
G1 X96.880 Y161.075 E0.04523
G1 X96.880 Y161.613 E0.01705
G1 X95.870 Y160.603 E0.04523
G1 X95.870 Y161.142 E0.01705
G1 X96.880 Y162.152 E0.04523
G1 X96.880 Y162.690 E0.01705
G1 X95.870 Y161.680 E0.04523
M73 Q0 S198
G1 X95.870 Y162.219 E0.01705
G1 X96.880 Y163.229 E0.04523
G1 X96.880 Y163.767 E0.01705
G1 X95.870 Y162.757 E0.04523
G1 X95.870 Y163.296 E0.01705
G1 X96.880 Y164.306 E0.04523
G1 X96.880 Y164.844 E0.01705
G1 X95.870 Y163.834 E0.04523
G1 X95.870 Y164.372 E0.01705
G1 X96.880 Y165.383 E0.04523
G1 X96.880 Y165.921 E0.01705
G1 X95.870 Y164.911 E0.04523
G1 X95.870 Y165.449 E0.01705
G1 X96.880 Y166.460 E0.04523
G1 X96.880 Y166.998 E0.01705
G1 X95.870 Y165.988 E0.04523
G1 X95.870 Y166.526 E0.01705
G1 X96.880 Y167.537 E0.04523
G1 X96.880 Y168.075 E0.01705
G1 X95.870 Y167.065 E0.04523
G1 X95.870 Y167.603 E0.01705
G1 X96.880 Y168.614 E0.04523
G1 X96.880 Y169.080 E0.01476
G1 X97.346 Y169.080 E0.01476
G1 X97.862 Y169.595 E0.02307
G1 X98.400 Y169.595 E0.01705
G1 X97.885 Y169.080 E0.02307
G1 X98.423 Y169.080 E0.01705
G1 X98.939 Y169.595 E0.02307
G1 X99.477 Y169.595 E0.01705
G1 X98.962 Y169.080 E0.02307
G1 X99.500 Y169.080 E0.01705
G1 X100.016 Y169.595 E0.02307
G1 X100.554 Y169.595 E0.01705
G1 X100.039 Y169.080 E0.02307
G1 X100.577 Y169.080 E0.01705
G1 X101.093 Y169.595 E0.02307
G1 X101.631 Y169.595 E0.01705
G1 X101.116 Y169.080 E0.02307
G1 X101.654 Y169.080 E0.01705
G1 X102.169 Y169.595 E0.02307
G1 X102.457 Y169.595 E0.00911
G1 X102.676 Y169.563 E0.00699
G1 X102.120 Y169.007 E0.02488
G1 X102.120 Y168.469 E0.01705
G1 X102.995 Y169.344 E0.03918
G1 X103.078 Y169.205 E0.00514
G1 X103.114 Y169.087 E0.00388
G1 X103.129 Y168.939 E0.00472
G1 X102.120 Y167.930 E0.04516
G1 X102.120 Y167.392 E0.01705
G1 X103.130 Y168.402 E0.04523
G1 X103.130 Y167.863 E0.01705
G1 X102.120 Y166.853 E0.04523
G1 X102.120 Y166.315 E0.01705
G1 X103.130 Y167.325 E0.04523
G1 X103.130 Y166.786 E0.01705
G1 X102.120 Y165.776 E0.04523
G1 X102.120 Y165.238 E0.01705
G1 X103.130 Y166.248 E0.04523
G1 X103.130 Y165.710 E0.01705
G1 X102.120 Y164.699 E0.04523
G1 X102.120 Y164.161 E0.01705
G1 X103.130 Y165.171 E0.04523
G1 X103.130 Y164.633 E0.01705
G1 X102.120 Y163.622 E0.04523
G1 X102.120 Y163.084 E0.01705
G1 X103.130 Y164.094 E0.04523
G1 X103.130 Y163.556 E0.01705
G1 X102.120 Y162.545 E0.04523
G1 X102.120 Y162.007 E0.01705
G1 X103.130 Y163.017 E0.04523
G1 X103.130 Y162.479 E0.01705
G1 X102.120 Y161.468 E0.04523
G1 X102.120 Y160.930 E0.01705
G1 X103.130 Y161.940 E0.04523
G1 X103.130 Y161.402 E0.01705
G1 X102.120 Y160.392 E0.04523
G1 X102.120 Y159.853 E0.01705
G1 X103.130 Y160.863 E0.04523
G1 X103.130 Y160.325 E0.01705
G1 X102.120 Y159.315 E0.04523
G1 X102.120 Y158.776 E0.01705
G1 X103.130 Y159.786 E0.04523
G1 X103.130 Y159.248 E0.01705
G1 X102.120 Y158.238 E0.04523
G1 X102.120 Y157.699 E0.01705
G1 X103.130 Y158.709 E0.04523
G1 X103.130 Y158.171 E0.01705
G1 X102.120 Y157.161 E0.04523
G1 X102.120 Y156.622 E0.01705
G1 X103.130 Y157.632 E0.04523
G1 X103.130 Y157.094 E0.01705
G1 X102.120 Y156.084 E0.04523
G1 X102.120 Y155.545 E0.01705
G1 X103.130 Y156.556 E0.04523
G1 X103.130 Y156.017 E0.01705
G1 X102.120 Y155.007 E0.04523
G1 X102.120 Y154.468 E0.01705
G1 X103.130 Y155.479 E0.04523
G1 X103.130 Y154.940 E0.01705
G1 X102.120 Y153.930 E0.04523
G1 X102.120 Y153.391 E0.01705
G1 X103.130 Y154.402 E0.04523
G1 X103.130 Y153.863 E0.01705
G1 X102.120 Y152.853 E0.04523
G1 X102.120 Y152.314 E0.01705
G1 X103.130 Y153.325 E0.04523
G1 X103.130 Y152.786 E0.01705
G1 X102.120 Y151.776 E0.04523
G1 X102.120 Y151.238 E0.01705
G1 X103.130 Y152.248 E0.04523
G1 X103.130 Y151.709 E0.01705
G1 X102.120 Y150.699 E0.04523
G1 X102.120 Y150.161 E0.01705
G1 X103.130 Y151.171 E0.04523
G1 X103.130 Y150.632 E0.01705
G1 X102.120 Y149.622 E0.04523
G1 X102.120 Y149.084 E0.01705
G1 X103.130 Y150.094 E0.04523
G1 X103.130 Y149.555 E0.01705
G1 X102.120 Y148.545 E0.04523
G1 X102.120 Y148.007 E0.01705
G1 X103.130 Y149.017 E0.04523
G1 X103.130 Y148.478 E0.01705
G1 X102.120 Y147.468 E0.04523
G1 X102.120 Y146.930 E0.01705
G1 X103.130 Y147.940 E0.04523
G1 X103.130 Y147.402 E0.01705
G1 X102.120 Y146.391 E0.04523
G1 X102.120 Y145.853 E0.01705
G1 X103.130 Y146.863 E0.04523
G1 X103.130 Y146.325 E0.01705
G1 X102.120 Y145.314 E0.04523
G1 X102.120 Y144.776 E0.01705
G1 X103.130 Y145.786 E0.04523
G1 X103.130 Y145.248 E0.01705
G1 X102.120 Y144.237 E0.04523
G1 X102.120 Y143.699 E0.01705
G1 X103.130 Y144.709 E0.04523
G1 X103.130 Y144.171 E0.01705
G1 X102.120 Y143.160 E0.04523
G1 X102.120 Y142.622 E0.01705
G1 X103.130 Y143.632 E0.04523
G1 X103.130 Y143.094 E0.01705
G1 X102.120 Y142.084 E0.04523
G1 X102.120 Y141.545 E0.01705
G1 X103.130 Y142.555 E0.04523
G1 X103.130 Y142.017 E0.01705
G1 X102.120 Y141.007 E0.04523
G1 X102.120 Y140.468 E0.01705
G1 X103.130 Y141.478 E0.04523
G1 X103.130 Y140.940 E0.01705
G1 X102.120 Y139.930 E0.04523
G1 X102.120 Y139.391 E0.01705
G1 X103.130 Y140.401 E0.04523
G1 X103.130 Y139.863 E0.01705
G1 X102.120 Y138.853 E0.04523
G1 X102.120 Y138.314 E0.01705
G1 X103.130 Y139.325 E0.04523
G1 X103.130 Y138.786 E0.01705
G1 X102.120 Y137.776 E0.04523
G1 X102.120 Y137.237 E0.01705
G1 X103.130 Y138.248 E0.04523
G1 X103.130 Y137.709 E0.01705
G1 X102.120 Y136.699 E0.04523
G1 X102.120 Y136.160 E0.01705
G1 X103.130 Y137.171 E0.04523
G1 X103.130 Y136.632 E0.01705
G1 X102.120 Y135.622 E0.04523
G1 X102.120 Y135.083 E0.01705
G1 X103.130 Y136.094 E0.04523
G1 X103.130 Y135.555 E0.01705
G1 X102.120 Y134.545 E0.04523
G1 X102.120 Y134.006 E0.01705
G1 X103.300 Y135.186 E0.05283
G1 E-0.80000 F2100.000
G1 Z0.800 F10800.000
G1 X95.713 Y169.062
G1 Z0.200
G1 E0.80000 F2100.000
G1 F1200.000
G1 X96.065 Y169.414 E0.01575
G1 X96.260 Y169.543 E0.00743
G1 X96.378 Y169.579 E0.00388
G1 X96.785 Y169.595 E0.01289
G1 X95.870 Y168.680 E0.04096
G1 X95.870 Y168.142 E0.01705
G1 X97.493 Y169.765 E0.07267
G1 E-0.80000 F2100.000
G1 Z0.800 F10800.000
G1 X114.163 Y168.797
G1 Z0.200
G1 E0.80000 F2100.000
;TYPE:Perimeter
;WIDTH:0.42
G1 F1200.000
G1 X114.163 Y133.823 E1.09659
G1 X118.837 Y133.823 E0.14655
G1 X118.837 Y168.797 E1.09659
G1 X114.223 Y168.797 E0.14467
G1 X114.540 Y168.420 F10800.000
;TYPE:External perimeter
G1 F1200.000
G1 X114.540 Y134.200 E1.07294
G1 X118.460 Y134.200 E0.12291
G1 X118.460 Y168.420 E1.07294
G1 X114.600 Y168.420 E0.12103
G1 X114.186 Y168.607 F10800.000
G1 E-0.80000 F2100.000
G1 Z0.800 F10800.000
G1 X113.152 Y169.806
G1 Z0.200
G1 E0.80000 F2100.000
;TYPE:Perimeter
G1 F1200.000
G1 X112.994 Y169.722 E0.00559
G1 X112.856 Y169.609 E0.00559
G1 X112.743 Y169.471 E0.00559
G1 X112.659 Y169.313 E0.00559
G1 X112.607 Y169.143 E0.00559
G1 X112.587 Y168.936 E0.00650
G1 X112.587 Y133.684 E1.10531
G1 X112.607 Y133.477 E0.00650
G1 X112.659 Y133.307 E0.00559
G1 X112.743 Y133.149 E0.00559
G1 X112.856 Y133.011 E0.00559
G1 X112.994 Y132.898 E0.00559
G1 X113.152 Y132.814 E0.00559
G1 X113.322 Y132.762 E0.00559
G1 X113.529 Y132.742 E0.00650
G1 X119.504 Y132.745 E0.18734
G1 X119.678 Y132.762 E0.00548
G1 X119.848 Y132.814 E0.00559
G1 X120.006 Y132.898 E0.00559
G1 X120.144 Y133.011 E0.00559
G1 X120.257 Y133.149 E0.00559
G1 X120.341 Y133.307 E0.00559
G1 X120.393 Y133.477 E0.00559
G1 X120.413 Y133.684 E0.00650
G1 X120.413 Y168.936 E1.10531
G1 X120.393 Y169.143 E0.00650
G1 X120.341 Y169.313 E0.00559
G1 X120.257 Y169.471 E0.00559
G1 X120.144 Y169.609 E0.00559
G1 X120.006 Y169.722 E0.00559
G1 X119.848 Y169.806 E0.00559
G1 X119.678 Y169.858 E0.00559
G1 X119.471 Y169.878 E0.00650
G1 X113.529 Y169.878 E0.18632
G1 X113.322 Y169.858 E0.00650
G1 X113.209 Y169.823 E0.00371
G1 X113.100 Y170.184 F10800.000
;TYPE:External perimeter
G1 F1200.000
G1 X113.007 Y170.156 E0.00305
G1 X112.784 Y170.037 E0.00792
G1 X112.589 Y169.876 E0.00792
