; generated by PrusaSlicer 2.2.0+win64 on 2022-01-20 at 23:19:46 UTC

; 

; external perimeters extrusion width = 0.45mm
; perimeters extrusion width = 0.45mm
; infill extrusion width = 0.45mm
; solid infill extrusion width = 0.45mm
; top infill extrusion width = 0.40mm
; first layer extrusion width = 0.42mm

M73 P0 R34
M73 Q0 S34
M201 X1000 Y1000 Z200 E5000 ; sets maximum accelerations, mm/sec^2
M203 X200 Y200 Z12 E120 ; sets maximum feedrates, mm/sec
M204 P1250 R1250 T1250 ; sets acceleration (P, T) and retract acceleration (R), mm/sec^2
M205 X8.00 Y8.00 Z0.40 E4.50 ; sets the jerk limits, mm/sec
M205 S0 T0 ; sets the minimum extruding and travel feed rate, mm/sec
M107
M862.3 P "MK3S" ; printer model check
M862.1 P0.4 ; nozzle diameter check
G90 ; use absolute coordinates
M83 ; extruder relative mode
M104 S225 ; set extruder temp
M140 S60 ; set bed temp
M190 S60 ; wait for bed temp
M109 S225 ; wait for extruder temp
G28 W ; home all without mesh bed level
G80 ; mesh bed leveling
G1 Y-3.0 F1000.0 ; go outside print area
G92 E0.0
G1 X60.0 E9.0 F1000.0 ; intro line
M73 Q0 S34
M73 P0 R34
G1 X100.0 E12.5 F1000.0 ; intro line
G92 E0.0
M221 S95

; Don't change E values below. Excessive value can damage the printer.
M907 E430 ; set extruder motor current
G21 ; set units to millimeters
G90 ; use absolute coordinates
M83 ; use relative distances for extrusion
M900 K0.05 ; Filament gcode LA 1.5
M900 K30 ; Filament gcode LA 1.0
;BEFORE_LAYER_CHANGE
G92 E0.0
;0.2


G1 E-0.80000 F2100.00000
G1 Z0.400 F10800.000
;AFTER_LAYER_CHANGE
;0.2
G1 X103.181 Y84.016
G1 Z0.200
G1 E0.80000 F2100.00000
M204 S1000
G1 F1200.000
G1 X104.206 Y83.029 E0.04460
G1 X105.370 Y82.286 E0.04329
G1 X106.659 Y81.783 E0.04341
G1 X108.041 Y81.539 E0.04400
G1 X141.356 Y81.519 E1.04455
G1 X142.681 Y81.630 E0.04171
G1 X143.949 Y81.983 E0.04127
G1 X145.165 Y82.587 E0.04257
G1 X146.021 Y83.212 E0.03325
G1 X146.937 Y84.153 E0.04115
G1 X147.686 Y85.290 E0.04270
G1 X148.203 Y86.550 E0.04270
G1 X148.464 Y87.844 E0.04139
G1 X148.501 Y121.642 E1.05973
G1 X148.339 Y122.914 E0.04020
G1 X148.058 Y123.869 E0.03123
G1 X147.496 Y125.034 E0.04055
G1 X146.921 Y125.857 E0.03147
G1 X145.915 Y126.867 E0.04471
G1 X145.228 Y127.365 E0.02658
G1 X144.484 Y127.777 E0.02670
G1 X143.131 Y128.264 E0.04507
G1 X141.715 Y128.465 E0.04483
G1 X108.401 Y128.469 E1.04453
G1 X107.162 Y128.328 E0.03911
G1 X106.199 Y128.060 E0.03135
G1 X105.029 Y127.518 E0.04043
G1 X104.174 Y126.935 E0.03242
G1 X103.532 Y126.359 E0.02706
G1 X102.976 Y125.720 E0.02658
G1 X102.215 Y124.495 E0.04519
G1 X101.719 Y123.142 E0.04519
G1 X101.558 Y122.306 E0.02670
G1 X101.500 Y121.449 E0.02694
G1 X101.512 Y88.184 E1.04300
G1 X101.647 Y87.162 E0.03230
G1 X102.020 Y85.932 E0.04032
G1 X102.461 Y85.035 E0.03135
G1 X103.147 Y84.065 E0.03724
; printing object LightDiffuser.stl id:0 copy 5
G1 F8640.000
G1 X104.206 Y83.029 E-0.34204
G1 X105.370 Y82.286 E-0.31880
G1 X105.770 Y82.130 E-0.09916
G1 E-0.04000 F2100.00000
G1 Z0.600 F10800.000
G1 X106.023 Y86.042
G1 Z0.200
G1 E0.80000 F2100.00000
G1 F1200.000
G1 X106.451 Y85.677 E0.01764
G1 X106.694 Y85.515 E0.00915
G1 X107.195 Y85.259 E0.01764
G1 X107.730 Y85.086 E0.01764
G1 X108.016 Y85.029 E0.00914
G1 X108.560 Y84.985 E0.01713
G1 X109.141 Y85.029 E0.01826
G1 X109.688 Y85.160 E0.01765
G1 X109.962 Y85.261 E0.00915
G1 X110.459 Y85.515 E0.01751
G1 X110.702 Y85.677 E0.00915
G1 X111.130 Y86.042 E0.01764
G1 X111.495 Y86.470 E0.01764
G1 X111.657 Y86.712 E0.00915
G1 X111.912 Y87.213 E0.01764
G1 X112.086 Y87.748 E0.01764
G1 X112.143 Y88.035 E0.00915
G1 X112.187 Y88.591 E0.01751
G1 X112.175 Y88.883 E0.00915
G1 X112.087 Y89.438 E0.01764
G1 X111.914 Y89.973 E0.01764
G1 X111.792 Y90.238 E0.00915
G1 X111.498 Y90.718 E0.01764
G1 X111.130 Y91.149 E0.01777
G1 X110.699 Y91.516 E0.01776
G1 X110.233 Y91.802 E0.01713
G1 X109.955 Y91.932 E0.00964
G1 X109.423 Y92.105 E0.01752
G1 X109.137 Y92.162 E0.00915
G1 X108.581 Y92.206 E0.01751
G1 X108.289 Y92.194 E0.00914
G1 X107.749 Y92.109 E0.01713
G1 X107.195 Y91.931 E0.01825
G1 X106.708 Y91.684 E0.01714
G1 X106.451 Y91.514 E0.00964
G1 X106.023 Y91.149 E0.01765
G1 X105.655 Y90.718 E0.01777
G1 X105.361 Y90.238 E0.01764
G1 X105.239 Y89.973 E0.00915
G1 X105.065 Y89.438 E0.01764
G1 X104.977 Y88.883 E0.01764
G1 X104.966 Y88.595 E0.00902
G1 X104.977 Y88.308 E0.00901
G1 X105.062 Y87.768 E0.01713
G1 X105.240 Y87.214 E0.01826
G1 X105.496 Y86.712 E0.01765
G1 X105.658 Y86.470 E0.00915
G1 X105.984 Y86.088 E0.01575
G1 X105.925 Y85.654 F10800.000
G1 X104.995 Y86.234
G1 F1200.000
G1 X105.333 Y85.788 E0.01752
G1 X105.519 Y85.587 E0.00860
G1 X105.720 Y85.395 E0.00870
G1 X106.160 Y85.051 E0.01753
G1 X106.389 Y84.905 E0.00850
G1 X106.890 Y84.651 E0.01763
G1 X107.142 Y84.552 E0.00850
G1 X107.680 Y84.401 E0.01752
G1 X108.233 Y84.319 E0.01752
G1 X108.507 Y84.306 E0.00859
G1 X109.062 Y84.333 E0.01743
G1 X109.612 Y84.432 E0.01752
G1 X109.872 Y84.506 E0.00850
G1 X110.396 Y84.711 E0.01763
G1 X110.638 Y84.833 E0.00850
G1 X111.109 Y85.133 E0.01752
G1 X111.538 Y85.492 E0.01752
G1 X111.730 Y85.687 E0.00860
G1 X111.911 Y85.897 E0.00870
G1 X112.234 Y86.354 E0.01753
G1 X112.368 Y86.589 E0.00850
G1 X112.597 Y87.099 E0.01752
G1 X112.757 Y87.634 E0.01752
G1 X112.810 Y87.904 E0.00860
G1 X112.846 Y88.179 E0.00870
G1 X112.864 Y88.734 E0.01743
G1 X112.809 Y89.290 E0.01752
G1 X112.756 Y89.560 E0.00860
G1 X112.686 Y89.825 E0.00860
G1 X112.490 Y90.352 E0.01763
G1 X112.371 Y90.595 E0.00850
G1 X112.079 Y91.071 E0.01752
G1 X111.728 Y91.506 E0.01752
G1 X111.535 Y91.701 E0.00860
G1 X111.330 Y91.884 E0.00860
G1 X110.880 Y92.214 E0.01752
G1 X110.390 Y92.483 E0.01752
G1 X110.141 Y92.590 E0.00850
G1 X109.605 Y92.760 E0.01763
G1 X109.340 Y92.816 E0.00850
G1 X108.781 Y92.880 E0.01763
G1 X108.507 Y92.885 E0.00860
G1 X108.230 Y92.871 E0.00870
G1 X107.680 Y92.790 E0.01743
G1 X107.142 Y92.638 E0.01752
G1 X106.890 Y92.540 E0.00850
G1 X106.389 Y92.285 E0.01763
G1 X106.160 Y92.140 E0.00850
G1 X105.717 Y91.793 E0.01763
G1 X105.521 Y91.606 E0.00850
G1 X105.154 Y91.181 E0.01763
G1 X104.995 Y90.957 E0.00860
G1 X104.850 Y90.720 E0.00870
G1 X104.605 Y90.218 E0.01753
G1 X104.510 Y89.961 E0.00859
G1 X104.367 Y89.420 E0.01753
G1 X104.323 Y89.150 E0.00859
G1 X104.287 Y88.592 E0.01753
G1 X104.296 Y88.318 E0.00859
G1 X104.368 Y87.764 E0.01753
G1 X104.430 Y87.497 E0.00859
G1 X104.608 Y86.967 E0.01753
G1 X104.719 Y86.719 E0.00850
G1 X104.966 Y86.286 E0.01564
G1 X105.395 Y86.262 F10800.000
G1 X105.280 Y86.422
G1 F1200.000
G1 X105.597 Y86.010 E0.01270
G1 X105.775 Y85.811 E0.00652
G1 X106.241 Y85.414 E0.01495
G1 X106.558 Y85.202 E0.00931
G1 X107.029 Y84.962 E0.01292
G1 X107.252 Y84.879 E0.00581
G1 X107.751 Y84.734 E0.01270
G1 X108.266 Y84.663 E0.01269
G1 X108.571 Y84.647 E0.00746
G1 X109.204 Y84.700 E0.01552
G1 X109.764 Y84.829 E0.01403
G1 X110.104 Y84.957 E0.00889
G1 X110.467 Y85.132 E0.00984
G1 X110.899 Y85.401 E0.01244
G1 X111.306 Y85.743 E0.01297
G1 X111.477 Y85.920 E0.00602
G1 X111.757 Y86.260 E0.01076
G1 X111.947 Y86.536 E0.00818
G1 X112.061 Y86.745 E0.00581
G1 X112.275 Y87.219 E0.01270
G1 X112.415 Y87.672 E0.01158
G1 X112.480 Y87.997 E0.00810
G1 X112.523 Y88.723 E0.01777
G1 X112.468 Y89.240 E0.01270
G1 X112.414 Y89.529 E0.00717
G1 X112.176 Y90.217 E0.01779
G1 X112.073 Y90.431 E0.00581
G1 X111.801 Y90.875 E0.01270
G1 X111.361 Y91.396 E0.01667
G1 X110.887 Y91.794 E0.01511
G1 X110.694 Y91.923 E0.00566
G1 X110.240 Y92.176 E0.01270
G1 X110.022 Y92.269 E0.00581
G1 X109.518 Y92.431 E0.01292
G1 X109.192 Y92.494 E0.00811
G1 X108.759 Y92.537 E0.01062
G1 X108.263 Y92.533 E0.01212
G1 X107.683 Y92.440 E0.01436
G1 X107.029 Y92.229 E0.01678
G1 X106.557 Y91.989 E0.01292
G1 X106.357 Y91.861 E0.00581
G1 X105.775 Y91.380 E0.01844
G1 X105.374 Y90.907 E0.01514
G1 X105.152 Y90.555 E0.01018
G1 X104.927 Y90.105 E0.01229
G1 X104.736 Y89.505 E0.01537
G1 X104.643 Y88.907 E0.01479
G1 X104.627 Y88.589 E0.00798
G1 X104.643 Y88.267 E0.00790
G1 X104.706 Y87.825 E0.01090
G1 X104.760 Y87.590 E0.00588
G1 X104.924 Y87.090 E0.01285
G1 X105.249 Y86.473 E0.01704
; stop printing object LightDiffuser.stl id:0 copy 5
; printing object LightDiffuser.stl id:0 copy 2
G1 F8640.000
G1 X105.597 Y86.010 E-0.13383
G1 X105.775 Y85.811 E-0.06162
G1 X106.241 Y85.414 E-0.14130
G1 X106.558 Y85.202 E-0.08800
G1 X107.029 Y84.962 E-0.12216
G1 X107.252 Y84.879 E-0.05490
G1 X107.751 Y84.734 E-0.12005
G1 X107.915 Y84.711 E-0.03814
G1 E-0.04000 F2100.00000
G1 Z0.600 F10800.000
G1 X108.560 Y101.385
G1 Z0.200
G1 E0.80000 F2100.00000
G1 F1200.000
G1 X109.141 Y101.429 E0.01826
G1 X109.688 Y101.560 E0.01765
G1 X109.962 Y101.661 E0.00915
G1 X110.459 Y101.914 E0.01751
G1 X110.702 Y102.076 E0.00915
G1 X111.130 Y102.442 E0.01764
G1 X111.495 Y102.869 E0.01764
G1 X111.657 Y103.112 E0.00915
G1 X111.912 Y103.613 E0.01764
G1 X112.086 Y104.148 E0.01764
G1 X112.143 Y104.434 E0.00915
G1 X112.187 Y104.991 E0.01751
G1 X112.175 Y105.282 E0.00915
G1 X112.087 Y105.838 E0.01764
G1 X111.914 Y106.373 E0.01764
G1 X111.792 Y106.638 E0.00915
G1 X111.498 Y107.117 E0.01764
G1 X111.130 Y107.548 E0.01777
G1 X110.699 Y107.916 E0.01776
G1 X110.233 Y108.202 E0.01713
G1 X109.955 Y108.332 E0.00964
G1 X109.423 Y108.505 E0.01752
G1 X109.137 Y108.562 E0.00915
G1 X108.581 Y108.605 E0.01751
G1 X108.289 Y108.594 E0.00914
G1 X107.749 Y108.509 E0.01713
G1 X107.195 Y108.331 E0.01825
G1 X106.708 Y108.084 E0.01714
G1 X106.451 Y107.914 E0.00964
G1 X106.023 Y107.548 E0.01765
G1 X105.655 Y107.117 E0.01777
G1 X105.361 Y106.638 E0.01764
G1 X105.239 Y106.373 E0.00915
G1 X105.065 Y105.838 E0.01764
G1 X104.977 Y105.282 E0.01764
G1 X104.966 Y104.995 E0.00902
G1 X104.977 Y104.708 E0.00901
G1 X105.062 Y104.168 E0.01713
G1 X105.240 Y103.613 E0.01826
G1 X105.496 Y103.112 E0.01765
G1 X105.658 Y102.869 E0.00915
G1 X106.023 Y102.442 E0.01764
G1 X106.451 Y102.076 E0.01764
G1 X106.694 Y101.914 E0.00915
G1 X107.195 Y101.659 E0.01764
G1 X107.730 Y101.485 E0.01764
G1 X108.016 Y101.428 E0.00914
G1 X108.500 Y101.390 E0.01525
G1 X108.764 Y101.040 F10800.000
G1 X108.468 Y100.708
G1 F1200.000
G1 X109.062 Y100.733 E0.01864
G1 X109.612 Y100.832 E0.01752
G1 X109.872 Y100.906 E0.00850
G1 X110.396 Y101.110 E0.01763
G1 X110.638 Y101.233 E0.00850
G1 X111.109 Y101.533 E0.01752
G1 X111.538 Y101.891 E0.01752
G1 X111.911 Y102.297 E0.01729
G1 X112.234 Y102.754 E0.01753
G1 X112.368 Y102.989 E0.00850
G1 X112.597 Y103.499 E0.01752
G1 X112.757 Y104.034 E0.01752
G1 X112.846 Y104.578 E0.01729
G1 X112.864 Y105.134 E0.01743
G1 X112.809 Y105.690 E0.01752
G1 X112.686 Y106.224 E0.01720
G1 X112.490 Y106.751 E0.01763
G1 X112.371 Y106.995 E0.00850
G1 X112.079 Y107.471 E0.01752
G1 X111.728 Y107.905 E0.01752
G1 X111.330 Y108.284 E0.01720
G1 X110.880 Y108.614 E0.01752
G1 X110.390 Y108.883 E0.01752
G1 X110.141 Y108.989 E0.00850
G1 X109.605 Y109.160 E0.01763
G1 X109.340 Y109.216 E0.00850
G1 X108.781 Y109.280 E0.01763
G1 X108.230 Y109.271 E0.01729
G1 X107.680 Y109.190 E0.01743
G1 X107.142 Y109.038 E0.01752
G1 X106.890 Y108.939 E0.00850
G1 X106.389 Y108.685 E0.01763
G1 X106.160 Y108.539 E0.00850
G1 X105.717 Y108.193 E0.01763
G1 X105.521 Y108.006 E0.00850
G1 X105.154 Y107.581 E0.01763
G1 X104.995 Y107.357 E0.00860
G1 X104.850 Y107.120 E0.00870
G1 X104.605 Y106.617 E0.01753
G1 X104.510 Y106.361 E0.00859
G1 X104.367 Y105.820 E0.01753
G1 X104.323 Y105.550 E0.00859
G1 X104.287 Y104.992 E0.01753
G1 X104.296 Y104.718 E0.00859
G1 X104.368 Y104.163 E0.01753
G1 X104.430 Y103.896 E0.00859
G1 X104.608 Y103.366 E0.01753
G1 X104.719 Y103.119 E0.00850
G1 X104.995 Y102.634 E0.01752
G1 X105.333 Y102.188 E0.01752
G1 X105.519 Y101.986 E0.00860
G1 X105.720 Y101.795 E0.00870
G1 X106.160 Y101.451 E0.01753
G1 X106.389 Y101.305 E0.00850
G1 X106.890 Y101.051 E0.01763
G1 X107.142 Y100.952 E0.00850
G1 X107.680 Y100.800 E0.01752
G1 X108.233 Y100.719 E0.01752
G1 X108.408 Y100.711 E0.00549
G1 X108.671 Y101.052 F10800.000
G1 X108.430 Y101.052
G1 F1200.000
G1 X108.571 Y101.047 E0.00346
G1 X109.181 Y101.095 E0.01495
G1 X109.764 Y101.228 E0.01460
G1 X110.255 Y101.424 E0.01292
G1 X110.636 Y101.629 E0.01057
G1 X110.908 Y101.807 E0.00794
G1 X111.306 Y102.143 E0.01270
G1 X111.640 Y102.509 E0.01211
G1 X111.947 Y102.936 E0.01285
G1 X112.218 Y103.474 E0.01472
G1 X112.415 Y104.071 E0.01536
G1 X112.502 Y104.606 E0.01323
G1 X112.523 Y105.123 E0.01263
G1 X112.425 Y105.883 E0.01872
G1 X112.230 Y106.487 E0.01552
G1 X112.086 Y106.805 E0.00853
G1 X111.801 Y107.274 E0.01341
G1 X111.471 Y107.677 E0.01270
G1 X111.113 Y108.015 E0.01204
G1 X110.694 Y108.323 E0.01269
G1 X110.385 Y108.502 E0.00873
G1 X110.087 Y108.644 E0.00806
G1 X109.518 Y108.831 E0.01465
G1 X109.192 Y108.894 E0.00810
G1 X108.759 Y108.936 E0.01062
G1 X108.263 Y108.932 E0.01212
G1 X107.683 Y108.840 E0.01436
G1 X107.252 Y108.711 E0.01098
G1 X107.029 Y108.628 E0.00581
G1 X106.557 Y108.389 E0.01292
G1 X106.256 Y108.188 E0.00885
G1 X105.775 Y107.780 E0.01541
G1 X105.388 Y107.326 E0.01457
G1 X105.152 Y106.955 E0.01075
G1 X104.918 Y106.484 E0.01285
G1 X104.736 Y105.905 E0.01481
G1 X104.643 Y105.307 E0.01479
G1 X104.627 Y104.989 E0.00798
G1 X104.643 Y104.666 E0.00790
G1 X104.730 Y104.101 E0.01397
G1 X104.924 Y103.490 E0.01566
G1 X105.280 Y102.821 E0.01850
G1 X105.597 Y102.409 E0.01270
G1 X105.775 Y102.210 E0.00652
G1 X106.357 Y101.729 E0.01844
G1 X106.558 Y101.601 E0.00581
G1 X107.054 Y101.350 E0.01359
G1 X107.751 Y101.134 E0.01784
G1 X108.370 Y101.056 E0.01522
; stop printing object LightDiffuser.stl id:0 copy 2
; printing object LightDiffuser.stl id:0 copy 3
G1 F8640.000
G1 X108.571 Y101.047 E-0.04651
G1 X109.181 Y101.095 E-0.14134
G1 X109.764 Y101.228 E-0.13803
G1 X110.255 Y101.424 E-0.12212
G1 X110.636 Y101.629 E-0.09993
G1 X110.908 Y101.807 E-0.07501
G1 X111.306 Y102.143 E-0.12010
G1 X111.355 Y102.197 E-0.01695
G1 E-0.04000 F2100.00000
G1 Z0.600 F10800.000
G1 X108.560 Y117.784
G1 Z0.200
G1 E0.80000 F2100.00000
G1 F1200.000
G1 X109.141 Y117.828 E0.01826
G1 X109.688 Y117.960 E0.01765
G1 X109.962 Y118.061 E0.00915
G1 X110.459 Y118.314 E0.01751
G1 X110.702 Y118.476 E0.00915
G1 X111.130 Y118.841 E0.01764
G1 X111.495 Y119.269 E0.01764
G1 X111.657 Y119.512 E0.00915
G1 X111.912 Y120.013 E0.01764
G1 X112.086 Y120.548 E0.01764
G1 X112.143 Y120.834 E0.00915
G1 X112.187 Y121.390 E0.01751
G1 X112.175 Y121.682 E0.00915
G1 X112.087 Y122.238 E0.01764
G1 X111.914 Y122.772 E0.01764
G1 X111.792 Y123.037 E0.00915
G1 X111.498 Y123.517 E0.01764
G1 X111.130 Y123.948 E0.01777
G1 X110.699 Y124.316 E0.01776
G1 X110.233 Y124.602 E0.01713
G1 X109.955 Y124.732 E0.00964
G1 X109.423 Y124.904 E0.01752
G1 X109.137 Y124.961 E0.00915
G1 X108.581 Y125.005 E0.01751
G1 X108.289 Y124.994 E0.00914
G1 X107.749 Y124.909 E0.01713
G1 X107.195 Y124.731 E0.01825
G1 X106.708 Y124.483 E0.01714
G1 X106.451 Y124.313 E0.00964
G1 X106.023 Y123.948 E0.01765
G1 X105.655 Y123.517 E0.01777
G1 X105.361 Y123.037 E0.01764
G1 X105.239 Y122.772 E0.00915
G1 X105.065 Y122.238 E0.01764
G1 X104.977 Y121.682 E0.01764
G1 X104.966 Y121.395 E0.00902
G1 X104.977 Y121.107 E0.00901
G1 X105.062 Y120.568 E0.01713
G1 X105.240 Y120.013 E0.01826
G1 X105.496 Y119.512 E0.01765
G1 X105.658 Y119.269 E0.00915
G1 X106.023 Y118.841 E0.01764
G1 X106.451 Y118.476 E0.01764
G1 X106.694 Y118.314 E0.00915
G1 X107.195 Y118.059 E0.01764
G1 X107.730 Y117.885 E0.01764
G1 X108.016 Y117.828 E0.00914
G1 X108.500 Y117.789 E0.01525
G1 X108.764 Y117.440 F10800.000
G1 X108.468 Y117.107
G1 F1200.000
G1 X109.062 Y117.133 E0.01864
G1 X109.612 Y117.232 E0.01752
G1 X109.872 Y117.305 E0.00850
G1 X110.396 Y117.510 E0.01763
G1 X110.638 Y117.633 E0.00850
G1 X111.109 Y117.933 E0.01752
G1 X111.538 Y118.291 E0.01752
G1 X111.911 Y118.697 E0.01729
G1 X112.234 Y119.153 E0.01753
G1 X112.368 Y119.389 E0.00850
G1 X112.597 Y119.899 E0.01752
G1 X112.757 Y120.434 E0.01752
G1 X112.846 Y120.978 E0.01729
G1 X112.864 Y121.533 E0.01743
G1 X112.809 Y122.090 E0.01752
G1 X112.686 Y122.624 E0.01720
G1 X112.490 Y123.151 E0.01763
G1 X112.371 Y123.395 E0.00850
G1 X112.079 Y123.871 E0.01752
G1 X111.728 Y124.305 E0.01752
G1 X111.330 Y124.683 E0.01720
G1 X110.880 Y125.013 E0.01752
G1 X110.390 Y125.282 E0.01752
G1 X110.141 Y125.389 E0.00850
G1 X109.605 Y125.559 E0.01763
G1 X109.340 Y125.616 E0.00850
