; generated by PrusaSlicer 2.2.0+win64 on 2022-03-29 at 20:48:53 UTC

; 

; external perimeters extrusion width = 0.45mm
; perimeters extrusion width = 0.45mm
; infill extrusion width = 0.45mm
; solid infill extrusion width = 0.45mm
; top infill extrusion width = 0.40mm
; first layer extrusion width = 0.42mm

M73 P0 R27
M73 Q0 S27
M201 X1000 Y1000 Z200 E5000 ; sets maximum accelerations, mm/sec^2
M203 X200 Y200 Z12 E120 ; sets maximum feedrates, mm/sec
M204 P1250 R1250 T1250 ; sets acceleration (P, T) and retract acceleration (R), mm/sec^2
M205 X8.00 Y8.00 Z0.40 E4.50 ; sets the jerk limits, mm/sec
M205 S0 T0 ; sets the minimum extruding and travel feed rate, mm/sec
M107
M862.3 P "MK3S" ; printer model check
M862.1 P0.4 ; nozzle diameter check
M115 U3.10.1 ; tell printer latest fw version
G90 ; use absolute coordinates
M83 ; extruder relative mode
M104 S225 ; set extruder temp
M140 S60 ; set bed temp
M190 S60 ; wait for bed temp
M109 S225 ; wait for extruder temp
G28 W ; home all without mesh bed level
G80 ; mesh bed leveling
G1 Y-3.0 F1000.0 ; go outside print area
G92 E0.0
G1 X60.0 E9.0 F1000.0 ; intro line
M73 Q0 S27
M73 P0 R27
G1 X100.0 E12.5 F1000.0 ; intro line
G92 E0.0
M221 S95

; Don't change E values below. Excessive value can damage the printer.
M907 E430 ; set extruder motor current
G21 ; set units to millimeters
G90 ; use absolute coordinates
M83 ; use relative distances for extrusion
M900 K0.05 ; Filament gcode LA 1.5
M900 K30 ; Filament gcode LA 1.0
;BEFORE_LAYER_CHANGE
G92 E0.0
;0.2


G1 E-0.80000 F2100.00000
G1 Z0.400 F10800.000
;AFTER_LAYER_CHANGE
;0.2
G1 X85.719 Y94.920
G1 Z0.200
G1 E0.80000 F2100.00000
M204 S1000
G1 F1200.000
G1 X87.050 Y94.047 E0.04993
G1 X88.455 Y93.531 E0.04694
G1 X89.953 Y93.343 E0.04734
G1 X160.043 Y93.343 E2.19761
G1 X161.553 Y93.529 E0.04771
G1 X162.968 Y94.048 E0.04726
G1 X163.860 Y94.586 E0.03265
G1 X164.467 Y95.079 E0.02452
G1 X165.471 Y96.250 E0.04837
G1 X166.203 Y97.667 E0.05001
G1 X166.568 Y99.117 E0.04688
G1 X166.628 Y100.112 E0.03125
G1 X166.612 Y110.466 E0.32465
G1 X166.424 Y111.643 E0.03736
G1 X165.926 Y112.989 E0.04501
G1 X165.389 Y113.880 E0.03262
G1 X164.887 Y114.500 E0.02500
G1 X164.287 Y115.074 E0.02603
G1 X163.621 Y115.570 E0.02604
G1 X162.165 Y116.283 E0.05082
G1 X160.924 Y116.587 E0.04007
G1 X160.116 Y116.655 E0.02544
G1 X89.999 Y116.658 E2.19846
G1 X89.024 Y116.583 E0.03065
G1 X88.325 Y116.439 E0.02237
G1 X87.431 Y116.135 E0.02962
G1 X86.511 Y115.662 E0.03242
G1 X85.559 Y114.943 E0.03740
G1 X85.002 Y114.370 E0.02507
G1 X84.486 Y113.688 E0.02680
G1 X84.073 Y112.969 E0.02602
G1 X83.563 Y111.577 E0.04648
G1 X83.374 Y110.124 E0.04592
G1 X83.374 Y99.965 E0.31854
G1 X83.455 Y98.944 E0.03212
G1 X83.881 Y97.435 E0.04918
G1 X84.652 Y96.062 E0.04936
G1 X85.678 Y94.964 E0.04710
; printing object TimeCounter.stl id:0 copy 0
G1 F8640.000
G1 X87.050 Y94.047 E-0.38115
G1 X88.455 Y93.531 E-0.34567
G1 X88.598 Y93.513 E-0.03319
G1 E-0.04000 F2100.00000
G1 Z0.600 F10800.000
G1 X87.757 Y97.342
G1 Z0.200
G1 E0.80000 F2100.00000
G1 F1200.000
G1 X88.083 Y97.099 E0.01276
G1 X88.365 Y96.934 E0.01024
G1 X88.815 Y96.726 E0.01554
G1 X89.200 Y96.608 E0.01264
G1 X89.599 Y96.534 E0.01270
G1 X90.024 Y96.508 E0.01334
G1 X159.986 Y96.508 E2.19364
G1 X160.543 Y96.553 E0.01749
G1 X161.076 Y96.682 E0.01720
G1 X161.583 Y96.893 E0.01723
G1 X162.038 Y97.175 E0.01677
G1 X162.354 Y97.437 E0.01289
G1 X162.630 Y97.733 E0.01268
G1 X162.875 Y98.060 E0.01282
G1 X163.080 Y98.414 E0.01282
G1 X163.244 Y98.790 E0.01286
G1 X163.363 Y99.179 E0.01276
G1 X163.437 Y99.580 E0.01278
G1 X163.464 Y100.007 E0.01341
G1 X163.464 Y110.003 E0.31343
G1 X163.419 Y110.564 E0.01764
G1 X163.368 Y110.821 E0.00823
G1 X163.194 Y111.354 E0.01757
G1 X162.942 Y111.850 E0.01745
G1 X162.800 Y112.060 E0.00793
G1 X162.536 Y112.379 E0.01299
G1 X162.242 Y112.658 E0.01272
G1 X161.917 Y112.902 E0.01273
G1 X161.564 Y113.108 E0.01282
G1 X161.190 Y113.272 E0.01280
G1 X160.799 Y113.392 E0.01281
G1 X160.402 Y113.466 E0.01268
G1 X159.976 Y113.493 E0.01339
G1 X90.027 Y113.493 E2.19319
G1 X89.444 Y113.446 E0.01832
G1 X88.937 Y113.322 E0.01637
G1 X88.419 Y113.106 E0.01762
G1 X87.952 Y112.819 E0.01717
G1 X87.646 Y112.564 E0.01249
G1 X87.369 Y112.268 E0.01270
G1 X87.175 Y112.007 E0.01020
G1 X86.918 Y111.581 E0.01560
G1 X86.756 Y111.210 E0.01271
G1 X86.637 Y110.820 E0.01276
G1 X86.564 Y110.422 E0.01269
G1 X86.538 Y109.995 E0.01342
G1 X86.548 Y99.706 E0.32262
G1 X86.635 Y99.168 E0.01706
G1 X86.710 Y98.903 E0.00865
G1 X86.919 Y98.397 E0.01717
G1 X87.200 Y97.939 E0.01684
G1 X87.463 Y97.621 E0.01296
G1 X87.714 Y97.384 E0.01080
G1 X87.454 Y97.110 F10800.000
G1 F1200.000
G1 X87.874 Y96.784 E0.01667
G1 X88.190 Y96.599 E0.01148
G1 X88.680 Y96.373 E0.01691
G1 X89.111 Y96.241 E0.01412
G1 X89.553 Y96.159 E0.01410
G1 X90.012 Y96.131 E0.01442
G1 X159.993 Y96.131 E2.19422
G1 X160.301 Y96.143 E0.00966
G1 X160.603 Y96.180 E0.00954
G1 X161.193 Y96.324 E0.01903
G1 X161.754 Y96.557 E0.01906
G1 X162.265 Y96.873 E0.01881
G1 X162.613 Y97.162 E0.01421
G1 X162.920 Y97.490 E0.01408
G1 X163.190 Y97.853 E0.01417
G1 X163.417 Y98.244 E0.01418
G1 X163.598 Y98.659 E0.01420
G1 X163.730 Y99.089 E0.01412
G1 X163.811 Y99.534 E0.01416
G1 X163.841 Y99.995 E0.01448
G1 X163.841 Y110.011 E0.31406
G1 X163.792 Y110.624 E0.01927
G1 X163.733 Y110.917 E0.00938
G1 X163.544 Y111.499 E0.01918
G1 X163.267 Y112.042 E0.01911
G1 X163.102 Y112.286 E0.00923
G1 X162.813 Y112.637 E0.01427
G1 X162.486 Y112.947 E0.01412
G1 X162.126 Y113.217 E0.01411
G1 X161.735 Y113.444 E0.01418
G1 X161.322 Y113.626 E0.01415
G1 X160.889 Y113.759 E0.01418
G1 X160.448 Y113.840 E0.01406
G1 X159.988 Y113.870 E0.01447
G1 X90.012 Y113.870 E2.19405
G1 X89.392 Y113.820 E0.01950
G1 X88.812 Y113.679 E0.01871
G1 X88.246 Y113.442 E0.01923
G1 X87.732 Y113.126 E0.01894
G1 X87.387 Y112.839 E0.01407
G1 X87.080 Y112.511 E0.01409
G1 X86.861 Y112.218 E0.01145
G1 X86.583 Y111.754 E0.01696
G1 X86.402 Y111.341 E0.01415
G1 X86.270 Y110.910 E0.01413
G1 X86.189 Y110.468 E0.01409
G1 X86.161 Y110.007 E0.01450
G1 X86.172 Y99.676 E0.32390
G1 X86.268 Y99.080 E0.01894
G1 X86.351 Y98.786 E0.00957
G1 X86.583 Y98.226 E0.01900
G1 X86.898 Y97.714 E0.01886
G1 X87.187 Y97.363 E0.01426
G1 X87.411 Y97.151 E0.00965
G1 X87.832 Y97.240 F10800.000
G1 F8640.000
G1 X87.874 Y96.784 E-0.13659
G1 X88.190 Y96.599 E-0.08457
G1 X88.680 Y96.373 E-0.12452
G1 X89.111 Y96.241 E-0.10399
G1 X89.553 Y96.159 E-0.10384
G1 X90.012 Y96.131 E-0.10620
G1 X90.446 Y96.131 E-0.10027
G1 E-0.04000 F2100.00000
G1 Z0.600 F10800.000
G1 X162.976 Y98.461
G1 Z0.200
G1 E0.80000 F2100.00000
G1 F1200.000
G1 X162.152 Y97.638 E0.03672
G1 X161.868 Y97.401 E0.01167
G1 X161.674 Y97.270 E0.00737
G1 X161.219 Y97.037 E0.01612
G1 X160.912 Y96.934 E0.01020
G1 X163.027 Y99.049 E0.09432
G1 X163.088 Y99.246 E0.00652
G1 X163.162 Y99.720 E0.01512
G1 X160.256 Y96.813 E0.12961
G1 X159.697 Y96.791 E0.01764
G1 X163.181 Y100.275 E0.15538
G1 X163.181 Y100.812 E0.01691
G1 X159.161 Y96.791 E0.17930
G1 X158.624 Y96.791 E0.01691
G1 X163.181 Y101.348 E0.20322
G1 X163.181 Y101.884 E0.01691
G1 X158.088 Y96.791 E0.22713
G1 X157.552 Y96.791 E0.01691
G1 X163.181 Y102.421 E0.25105
G1 X163.181 Y102.957 E0.01691
G1 X157.015 Y96.791 E0.27497
G1 X156.479 Y96.791 E0.01691
G1 X163.181 Y103.493 E0.29889
G1 X163.181 Y104.029 E0.01691
G1 X155.943 Y96.791 E0.32281
G1 X155.406 Y96.791 E0.01691
G1 X163.181 Y104.566 E0.34673
G1 X163.181 Y105.102 E0.01691
G1 X154.870 Y96.791 E0.37064
G1 X154.334 Y96.791 E0.01691
G1 X163.181 Y105.638 E0.39456
G1 X163.181 Y106.175 E0.01691
G1 X153.797 Y96.791 E0.41848
G1 X153.261 Y96.791 E0.01691
G1 X163.181 Y106.711 E0.44240
G1 X163.181 Y107.247 E0.01691
G1 X152.725 Y96.791 E0.46632
G1 X152.188 Y96.791 E0.01691
G1 X163.181 Y107.784 E0.49024
G1 X163.181 Y108.320 E0.01691
G1 X151.652 Y96.791 E0.51415
G1 X151.116 Y96.791 E0.01691
G1 X163.181 Y108.856 E0.53807
G1 X163.181 Y109.393 E0.01691
G1 X150.579 Y96.791 E0.56199
G1 X150.043 Y96.791 E0.01691
G1 X163.181 Y109.929 E0.58591
G1 X163.146 Y110.430 E0.01585
G1 X149.507 Y96.791 E0.60827
G1 X148.970 Y96.791 E0.01691
G1 X163.053 Y110.874 E0.62803
G1 X162.917 Y111.274 E0.01334
G1 X148.434 Y96.791 E0.64590
G1 X147.898 Y96.791 E0.01691
G1 X162.737 Y111.630 E0.66176
G1 X162.522 Y111.952 E0.01220
G1 X147.361 Y96.791 E0.67612
G1 X146.825 Y96.791 E0.01691
G1 X162.273 Y112.239 E0.68892
G1 X161.991 Y112.493 E0.01198
G1 X146.289 Y96.791 E0.70026
G1 X145.752 Y96.791 E0.01691
G1 X161.677 Y112.715 E0.71015
G1 X161.328 Y112.903 E0.01249
G1 X145.216 Y96.791 E0.71852
G1 X144.680 Y96.791 E0.01691
G1 X160.941 Y113.053 E0.72521
G1 X160.732 Y113.117 E0.00690
G1 X160.510 Y113.158 E0.00711
G1 X144.143 Y96.791 E0.72990
G1 X143.607 Y96.791 E0.01691
G1 X160.023 Y113.207 E0.73208
G1 X159.490 Y113.210 E0.01680
G1 X143.071 Y96.791 E0.73224
M73 Q3 S26
M73 P3 R26
G1 X142.534 Y96.791 E0.01691
G1 X158.954 Y113.210 E0.73224
G1 X158.417 Y113.210 E0.01691
G1 X141.998 Y96.791 E0.73224
G1 X141.462 Y96.791 E0.01691
G1 X157.881 Y113.210 E0.73224
G1 X157.345 Y113.210 E0.01691
G1 X140.925 Y96.791 E0.73224
G1 X140.389 Y96.791 E0.01691
G1 X156.808 Y113.210 E0.73224
G1 X156.272 Y113.210 E0.01691
G1 X139.853 Y96.791 E0.73224
G1 X139.316 Y96.791 E0.01691
G1 X155.736 Y113.210 E0.73224
G1 X155.199 Y113.210 E0.01691
G1 X138.780 Y96.791 E0.73224
G1 X138.244 Y96.791 E0.01691
G1 X154.663 Y113.210 E0.73224
G1 X154.127 Y113.210 E0.01691
G1 X137.707 Y96.791 E0.73224
G1 X137.171 Y96.791 E0.01691
G1 X153.590 Y113.210 E0.73224
G1 X153.054 Y113.210 E0.01691
G1 X136.635 Y96.791 E0.73224
G1 X136.098 Y96.791 E0.01691
G1 X152.518 Y113.210 E0.73224
G1 X151.981 Y113.210 E0.01691
G1 X135.562 Y96.791 E0.73224
G1 X135.026 Y96.791 E0.01691
G1 X151.445 Y113.210 E0.73224
G1 X150.909 Y113.210 E0.01691
G1 X134.489 Y96.791 E0.73224
G1 X133.953 Y96.791 E0.01691
G1 X150.372 Y113.210 E0.73224
G1 X149.836 Y113.210 E0.01691
G1 X133.417 Y96.791 E0.73224
G1 X132.880 Y96.791 E0.01691
G1 X149.300 Y113.210 E0.73224
G1 X148.763 Y113.210 E0.01691
G1 X132.344 Y96.791 E0.73224
G1 X131.808 Y96.791 E0.01691
G1 X148.227 Y113.210 E0.73224
G1 X147.691 Y113.210 E0.01691
G1 X131.271 Y96.791 E0.73224
G1 X130.735 Y96.791 E0.01691
G1 X147.154 Y113.210 E0.73224
G1 X146.618 Y113.210 E0.01691
G1 X130.199 Y96.791 E0.73224
G1 X129.662 Y96.791 E0.01691
G1 X146.082 Y113.210 E0.73224
G1 X145.545 Y113.210 E0.01691
G1 X129.126 Y96.791 E0.73224
G1 X128.590 Y96.791 E0.01691
G1 X145.009 Y113.210 E0.73224
G1 X144.473 Y113.210 E0.01691
G1 X128.053 Y96.791 E0.73224
G1 X127.517 Y96.791 E0.01691
G1 X143.936 Y113.210 E0.73224
G1 X143.400 Y113.210 E0.01691
G1 X126.981 Y96.791 E0.73224
G1 X126.444 Y96.791 E0.01691
G1 X142.864 Y113.210 E0.73224
G1 X142.327 Y113.210 E0.01691
G1 X125.908 Y96.791 E0.73224
G1 X125.372 Y96.791 E0.01691
G1 X141.791 Y113.210 E0.73224
G1 X141.255 Y113.210 E0.01691
G1 X124.835 Y96.791 E0.73224
G1 X124.299 Y96.791 E0.01691
G1 X140.718 Y113.210 E0.73224
G1 X140.182 Y113.210 E0.01691
G1 X123.763 Y96.791 E0.73224
G1 X123.226 Y96.791 E0.01691
G1 X139.646 Y113.210 E0.73224
G1 X139.109 Y113.210 E0.01691
G1 X122.690 Y96.791 E0.73224
G1 X122.154 Y96.791 E0.01691
G1 X138.573 Y113.210 E0.73224
G1 X138.037 Y113.210 E0.01691
G1 X121.617 Y96.791 E0.73224
G1 X121.081 Y96.791 E0.01691
G1 X137.500 Y113.210 E0.73224
G1 X136.964 Y113.210 E0.01691
G1 X120.545 Y96.791 E0.73224
G1 X120.008 Y96.791 E0.01691
G1 X136.428 Y113.210 E0.73224
G1 X135.891 Y113.210 E0.01691
G1 X119.472 Y96.791 E0.73224
G1 X118.936 Y96.791 E0.01691
G1 X135.355 Y113.210 E0.73224
G1 X134.819 Y113.210 E0.01691
G1 X118.399 Y96.791 E0.73224
G1 X117.863 Y96.791 E0.01691
G1 X134.282 Y113.210 E0.73224
G1 X133.746 Y113.210 E0.01691
G1 X117.327 Y96.791 E0.73224
G1 X116.790 Y96.791 E0.01691
G1 X133.210 Y113.210 E0.73224
G1 X132.673 Y113.210 E0.01691
G1 X116.254 Y96.791 E0.73224
G1 X115.718 Y96.791 E0.01691
G1 X132.137 Y113.210 E0.73224
M73 Q7 S25
M73 P7 R25
G1 X131.601 Y113.210 E0.01691
G1 X115.181 Y96.791 E0.73224
G1 X114.645 Y96.791 E0.01691
G1 X131.064 Y113.210 E0.73224
G1 X130.528 Y113.210 E0.01691
G1 X114.109 Y96.791 E0.73224
G1 X113.572 Y96.791 E0.01691
G1 X129.992 Y113.210 E0.73224
G1 X129.455 Y113.210 E0.01691
G1 X113.036 Y96.791 E0.73224
G1 X112.500 Y96.791 E0.01691
G1 X128.919 Y113.210 E0.73224
G1 X128.383 Y113.210 E0.01691
G1 X111.963 Y96.791 E0.73224
G1 X111.427 Y96.791 E0.01691
G1 X127.846 Y113.210 E0.73224
G1 X127.310 Y113.210 E0.01691
G1 X110.891 Y96.791 E0.73224
G1 X110.354 Y96.791 E0.01691
G1 X126.774 Y113.210 E0.73224
G1 X126.237 Y113.210 E0.01691
G1 X109.818 Y96.791 E0.73224
G1 X109.282 Y96.791 E0.01691
G1 X125.701 Y113.210 E0.73224
G1 X125.165 Y113.210 E0.01691
G1 X108.745 Y96.791 E0.73224
G1 X108.209 Y96.791 E0.01691
G1 X124.628 Y113.210 E0.73224
G1 X124.092 Y113.210 E0.01691
G1 X107.673 Y96.791 E0.73224
G1 X107.136 Y96.791 E0.01691
G1 X123.556 Y113.210 E0.73224
G1 X123.019 Y113.210 E0.01691
G1 X106.600 Y96.791 E0.73224
G1 X106.064 Y96.791 E0.01691
G1 X122.483 Y113.210 E0.73224
G1 X121.947 Y113.210 E0.01691
G1 X105.527 Y96.791 E0.73224
G1 X104.991 Y96.791 E0.01691
G1 X121.410 Y113.210 E0.73224
G1 X120.874 Y113.210 E0.01691
G1 X104.455 Y96.791 E0.73224
G1 X103.918 Y96.791 E0.01691
G1 X120.338 Y113.210 E0.73224
G1 X119.801 Y113.210 E0.01691
G1 X103.382 Y96.791 E0.73224
G1 X102.846 Y96.791 E0.01691
G1 X119.265 Y113.210 E0.73224
G1 X118.729 Y113.210 E0.01691
G1 X102.309 Y96.791 E0.73224
G1 X101.773 Y96.791 E0.01691
G1 X118.192 Y113.210 E0.73224
G1 X117.656 Y113.210 E0.01691
G1 X101.237 Y96.791 E0.73224
G1 X100.701 Y96.791 E0.01691
G1 X117.120 Y113.210 E0.73224
G1 X116.584 Y113.210 E0.01691
G1 X100.164 Y96.791 E0.73224
G1 X99.628 Y96.791 E0.01691
G1 X116.047 Y113.210 E0.73224
G1 X115.511 Y113.210 E0.01691
G1 X99.092 Y96.791 E0.73224
G1 X98.555 Y96.791 E0.01691
G1 X114.975 Y113.210 E0.73224
G1 X114.438 Y113.210 E0.01691
G1 X98.019 Y96.791 E0.73224
G1 X97.483 Y96.791 E0.01691
G1 X113.902 Y113.210 E0.73224
G1 X113.366 Y113.210 E0.01691
G1 X96.946 Y96.791 E0.73224
G1 X96.410 Y96.791 E0.01691
G1 X112.829 Y113.210 E0.73224
G1 X112.293 Y113.210 E0.01691
G1 X95.874 Y96.791 E0.73224
G1 X95.337 Y96.791 E0.01691
G1 X111.757 Y113.210 E0.73224
G1 X111.220 Y113.210 E0.01691
G1 X94.801 Y96.791 E0.73224
G1 X94.265 Y96.791 E0.01691
G1 X110.684 Y113.210 E0.73224
G1 X110.148 Y113.210 E0.01691
G1 X93.728 Y96.791 E0.73224
G1 X93.192 Y96.791 E0.01691
G1 X109.611 Y113.210 E0.73224
G1 X109.075 Y113.210 E0.01691
G1 X92.656 Y96.791 E0.73224
G1 X92.119 Y96.791 E0.01691
G1 X108.539 Y113.210 E0.73224
G1 X108.002 Y113.210 E0.01691
G1 X91.583 Y96.791 E0.73224
G1 X91.047 Y96.791 E0.01691
G1 X107.466 Y113.210 E0.73224
G1 X106.930 Y113.210 E0.01691
G1 X90.510 Y96.791 E0.73224
G1 X89.977 Y96.794 E0.01681
G1 X106.393 Y113.210 E0.73209
G1 X105.857 Y113.210 E0.01691
G1 X89.489 Y96.842 E0.72995
G1 X89.268 Y96.883 E0.00709
G1 X89.058 Y96.947 E0.00693
G1 X105.321 Y113.210 E0.72526
G1 X104.784 Y113.210 E0.01691
G1 X88.676 Y97.102 E0.71838
M73 Q11 S24
M73 P11 R24
G1 X88.323 Y97.286 E0.01253
G1 X104.248 Y113.210 E0.71017
G1 X103.712 Y113.210 E0.01691
G1 X88.009 Y97.507 E0.70029
G1 X87.726 Y97.761 E0.01198
G1 X103.175 Y113.210 E0.68896
G1 X102.639 Y113.210 E0.01691
G1 X87.477 Y98.048 E0.67615
G1 X87.266 Y98.373 E0.01222
G1 X102.103 Y113.210 E0.66166
G1 X101.566 Y113.210 E0.01691
G1 X87.087 Y98.731 E0.64571
G1 X86.980 Y98.991 E0.00886
G1 X86.947 Y99.127 E0.00442
G1 X101.030 Y113.210 E0.62806
G1 X100.494 Y113.210 E0.01691
G1 X86.854 Y99.571 E0.60826
G1 X86.821 Y100.074 E0.01590
G1 X99.957 Y113.210 E0.58583
G1 X99.421 Y113.210 E0.01691
G1 X86.821 Y100.610 E0.56191
G1 X86.821 Y101.147 E0.01691
G1 X98.885 Y113.210 E0.53799
G1 X98.348 Y113.210 E0.01691
G1 X86.821 Y101.683 E0.51408
G1 X86.821 Y102.219 E0.01691
G1 X97.812 Y113.210 E0.49016
G1 X97.276 Y113.210 E0.01691
G1 X86.821 Y102.755 E0.46624
G1 X86.821 Y103.292 E0.01691
G1 X96.739 Y113.210 E0.44233
G1 X96.203 Y113.210 E0.01691
G1 X86.821 Y103.828 E0.41841
G1 X86.821 Y104.364 E0.01691
G1 X95.667 Y113.210 E0.39449
G1 X95.130 Y113.210 E0.01691
G1 X86.821 Y104.901 E0.37057
G1 X86.821 Y105.437 E0.01691
G1 X94.594 Y113.210 E0.34666
G1 X94.058 Y113.210 E0.01691
