; generated by PrusaSlicer 2.2.0+win64 on 2021-12-02 at 22:30:41 UTC

; 

; external perimeters extrusion width = 0.45mm
; perimeters extrusion width = 0.45mm
; infill extrusion width = 0.45mm
; solid infill extrusion width = 0.45mm
; top infill extrusion width = 0.40mm
; first layer extrusion width = 0.42mm

M73 P0 R57
M73 Q0 S57
M201 X1000 Y1000 Z200 E5000 ; sets maximum accelerations, mm/sec^2
M203 X200 Y200 Z12 E120 ; sets maximum feedrates, mm/sec
M204 P1250 R1250 T1250 ; sets acceleration (P, T) and retract acceleration (R), mm/sec^2
M205 X8.00 Y8.00 Z0.40 E4.50 ; sets the jerk limits, mm/sec
M205 S0 T0 ; sets the minimum extruding and travel feed rate, mm/sec
M107
M862.3 P "MK3S" ; printer model check
M862.1 P0.4 ; nozzle diameter check
G90 ; use absolute coordinates
M83 ; extruder relative mode
M104 S215 ; set extruder temp
M140 S60 ; set bed temp
M190 S60 ; wait for bed temp
M109 S215 ; wait for extruder temp
G28 W ; home all without mesh bed level
G80 ; mesh bed leveling
G1 Y-3.0 F1000.0 ; go outside print area
G92 E0.0
G1 X60.0 E9.0 F1000.0 ; intro line
M73 Q0 S57
M73 P0 R57
G1 X100.0 E12.5 F1000.0 ; intro line
G92 E0.0
M221 S95

; Don't change E values below. Excessive value can damage the printer.
M907 E430 ; set extruder motor current
G21 ; set units to millimeters
G90 ; use absolute coordinates
M83 ; use relative distances for extrusion
M900 K0.05 ; Filament gcode LA 1.5
M900 K30 ; Filament gcode LA 1.0
;BEFORE_LAYER_CHANGE
G92 E0.0
;0.2


G1 E-0.80000 F2100.00000
G1 Z0.400 F10800.000
;AFTER_LAYER_CHANGE
;0.2
G1 X103.163 Y85.540
G1 Z0.200
G1 E0.80000 F2100.00000
M204 S1000
G1 F1200.000
G1 X104.028 Y85.362 E0.02767
G1 X142.919 Y85.362 E1.21940
G1 X143.573 Y85.455 E0.02071
G1 X144.179 Y85.726 E0.02083
G1 X144.687 Y86.154 E0.02083
G1 X145.054 Y86.703 E0.02071
G1 X147.539 Y94.900 E0.26854
G1 X147.550 Y122.219 E0.85659
G1 X147.346 Y123.124 E0.02907
G1 X146.814 Y123.879 E0.02896
G1 X146.081 Y124.356 E0.02743
G1 X145.220 Y124.535 E0.02755
G1 X106.848 Y124.681 E1.20315
G1 X105.709 Y124.570 E0.03587
G1 X104.986 Y124.378 E0.02348
G1 X104.120 Y123.966 E0.03008
G1 X103.193 Y123.284 E0.03607
G1 X102.416 Y122.306 E0.03915
G1 X101.961 Y121.232 E0.03659
G1 X101.799 Y120.193 E0.03295
G1 X101.432 Y116.263 E0.12377
G1 X101.433 Y89.113 E0.85126
G1 X101.804 Y87.012 E0.06691
G1 X102.052 Y86.478 E0.01846
G1 X102.427 Y86.019 E0.01858
G1 X103.113 Y85.573 E0.02567
; printing object SBUBBYKerning.stl id:0 copy 0
G1 F8640.000
G1 X104.028 Y85.362 E-0.21670
G1 X106.381 Y85.362 E-0.54330
G1 E-0.04000 F2100.00000
G1 Z0.600 F10800.000
G1 X125.183 Y90.482
G1 Z0.200
G1 E0.80000 F2100.00000
G1 F1200.000
G1 X125.088 Y91.491 E0.03178
G1 X124.992 Y92.149 E0.02082
G1 X124.601 Y94.352 E0.07017
G1 X123.964 Y94.352 E0.01996
G1 X125.273 Y89.856 E0.14682
G1 X125.388 Y89.361 E0.01594
G1 X125.543 Y88.494 E0.02760
G1 X126.142 Y88.491 E0.01878
G1 X126.221 Y89.274 E0.02467
G1 X126.293 Y89.736 E0.01466
G1 X126.452 Y90.470 E0.02356
G1 X125.243 Y90.482 E0.03790
G1 F8640.000
G1 X125.088 Y91.491 E-0.23591
G1 X124.992 Y92.149 E-0.15330
G1 X124.711 Y93.730 E-0.37079
G1 E-0.04000 F2100.00000
G1 Z0.600 F10800.000
G1 X126.515 Y88.428
G1 Z0.200
G1 E0.80000 F2100.00000
G1 F1200.000
G1 X128.615 Y88.428 E0.06586
G1 X128.534 Y89.226 E0.02515
G1 X128.465 Y89.667 E0.01400
G1 X128.100 Y91.358 E0.05426
G1 X128.032 Y91.782 E0.01347
G1 X127.986 Y92.291 E0.01601
G1 X127.144 Y92.291 E0.02639
G1 X127.098 Y91.782 E0.01601
G1 X127.030 Y91.358 E0.01347
G1 X126.664 Y89.667 E0.05426
G1 X126.595 Y89.226 E0.01400
G1 X126.521 Y88.487 E0.02327
G1 X126.499 Y88.028 F10800.000
G1 F8640.000
G1 X128.615 Y88.428 E-0.48379
G1 X128.534 Y89.226 E-0.18521
G1 X128.473 Y89.615 E-0.09101
G1 E-0.04000 F2100.00000
G1 Z0.600 F10800.000
G1 X129.946 Y90.479
G1 Z0.200
G1 E0.80000 F2100.00000
G1 F1200.000
G1 X128.678 Y90.466 E0.03974
G1 X128.836 Y89.736 E0.02342
G1 X128.908 Y89.274 E0.01466
G1 X128.987 Y88.494 E0.02457
G1 X129.586 Y88.493 E0.01878
G1 X129.742 Y89.361 E0.02764
G1 X129.856 Y89.856 E0.01594
G1 X131.165 Y94.352 E0.14682
G1 X130.529 Y94.352 E0.01996
G1 X130.137 Y92.149 E0.07017
G1 X130.042 Y91.491 E0.02082
G1 X129.952 Y90.539 E0.03001
G1 F8640.000
G1 X128.678 Y90.466 E-0.29445
G1 X128.836 Y89.736 E-0.17245
G1 X128.908 Y89.274 E-0.10799
G1 X128.987 Y88.494 E-0.18094
G1 X129.005 Y88.494 E-0.00417
G1 E-0.04000 F2100.00000
G1 Z0.600 F10800.000
G1 X134.729 Y93.669
G1 Z0.200
G1 E0.80000 F2100.00000
G1 F1200.000
G1 X136.150 Y93.669 E0.04454
G1 X136.372 Y92.393 E0.04058
G1 X136.955 Y90.237 E0.07004
G1 X137.160 Y89.234 E0.03211
G1 X137.249 Y88.494 E0.02337
G1 X137.947 Y88.513 E0.02189
G1 X138.356 Y88.491 E0.01284
G1 X138.156 Y88.900 E0.01427
G1 X137.957 Y89.379 E0.01628
G1 X136.213 Y94.352 E0.16522
G1 X134.726 Y94.352 E0.04663
G1 X132.946 Y89.375 E0.16574
G1 X132.744 Y88.895 E0.01632
G1 X132.543 Y88.490 E0.01418
G1 X132.940 Y88.513 E0.01249
G1 X133.651 Y88.493 E0.02229
G1 X133.732 Y89.226 E0.02311
G1 X133.927 Y90.237 E0.03229
G1 X134.508 Y92.393 E0.07003
G1 X134.719 Y93.609 E0.03870
G1 F8640.000
G1 X136.150 Y93.669 E-0.33069
G1 X136.372 Y92.393 E-0.29887
G1 X136.519 Y91.848 E-0.13044
G1 E-0.04000 F2100.00000
G1 Z0.600 F10800.000
G1 X134.023 Y88.428
G1 Z0.200
G1 E0.80000 F2100.00000
G1 F1200.000
G1 X136.877 Y88.428 E0.08948
G1 X136.787 Y89.173 E0.02355
G1 X136.647 Y89.860 E0.02197
G1 X134.238 Y89.860 E0.07553
G1 X134.105 Y89.169 E0.02205
G1 X134.030 Y88.487 E0.02151
G1 X134.003 Y88.028 F10800.000
G1 F8640.000
G1 X136.877 Y88.428 E-0.65759
G1 X136.824 Y88.868 E-0.10241
G1 E-0.04000 F2100.00000
G1 Z0.600 F10800.000
G1 X134.419 Y90.593
G1 Z0.200
G1 E0.80000 F2100.00000
G1 F1200.000
G1 X136.461 Y90.593 E0.06403
G1 X136.003 Y92.312 E0.05579
G1 X135.833 Y93.291 E0.03116
G1 X135.047 Y93.291 E0.02466
G1 X134.876 Y92.312 E0.03116
G1 X134.434 Y90.651 E0.05391
G1 X134.388 Y90.194 F10800.000
G1 F8640.000
G1 X136.461 Y90.593 E-0.46819
G1 X136.136 Y91.814 E-0.29181
G1 E-0.04000 F2100.00000
G1 Z0.600 F10800.000
G1 X142.377 Y92.651
G1 Z0.200
G1 E0.80000 F2100.00000
G1 F1200.000
G1 X141.179 Y92.673 E0.03754
G1 X140.909 Y93.489 E0.02695
G1 X140.538 Y94.352 E0.02946
G1 X139.781 Y94.352 E0.02373
G1 X141.352 Y91.729 E0.09588
G1 X141.346 Y89.645 E0.06533
G1 X141.317 Y89.150 E0.01556
G1 X141.240 Y88.492 E0.02077
G1 X142.128 Y88.516 E0.02786
G1 X142.132 Y91.737 E0.10098
G1 X143.758 Y94.352 E0.09655
G1 X143.049 Y94.352 E0.02223
G1 X142.681 Y93.487 E0.02949
G1 X142.397 Y92.707 E0.02600
G1 F8640.000
G1 X141.179 Y92.673 E-0.28128
G1 X140.909 Y93.489 E-0.19845
G1 X140.538 Y94.352 E-0.21698
G1 X140.263 Y94.352 E-0.06329
G1 E-0.04000 F2100.00000
G1 Z0.600 F10800.000
G1 X128.087 Y92.668
G1 Z0.200
G1 E0.80000 F2100.00000
G1 F1200.000
G1 X127.744 Y94.352 E0.05389
G1 X127.385 Y94.352 E0.01128
G1 X127.041 Y92.668 E0.05389
G1 X128.027 Y92.668 E0.03091
G1 F8640.000
G1 X127.744 Y94.352 E-0.39430
G1 X127.385 Y94.352 E-0.08304
G1 X127.140 Y93.153 E-0.28266
G1 E-0.04000 F2100.00000
G1 Z0.600 F10800.000
G1 X121.171 Y93.136
G1 Z0.200
G1 E0.80000 F2100.00000
G1 F1200.000
G1 X121.039 Y92.707 E0.01408
G1 X121.494 Y92.858 E0.01502
G1 X121.600 Y92.951 E0.00441
G1 X121.671 Y93.101 E0.00520
G1 X121.703 Y93.370 E0.00850
G1 X121.680 Y93.608 E0.00748
G1 X121.636 Y93.780 E0.00559
G1 X121.549 Y93.925 E0.00528
G1 X121.429 Y94.063 E0.00574
G1 X121.222 Y94.185 E0.00754
G1 X120.982 Y94.285 E0.00816
G1 X120.711 Y94.332 E0.00862
G1 X120.101 Y94.352 E0.01913
G1 X120.486 Y94.240 E0.01257
G1 X120.789 Y94.025 E0.01165
G1 X121.013 Y93.670 E0.01317
G1 X121.154 Y93.194 E0.01556
G1 X120.811 Y92.289 F10800.000
G1 F1200.000
G1 X120.786 Y92.251 E0.00141
G1 X120.479 Y92.034 E0.01182
G1 X120.396 Y92.009 E0.00269
G1 X120.499 Y91.987 E0.00328
G1 X120.803 Y91.833 E0.01069
G1 X120.810 Y92.229 E0.01241
G1 F8640.000
G1 X120.786 Y92.251 E-0.00740
G1 X120.479 Y92.034 E-0.08703
G1 X120.396 Y92.009 E-0.01981
G1 X120.499 Y91.987 E-0.02417
G1 X120.803 Y91.833 E-0.07872
G1 X120.810 Y92.229 E-0.09142
G1 E-0.49144 F2100.00000
G1 Z0.600 F10800.000
G1 X119.048 Y92.275
G1 Z0.200
G1 E0.80000 F2100.00000
G1 F1200.000
G1 X119.785 Y92.275 E0.02310
G1 X120.053 Y92.300 E0.00844
G1 X120.311 Y92.378 E0.00847
G1 X120.509 Y92.517 E0.00757
G1 X120.659 Y92.751 E0.00871
G1 X120.777 Y93.138 E0.01270
G1 X120.666 Y93.512 E0.01224
G1 X120.509 Y93.761 E0.00920
G1 X120.316 Y93.898 E0.00744
G1 X120.064 Y93.977 E0.00828
G1 X119.786 Y94.004 E0.00877
G1 X119.048 Y94.004 E0.02313
G1 X119.048 Y92.335 E0.05233
G1 X118.994 Y91.878 F10800.000
G1 X119.048 Y91.695
G1 F1200.000
G1 X119.048 Y89.836 E0.05826
G1 X120.026 Y89.845 E0.03068
G1 X120.236 Y89.875 E0.00664
G1 X120.629 Y90.043 E0.01339
G1 X120.781 Y90.195 E0.00674
G1 X120.903 Y90.371 E0.00673
G1 X120.966 Y90.577 E0.00674
G1 X120.994 Y90.808 E0.00731
G1 X120.857 Y91.206 E0.01319
G1 X120.679 Y91.454 E0.00960
G1 X120.558 Y91.546 E0.00475
G1 X120.379 Y91.627 E0.00616
G1 X120.169 Y91.673 E0.00673
G1 X119.862 Y91.695 E0.00966
G1 X119.108 Y91.695 E0.02364
G1 X118.648 Y91.697 F10800.000
G1 F8640.000
G1 X119.048 Y89.836 E-0.42928
G1 X120.026 Y89.845 E-0.22592
G1 X120.236 Y89.875 E-0.04893
G1 X120.459 Y89.971 E-0.05587
G1 E-0.04000 F2100.00000
G1 Z0.600 F10800.000
G1 X120.643 Y89.219
G1 Z0.200
G1 E0.80000 F2100.00000
G1 F1200.000
G1 X121.440 Y89.568 E0.02730
G1 X121.684 Y89.713 E0.00889
G1 X121.831 Y89.876 E0.00690
G1 X121.950 Y90.076 E0.00728
G1 X121.998 Y90.451 E0.01186
G1 X121.925 Y90.831 E0.01213
G1 X121.881 Y90.952 E0.00404
G1 X121.809 Y91.035 E0.00345
G1 X121.692 Y91.101 E0.00424
G1 X121.232 Y91.274 E0.01540
G1 X121.379 Y90.849 E0.01411
G1 X121.337 Y90.498 E0.01109
G1 X121.247 Y90.205 E0.00963
G1 X121.071 Y89.952 E0.00965
G1 X120.843 Y89.725 E0.01007
G1 X120.339 Y89.509 E0.01720
G1 X120.055 Y89.468 E0.00900
G1 X118.671 Y89.456 E0.04340
G1 X118.671 Y94.352 E0.15351
G1 X118.054 Y94.352 E0.01936
G1 X118.049 Y89.707 E0.14564
G1 X118.020 Y89.183 E0.01647
G1 X117.943 Y88.494 E0.02171
G1 X118.496 Y88.522 E0.01733
G1 X119.507 Y88.526 E0.03173
G1 X120.521 Y88.519 E0.03179
G1 X120.959 Y88.494 E0.01375
G1 X120.667 Y89.164 E0.02291
G1 F8640.000
G1 X121.440 Y89.568 E-0.20151
G1 X121.684 Y89.713 E-0.06546
G1 X121.831 Y89.876 E-0.05080
G1 X121.950 Y90.076 E-0.05362
G1 X121.998 Y90.451 E-0.08732
G1 X121.925 Y90.831 E-0.08935
G1 X121.881 Y90.952 E-0.02975
G1 X121.809 Y91.035 E-0.02538
G1 X121.692 Y91.101 E-0.03120
G1 X121.232 Y91.274 E-0.11340
G1 X121.249 Y91.224 E-0.01225
G1 E-0.04000 F2100.00000
G1 Z0.600 F10800.000
G1 X113.576 Y89.111
G1 Z0.200
G1 E0.80000 F2100.00000
G1 F1200.000
G1 X114.386 Y89.589 E0.02947
G1 X114.571 Y89.749 E0.00766
G1 X114.914 Y90.154 E0.01667
G1 X115.016 Y90.356 E0.00707
G1 X115.092 Y90.627 E0.00881
G1 X115.153 Y91.106 E0.01515
G1 X115.165 Y91.350 E0.00765
G1 X115.168 Y94.352 E0.09414
G1 X114.407 Y94.352 E0.02388
G1 X114.407 Y91.577 E0.08701
G1 X114.378 Y91.041 E0.01681
G1 X114.298 Y90.721 E0.01036
G1 X114.151 Y90.328 E0.01316
G1 X113.889 Y90.050 E0.01196
G1 X113.606 Y89.854 E0.01081
G1 X113.376 Y89.773 E0.00763
G1 X112.968 Y89.719 E0.01292
G1 X112.562 Y89.770 E0.01283
G1 X112.337 Y89.846 E0.00744
G1 X112.057 Y90.034 E0.01056
G1 X111.785 Y90.312 E0.01220
G1 X111.635 Y90.721 E0.01366
G1 X111.558 Y91.043 E0.01038
G1 X111.532 Y91.579 E0.01682
G1 X111.532 Y94.352 E0.08695
G1 X110.771 Y94.352 E0.02388
G1 X110.785 Y91.101 E0.10194
G1 X110.847 Y90.618 E0.01527
G1 X110.923 Y90.348 E0.00876
G1 X111.019 Y90.150 E0.00694
G1 X111.359 Y89.749 E0.01648
G1 X111.544 Y89.589 E0.00766
G1 X112.354 Y89.111 E0.02947
G1 X112.029 Y88.496 E0.02180
G1 X112.521 Y88.521 E0.01547
G1 X113.557 Y88.514 E0.03249
G1 X113.908 Y88.484 E0.01104
G1 X113.604 Y89.058 E0.02038
G1 F8640.000
G1 X114.386 Y89.589 E-0.21814
G1 X114.571 Y89.749 E-0.05640
G1 X114.914 Y90.154 E-0.12279
G1 X115.016 Y90.356 E-0.05208
G1 X115.092 Y90.627 E-0.06491
G1 X115.153 Y91.106 E-0.11157
G1 X115.165 Y91.350 E-0.05635
G1 X115.165 Y91.686 E-0.07775
G1 E-0.04000 F2100.00000
G1 Z0.600 F10800.000
G1 X106.887 Y89.116
G1 Z0.200
G1 E0.80000 F2100.00000
G1 F1200.000
G1 X107.644 Y89.558 E0.02749
G1 X107.847 Y89.716 E0.00805
G1 X108.104 Y90.014 E0.01233
G1 X108.259 Y90.259 E0.00909
G1 X108.302 Y90.384 E0.00414
G1 X108.381 Y90.923 E0.01709
G1 X108.332 Y91.258 E0.01061
G1 X108.267 Y91.396 E0.00479
G1 X108.183 Y91.527 E0.00487
G1 X107.963 Y91.726 E0.00929
G1 X107.756 Y91.824 E0.00719
G1 X107.533 Y91.893 E0.00731
G1 X107.017 Y91.992 E0.01648
G1 X106.637 Y92.106 E0.01246
G1 X106.392 Y92.232 E0.00862
G1 X106.167 Y92.404 E0.00890
G1 X105.594 Y93.046 E0.02696
G1 X105.889 Y93.722 E0.02313
G1 X106.062 Y93.971 E0.00952
G1 X106.374 Y94.188 E0.01191
G1 X106.762 Y94.286 E0.01256
G1 X107.280 Y94.276 E0.01624
G1 X107.741 Y94.184 E0.01474
G1 X107.969 Y94.095 E0.00769
G1 X108.047 Y94.282 E0.00635
G1 X107.807 Y94.368 E0.00800
G1 X107.352 Y94.453 E0.01454
G1 X106.876 Y94.495 E0.01497
G1 X106.449 Y94.463 E0.01344
G1 X106.063 Y94.383 E0.01236
G1 X105.759 Y94.239 E0.01053
G1 X105.431 Y94.023 E0.01231
G1 X105.124 Y93.648 E0.01520
G1 X105.027 Y93.424 E0.00766
G1 X104.954 Y92.916 E0.01608
G1 X104.985 Y92.631 E0.00899
G1 X105.024 Y92.513 E0.00389
G1 X105.151 Y92.306 E0.00763
G1 X105.420 Y92.086 E0.01090
G1 X105.611 Y92.004 E0.00651
G1 X105.923 Y91.912 E0.01020
G1 X106.428 Y91.817 E0.01611
G1 X106.786 Y91.691 E0.01188
G1 X107.016 Y91.539 E0.00866
G1 X107.202 Y91.348 E0.00835
G1 X107.523 Y90.851 E0.01855
G1 X107.455 Y90.414 E0.01387
G1 X107.350 Y90.122 E0.00973
G1 X107.011 Y89.764 E0.01546
G1 X106.563 Y89.584 E0.01512
G1 X106.167 Y89.548 E0.01245
G1 X105.635 Y89.614 E0.01683
G1 X105.147 Y89.774 E0.01609
G1 X104.939 Y89.878 E0.00730
G1 X104.811 Y89.567 E0.01054
G1 X105.646 Y89.258 E0.02792
G1 X105.248 Y88.487 E0.02722
G1 X105.533 Y88.511 E0.00899
G1 X106.573 Y88.522 E0.03258
G1 X107.219 Y88.481 E0.02030
G1 X106.915 Y89.063 E0.02058
G1 X107.388 Y88.972 F10800.000
G1 F1200.000
G1 X107.856 Y89.245 E0.01699
G1 X108.108 Y89.441 E0.01002
G1 X108.401 Y89.781 E0.01406
G1 X108.518 Y89.945 E0.00631
G1 X108.605 Y90.107 E0.00577
G1 X108.709 Y90.477 E0.01206
G1 X108.760 Y90.918 E0.01391
G1 X108.739 Y91.161 E0.00765
G1 X108.691 Y91.379 E0.00700
G1 X108.598 Y91.579 E0.00691
G1 X108.473 Y91.774 E0.00726
G1 X108.111 Y92.080 E0.01487
G1 X107.889 Y92.178 E0.00762
G1 X107.625 Y92.259 E0.00865
G1 X107.107 Y92.359 E0.01654
G1 X106.778 Y92.457 E0.01076
G1 X106.595 Y92.552 E0.00647
G1 X106.424 Y92.682 E0.00673
G1 X106.036 Y93.117 E0.01827
G1 X106.220 Y93.537 E0.01439
G1 X106.333 Y93.700 E0.00622
G1 X106.532 Y93.839 E0.00763
G1 X106.805 Y93.908 E0.00883
G1 X107.239 Y93.900 E0.01360
G1 X107.635 Y93.820 E0.01265
G1 X108.032 Y93.666 E0.01337
G1 X108.168 Y93.591 E0.00485
G1 X108.542 Y94.489 E0.03048
G1 X107.906 Y94.733 E0.02136
G1 X107.403 Y94.827 E0.01606
G1 X106.878 Y94.873 E0.01650
G1 X106.396 Y94.837 E0.01516
G1 X105.953 Y94.746 E0.01418
G1 X105.566 Y94.563 E0.01343
G1 X105.181 Y94.309 E0.01446
G1 X104.912 Y94.001 E0.01282
G1 X104.803 Y93.846 E0.00595
G1 X104.721 Y93.692 E0.00548
G1 X104.623 Y93.338 E0.01151
G1 X104.575 Y92.917 E0.01327
G1 X104.615 Y92.551 E0.01156
G1 X104.680 Y92.354 E0.00649
G1 X104.860 Y92.058 E0.01087
G1 X105.154 Y91.807 E0.01213
G1 X105.245 Y91.750 E0.00337
G1 X105.484 Y91.649 E0.00812
G1 X105.835 Y91.545 E0.01148
G1 X106.330 Y91.452 E0.01579
G1 X106.617 Y91.351 E0.00953
G1 X106.775 Y91.247 E0.00593
G1 X106.905 Y91.112 E0.00588
G1 X107.128 Y90.767 E0.01288
G1 X107.088 Y90.507 E0.00823
G1 X107.022 Y90.324 E0.00612
G1 X106.794 Y90.083 E0.01041
G1 X106.474 Y89.955 E0.01080
G1 X106.173 Y89.928 E0.00946
G1 X105.717 Y89.984 E0.01441
G1 X105.291 Y90.123 E0.01405
G1 X104.746 Y90.402 E0.01918
G1 X104.324 Y89.376 E0.03478
G1 X104.462 Y89.295 E0.00499
G1 X105.116 Y89.052 E0.02187
G1 X104.810 Y88.460 E0.02090
G1 X104.459 Y88.361 E0.01141
G1 X104.454 Y88.067 E0.00924
G1 X104.570 Y88.052 E0.00366
G1 X105.551 Y88.134 E0.03087
G1 X106.563 Y88.145 E0.03172
G1 X108.058 Y88.051 E0.04697
G1 X111.525 Y88.058 E0.10870
G1 X112.018 Y88.118 E0.01557
G1 X112.529 Y88.144 E0.01606
G1 X113.540 Y88.137 E0.03168
G1 X114.535 Y88.051 E0.03132
G1 X117.013 Y88.051 E0.07770
G1 X117.500 Y88.065 E0.01526
G1 X117.996 Y88.121 E0.01566
G1 X118.505 Y88.145 E0.01599
