; generated by PrusaSlicer 2.2.0+win64 on 2022-01-20 at 23:06:28 UTC

; 

; external perimeters extrusion width = 0.45mm
; perimeters extrusion width = 0.45mm
; infill extrusion width = 0.45mm
; solid infill extrusion width = 0.45mm
; top infill extrusion width = 0.40mm
; first layer extrusion width = 0.42mm

M73 P0 R56
M73 Q0 S56
M201 X1000 Y1000 Z200 E5000 ; sets maximum accelerations, mm/sec^2
M203 X200 Y200 Z12 E120 ; sets maximum feedrates, mm/sec
M204 P1250 R1250 T1250 ; sets acceleration (P, T) and retract acceleration (R), mm/sec^2
M205 X8.00 Y8.00 Z0.40 E4.50 ; sets the jerk limits, mm/sec
M205 S0 T0 ; sets the minimum extruding and travel feed rate, mm/sec
M107
M862.3 P "MK3S" ; printer model check
M862.1 P0.4 ; nozzle diameter check
G90 ; use absolute coordinates
M83 ; extruder relative mode
M104 S225 ; set extruder temp
M140 S60 ; set bed temp
M190 S60 ; wait for bed temp
M109 S225 ; wait for extruder temp
G28 W ; home all without mesh bed level
G80 ; mesh bed leveling
G1 Y-3.0 F1000.0 ; go outside print area
G92 E0.0
G1 X60.0 E9.0 F1000.0 ; intro line
M73 Q0 S56
M73 P0 R55
G1 X100.0 E12.5 F1000.0 ; intro line
G92 E0.0
M221 S95

; Don't change E values below. Excessive value can damage the printer.
M907 E430 ; set extruder motor current
G21 ; set units to millimeters
G90 ; use absolute coordinates
M83 ; use relative distances for extrusion
M900 K0.05 ; Filament gcode LA 1.5
M900 K30 ; Filament gcode LA 1.0
;BEFORE_LAYER_CHANGE
G92 E0.0
;0.2


G1 E-0.80000 F2100.00000
G1 Z0.400 F10800.000
;AFTER_LAYER_CHANGE
;0.2
G1 X89.641 Y54.803
G1 Z0.200
G1 E0.80000 F2100.00000
M204 S1000
G1 F1200.000
G1 X90.331 Y54.236 E0.02799
G1 X91.175 Y53.861 E0.02894
G1 X92.039 Y53.730 E0.02740
G1 X128.995 Y53.593 E1.15875
G1 X157.894 Y53.593 E0.90610
G1 X158.580 Y53.666 E0.02162
G1 X159.054 Y53.806 E0.01550
G1 X159.658 Y54.093 E0.02098
G1 X160.263 Y54.567 E0.02408
G1 X160.701 Y55.103 E0.02170
G1 X160.940 Y55.531 E0.01538
G1 X161.168 Y56.160 E0.02098
G1 X161.266 Y56.899 E0.02337
G1 X161.267 Y121.170 E2.01519
G1 X160.575 Y133.032 E0.37256
G1 X160.490 Y133.580 E0.01736
G1 X160.301 Y134.096 E0.01724
G1 X159.773 Y134.859 E0.02909
G1 X139.992 Y155.152 E0.88855
G1 X139.055 Y155.822 E0.03613
G1 X138.423 Y156.061 E0.02117
G1 X137.645 Y156.168 E0.02463
G1 X112.409 Y156.305 E0.79127
G1 X111.588 Y156.199 E0.02593
G1 X110.918 Y155.946 E0.02248
G1 X110.017 Y155.298 E0.03478
G1 X90.222 Y134.991 E0.88917
G1 X89.766 Y134.367 E0.02422
G1 X89.488 Y133.625 E0.02484
G1 X88.733 Y121.289 E0.38750
G1 X88.733 Y57.095 E2.01278
G1 X88.831 Y56.301 E0.02507
G1 X89.083 Y55.616 E0.02289
G1 X89.607 Y54.852 E0.02906
; printing object L PLATE.stl id:1 copy 0
G1 F8640.000
G1 X90.331 Y54.236 E-0.21948
G1 X91.175 Y53.861 E-0.21312
G1 X92.039 Y53.730 E-0.20180
G1 X92.583 Y53.728 E-0.12561
G1 E-0.04000 F2100.00000
G1 Z0.600 F10800.000
G1 X103.968 Y114.496
G1 Z0.200
G1 E0.80000 F2100.00000
G1 F1200.000
G1 X104.776 Y114.380 E0.02558
G1 X105.591 Y114.419 E0.02558
G1 X106.383 Y114.611 E0.02558
G1 X107.125 Y114.950 E0.02558
G1 X107.790 Y115.423 E0.02558
G1 X108.353 Y116.014 E0.02558
G1 X108.794 Y116.700 E0.02558
G1 X109.097 Y117.457 E0.02558
G1 X109.251 Y118.258 E0.02558
G1 X109.251 Y119.074 E0.02558
G1 X109.097 Y119.875 E0.02558
G1 X108.794 Y120.632 E0.02558
G1 X108.353 Y121.318 E0.02558
G1 X107.790 Y121.909 E0.02558
G1 X107.125 Y122.382 E0.02558
G1 X106.383 Y122.721 E0.02558
G1 X105.591 Y122.913 E0.02558
G1 X104.776 Y122.952 E0.02558
G1 X103.968 Y122.836 E0.02558
G1 X103.198 Y122.569 E0.02558
G1 X102.491 Y122.161 E0.02558
G1 X101.875 Y121.627 E0.02558
G1 X101.370 Y120.986 E0.02558
G1 X100.997 Y120.261 E0.02558
G1 X100.767 Y119.478 E0.02558
G1 X100.689 Y118.666 E0.02558
G1 X100.767 Y117.854 E0.02558
G1 X100.997 Y117.071 E0.02558
G1 X101.370 Y116.346 E0.02558
G1 X101.875 Y115.705 E0.02558
G1 X102.491 Y115.171 E0.02558
G1 X103.198 Y114.763 E0.02558
G1 X103.912 Y114.516 E0.02369
G1 X104.035 Y114.872 F10800.000
G1 F1200.000
G1 X104.794 Y114.759 E0.02406
G1 X105.537 Y114.794 E0.02332
G1 X106.259 Y114.969 E0.02332
G1 X106.936 Y115.278 E0.02332
G1 X107.542 Y115.710 E0.02332
G1 X108.055 Y116.248 E0.02332
G1 X108.457 Y116.874 E0.02332
G1 X108.733 Y117.564 E0.02332
G1 X108.874 Y118.294 E0.02332
G1 X108.874 Y119.038 E0.02332
G1 X108.733 Y119.768 E0.02332
G1 X108.457 Y120.459 E0.02332
G1 X108.055 Y121.084 E0.02332
G1 X107.542 Y121.622 E0.02332
G1 X106.936 Y122.054 E0.02332
G1 X106.259 Y122.363 E0.02332
G1 X105.537 Y122.538 E0.02332
G1 X104.794 Y122.574 E0.02332
G1 X104.058 Y122.468 E0.02332
G1 X103.355 Y122.224 E0.02332
G1 X102.711 Y121.853 E0.02332
G1 X102.149 Y121.366 E0.02332
G1 X101.689 Y120.781 E0.02332
G1 X101.348 Y120.120 E0.02332
G1 X101.139 Y119.406 E0.02332
G1 X101.068 Y118.666 E0.02332
G1 X101.139 Y117.926 E0.02332
G1 X101.348 Y117.212 E0.02332
G1 X101.689 Y116.551 E0.02332
G1 X102.149 Y115.967 E0.02332
G1 X102.711 Y115.480 E0.02332
G1 X103.355 Y115.108 E0.02332
G1 X103.978 Y114.892 E0.02068
G1 X104.146 Y114.488 F10800.000
G1 F8640.000
G1 X104.794 Y114.759 E-0.19080
G1 X105.537 Y114.794 E-0.17172
G1 X106.259 Y114.969 E-0.17172
G1 X106.936 Y115.278 E-0.17172
G1 X107.126 Y115.414 E-0.05404
G1 E-0.04000 F2100.00000
G1 Z0.600 F10800.000
G1 X104.776 Y72.462
G1 Z0.200
G1 E0.80000 F2100.00000
G1 F1200.000
G1 X103.968 Y72.346 E0.02558
G1 X103.198 Y72.079 E0.02558
G1 X102.491 Y71.671 E0.02558
G1 X101.875 Y71.137 E0.02558
G1 X101.370 Y70.496 E0.02558
G1 X100.997 Y69.771 E0.02558
G1 X100.767 Y68.988 E0.02558
G1 X100.689 Y68.176 E0.02558
G1 X100.767 Y67.364 E0.02558
G1 X100.997 Y66.581 E0.02558
G1 X101.370 Y65.856 E0.02558
G1 X101.875 Y65.215 E0.02558
G1 X102.491 Y64.681 E0.02558
G1 X103.198 Y64.273 E0.02558
G1 X103.968 Y64.006 E0.02558
G1 X104.776 Y63.890 E0.02558
G1 X105.591 Y63.929 E0.02558
G1 X106.383 Y64.121 E0.02558
G1 X107.125 Y64.460 E0.02558
G1 X107.790 Y64.933 E0.02558
G1 X108.353 Y65.524 E0.02558
G1 X108.794 Y66.210 E0.02558
G1 X109.097 Y66.967 E0.02558
G1 X109.251 Y67.768 E0.02558
G1 X109.251 Y68.584 E0.02558
G1 X109.097 Y69.385 E0.02558
G1 X108.794 Y70.142 E0.02558
G1 X108.353 Y70.828 E0.02558
G1 X107.790 Y71.419 E0.02558
G1 X107.125 Y71.892 E0.02558
G1 X106.383 Y72.231 E0.02558
G1 X105.591 Y72.423 E0.02558
G1 X104.836 Y72.459 E0.02369
G1 X104.818 Y72.082 F10800.000
G1 F1200.000
G1 X104.058 Y71.978 E0.02406
G1 X103.355 Y71.734 E0.02332
G1 X102.711 Y71.363 E0.02332
G1 X102.149 Y70.876 E0.02332
G1 X101.689 Y70.291 E0.02332
G1 X101.348 Y69.630 E0.02332
G1 X101.139 Y68.916 E0.02332
G1 X101.068 Y68.176 E0.02332
G1 X101.139 Y67.436 E0.02332
G1 X101.348 Y66.722 E0.02332
G1 X101.689 Y66.061 E0.02332
G1 X102.149 Y65.477 E0.02332
G1 X102.711 Y64.990 E0.02332
G1 X103.355 Y64.618 E0.02332
G1 X104.058 Y64.374 E0.02332
G1 X104.794 Y64.269 E0.02332
G1 X105.537 Y64.304 E0.02332
G1 X106.259 Y64.479 E0.02332
G1 X106.936 Y64.788 E0.02332
G1 X107.542 Y65.220 E0.02332
G1 X108.055 Y65.758 E0.02332
G1 X108.457 Y66.384 E0.02332
G1 X108.733 Y67.074 E0.02332
G1 X108.874 Y67.804 E0.02332
G1 X108.874 Y68.548 E0.02332
G1 X108.733 Y69.278 E0.02332
G1 X108.457 Y69.969 E0.02332
G1 X108.055 Y70.594 E0.02332
G1 X107.542 Y71.132 E0.02332
G1 X106.936 Y71.564 E0.02332
G1 X106.259 Y71.873 E0.02332
G1 X105.537 Y72.048 E0.02332
G1 X104.878 Y72.080 E0.02068
G1 X104.603 Y72.420 F10800.000
G1 F8640.000
G1 X104.058 Y71.978 E-0.19080
G1 X103.355 Y71.734 E-0.17172
G1 X102.711 Y71.363 E-0.17172
G1 X102.149 Y70.876 E-0.17172
G1 X102.004 Y70.692 E-0.05404
G1 E-0.04000 F2100.00000
G1 Z0.600 F10800.000
G1 X91.931 Y57.003
G1 Z0.200
G1 E0.80000 F2100.00000
G1 F1200.000
G1 X92.007 Y56.928 E0.00335
G1 X92.161 Y56.893 E0.00497
G1 X120.948 Y56.893 E0.90259
G1 X121.103 Y56.928 E0.00497
G1 X121.146 Y56.960 E0.00169
G1 X121.199 Y57.053 E0.00335
G1 X121.213 Y57.158 E0.00332
G1 X121.213 Y144.900 E2.75111
G1 X121.191 Y145.024 E0.00394
G1 X121.115 Y145.124 E0.00394
G1 X112.606 Y153.049 E0.36460
G1 X112.471 Y153.129 E0.00490
G1 X112.366 Y153.126 E0.00330
G1 X112.236 Y153.040 E0.00490
G1 X92.984 Y133.291 E0.86476
G1 X94.453 Y133.283 E0.04607
G1 X94.864 Y133.229 E0.01300
G1 X95.297 Y133.050 E0.01468
G1 X95.668 Y132.765 E0.01468
G1 X95.953 Y132.393 E0.01468
G1 X96.133 Y131.960 E0.01468
G1 X96.187 Y131.548 E0.01305
G1 X96.187 Y123.224 E0.26097
G1 X96.133 Y122.812 E0.01305
G1 X95.953 Y122.379 E0.01468
G1 X95.668 Y122.008 E0.01468
G1 X95.297 Y121.723 E0.01468
G1 X94.864 Y121.543 E0.01468
G1 X94.451 Y121.489 E0.01305
G1 X92.161 Y121.489 E0.07180
G1 X92.057 Y121.475 E0.00332
G1 X91.964 Y121.422 E0.00335
G1 X91.931 Y121.379 E0.00169
G1 X91.897 Y121.224 E0.00497
G1 X91.897 Y57.158 E2.00877
G1 X91.910 Y57.059 E0.00312
G1 X91.817 Y56.598 F10800.000
G1 F1200.000
G1 X91.958 Y56.540 E0.00480
G1 X92.137 Y56.516 E0.00565
G1 X120.973 Y56.516 E0.90414
G1 X121.152 Y56.540 E0.00565
G1 X121.293 Y56.598 E0.00480
G1 X121.415 Y56.691 E0.00480
G1 X121.508 Y56.813 E0.00480
G1 X121.566 Y56.954 E0.00480
G1 X121.590 Y57.133 E0.00565
G1 X121.590 Y144.920 E2.75250
G1 X121.575 Y145.061 E0.00444
G1 X121.539 Y145.175 E0.00378
G1 X121.480 Y145.280 E0.00378
G1 X121.387 Y145.387 E0.00444
G1 X112.845 Y153.342 E0.36597
G1 X112.701 Y153.445 E0.00557
G1 X112.560 Y153.499 E0.00473
G1 X112.410 Y153.515 E0.00473
G1 X112.260 Y153.491 E0.00473
G1 X112.122 Y153.431 E0.00473
G1 X111.983 Y153.321 E0.00557
G1 X92.259 Y133.087 E0.88597
G1 X92.217 Y133.015 E0.00261
G1 X92.221 Y132.952 E0.00197
G1 X92.275 Y132.918 E0.00202
G1 X94.427 Y132.906 E0.06748
G1 X94.766 Y132.861 E0.01070
G1 X95.107 Y132.720 E0.01157
G1 X95.399 Y132.496 E0.01157
G1 X95.624 Y132.203 E0.01157
G1 X95.765 Y131.862 E0.01157
G1 X95.810 Y131.523 E0.01072
G1 X95.810 Y123.249 E0.25942
G1 X95.765 Y122.910 E0.01072
G1 X95.624 Y122.569 E0.01157
G1 X95.399 Y122.277 E0.01157
G1 X95.107 Y122.052 E0.01157
G1 X94.766 Y121.911 E0.01157
G1 X94.427 Y121.866 E0.01072
G1 X92.137 Y121.866 E0.07180
G1 X91.958 Y121.843 E0.00565
G1 X91.817 Y121.784 E0.00480
G1 X91.695 Y121.691 E0.00480
G1 X91.602 Y121.569 E0.00480
G1 X91.543 Y121.428 E0.00480
G1 X91.520 Y121.249 E0.00565
G1 X91.520 Y57.133 E2.01032
G1 X91.543 Y56.954 E0.00565
G1 X91.602 Y56.813 E0.00480
G1 X91.695 Y56.691 E0.00480
G1 X91.769 Y56.635 E0.00292
G1 X91.949 Y56.675 F10800.000
G1 F8640.000
G1 X91.958 Y56.540 E-0.04887
G1 X92.137 Y56.516 E-0.04161
G1 X95.036 Y56.516 E-0.66953
G1 E-0.04000 F2100.00000
G1 Z0.600 F10800.000
G1 X99.954 Y57.006
G1 Z0.200
G1 E0.80000 F2100.00000
G1 F1200.000
G1 X107.073 Y64.126 E0.31629
G1 X106.476 Y63.853 E0.02062
G1 X106.199 Y63.786 E0.00896
G1 X99.589 Y57.176 E0.29366
G1 X99.055 Y57.176 E0.01679
G1 X105.522 Y63.643 E0.28730
G1 X104.961 Y63.616 E0.01764
G1 X98.521 Y57.176 E0.28611
G1 X97.986 Y57.176 E0.01679
G1 X104.460 Y63.650 E0.28762
G1 X103.993 Y63.717 E0.01483
G1 X97.452 Y57.176 E0.29061
G1 X96.918 Y57.176 E0.01679
G1 X103.582 Y63.841 E0.29610
G1 X103.185 Y63.978 E0.01320
G1 X96.383 Y57.176 E0.30220
G1 X95.849 Y57.176 E0.01679
G1 X102.831 Y64.158 E0.31020
G1 X102.492 Y64.354 E0.01229
G1 X95.315 Y57.176 E0.31889
G1 X94.780 Y57.176 E0.01679
G1 X102.180 Y64.576 E0.32877
G1 X101.894 Y64.824 E0.01190
G1 X94.246 Y57.176 E0.33979
G1 X93.712 Y57.176 E0.01679
G1 X101.619 Y65.083 E0.35129
G1 X101.384 Y65.382 E0.01195
G1 X93.178 Y57.176 E0.36458
G1 X92.643 Y57.176 E0.01679
G1 X101.148 Y65.681 E0.37787
G1 X100.963 Y66.030 E0.01241
G1 X92.180 Y57.247 E0.39021
M73 Q1 S55
G1 X92.180 Y57.781 E0.01679
G1 X100.781 Y66.382 E0.38213
M73 P1 R54
G1 X100.733 Y66.476 E0.00330
G1 X100.644 Y66.779 E0.00994
G1 X92.180 Y58.315 E0.37603
G1 X92.180 Y58.850 E0.01679
G1 X100.522 Y67.192 E0.37065
G1 X100.488 Y67.310 E0.00386
G1 X100.455 Y67.659 E0.01100
G1 X92.180 Y59.384 E0.36763
G1 X92.180 Y59.918 E0.01679
G1 X100.408 Y68.147 E0.36556
G1 X100.458 Y68.731 E0.01843
G1 X92.180 Y60.453 E0.36779
G1 X92.180 Y60.987 E0.01679
G1 X100.593 Y69.400 E0.37378
G1 X100.733 Y69.876 E0.01559
G1 X100.944 Y70.285 E0.01444
G1 X92.180 Y61.521 E0.38935
G1 X92.180 Y62.056 E0.01679
G1 X120.930 Y90.806 E1.27731
G1 X120.930 Y90.272 E0.01679
G1 X102.882 Y72.223 E0.80184
G1 X103.079 Y72.337 E0.00717
G1 X103.769 Y72.576 E0.02292
G1 X120.930 Y89.737 E0.76243
G1 X120.930 Y89.203 E0.01679
G1 X104.424 Y72.697 E0.73332
G1 X104.762 Y72.746 E0.01073
G1 X104.996 Y72.735 E0.00735
G1 X120.930 Y88.669 E0.70791
G1 X120.930 Y88.134 E0.01679
G1 X105.506 Y72.710 E0.68526
G1 X105.631 Y72.704 E0.00393
G1 X105.956 Y72.626 E0.01049
G1 X120.930 Y87.600 E0.66528
G1 X120.930 Y87.066 E0.01679
G1 X106.386 Y72.521 E0.64618
G1 X106.476 Y72.499 E0.00293
G1 X106.766 Y72.367 E0.01000
G1 X120.930 Y86.531 E0.62929
G1 X120.930 Y85.997 E0.01679
G1 X107.132 Y72.199 E0.61299
G1 X107.267 Y72.138 E0.00466
G1 X107.465 Y71.997 E0.00761
G1 X120.930 Y85.463 E0.59824
G1 X120.930 Y84.928 E0.01679
G1 X107.777 Y71.775 E0.58437
G1 X107.976 Y71.633 E0.00767
G1 X108.070 Y71.534 E0.00430
G1 X120.930 Y84.394 E0.57133
G1 X120.930 Y83.860 E0.01679
G1 X108.331 Y71.261 E0.55974
G1 X108.589 Y70.984 E0.01188
G1 X120.930 Y83.326 E0.54830
G1 X120.930 Y82.791 E0.01679
G1 X108.798 Y70.659 E0.53901
G1 X109.007 Y70.334 E0.01215
G1 X120.930 Y82.257 E0.52972
G1 X120.930 Y81.723 E0.01679
G1 X109.170 Y69.963 E0.52247
G1 X109.323 Y69.581 E0.01291
G1 X120.930 Y81.188 E0.51568
G1 X120.930 Y80.654 E0.01679
G1 X109.429 Y69.153 E0.51095
G1 X109.516 Y68.705 E0.01433
G1 X120.930 Y80.120 E0.50711
G1 X120.930 Y79.585 E0.01679
G1 X109.534 Y68.189 E0.50630
G1 X109.534 Y67.741 E0.01408
G1 X109.513 Y67.634 E0.00342
G1 X120.930 Y79.051 E0.50722
G1 X120.930 Y78.517 E0.01679
G1 X109.386 Y66.973 E0.51288
G1 X109.369 Y66.887 E0.00273
G1 X109.059 Y66.111 E0.02626
G1 X120.930 Y77.982 E0.52742
G1 X120.930 Y77.448 E0.01679
G1 X100.658 Y57.176 E0.90065
G1 X101.192 Y57.176 E0.01679
G1 X120.930 Y76.914 E0.87691
G1 X120.930 Y76.380 E0.01679
G1 X101.726 Y57.176 E0.85317
G1 X102.261 Y57.176 E0.01679
G1 X120.930 Y75.845 E0.82943
G1 X120.930 Y75.311 E0.01679
G1 X102.795 Y57.176 E0.80570
G1 X103.329 Y57.176 E0.01679
G1 X120.930 Y74.777 E0.78196
G1 X120.930 Y74.242 E0.01679
G1 X103.864 Y57.176 E0.75822
G1 X104.398 Y57.176 E0.01679
G1 X120.930 Y73.708 E0.73448
G1 X120.930 Y73.174 E0.01679
G1 X104.932 Y57.176 E0.71074
G1 X105.467 Y57.176 E0.01679
G1 X120.930 Y72.639 E0.68701
G1 X120.930 Y72.105 E0.01679
G1 X106.001 Y57.176 E0.66327
G1 X106.535 Y57.176 E0.01679
G1 X120.930 Y71.571 E0.63953
G1 X120.930 Y71.037 E0.01679
G1 X107.069 Y57.176 E0.61579
G1 X107.604 Y57.176 E0.01679
G1 X120.930 Y70.502 E0.59205
G1 X120.930 Y69.968 E0.01679
G1 X108.138 Y57.176 E0.56832
G1 X108.672 Y57.176 E0.01679
G1 X120.930 Y69.434 E0.54458
G1 X120.930 Y68.899 E0.01679
G1 X109.207 Y57.176 E0.52084
G1 X109.741 Y57.176 E0.01679
G1 X120.930 Y68.365 E0.49710
G1 X120.930 Y67.831 E0.01679
G1 X110.275 Y57.176 E0.47336
G1 X110.810 Y57.176 E0.01679
G1 X120.930 Y67.296 E0.44963
G1 X120.930 Y66.762 E0.01679
G1 X111.344 Y57.176 E0.42589
G1 X111.878 Y57.176 E0.01679
G1 X120.930 Y66.228 E0.40215
G1 X120.930 Y65.693 E0.01679
G1 X112.413 Y57.176 E0.37841
G1 X112.947 Y57.176 E0.01679
G1 X120.930 Y65.159 E0.35467
G1 X120.930 Y64.625 E0.01679
G1 X113.481 Y57.176 E0.33094
G1 X114.015 Y57.176 E0.01679
G1 X120.930 Y64.091 E0.30720
G1 X120.930 Y63.556 E0.01679
G1 X114.550 Y57.176 E0.28346
G1 X115.084 Y57.176 E0.01679
G1 X120.930 Y63.022 E0.25972
G1 X120.930 Y62.488 E0.01679
G1 X115.618 Y57.176 E0.23598
G1 X116.153 Y57.176 E0.01679
G1 X120.930 Y61.953 E0.21225
G1 X120.930 Y61.419 E0.01679
G1 X116.687 Y57.176 E0.18851
G1 X117.221 Y57.176 E0.01679
G1 X120.930 Y60.885 E0.16477
G1 X120.930 Y60.350 E0.01679
G1 X117.756 Y57.176 E0.14103
G1 X118.290 Y57.176 E0.01679
G1 X120.930 Y59.816 E0.11729
G1 X120.930 Y59.282 E0.01679
G1 X118.824 Y57.176 E0.09356
G1 X119.359 Y57.176 E0.01679
G1 X120.930 Y58.747 E0.06982
G1 X120.930 Y58.213 E0.01679
G1 X119.893 Y57.176 E0.04608
M73 Q3 S54
G1 X120.427 Y57.176 E0.01679
G1 X121.100 Y57.849 E0.02988
G1 F8640.000
G1 X120.427 Y57.176 E-0.21963
G1 X119.893 Y57.176 E-0.12337
G1 X120.930 Y58.213 E-0.33870
G1 X120.930 Y58.552 E-0.07829
G1 E-0.04000 F2100.00000
G1 Z0.600 F10800.000
G1 X121.100 Y91.510
G1 Z0.200
G1 E0.80000 F2100.00000
M73 P3 R53
G1 F1200.000
G1 X92.180 Y62.590 E1.28485
