; generated by PrusaSlicer 2.2.0+win64 on 2021-12-02 at 18:13:46 UTC

; 

; external perimeters extrusion width = 0.45mm
; perimeters extrusion width = 0.45mm
; infill extrusion width = 0.45mm
; solid infill extrusion width = 0.45mm
; top infill extrusion width = 0.40mm
; support material extrusion width = 0.35mm
; first layer extrusion width = 0.42mm

M73 P0 R114
M73 Q0 S115
M201 X1000 Y1000 Z200 E5000 ; sets maximum accelerations, mm/sec^2
M203 X200 Y200 Z12 E120 ; sets maximum feedrates, mm/sec
M204 P1250 R1250 T1250 ; sets acceleration (P, T) and retract acceleration (R), mm/sec^2
M205 X8.00 Y8.00 Z0.40 E4.50 ; sets the jerk limits, mm/sec
M205 S0 T0 ; sets the minimum extruding and travel feed rate, mm/sec
M107
M862.3 P "MK3S" ; printer model check
M862.1 P0.4 ; nozzle diameter check
G90 ; use absolute coordinates
M83 ; extruder relative mode
M104 S215 ; set extruder temp
M140 S60 ; set bed temp
M190 S60 ; wait for bed temp
M109 S215 ; wait for extruder temp
G28 W ; home all without mesh bed level
G80 ; mesh bed leveling
G1 Y-3.0 F1000.0 ; go outside print area
G92 E0.0
G1 X60.0 E9.0 F1000.0 ; intro line
M73 Q0 S115
M73 P0 R114
G1 X100.0 E12.5 F1000.0 ; intro line
G92 E0.0
M221 S95

; Don't change E values below. Excessive value can damage the printer.
M907 E430 ; set extruder motor current
G21 ; set units to millimeters
G90 ; use absolute coordinates
M83 ; use relative distances for extrusion
M900 K0.05 ; Filament gcode LA 1.5
M900 K30 ; Filament gcode LA 1.0
;BEFORE_LAYER_CHANGE
G92 E0.0
;0.2


G1 E-0.80000 F2100.00000
G1 Z0.400 F10800.000
;AFTER_LAYER_CHANGE
;0.2
G1 X101.924 Y29.273
G1 Z0.200
G1 E0.80000 F2100.00000
M204 S1000
G1 F1200.000
G1 X102.702 Y28.926 E0.02673
G1 X103.260 Y28.858 E0.01763
G1 X152.289 Y28.858 E1.53725
G1 X153.191 Y29.037 E0.02884
G1 X153.955 Y29.543 E0.02872
G1 X154.470 Y30.300 E0.02872
G1 X154.662 Y31.200 E0.02884
G1 X154.662 Y178.769 E4.62693
G1 X154.511 Y179.600 E0.02649
G1 X154.199 Y180.174 E0.02048
G1 X153.741 Y180.644 E0.02060
G1 X153.174 Y180.969 E0.02048
G1 X152.537 Y181.129 E0.02060
G1 X110.092 Y184.332 E1.33462
G1 X94.788 Y184.168 E0.47987
G1 X93.999 Y184.017 E0.02520
G1 X93.376 Y183.669 E0.02237
G1 X92.887 Y183.155 E0.02225
G1 X92.571 Y182.519 E0.02225
G1 X92.457 Y181.815 E0.02237
G1 X92.457 Y44.185 E4.31531
G1 X92.608 Y43.353 E0.02649
G1 X92.837 Y42.898 E0.01597
G1 X101.318 Y29.872 E0.48736
G1 X101.881 Y29.315 E0.02484
; printing object Righttweaked.stl id:0 copy 0
G1 F8640.000
G1 X102.702 Y28.926 E-0.20984
G1 X103.260 Y28.858 E-0.12986
G1 X105.081 Y28.858 E-0.42030
G1 E-0.04000 F2100.00000
G1 Z0.600 F10800.000
G1 X94.834 Y44.188
G1 Z0.200
G1 E0.80000 F2100.00000
G1 F1200.000
G1 X94.834 Y66.437 E0.69760
G1 X95.588 Y66.437 E0.02365
G1 X95.588 Y44.358 E0.69228
G1 X96.342 Y44.358 E0.02365
G1 X96.342 Y66.437 E0.69228
G1 X97.096 Y66.437 E0.02365
G1 X97.096 Y44.358 E0.69228
G1 X97.850 Y44.358 E0.02365
G1 X97.850 Y66.437 E0.69228
G1 X98.604 Y66.437 E0.02365
G1 X98.604 Y44.358 E0.69228
G1 X99.359 Y44.358 E0.02365
G1 X99.359 Y66.437 E0.69228
G1 X100.113 Y66.437 E0.02365
G1 X100.113 Y44.358 E0.69228
G1 X100.867 Y44.358 E0.02365
G1 X100.867 Y66.437 E0.69228
G1 X101.621 Y66.437 E0.02365
G1 X101.621 Y44.358 E0.69228
G1 X102.375 Y44.358 E0.02365
G1 X102.375 Y66.607 E0.69760
G1 F8640.000
G1 X102.375 Y63.316 E-0.76000
G1 E-0.04000 F2100.00000
G1 Z0.600 F10800.000
G1 X109.917 Y181.961
G1 Z0.200
G1 E0.80000 F2100.00000
G1 F1200.000
G1 X109.917 Y181.759 E0.00633
G1 X109.163 Y181.005 E0.03344
G1 X109.163 Y181.791 E0.02466
G1 X108.408 Y181.791 E0.02365
G1 X108.408 Y180.251 E0.04830
G1 X107.654 Y179.497 E0.03344
G1 X107.654 Y181.791 E0.07195
G1 X106.900 Y181.791 E0.02365
G1 X106.900 Y179.179 E0.08193
G1 X106.146 Y179.179 E0.02365
G1 X106.146 Y181.791 E0.08193
G1 X105.392 Y181.791 E0.02365
G1 X105.392 Y179.179 E0.08193
G1 X104.638 Y179.179 E0.02365
G1 X104.638 Y181.791 E0.08193
G1 X103.884 Y181.791 E0.02365
G1 X103.884 Y179.179 E0.08193
G1 X103.129 Y179.179 E0.02365
G1 X103.129 Y181.791 E0.08193
G1 X102.375 Y181.791 E0.02365
G1 X102.375 Y171.247 E0.33060
G1 X101.621 Y171.247 E0.02365
G1 X101.621 Y181.791 E0.33060
G1 X100.867 Y181.791 E0.02365
G1 X100.867 Y171.247 E0.33060
G1 X100.113 Y171.247 E0.02365
G1 X100.113 Y181.791 E0.33060
G1 X99.359 Y181.791 E0.02365
G1 X99.359 Y171.247 E0.33060
G1 X98.604 Y171.247 E0.02365
G1 X98.604 Y181.791 E0.33060
G1 X97.850 Y181.791 E0.02365
G1 X97.850 Y171.247 E0.33060
G1 X97.096 Y171.247 E0.02365
G1 X97.096 Y181.791 E0.33060
G1 X96.342 Y181.791 E0.02365
G1 X96.342 Y171.247 E0.33060
G1 X95.588 Y171.247 E0.02365
G1 X95.588 Y181.791 E0.33060
G1 X94.834 Y181.791 E0.02365
G1 X94.834 Y171.078 E0.33592
G1 F8640.000
G1 X94.834 Y174.369 E-0.76000
G1 E-0.04000 F2100.00000
G1 Z0.600 F10800.000
G1 X109.917 Y139.381
G1 Z0.200
G1 E0.80000 F2100.00000
G1 F1200.000
G1 X109.917 Y173.723 E1.07679
G1 X110.671 Y173.723 E0.02365
G1 X110.671 Y139.550 E1.07147
G1 X111.425 Y139.550 E0.02365
G1 X111.425 Y173.723 E1.07147
G1 X112.179 Y173.723 E0.02365
G1 X112.179 Y139.550 E1.07147
G1 X112.933 Y139.550 E0.02365
G1 X112.933 Y173.893 E1.07679
G1 X121.229 Y173.893 F10800.000
G1 F1200.000
G1 X121.229 Y168.940 E0.15529
G1 X120.475 Y168.940 E0.02365
G1 X120.475 Y173.723 E0.14997
G1 X119.721 Y173.723 E0.02365
G1 X119.721 Y168.940 E0.14997
G1 X118.967 Y168.940 E0.02365
G1 X118.967 Y173.723 E0.14997
G1 X118.213 Y173.723 E0.02365
G1 X118.213 Y168.940 E0.14997
G1 X117.458 Y168.940 E0.02365
G1 X117.458 Y173.723 E0.14997
G1 X116.704 Y173.723 E0.02365
G1 X116.704 Y168.940 E0.14997
G1 X115.950 Y168.940 E0.02365
G1 X115.950 Y173.723 E0.14997
G1 X115.196 Y173.723 E0.02365
G1 X115.196 Y168.940 E0.14997
G1 X114.442 Y168.940 E0.02365
G1 X114.442 Y173.723 E0.14997
G1 X113.688 Y173.723 E0.02365
G1 X113.688 Y139.550 E1.07147
M73 Q0 S114
M73 P0 R113
G1 X114.442 Y139.550 E0.02365
G1 X114.442 Y144.878 E0.16705
G1 X115.196 Y144.878 E0.02365
G1 X115.196 Y139.550 E0.16705
G1 X115.950 Y139.550 E0.02365
G1 X115.950 Y144.878 E0.16705
G1 X116.704 Y144.878 E0.02365
G1 X116.704 Y139.550 E0.16705
G1 X117.458 Y139.550 E0.02365
G1 X117.458 Y144.878 E0.16705
G1 X118.213 Y144.878 E0.02365
G1 X118.213 Y139.550 E0.16705
G1 X118.967 Y139.550 E0.02365
G1 X118.967 Y144.878 E0.16705
G1 X119.721 Y144.878 E0.02365
G1 X119.721 Y139.550 E0.16705
G1 X120.475 Y139.550 E0.02365
G1 X120.475 Y144.878 E0.16705
G1 X121.229 Y144.878 E0.02365
G1 X121.229 Y139.550 E0.16705
G1 X121.983 Y139.550 E0.02365
G1 X121.983 Y173.723 E1.07147
G1 X122.738 Y173.723 E0.02365
G1 X122.738 Y139.550 E1.07147
G1 X123.492 Y139.550 E0.02365
G1 X123.492 Y173.723 E1.07147
G1 X124.246 Y173.723 E0.02365
G1 X124.246 Y139.550 E1.07147
G1 X125.000 Y139.550 E0.02365
G1 X125.000 Y173.723 E1.07147
G1 X125.754 Y173.723 E0.02365
G1 X125.754 Y139.550 E1.07147
G1 X126.508 Y139.550 E0.02365
G1 X126.508 Y173.723 E1.07147
G1 X127.262 Y173.723 E0.02365
G1 X127.262 Y139.550 E1.07147
G1 X128.017 Y139.550 E0.02365
G1 X128.017 Y173.723 E1.07147
G1 X128.771 Y173.723 E0.02365
G1 X128.771 Y139.550 E1.07147
G1 X129.525 Y139.550 E0.02365
G1 X129.525 Y173.723 E1.07147
G1 X130.279 Y173.723 E0.02365
G1 X130.279 Y139.550 E1.07147
G1 X131.033 Y139.550 E0.02365
G1 X131.033 Y173.723 E1.07147
G1 X131.787 Y173.723 E0.02365
G1 X131.787 Y139.550 E1.07147
G1 X132.542 Y139.550 E0.02365
G1 X132.542 Y173.893 E1.07679
G1 X142.346 Y173.893 F10800.000
G1 F1200.000
G1 X142.346 Y168.940 E0.15529
G1 X141.591 Y168.940 E0.02365
G1 X141.591 Y173.723 E0.14997
G1 X140.837 Y173.723 E0.02365
G1 X140.837 Y168.940 E0.14997
G1 X140.083 Y168.940 E0.02365
G1 X140.083 Y173.723 E0.14997
G1 X139.329 Y173.723 E0.02365
G1 X139.329 Y168.940 E0.14997
G1 X138.575 Y168.940 E0.02365
G1 X138.575 Y173.723 E0.14997
G1 X137.821 Y173.723 E0.02365
G1 X137.821 Y168.940 E0.14997
G1 X137.067 Y168.940 E0.02365
G1 X137.067 Y173.723 E0.14997
G1 X136.312 Y173.723 E0.02365
G1 X136.312 Y168.940 E0.14997
G1 X135.558 Y168.940 E0.02365
G1 X135.558 Y173.723 E0.14997
G1 X134.804 Y173.723 E0.02365
G1 X134.804 Y168.940 E0.14997
G1 X134.050 Y168.940 E0.02365
G1 X134.050 Y173.723 E0.14997
G1 X133.296 Y173.723 E0.02365
G1 X133.296 Y168.940 E0.14997
G1 X132.579 Y168.940 E0.02247
G1 X132.579 Y144.878 E0.75445
G1 X133.296 Y144.878 E0.02247
G1 X133.296 Y139.550 E0.16705
G1 X134.050 Y139.550 E0.02365
G1 X134.050 Y144.878 E0.16705
G1 X134.804 Y144.878 E0.02365
G1 X134.804 Y139.550 E0.16705
G1 X135.558 Y139.550 E0.02365
G1 X135.558 Y144.878 E0.16705
G1 X136.312 Y144.878 E0.02365
G1 X136.312 Y139.550 E0.16705
G1 X137.067 Y139.550 E0.02365
G1 X137.067 Y144.878 E0.16705
G1 X137.821 Y144.878 E0.02365
G1 X137.821 Y139.550 E0.16705
G1 X138.575 Y139.550 E0.02365
G1 X138.575 Y144.878 E0.16705
G1 X139.329 Y144.878 E0.02365
G1 X139.329 Y139.550 E0.16705
G1 X140.083 Y139.550 E0.02365
G1 X140.083 Y144.878 E0.16705
G1 X140.837 Y144.878 E0.02365
G1 X140.837 Y139.550 E0.16705
G1 X141.591 Y139.550 E0.02365
G1 X141.591 Y144.878 E0.16705
G1 X142.346 Y144.878 E0.02365
G1 X142.346 Y139.550 E0.16705
G1 X143.100 Y139.550 E0.02365
G1 X143.100 Y173.723 E1.07147
G1 X143.854 Y173.723 E0.02365
G1 X143.854 Y139.550 E1.07147
G1 X144.608 Y139.550 E0.02365
G1 X144.608 Y173.723 E1.07147
G1 X145.362 Y173.723 E0.02365
G1 X145.362 Y139.550 E1.07147
G1 X146.116 Y139.550 E0.02365
G1 X146.116 Y173.723 E1.07147
G1 X146.871 Y173.723 E0.02365
G1 X146.871 Y139.550 E1.07147
G1 X147.625 Y139.550 E0.02365
G1 X147.625 Y173.893 E1.07679
G1 F8640.000
G1 X147.625 Y170.602 E-0.76000
G1 E-0.04000 F2100.00000
G1 Z0.600 F10800.000
G1 X108.013 Y138.350
G1 Z0.200
G1 E0.80000 F2100.00000
G1 F1200.000
G1 X149.087 Y138.350 E1.28785
G1 X149.087 Y174.924 E1.14676
G1 X108.013 Y174.924 E1.28785
G1 X108.013 Y138.410 E1.14488
G1 X108.390 Y138.727 F10800.000
G1 F1200.000
G1 X148.710 Y138.727 E1.26421
M73 Q1 S113
M73 P1 R112
G1 X148.710 Y174.547 E1.12311
G1 X108.390 Y174.547 E1.26421
G1 X108.390 Y138.787 E1.12123
G1 X108.279 Y138.343 F10800.000
G1 F8640.000
G1 X111.681 Y138.782 E-0.76000
G1 E-0.04000 F2100.00000
G1 Z0.600 F10800.000
G1 X104.052 Y177.978
G1 Z0.200
G1 E0.80000 F2100.00000
G1 F1200.000
G1 X104.052 Y32.022 E4.57634
G1 X151.498 Y32.022 E1.48763
G1 X151.498 Y177.978 E4.57634
G1 X104.112 Y177.978 E1.48575
G1 X103.675 Y178.355 F10800.000
G1 F1200.000
G1 X103.675 Y31.645 E4.59999
G1 X151.875 Y31.645 E1.51128
G1 X151.875 Y178.355 E4.59999
G1 X103.735 Y178.355 E1.50940
G1 X103.717 Y177.957 F10800.000
G1 F8640.000
G1 X103.734 Y175.064 E-0.76000
G1 E-0.04000 F2100.00000
G1 Z0.600 F10800.000
G1 X104.930 Y177.865
G1 Z0.200
G1 E0.80000 F2100.00000
G1 F1200.000
G1 X104.335 Y177.270 E0.02646
G1 X104.335 Y176.735 E0.01681
G1 X105.295 Y177.695 E0.04269
G1 X105.830 Y177.695 E0.01681
G1 X104.335 Y176.200 E0.06646
G1 X104.335 Y175.666 E0.01681
G1 X106.364 Y177.695 E0.09023
G1 X106.899 Y177.695 E0.01681
G1 X104.335 Y175.131 E0.11400
G1 X104.335 Y174.596 E0.01681
G1 X107.434 Y177.695 E0.13777
G1 X107.968 Y177.695 E0.01681
G1 X104.335 Y174.062 E0.16155
G1 X104.335 Y173.527 E0.01681
G1 X108.503 Y177.695 E0.18532
G1 X109.038 Y177.695 E0.01681
G1 X104.335 Y172.992 E0.20909
G1 X104.335 Y172.457 E0.01681
G1 X109.742 Y177.865 E0.24041
G1 F8640.000
G1 X107.415 Y175.537 E-0.76000
G1 E-0.04000 F2100.00000
G1 Z0.600 F10800.000
G1 X104.165 Y93.688
G1 Z0.200
G1 E0.80000 F2100.00000
G1 F1200.000
G1 X148.544 Y138.067 E1.97309
G1 X148.010 Y138.067 E0.01681
G1 X104.335 Y94.392 E1.94177
G1 X104.335 Y94.927 E0.01681
G1 X147.475 Y138.067 E1.91800
G1 X146.940 Y138.067 E0.01681
G1 X104.335 Y95.462 E1.89423
M73 Q2 S112
M73 P2 R111
G1 X104.335 Y95.996 E0.01681
G1 X146.406 Y138.067 E1.87046
G1 X145.871 Y138.067 E0.01681
G1 X104.335 Y96.531 E1.84668
G1 X104.335 Y97.066 E0.01681
G1 X145.336 Y138.067 E1.82291
G1 X144.801 Y138.067 E0.01681
G1 X104.335 Y97.600 E1.79914
G1 X104.335 Y98.135 E0.01681
G1 X144.267 Y138.067 E1.77537
G1 X143.732 Y138.067 E0.01681
G1 X104.335 Y98.670 E1.75159
G1 X104.335 Y99.205 E0.01681
G1 X143.197 Y138.067 E1.72782
G1 X142.663 Y138.067 E0.01681
G1 X104.335 Y99.739 E1.70405
G1 X104.335 Y100.274 E0.01681
G1 X142.128 Y138.067 E1.68028
G1 X141.593 Y138.067 E0.01681
G1 X104.335 Y100.809 E1.65651
G1 X104.335 Y101.343 E0.01681
G1 X141.059 Y138.067 E1.63273
G1 X140.524 Y138.067 E0.01681
G1 X104.335 Y101.878 E1.60896
G1 X104.335 Y102.413 E0.01681
G1 X139.989 Y138.067 E1.58519
G1 X139.455 Y138.067 E0.01681
G1 X104.335 Y102.947 E1.56142
G1 X104.335 Y103.482 E0.01681
G1 X138.920 Y138.067 E1.53764
G1 X138.385 Y138.067 E0.01681
G1 X104.335 Y104.017 E1.51387
G1 X104.335 Y104.551 E0.01681
G1 X137.850 Y138.067 E1.49010
G1 X137.316 Y138.067 E0.01681
G1 X104.335 Y105.086 E1.46633
G1 X104.335 Y105.621 E0.01681
G1 X136.781 Y138.067 E1.44255
G1 X136.246 Y138.067 E0.01681
G1 X104.335 Y106.156 E1.41878
G1 X104.335 Y106.690 E0.01681
G1 X135.712 Y138.067 E1.39501
G1 X135.177 Y138.067 E0.01681
G1 X104.335 Y107.225 E1.37124
G1 X104.335 Y107.760 E0.01681
G1 X134.642 Y138.067 E1.34746
G1 X134.108 Y138.067 E0.01681
G1 X104.335 Y108.294 E1.32369
M73 Q3 S111
M73 P3 R110
G1 X104.335 Y108.829 E0.01681
G1 X133.573 Y138.067 E1.29992
G1 X133.038 Y138.067 E0.01681
G1 X104.335 Y109.364 E1.27615
G1 X104.335 Y109.898 E0.01681
G1 X132.504 Y138.067 E1.25237
G1 X131.969 Y138.067 E0.01681
G1 X104.335 Y110.433 E1.22860
G1 X104.335 Y110.968 E0.01681
G1 X131.434 Y138.067 E1.20483
G1 X130.899 Y138.067 E0.01681
G1 X104.335 Y111.503 E1.18106
G1 X104.335 Y112.037 E0.01681
G1 X130.365 Y138.067 E1.15728
G1 X129.830 Y138.067 E0.01681
G1 X104.335 Y112.572 E1.13351
G1 X104.335 Y113.107 E0.01681
G1 X129.295 Y138.067 E1.10974
G1 X128.761 Y138.067 E0.01681
G1 X104.335 Y113.641 E1.08597
G1 X104.335 Y114.176 E0.01681
G1 X128.226 Y138.067 E1.06220
G1 X127.691 Y138.067 E0.01681
G1 X104.335 Y114.711 E1.03842
G1 X104.335 Y115.245 E0.01681
G1 X127.157 Y138.067 E1.01465
G1 X126.622 Y138.067 E0.01681
G1 X104.335 Y115.780 E0.99088
G1 X104.335 Y116.315 E0.01681
G1 X126.087 Y138.067 E0.96711
G1 X125.552 Y138.067 E0.01681
G1 X104.335 Y116.849 E0.94333
G1 X104.335 Y117.384 E0.01681
G1 X125.018 Y138.067 E0.91956
G1 X124.483 Y138.067 E0.01681
G1 X104.335 Y117.919 E0.89579
G1 X104.335 Y118.454 E0.01681
G1 X123.948 Y138.067 E0.87202
G1 X123.414 Y138.067 E0.01681
G1 X104.335 Y118.988 E0.84824
G1 X104.335 Y119.523 E0.01681
G1 X122.879 Y138.067 E0.82447
G1 X122.344 Y138.067 E0.01681
G1 X104.335 Y120.058 E0.80070
G1 X104.335 Y120.592 E0.01681
G1 X121.810 Y138.067 E0.77693
G1 X121.275 Y138.067 E0.01681
G1 X104.335 Y121.127 E0.75315
G1 X104.335 Y121.662 E0.01681
G1 X120.740 Y138.067 E0.72938
G1 X120.206 Y138.067 E0.01681
G1 X104.335 Y122.196 E0.70561
G1 X104.335 Y122.731 E0.01681
G1 X119.671 Y138.067 E0.68184
G1 X119.136 Y138.067 E0.01681
G1 X104.335 Y123.266 E0.65806
G1 X104.335 Y123.800 E0.01681
G1 X118.601 Y138.067 E0.63429
G1 X118.067 Y138.067 E0.01681
G1 X104.335 Y124.335 E0.61052
G1 X104.335 Y124.870 E0.01681
G1 X117.532 Y138.067 E0.58675
G1 X116.997 Y138.067 E0.01681
G1 X104.335 Y125.405 E0.56297
G1 X104.335 Y125.939 E0.01681
G1 X116.463 Y138.067 E0.53920
G1 X115.928 Y138.067 E0.01681
G1 X104.335 Y126.474 E0.51543
G1 X104.335 Y127.009 E0.01681
G1 X115.393 Y138.067 E0.49166
G1 X114.859 Y138.067 E0.01681
G1 X104.335 Y127.543 E0.46789
G1 X104.335 Y128.078 E0.01681
G1 X114.324 Y138.067 E0.44411
G1 X113.789 Y138.067 E0.01681
G1 X104.335 Y128.613 E0.42034
G1 X104.335 Y129.147 E0.01681
G1 X113.255 Y138.067 E0.39657
G1 X112.720 Y138.067 E0.01681
G1 X104.335 Y129.682 E0.37280
G1 X104.335 Y130.217 E0.01681
G1 X112.185 Y138.067 E0.34902
G1 X111.650 Y138.067 E0.01681
G1 X104.335 Y130.751 E0.32525
G1 X104.335 Y131.286 E0.01681
G1 X111.116 Y138.067 E0.30148
G1 X110.581 Y138.067 E0.01681
G1 X104.335 Y131.821 E0.27771
G1 X104.335 Y132.356 E0.01681
G1 X110.046 Y138.067 E0.25393
G1 X109.512 Y138.067 E0.01681
G1 X104.335 Y132.890 E0.23016
G1 X104.335 Y133.425 E0.01681
G1 X108.977 Y138.067 E0.20639
G1 X108.442 Y138.067 E0.01681
G1 X104.335 Y133.960 E0.18262
G1 X104.335 Y134.494 E0.01681
G1 X107.908 Y138.067 E0.15884
G1 X107.730 Y138.067 E0.00559
G1 X107.730 Y138.424 E0.01122
G1 X104.335 Y135.029 E0.15094
G1 X104.335 Y135.564 E0.01681
G1 X107.730 Y138.959 E0.15094
G1 X107.730 Y139.493 E0.01681
