; generated by PrusaSlicer 2.2.0+win64 on 2020-08-18 at 18:32:43 UTC

; 

; external perimeters extrusion width = 0.60mm
; perimeters extrusion width = 0.50mm
; infill extrusion width = 0.50mm
; solid infill extrusion width = 0.50mm
; top infill extrusion width = 0.45mm
; support material extrusion width = 0.38mm
; first layer extrusion width = 0.42mm

M73 P0 R122
M73 Q0 S123
M201 X1000 Y1000 Z1000 E5000 ; sets maximum accelerations, mm/sec^2
M203 X200 Y200 Z12 E120 ; sets maximum feedrates, mm/sec
M204 P1250 R1250 T1250 ; sets acceleration (P, T) and retract acceleration (R), mm/sec^2
M205 X8.00 Y8.00 Z0.40 E1.50 ; sets the jerk limits, mm/sec
M205 S0 T0 ; sets the minimum extruding and travel feed rate, mm/sec
M107
M862.3 P "MK3S" ; printer model check
M862.1 P0.4 ; nozzle diameter check
M115 U3.8.0 ; tell printer latest fw version
G90 ; use absolute coordinates
M83 ; extruder relative mode
M104 S215 ; set extruder temp
M140 S60 ; set bed temp
M190 S60 ; wait for bed temp
M109 S215 ; wait for extruder temp
G28 W ; home all without mesh bed level
G80 ; mesh bed leveling
G1 Y-3.0 F1000.0 ; go outside print area
G92 E0.0
G1 X60.0 E9.0 F1000.0 ; intro line
M73 Q0 S123
M73 P0 R122
G1 X100.0 E12.5 F1000.0 ; intro line
G92 E0.0
M221 S95
G21 ; set units to millimeters
G90 ; use absolute coordinates
M83 ; use relative distances for extrusion
M900 K0.06 ; Filament gcode LA 1.5
M900 K30 ; Filament gcode LA 1.0
;BEFORE_LAYER_CHANGE
G92 E0.0
;0.2


G1 E-0.80000 F2100.00000
G1 Z0.600 F10800.000
;AFTER_LAYER_CHANGE
;0.2
G1 X54.143 Y26.098
G1 Z0.200
G1 E0.80000 F2100.00000
M204 S1000
G1 F1200.000
G1 X54.501 Y25.472 E0.02260
G1 X55.033 Y24.980 E0.02272
G1 X62.378 Y20.192 E0.27491
G1 X62.875 Y19.962 E0.01716
G1 X63.411 Y19.852 E0.01716
G1 X125.868 Y19.843 E1.95830
G1 X164.018 Y20.055 E1.19619
G1 X164.502 Y20.202 E0.01585
G1 X180.976 Y27.249 E0.56180
G1 X181.689 Y27.842 E0.02907
G1 X183.589 Y30.247 E0.09613
G1 X183.926 Y30.898 E0.02296
G1 X198.351 Y77.370 E1.52569
G1 X200.622 Y86.933 E0.30819
G1 X200.640 Y95.693 E0.27465
G1 X182.848 Y183.399 E2.80599
G1 X182.642 Y183.975 E0.01917
G1 X182.297 Y184.480 E0.01917
G1 X181.831 Y184.882 E0.01929
G1 X181.281 Y185.149 E0.01917
G1 X180.700 Y185.267 E0.01858
G1 X127.136 Y189.176 E1.68392
G1 X119.376 Y189.010 E0.24338
G1 X118.747 Y188.904 E0.02000
G1 X118.213 Y188.662 E0.01838
G1 X81.659 Y166.291 E1.34371
G1 X81.305 Y165.920 E0.01609
G1 X81.039 Y165.481 E0.01609
G1 X75.015 Y152.074 E0.46086
G1 X71.411 Y141.019 E0.36457
G1 X54.011 Y30.335 E3.51304
G1 X53.986 Y26.878 E0.10837
G1 X54.131 Y26.157 E0.02308
G1 E-0.80000 F2100.00000
G1 Z0.800 F10800.000
G1 X59.848 Y32.615
G1 Z0.200
G1 E0.80000 F2100.00000
G1 F1200.000
G1 X59.848 Y32.960 E0.01079
G1 X60.602 Y32.960 E0.02365
G1 X60.602 Y32.101 E0.02691
G1 X61.356 Y31.347 E0.03344
G1 X61.356 Y32.960 E0.05056
G1 X62.110 Y32.960 E0.02365
G1 X62.110 Y30.593 E0.07421
G1 X62.234 Y30.469 E0.00549
G1 X62.864 Y30.469 E0.01977
G1 X62.864 Y32.960 E0.07809
G1 X63.618 Y32.960 E0.02365
G1 X63.618 Y30.469 E0.07809
G1 X64.372 Y30.469 E0.02365
G1 X64.372 Y32.960 E0.07809
G1 X65.127 Y32.960 E0.02365
G1 X65.127 Y30.469 E0.07809
G1 X65.881 Y30.469 E0.02365
G1 X65.881 Y33.129 E0.08341
G1 X74.177 Y33.129 F10800.000
G1 F1200.000
G1 X74.177 Y22.390 E0.33672
G1 X73.422 Y22.390 E0.02365
G1 X73.422 Y32.960 E0.33140
G1 X72.668 Y32.960 E0.02365
G1 X72.668 Y22.390 E0.33140
G1 X71.914 Y22.390 E0.02365
G1 X71.914 Y32.960 E0.33140
G1 X71.160 Y32.960 E0.02365
G1 X71.160 Y22.390 E0.33140
G1 X70.406 Y22.390 E0.02365
G1 X70.406 Y32.960 E0.33140
G1 X69.652 Y32.960 E0.02365
G1 X69.652 Y22.390 E0.33140
G1 X68.897 Y22.390 E0.02365
G1 X68.897 Y32.960 E0.33140
G1 X68.143 Y32.960 E0.02365
G1 X68.143 Y22.390 E0.33140
G1 X67.389 Y22.390 E0.02365
G1 X67.389 Y32.960 E0.33140
G1 X66.635 Y32.960 E0.02365
G1 X66.635 Y22.390 E0.33140
G1 X65.881 Y22.390 E0.02365
G1 X65.881 Y26.462 E0.12768
G1 X65.127 Y26.462 E0.02365
G1 X65.127 Y22.390 E0.12768
G1 X64.372 Y22.390 E0.02365
G1 X64.372 Y26.462 E0.12768
G1 X63.618 Y26.462 E0.02365
G1 X63.618 Y22.220 E0.13300
G1 E-0.80000 F2100.00000
G1 Z0.800 F10800.000
G1 X70.406 Y56.285
G1 Z0.200
G1 E0.80000 F2100.00000
G1 F1200.000
G1 X70.406 Y43.231 E0.40933
G1 X71.160 Y43.231 E0.02365
G1 X71.160 Y56.116 E0.40401
G1 X71.914 Y56.116 E0.02365
G1 X71.914 Y43.231 E0.40401
G1 X72.291 Y43.231 E0.01180
G1 X72.291 Y40.915 E0.07260
G1 X72.668 Y40.915 E0.01184
G1 X72.668 Y70.009 E0.91224
G1 X73.422 Y70.009 E0.02365
G1 X73.422 Y40.915 E0.91224
G1 X74.177 Y40.915 E0.02365
G1 X74.177 Y70.009 E0.91224
G1 X74.606 Y70.009 E0.01347
G1 X74.606 Y81.588 E0.36302
G1 X74.931 Y81.588 E0.01018
G1 X74.931 Y22.390 E1.85610
G1 X75.685 Y22.390 E0.02365
G1 X75.685 Y81.588 E1.85610
G1 X76.439 Y81.588 E0.02365
G1 X76.439 Y22.390 E1.85610
G1 X77.193 Y22.390 E0.02365
G1 X77.193 Y83.903 E1.92870
G1 X77.947 Y83.903 E0.02365
G1 X77.947 Y22.390 E1.92870
M73 Q0 S122
M73 P0 R121
G1 X78.702 Y22.390 E0.02365
G1 X78.701 Y83.903 E1.92870
G1 X79.237 Y83.903 E0.01680
G1 X79.237 Y86.219 E0.07260
G1 X79.456 Y86.219 E0.00684
G1 X79.456 Y22.390 E2.00131
G1 X80.210 Y22.390 E0.02365
G1 X80.210 Y86.219 E2.00131
G1 X80.964 Y86.219 E0.02365
G1 X80.964 Y22.390 E2.00131
G1 X81.718 Y22.390 E0.02365
G1 X81.718 Y93.166 E2.21912
G1 X82.472 Y93.166 E0.02365
G1 X82.472 Y22.390 E2.21912
G1 X83.226 Y22.390 E0.02365
G1 X83.226 Y93.166 E2.21912
G1 X83.981 Y93.166 E0.02365
G1 X83.981 Y22.390 E2.21912
G1 X84.735 Y22.390 E0.02365
G1 X84.735 Y93.166 E2.21912
G1 X85.489 Y93.166 E0.02365
G1 X85.489 Y22.390 E2.21912
G1 X86.243 Y22.390 E0.02365
G1 X86.243 Y93.166 E2.21912
G1 X86.997 Y93.166 E0.02365
G1 X86.997 Y22.390 E2.21912
G1 X87.751 Y22.390 E0.02365
G1 X87.751 Y93.166 E2.21912
G1 X88.506 Y93.166 E0.02365
G1 X88.506 Y22.390 E2.21912
G1 X89.260 Y22.390 E0.02365
G1 X89.260 Y93.166 E2.21912
G1 X90.014 Y93.166 E0.02365
G1 X90.014 Y22.390 E2.21912
G1 X90.768 Y22.390 E0.02365
G1 X90.768 Y93.166 E2.21912
G1 X91.522 Y93.166 E0.02365
G1 X91.522 Y22.390 E2.21912
M73 Q1 S121
M73 P1 R120
G1 X92.276 Y22.390 E0.02365
G1 X92.276 Y88.534 E2.07391
G1 X93.031 Y88.534 E0.02365
G1 X93.031 Y22.390 E2.07391
G1 X93.785 Y22.390 E0.02365
G1 X93.785 Y88.534 E2.07391
G1 X94.539 Y88.534 E0.02365
G1 X94.539 Y22.390 E2.07391
G1 X95.293 Y22.390 E0.02365
G1 X95.293 Y88.534 E2.07391
G1 X96.047 Y88.534 E0.02365
G1 X96.047 Y22.390 E2.07391
G1 X96.801 Y22.390 E0.02365
G1 X96.801 Y88.534 E2.07391
G1 X97.555 Y88.534 E0.02365
G1 X97.555 Y22.390 E2.07391
G1 X98.310 Y22.390 E0.02365
G1 X98.310 Y88.534 E2.07391
G1 X99.064 Y88.534 E0.02365
G1 X99.064 Y22.390 E2.07391
G1 X99.818 Y22.390 E0.02365
G1 X99.818 Y88.534 E2.07391
G1 X100.572 Y88.534 E0.02365
G1 X100.572 Y22.390 E2.07391
G1 X101.326 Y22.390 E0.02365
G1 X101.326 Y88.534 E2.07391
G1 X102.080 Y88.534 E0.02365
G1 X102.080 Y27.021 E1.92870
G1 X102.835 Y27.021 E0.02365
G1 X102.835 Y88.534 E1.92870
G1 X103.589 Y88.534 E0.02365
G1 X103.589 Y27.021 E1.92870
G1 X104.343 Y27.021 E0.02365
G1 X104.343 Y88.534 E1.92870
G1 X104.709 Y88.534 E0.01148
G1 X104.709 Y90.850 E0.07260
G1 X105.097 Y90.850 E0.01216
G1 X105.097 Y27.021 E2.00131
G1 X105.851 Y27.021 E0.02365
G1 X105.851 Y90.850 E2.00131
M73 Q2 S120
M73 P2 R118
G1 X106.605 Y90.850 E0.02365
G1 X106.605 Y27.021 E2.00131
G1 X107.360 Y27.021 E0.02365
G1 X107.360 Y95.481 E2.14652
G1 X108.114 Y95.481 E0.02365
G1 X108.114 Y27.021 E2.14652
G1 X108.868 Y27.021 E0.02365
G1 X108.868 Y95.481 E2.14652
G1 X109.622 Y95.481 E0.02365
G1 X109.622 Y27.021 E2.14652
G1 X110.376 Y27.021 E0.02365
G1 X110.376 Y95.481 E2.14652
G1 X111.130 Y95.481 E0.02365
G1 X111.130 Y29.337 E2.07391
G1 X111.884 Y29.337 E0.02365
G1 X111.884 Y95.481 E2.07391
G1 X112.639 Y95.481 E0.02365
G1 X112.639 Y29.337 E2.07391
G1 X113.393 Y29.337 E0.02365
G1 X113.393 Y95.481 E2.07391
G1 X114.147 Y95.481 E0.02365
G1 X114.147 Y29.337 E2.07391
G1 X114.901 Y29.337 E0.02365
G1 X114.901 Y95.481 E2.07391
G1 X115.279 Y95.481 E0.01184
G1 X115.279 Y93.166 E0.07260
G1 X115.655 Y93.166 E0.01180
G1 X115.655 Y29.337 E2.00131
G1 X116.409 Y29.337 E0.02365
G1 X116.409 Y95.481 E2.07391
G1 X117.164 Y95.481 E0.02365
G1 X117.164 Y29.337 E2.07391
G1 X117.594 Y29.337 E0.01351
G1 X117.594 Y31.652 E0.07260
G1 X117.918 Y31.652 E0.01014
G1 X117.918 Y95.481 E2.00131
G1 X118.603 Y95.481 E0.02148
G1 X118.603 Y111.691 E0.50823
G1 X118.672 Y111.691 E0.00216
G1 X118.672 Y31.652 E2.50954
G1 X119.426 Y31.652 E0.02365
G1 X119.426 Y111.691 E2.50954
M73 Q3 S119
M73 P3 R117
G1 X120.180 Y111.691 E0.02365
G1 X120.180 Y66.387 E1.42047
G1 X120.934 Y66.387 E0.02365
G1 X120.934 Y111.691 E1.42047
G1 X121.689 Y111.691 E0.02365
G1 X121.689 Y66.387 E1.42047
G1 X122.226 Y66.387 E0.01684
G1 X122.226 Y73.334 E0.21781
G1 X122.443 Y73.334 E0.00681
G1 X122.443 Y111.691 E1.20266
G1 X123.197 Y111.691 E0.02365
G1 X123.197 Y73.334 E1.20266
G1 X123.951 Y73.334 E0.02365
G1 X123.951 Y111.691 E1.20266
G1 X124.705 Y111.691 E0.02365
G1 X124.705 Y73.334 E1.20266
G1 X125.459 Y73.334 E0.02365
G1 X125.459 Y111.691 E1.20266
G1 X126.214 Y111.691 E0.02365
G1 X126.214 Y73.334 E1.20266
G1 X126.857 Y73.334 E0.02017
G1 X126.857 Y75.649 E0.07260
G1 X126.968 Y75.649 E0.00347
G1 X126.968 Y111.691 E1.13005
G1 X127.722 Y111.691 E0.02365
G1 X127.722 Y75.649 E1.13005
G1 X128.476 Y75.649 E0.02365
G1 X128.476 Y111.691 E1.13005
G1 X129.173 Y111.691 E0.02184
G1 X129.173 Y107.059 E0.14521
G1 X129.230 Y107.059 E0.00181
G1 X129.230 Y75.649 E0.98484
G1 X129.984 Y75.649 E0.02365
G1 X129.984 Y107.059 E0.98484
G1 X130.738 Y107.059 E0.02365
G1 X130.738 Y75.649 E0.98484
G1 X131.488 Y75.649 E0.02351
G1 X131.493 Y95.481 E0.62182
G1 X132.247 Y95.481 E0.02365
G1 X132.247 Y77.965 E0.54922
G1 X133.001 Y77.965 E0.02365
G1 X133.001 Y95.481 E0.54922
G1 X133.755 Y95.481 E0.02365
G1 X133.755 Y77.965 E0.54922
G1 X133.804 Y77.965 E0.00153
G1 X133.804 Y87.227 E0.29042
G1 X134.509 Y87.227 E0.02212
G1 X134.509 Y95.481 E0.25880
G1 X135.263 Y95.481 E0.02365
G1 X135.263 Y87.227 E0.25880
G1 X136.018 Y87.227 E0.02365
G1 X136.018 Y95.651 E0.26412
G1 E-0.80000 F2100.00000
G1 Z0.800 F10800.000
G1 X121.689 Y63.232
G1 Z0.200
G1 E0.80000 F2100.00000
G1 F1200.000
G1 X121.689 Y43.231 E0.62714
G1 X120.934 Y43.231 E0.02365
G1 X120.934 Y63.063 E0.62182
G1 X120.180 Y63.063 E0.02365
G1 X120.180 Y43.061 E0.62714
G1 E-0.80000 F2100.00000
G1 Z0.800 F10800.000
G1 X65.487 Y29.194
G1 Z0.200
G1 E0.80000 F2100.00000
G1 F1200.000
G1 X57.149 Y29.194 E0.26143
G1 X57.149 Y27.738 E0.04564
G1 X65.487 Y27.738 E0.26143
G1 X65.487 Y29.134 E0.04376
G1 X65.864 Y29.571 F10800.000
G1 F1200.000
G1 X56.772 Y29.571 E0.28508
G1 X56.772 Y27.361 E0.06929
G1 X65.864 Y27.361 E0.28508
G1 X65.864 Y29.511 E0.06741
G1 X65.465 Y29.539 F10800.000
G1 E-0.80000 F2100.00000
G1 Z0.800 F10800.000
G1 X57.262 Y28.287
G1 Z0.200
G1 E0.80000 F2100.00000
G1 F1200.000
G1 X57.885 Y28.911 E0.02871
G1 X58.439 Y28.911 E0.01804
G1 X57.549 Y28.021 E0.04100
G1 X58.103 Y28.021 E0.01804
G1 X58.993 Y28.911 E0.04100
G1 X59.547 Y28.911 E0.01804
G1 X58.657 Y28.021 E0.04100
G1 X59.211 Y28.021 E0.01804
G1 X60.101 Y28.911 E0.04100
G1 X60.655 Y28.911 E0.01804
G1 X59.765 Y28.021 E0.04100
G1 X60.319 Y28.021 E0.01804
G1 X61.209 Y28.911 E0.04100
G1 X61.763 Y28.911 E0.01804
G1 X60.873 Y28.021 E0.04100
G1 X61.427 Y28.021 E0.01804
G1 X62.317 Y28.911 E0.04100
G1 X62.871 Y28.911 E0.01804
G1 X61.981 Y28.021 E0.04100
G1 X62.535 Y28.021 E0.01804
G1 X63.425 Y28.911 E0.04100
G1 X63.979 Y28.911 E0.01804
G1 X63.088 Y28.021 E0.04100
G1 X63.642 Y28.021 E0.01804
G1 X64.532 Y28.911 E0.04100
G1 X65.086 Y28.911 E0.01804
G1 X64.196 Y28.021 E0.04100
G1 X64.750 Y28.021 E0.01804
G1 X65.374 Y28.644 E0.02872
G1 E-0.80000 F2100.00000
G1 Z0.800 F10800.000
G1 X122.093 Y32.615
G1 Z0.200
G1 E0.80000 F2100.00000
G1 F1200.000
G1 X122.093 Y32.960 E0.01079
G1 X122.848 Y32.960 E0.02365
G1 X122.848 Y32.101 E0.02691
G1 X123.602 Y31.347 E0.03344
G1 X123.602 Y32.960 E0.05056
G1 X124.356 Y32.960 E0.02365
G1 X124.356 Y30.593 E0.07421
G1 X124.480 Y30.469 E0.00549
G1 X125.110 Y30.469 E0.01977
G1 X125.110 Y32.960 E0.07809
G1 X125.864 Y32.960 E0.02365
G1 X125.864 Y30.469 E0.07809
G1 X126.618 Y30.469 E0.02365
G1 X126.618 Y32.960 E0.07809
G1 X127.373 Y32.960 E0.02365
G1 X127.373 Y30.469 E0.07809
G1 X128.127 Y30.469 E0.02365
G1 X128.127 Y33.129 E0.08341
G1 X136.422 Y33.129 F10800.000
G1 F1200.000
G1 X136.422 Y22.390 E0.33672
G1 X135.668 Y22.390 E0.02365
G1 X135.668 Y32.960 E0.33140
G1 X134.914 Y32.960 E0.02365
G1 X134.914 Y22.390 E0.33140
G1 X134.160 Y22.390 E0.02365
G1 X134.160 Y32.960 E0.33140
G1 X133.406 Y32.960 E0.02365
G1 X133.406 Y22.390 E0.33140
G1 X132.652 Y22.390 E0.02365
G1 X132.652 Y32.960 E0.33140
G1 X131.898 Y32.960 E0.02365
G1 X131.898 Y22.390 E0.33140
G1 X131.143 Y22.390 E0.02365
G1 X131.143 Y32.960 E0.33140
G1 X130.389 Y32.960 E0.02365
G1 X130.389 Y22.390 E0.33140
G1 X129.635 Y22.390 E0.02365
G1 X129.635 Y32.960 E0.33140
G1 X128.881 Y32.960 E0.02365
G1 X128.881 Y22.390 E0.33140
G1 X128.127 Y22.390 E0.02365
G1 X128.127 Y26.462 E0.12768
G1 X127.373 Y26.462 E0.02365
G1 X127.373 Y22.390 E0.12768
G1 X126.618 Y22.390 E0.02365
G1 X126.618 Y26.462 E0.12768
G1 X125.864 Y26.462 E0.02365
G1 X125.864 Y22.220 E0.13300
G1 E-0.80000 F2100.00000
G1 Z0.800 F10800.000
G1 X132.652 Y56.285
G1 Z0.200
G1 E0.80000 F2100.00000
G1 F1200.000
G1 X132.652 Y43.231 E0.40933
G1 X133.406 Y43.231 E0.02365
G1 X133.406 Y56.116 E0.40401
G1 X134.160 Y56.116 E0.02365
G1 X134.160 Y43.231 E0.40401
G1 X134.536 Y43.231 E0.01180
G1 X134.536 Y40.915 E0.07260
G1 X134.914 Y40.915 E0.01184
G1 X134.914 Y70.009 E0.91224
G1 X135.668 Y70.009 E0.02365
G1 X135.668 Y40.915 E0.91224
M73 Q4 S118
G1 X136.422 Y40.915 E0.02365
G1 X136.422 Y70.009 E0.91224
M73 P4 R116
G1 X136.852 Y70.009 E0.01347
G1 X136.852 Y81.588 E0.36302
G1 X137.177 Y81.588 E0.01018
G1 X137.177 Y22.390 E1.85610
G1 X137.931 Y22.390 E0.02365
G1 X137.931 Y81.588 E1.85610
G1 X138.685 Y81.588 E0.02365
G1 X138.685 Y22.390 E1.85610
G1 X139.439 Y22.390 E0.02365
G1 X139.439 Y83.903 E1.92870
G1 X140.193 Y83.903 E0.02365
G1 X140.193 Y22.390 E1.92870
G1 X140.947 Y22.390 E0.02365
G1 X140.947 Y83.903 E1.92870
G1 X141.483 Y83.903 E0.01680
G1 X141.483 Y86.219 E0.07260
G1 X141.702 Y86.219 E0.00684
G1 X141.702 Y22.390 E2.00131
G1 X142.456 Y22.390 E0.02365
G1 X142.456 Y86.219 E2.00131
G1 X143.210 Y86.219 E0.02365
G1 X143.210 Y22.390 E2.00131
G1 X143.964 Y22.390 E0.02365
G1 X143.964 Y93.166 E2.21912
G1 X144.718 Y93.166 E0.02365
G1 X144.718 Y22.390 E2.21912
G1 X145.472 Y22.390 E0.02365
G1 X145.472 Y93.166 E2.21912
G1 X146.227 Y93.166 E0.02365
G1 X146.227 Y22.390 E2.21912
G1 X146.981 Y22.390 E0.02365
G1 X146.981 Y93.166 E2.21912
G1 X147.735 Y93.166 E0.02365
G1 X147.735 Y22.390 E2.21912
G1 X148.489 Y22.390 E0.02365
G1 X148.489 Y93.166 E2.21912
G1 X149.243 Y93.166 E0.02365
G1 X149.243 Y22.390 E2.21912
G1 X149.997 Y22.390 E0.02365
G1 X149.997 Y93.166 E2.21912
M73 Q5 S117
M73 P5 R115
G1 X150.751 Y93.166 E0.02365
G1 X150.752 Y22.390 E2.21912
G1 X151.506 Y22.390 E0.02365
G1 X151.506 Y93.166 E2.21912
G1 X152.260 Y93.166 E0.02365
G1 X152.260 Y22.390 E2.21912
G1 X153.014 Y22.390 E0.02365
G1 X153.014 Y93.166 E2.21912
G1 X153.768 Y93.166 E0.02365
G1 X153.768 Y22.390 E2.21912
G1 X154.522 Y22.390 E0.02365
G1 X154.522 Y88.534 E2.07391
G1 X155.276 Y88.534 E0.02365
G1 X155.276 Y22.390 E2.07391
G1 X156.031 Y22.390 E0.02365
G1 X156.031 Y88.534 E2.07391
G1 X156.785 Y88.534 E0.02365
G1 X156.785 Y22.390 E2.07391
G1 X157.539 Y22.390 E0.02365
G1 X157.539 Y88.534 E2.07391
G1 X158.293 Y88.534 E0.02365
G1 X158.293 Y22.390 E2.07391
G1 X159.047 Y22.390 E0.02365
G1 X159.047 Y88.534 E2.07391
G1 X159.801 Y88.534 E0.02365
G1 X159.801 Y22.390 E2.07391
G1 X160.556 Y22.390 E0.02365
G1 X160.556 Y88.534 E2.07391
G1 X161.310 Y88.534 E0.02365
G1 X161.310 Y22.390 E2.07391
G1 X162.064 Y22.390 E0.02365
G1 X162.064 Y88.534 E2.07391
G1 X162.818 Y88.534 E0.02365
G1 X162.818 Y22.390 E2.07391
G1 X163.572 Y22.390 E0.02365
G1 X163.572 Y88.534 E2.07391
M73 Q5 S116
M73 P6 R114
G1 X164.326 Y88.534 E0.02365
G1 X164.326 Y27.021 E1.92870
G1 X165.081 Y27.021 E0.02365
G1 X165.081 Y88.534 E1.92870
G1 X165.835 Y88.534 E0.02365
G1 X165.835 Y27.021 E1.92870
G1 X166.589 Y27.021 E0.02365
