; generated by PrusaSlicer 2.2.0+win64 on 2020-08-17 at 17:38:07 UTC

; 

; external perimeters extrusion width = 0.45mm
; perimeters extrusion width = 0.45mm
; infill extrusion width = 0.45mm
; solid infill extrusion width = 0.45mm
; top infill extrusion width = 0.40mm
; first layer extrusion width = 0.42mm

M73 P0 R102
M73 Q0 S103
M201 X1000 Y1000 Z1000 E5000 ; sets maximum accelerations, mm/sec^2
M203 X200 Y200 Z12 E120 ; sets maximum feedrates, mm/sec
M204 P1250 R1250 T1250 ; sets acceleration (P, T) and retract acceleration (R), mm/sec^2
M205 X8.00 Y8.00 Z0.40 E1.50 ; sets the jerk limits, mm/sec
M205 S0 T0 ; sets the minimum extruding and travel feed rate, mm/sec
M107
M862.3 P "MK3S" ; printer model check
M862.1 P0.4 ; nozzle diameter check
M115 U3.8.0 ; tell printer latest fw version
G90 ; use absolute coordinates
M83 ; extruder relative mode
M104 S215 ; set extruder temp
M140 S60 ; set bed temp
M190 S60 ; wait for bed temp
M109 S215 ; wait for extruder temp
G28 W ; home all without mesh bed level
G80 ; mesh bed leveling
G1 Y-3.0 F1000.0 ; go outside print area
G92 E0.0
G1 X60.0 E9.0 F1000.0 ; intro line
M73 Q0 S103
M73 P0 R102
G1 X100.0 E12.5 F1000.0 ; intro line
G92 E0.0
M221 S95
G21 ; set units to millimeters
G90 ; use absolute coordinates
M83 ; use relative distances for extrusion
M900 K0.06 ; Filament gcode LA 1.5
M900 K30 ; Filament gcode LA 1.0
;BEFORE_LAYER_CHANGE
G92 E0.0
;0.2


G1 E-0.80000 F2100.00000
G1 Z0.600 F10800.000
;AFTER_LAYER_CHANGE
;0.2
G1 X85.785 Y92.258
G1 Z0.200
G1 E0.80000 F2100.00000
M204 S1000
G1 F1200.000
G1 X86.932 Y90.745 E0.05952
G1 X87.740 Y90.181 E0.03090
G1 X88.649 Y89.781 E0.03114
G1 X91.337 Y89.533 E0.08464
G1 X93.724 Y89.850 E0.07550
G1 X95.807 Y89.850 E0.06529
G1 X102.824 Y89.953 E0.22005
G1 X107.045 Y89.953 E0.13233
G1 X119.912 Y89.812 E0.40346
G1 X121.123 Y90.037 E0.03863
G1 X122.745 Y90.691 E0.05483
G1 X123.916 Y91.607 E0.04662
G1 X124.665 Y92.670 E0.04075
G1 X125.107 Y93.949 E0.04245
G1 X125.143 Y94.541 E0.01859
G1 X129.375 Y94.515 E0.13271
G1 X130.488 Y94.755 E0.03567
G1 X131.146 Y95.034 E0.02243
G1 X131.899 Y95.320 E0.02526
G1 X132.942 Y96.055 E0.04000
G1 X133.735 Y97.017 E0.03909
G1 X134.313 Y98.368 E0.04608
G1 X134.361 Y98.827 E0.01445
G1 X139.853 Y98.766 E0.17220
G1 X140.972 Y98.969 E0.03568
G1 X142.750 Y99.682 E0.06006
G1 X143.856 Y100.570 E0.04447
G1 X144.614 Y101.654 E0.04147
G1 X145.064 Y102.947 E0.04293
G1 X149.671 Y102.910 E0.14446
G1 X150.947 Y103.189 E0.04095
G1 X152.513 Y103.858 E0.05336
G1 X153.410 Y104.561 E0.03576
G1 X154.142 Y105.487 E0.03700
G1 X154.717 Y106.988 E0.05041
G1 X154.758 Y107.232 E0.00774
G1 X154.679 Y109.967 E0.08579
G1 X154.432 Y110.656 E0.02297
G1 X154.068 Y111.332 E0.02406
G1 X153.146 Y112.359 E0.04326
G1 X151.966 Y113.110 E0.04388
G1 X150.638 Y113.461 E0.04306
G1 X127.270 Y113.467 E0.73268
G1 X127.260 Y116.801 E0.10453
G1 X126.966 Y117.950 E0.03720
G1 X126.323 Y119.066 E0.04037
G1 X125.299 Y120.060 E0.04476
G1 X124.347 Y120.586 E0.03410
G1 X123.295 Y120.872 E0.03418
G1 X118.132 Y120.789 E0.16190
G1 X117.371 Y120.509 E0.02544
G1 X116.671 Y120.110 E0.02525
G1 X115.676 Y119.179 E0.04273
G1 X115.003 Y118.110 E0.03961
G1 X114.670 Y116.980 E0.03693
G1 X114.649 Y116.405 E0.01804
G1 X113.407 Y116.773 E0.04061
G1 X109.032 Y116.757 E0.13720
G1 X107.902 Y116.466 E0.03659
G1 X106.975 Y115.972 E0.03293
G1 X106.055 Y115.123 E0.03924
G1 X105.460 Y114.279 E0.03239
G1 X104.972 Y112.782 E0.04938
G1 X104.956 Y111.625 E0.03627
G1 X104.353 Y112.018 E0.02257
G1 X102.792 Y112.494 E0.05118
G1 X98.243 Y112.471 E0.14262
G1 X97.061 Y112.128 E0.03859
G1 X96.070 Y111.520 E0.03648
G1 X95.341 Y110.809 E0.03192
G1 X94.823 Y110.085 E0.02789
G1 X94.308 Y108.560 E0.05049
G1 X94.282 Y107.614 E0.02966
G1 X93.446 Y107.818 E0.02696
G1 X89.045 Y107.795 E0.13801
G1 X87.612 Y107.359 E0.04696
G1 X86.803 Y106.832 E0.03029
G1 X86.103 Y106.151 E0.03061
G1 X85.466 Y105.201 E0.03585
G1 X85.009 Y103.633 E0.05122
G1 X85.112 Y94.122 E0.29820
G1 X85.765 Y92.314 E0.06026
G1 E-0.80000 F2100.00000
G1 Z0.800 F10800.000
G1 X85.819 Y105.065
G1 Z0.200
G1 E0.80000 F2100.00000
G1 F1200.000
G1 X85.386 Y103.608 E0.04767
G1 X85.478 Y94.220 E0.29434
G1 X86.130 Y92.413 E0.06025
G1 X87.172 Y91.037 E0.05410
G1 X87.940 Y90.501 E0.02937
G1 X88.771 Y90.139 E0.02843
G1 X91.308 Y89.910 E0.07987
G1 X93.700 Y90.227 E0.07563
G1 X95.803 Y90.227 E0.06594
G1 X102.822 Y90.330 E0.22010
G1 X107.047 Y90.330 E0.13248
G1 X119.898 Y90.190 E0.40295
G1 X121.000 Y90.394 E0.03514
G1 X122.580 Y91.030 E0.05341
G1 X123.625 Y91.848 E0.04162
G1 X124.317 Y92.819 E0.03737
G1 X124.741 Y94.045 E0.04067
G1 X124.778 Y94.921 E0.02749
G1 X129.318 Y94.888 E0.14233
G1 X130.357 Y95.109 E0.03333
G1 X131.007 Y95.385 E0.02214
G1 X131.705 Y95.644 E0.02332
G1 X132.668 Y96.315 E0.03681
G1 X133.426 Y97.235 E0.03739
G1 X133.952 Y98.483 E0.04246
G1 X134.004 Y99.208 E0.02278
G1 X139.838 Y99.144 E0.18293
G1 X140.885 Y99.336 E0.03337
G1 X142.582 Y100.021 E0.05739
G1 X143.597 Y100.845 E0.04099
G1 X144.289 Y101.846 E0.03815
G1 X144.668 Y102.956 E0.03676
G1 X144.698 Y103.328 E0.01170
G1 X149.613 Y103.283 E0.15411
G1 X150.817 Y103.543 E0.03864
G1 X152.300 Y104.170 E0.05046
G1 X153.159 Y104.844 E0.03424
G1 X153.828 Y105.696 E0.03395
G1 X154.358 Y107.103 E0.04715
G1 X154.380 Y107.240 E0.00435
G1 X154.314 Y109.868 E0.08242
G1 X154.082 Y110.515 E0.02156
G1 X153.748 Y111.132 E0.02199
G1 X152.885 Y112.086 E0.04033
G1 X151.791 Y112.775 E0.04054
G1 X150.568 Y113.090 E0.03960
G1 X126.894 Y113.090 E0.74226
G1 X126.883 Y116.775 E0.11556
G1 X126.608 Y117.830 E0.03419
G1 X126.042 Y118.814 E0.03557
G1 X125.055 Y119.772 E0.04314
G1 X124.224 Y120.229 E0.02971
G1 X123.272 Y120.494 E0.03099
G1 X118.232 Y120.424 E0.15805
G1 X117.516 Y120.161 E0.02392
G1 X116.879 Y119.794 E0.02304
G1 X115.952 Y118.921 E0.03993
G1 X115.357 Y117.978 E0.03495
G1 X115.040 Y116.900 E0.03525
G1 X115.023 Y115.895 E0.03150
G1 X113.380 Y116.396 E0.05385
G1 X109.057 Y116.380 E0.13553
G1 X108.020 Y116.108 E0.03363
G1 X107.176 Y115.652 E0.03007
G1 X106.327 Y114.861 E0.03637
G1 X105.785 Y114.087 E0.02963
G1 X105.340 Y112.696 E0.04579
G1 X105.334 Y110.785 E0.05994
G1 X104.938 Y111.173 E0.01741
G1 X104.212 Y111.667 E0.02752
G1 X102.764 Y112.117 E0.04754
G1 X98.272 Y112.094 E0.14084
G1 X97.193 Y111.774 E0.03531
G1 X96.318 Y111.235 E0.03221
G1 X95.617 Y110.551 E0.03072
G1 X95.147 Y109.891 E0.02541
G1 X94.675 Y108.470 E0.04694
G1 X94.654 Y107.129 E0.04206
G1 X93.423 Y107.441 E0.03983
G1 X89.126 Y107.426 E0.13472
G1 X87.795 Y107.028 E0.04357
G1 X87.024 Y106.526 E0.02883
G1 X86.381 Y105.895 E0.02828
G1 X85.853 Y105.115 E0.02953
G1 X86.657 Y105.638 F10800.000
G1 F1200.000
G1 X86.171 Y104.927 E0.02700
G1 X85.764 Y103.582 E0.04408
G1 X85.844 Y94.318 E0.29046
G1 X86.475 Y92.568 E0.05835
G1 X87.413 Y91.329 E0.04873
G1 X88.109 Y90.839 E0.02666
G1 X88.894 Y90.497 E0.02685
G1 X91.279 Y90.287 E0.07508
G1 X93.675 Y90.604 E0.07577
G1 X95.799 Y90.605 E0.06660
G1 X102.819 Y90.707 E0.22014
G1 X107.049 Y90.707 E0.13263
G1 X119.884 Y90.567 E0.40244
G1 X120.876 Y90.751 E0.03166
G1 X122.414 Y91.370 E0.05199
G1 X123.336 Y92.091 E0.03668
G1 X123.970 Y92.969 E0.03396
G1 X124.375 Y94.140 E0.03885
G1 X124.410 Y95.301 E0.03642
G1 X129.261 Y95.262 E0.15209
G1 X130.227 Y95.464 E0.03096
G1 X130.870 Y95.736 E0.02190
G1 X131.510 Y95.968 E0.02133
G1 X132.430 Y96.609 E0.03517
G1 X133.116 Y97.451 E0.03405
G1 X133.591 Y98.596 E0.03886
G1 X133.643 Y99.589 E0.03118
G1 X139.823 Y99.521 E0.19378
G1 X140.797 Y99.703 E0.03104
G1 X142.413 Y100.360 E0.05471
G1 X143.337 Y101.119 E0.03750
G1 X143.940 Y101.993 E0.03328
G1 X144.301 Y103.049 E0.03501
G1 X144.332 Y103.709 E0.02070
G1 X149.555 Y103.656 E0.16377
G1 X150.689 Y103.898 E0.03636
G1 X152.089 Y104.484 E0.04759
G1 X152.877 Y105.095 E0.03127
G1 X153.512 Y105.905 E0.03227
G1 X153.998 Y107.217 E0.04385
G1 X153.948 Y109.770 E0.08007
G1 X153.732 Y110.374 E0.02013
G1 X153.428 Y110.931 E0.01989
G1 X152.624 Y111.813 E0.03743
G1 X151.666 Y112.418 E0.03549
G1 X150.543 Y112.713 E0.03642
G1 X126.518 Y112.713 E0.75328
G1 X126.506 Y116.749 E0.12657
G1 X126.250 Y117.709 E0.03115
G1 X125.760 Y118.561 E0.03082
G1 X124.810 Y119.484 E0.04151
G1 X124.100 Y119.872 E0.02539
G1 X123.248 Y120.117 E0.02778
G1 X118.332 Y120.059 E0.15417
G1 X117.662 Y119.813 E0.02238
G1 X117.087 Y119.479 E0.02083
G1 X116.256 Y118.698 E0.03575
G1 X115.711 Y117.846 E0.03173
G1 X115.409 Y116.819 E0.03354
G1 X115.397 Y115.146 E0.05248
G1 X114.749 Y115.584 E0.02450
G1 X113.352 Y116.018 E0.04589
G1 X109.084 Y116.003 E0.13382
G1 X108.139 Y115.749 E0.03066
G1 X107.415 Y115.360 E0.02578
G1 X106.598 Y114.598 E0.03501
G1 X106.134 Y113.942 E0.02519
G1 X105.717 Y112.665 E0.04213
G1 X105.708 Y109.831 E0.08886
G1 X104.705 Y110.877 E0.04545
G1 X104.070 Y111.316 E0.02422
G1 X102.735 Y111.739 E0.04390
G1 X98.351 Y111.725 E0.13745
G1 X97.367 Y111.439 E0.03214
G1 X96.565 Y110.950 E0.02945
G1 X95.911 Y110.316 E0.02856
G1 X95.496 Y109.743 E0.02218
G1 X95.042 Y108.380 E0.04505
G1 X95.029 Y106.491 E0.05923
G1 X94.500 Y106.778 E0.01886
G1 X93.399 Y107.064 E0.03568
G1 X89.206 Y107.057 E0.13146
G1 X87.976 Y106.696 E0.04019
G1 X87.275 Y106.243 E0.02617
G1 X86.700 Y105.680 E0.02523
G1 X86.935 Y105.382 F10800.000
G1 F1200.000
G1 X86.522 Y104.787 E0.02271
G1 X86.141 Y103.555 E0.04045
G1 X86.209 Y94.416 E0.28654
G1 X86.820 Y92.722 E0.05646
G1 X87.654 Y91.620 E0.04334
G1 X88.309 Y91.159 E0.02511
G1 X89.014 Y90.856 E0.02406
G1 X91.250 Y90.663 E0.07035
G1 X93.650 Y90.981 E0.07591
G1 X95.794 Y90.982 E0.06725
G1 X102.816 Y91.084 E0.22018
G1 X107.051 Y91.084 E0.13278
G1 X119.869 Y90.944 E0.40193
G1 X120.753 Y91.108 E0.02818
G1 X122.249 Y91.710 E0.05056
G1 X123.048 Y92.335 E0.03180
G1 X123.623 Y93.120 E0.03050
G1 X124.009 Y94.234 E0.03698
G1 X124.039 Y95.681 E0.04538
G1 X129.205 Y95.635 E0.16197
G1 X130.098 Y95.818 E0.02858
G1 X130.735 Y96.089 E0.02171
G1 X131.318 Y96.293 E0.01939
G1 X132.155 Y96.868 E0.03183
G1 X132.805 Y97.667 E0.03229
G1 X133.229 Y98.706 E0.03518
G1 X133.279 Y99.970 E0.03966
G1 X139.808 Y99.898 E0.20475
G1 X140.707 Y100.070 E0.02868
G1 X142.244 Y100.698 E0.05206
G1 X143.043 Y101.357 E0.03248
G1 X143.592 Y102.141 E0.03000
G1 X143.935 Y103.143 E0.03322
G1 X143.962 Y104.090 E0.02971
G1 X149.498 Y104.030 E0.17357
G1 X150.554 Y104.251 E0.03383
G1 X151.137 Y104.508 E0.01999
G1 X151.881 Y104.799 E0.02505
G1 X152.627 Y105.378 E0.02960
G1 X153.196 Y106.112 E0.02911
G1 X153.625 Y107.296 E0.03949
G1 X153.583 Y109.672 E0.07452
G1 X153.382 Y110.233 E0.01867
G1 X153.109 Y110.729 E0.01776
G1 X152.364 Y111.539 E0.03450
G1 X151.492 Y112.082 E0.03222
G1 X150.519 Y112.335 E0.03152
G1 X126.141 Y112.335 E0.76434
G1 X126.135 Y116.676 E0.13610
G1 X125.892 Y117.587 E0.02956
G1 X125.448 Y118.348 E0.02762
G1 X124.568 Y119.194 E0.03828
G1 X123.973 Y119.517 E0.02122
G1 X123.223 Y119.740 E0.02454
G1 X118.431 Y119.694 E0.15025
G1 X117.808 Y119.465 E0.02082
G1 X117.296 Y119.165 E0.01860
G1 X116.560 Y118.473 E0.03168
G1 X116.065 Y117.712 E0.02845
G1 X115.779 Y116.739 E0.03180
G1 X115.774 Y114.187 E0.08002
G1 X115.118 Y114.872 E0.02973
G1 X114.605 Y115.234 E0.01968
G1 X113.323 Y115.641 E0.04218
G1 X109.111 Y115.626 E0.13208
G1 X108.260 Y115.392 E0.02766
G1 X107.654 Y115.067 E0.02155
G1 X106.869 Y114.335 E0.03367
G1 X106.483 Y113.795 E0.02081
G1 X106.094 Y112.633 E0.03842
G1 X106.081 Y108.434 E0.13166
G1 X105.759 Y108.387 E0.01020
G1 X105.493 Y109.276 E0.02910
G1 X105.145 Y109.874 E0.02167
G1 X104.446 Y110.601 E0.03162
G1 X103.881 Y110.989 E0.02150
G1 X102.651 Y111.371 E0.04036
G1 X98.431 Y111.355 E0.13233
G1 X97.497 Y111.084 E0.03049
G1 X96.782 Y110.641 E0.02638
G1 X96.187 Y110.058 E0.02612
G1 X95.819 Y109.547 E0.01974
G1 X95.410 Y108.292 E0.04139
G1 X95.406 Y105.703 E0.08119
G1 X95.014 Y106.058 E0.01661
G1 X94.377 Y106.420 E0.02295
G1 X93.374 Y106.687 E0.03255
G1 X89.233 Y106.680 E0.12983
G1 X88.157 Y106.365 E0.03515
G1 X87.496 Y105.937 E0.02469
G1 X86.978 Y105.424 E0.02287
G1 X86.906 Y104.692 F10800.000
G1 F1200.000
G1 X86.872 Y104.644 E0.00183
G1 X86.518 Y103.527 E0.03676
G1 X86.575 Y94.514 E0.28260
G1 X87.165 Y92.877 E0.05455
G1 X87.897 Y91.910 E0.03802
G1 X88.477 Y91.497 E0.02233
G1 X89.135 Y91.214 E0.02246
G1 X91.220 Y91.039 E0.06560
G1 X93.625 Y91.358 E0.07606
G1 X95.790 Y91.359 E0.06790
G1 X102.813 Y91.461 E0.22023
G1 X107.053 Y91.461 E0.13294
G1 X119.855 Y91.321 E0.40142
G1 X120.630 Y91.465 E0.02469
G1 X122.083 Y92.050 E0.04913
G1 X122.761 Y92.582 E0.02701
G1 X123.277 Y93.271 E0.02700
G1 X123.643 Y94.329 E0.03507
G1 X123.666 Y96.062 E0.05437
G1 X129.150 Y96.009 E0.17197
G1 X129.968 Y96.173 E0.02616
G1 X130.599 Y96.440 E0.02147
G1 X131.169 Y96.640 E0.01895
G1 X131.917 Y97.161 E0.02857
G1 X132.493 Y97.880 E0.02888
G1 X132.866 Y98.813 E0.03152
G1 X132.910 Y100.351 E0.04823
G1 X139.793 Y100.276 E0.21581
G1 X140.616 Y100.436 E0.02629
G1 X142.074 Y101.035 E0.04943
G1 X142.751 Y101.596 E0.02755
G1 X143.244 Y102.289 E0.02668
G1 X143.568 Y103.236 E0.03138
G1 X143.590 Y104.471 E0.03874
G1 X149.481 Y104.407 E0.18473
G1 X150.420 Y104.604 E0.03007
G1 X150.993 Y104.856 E0.01962
G1 X151.717 Y105.140 E0.02439
G1 X152.374 Y105.659 E0.02625
G1 X152.878 Y106.317 E0.02599
G1 X153.258 Y107.389 E0.03568
G1 X153.217 Y109.574 E0.06851
G1 X153.032 Y110.091 E0.01721
G1 X152.791 Y110.525 E0.01559
G1 X152.105 Y111.264 E0.03160
G1 X151.367 Y111.726 E0.02730
G1 X150.494 Y111.958 E0.02833
G1 X125.764 Y111.958 E0.77539
G1 X125.764 Y116.603 E0.14563
G1 X125.535 Y117.464 E0.02795
G1 X125.138 Y118.132 E0.02435
G1 X124.327 Y118.903 E0.03508
G1 X123.844 Y119.162 E0.01720
G1 X123.195 Y119.362 E0.02129
G1 X118.529 Y119.328 E0.14632
G1 X117.981 Y119.129 E0.01829
G1 X117.538 Y118.874 E0.01602
G1 X116.835 Y118.214 E0.03022
G1 X116.397 Y117.532 E0.02544
G1 X116.156 Y116.712 E0.02680
G1 X116.150 Y113.382 E0.10439
G1 X115.868 Y113.309 E0.00912
G1 X115.559 Y113.860 E0.01982
G1 X114.885 Y114.575 E0.03081
G1 X114.412 Y114.909 E0.01816
G1 X113.295 Y115.264 E0.03674
G1 X109.139 Y115.249 E0.13033
G1 X108.383 Y115.035 E0.02463
G1 X107.893 Y114.774 E0.01739
G1 X107.140 Y114.073 E0.03227
G1 X106.807 Y113.602 E0.01809
G1 X106.462 Y112.545 E0.03486
G1 X106.455 Y103.557 E0.28182
G1 X105.400 Y103.557 E0.03306
G1 X105.386 Y108.318 E0.14928
G1 X105.154 Y109.110 E0.02587
G1 X104.856 Y109.630 E0.01879
G1 X104.187 Y110.327 E0.03031
G1 X103.738 Y110.639 E0.01712
G1 X102.622 Y110.994 E0.03673
G1 X98.511 Y110.986 E0.12891
G1 X97.629 Y110.730 E0.02880
G1 X97.002 Y110.334 E0.02324
G1 X96.464 Y109.802 E0.02371
G1 X96.143 Y109.352 E0.01735
G1 X95.787 Y108.262 E0.03594
G1 X95.782 Y104.752 E0.11007
G1 X94.800 Y105.746 E0.04382
G1 X94.212 Y106.080 E0.02121
G1 X93.350 Y106.310 E0.02797
G1 X89.260 Y106.303 E0.12822
G1 X88.339 Y106.033 E0.03010
G1 X87.718 Y105.632 E0.02319
G1 X87.213 Y105.127 E0.02240
G1 X86.941 Y104.741 E0.01481
G1 X87.221 Y104.498 F10800.000
G1 F1200.000
G1 X86.895 Y103.497 E0.03299
G1 X86.940 Y94.611 E0.27863
G1 X87.510 Y93.032 E0.05265
G1 X88.139 Y92.201 E0.03267
G1 X88.679 Y91.817 E0.02077
G1 X89.254 Y91.573 E0.01957
G1 X91.190 Y91.416 E0.06092
G1 X93.600 Y91.736 E0.07622
G1 X95.786 Y91.736 E0.06855
G1 X102.811 Y91.838 E0.22027
G1 X107.055 Y91.838 E0.13309
G1 X119.841 Y91.699 E0.40091
G1 X120.508 Y91.822 E0.02127
G1 X121.872 Y92.364 E0.04602
G1 X122.508 Y92.862 E0.02532
G1 X122.956 Y93.471 E0.02372
G1 X123.266 Y94.364 E0.02962
G1 X123.288 Y96.045 E0.05272
G1 X123.194 Y96.445 E0.01286
G1 X129.095 Y96.382 E0.18504
G1 X129.874 Y96.539 E0.02491
G1 X130.461 Y96.792 E0.02004
G1 X131.019 Y96.987 E0.01853
G1 X131.676 Y97.452 E0.02524
G1 X132.179 Y98.090 E0.02547
G1 X132.502 Y98.918 E0.02788
G1 X132.539 Y100.732 E0.05689
G1 X139.777 Y100.653 E0.22694
G1 X140.523 Y100.802 E0.02386
G1 X141.903 Y101.373 E0.04682
G1 X142.460 Y101.837 E0.02273
G1 X142.897 Y102.439 E0.02332
G1 X143.201 Y103.329 E0.02949
G1 X143.214 Y104.853 E0.04779
G1 X149.465 Y104.784 E0.19599
G1 X150.286 Y104.957 E0.02631
G1 X150.848 Y105.204 E0.01924
G1 X151.551 Y105.480 E0.02369
G1 X152.118 Y105.937 E0.02283
G1 X152.558 Y106.519 E0.02289
G1 X152.891 Y107.480 E0.03188
G1 X152.852 Y109.475 E0.06257
G1 X152.683 Y109.948 E0.01574
