; generated by PrusaSlicer 2.1.1+win64 on 2020-05-27 at 19:12:43 UTC

; 

; external perimeters extrusion width = 0.45mm
; perimeters extrusion width = 0.45mm
; infill extrusion width = 0.45mm
; solid infill extrusion width = 0.45mm
; top infill extrusion width = 0.40mm
; support material extrusion width = 0.35mm
; first layer extrusion width = 0.42mm

M73 P0 R104
M73 Q0 S105
M201 X1000 Y1000 Z1000 E5000 ; sets maximum accelerations, mm/sec^2
M203 X200 Y200 Z12 E120 ; sets maximum feedrates, mm/sec
M204 P1250 R1250 T1250 ; sets acceleration (P, T) and retract acceleration (R), mm/sec^2
M205 X8.00 Y8.00 Z0.40 E1.50 ; sets the jerk limits, mm/sec
M205 S0 T0 ; sets the minimum extruding and travel feed rate, mm/sec
M107
M862.3 P "MK3S" ; printer model check
M862.1 P0.4 ; nozzle diameter check
M115 U3.8.0 ; tell printer latest fw version
G90 ; use absolute coordinates
M83 ; extruder relative mode
M104 S215 ; set extruder temp
M140 S60 ; set bed temp
M190 S60 ; wait for bed temp
M109 S215 ; wait for extruder temp
G28 W ; home all without mesh bed level
G80 ; mesh bed leveling
G1 Y-3.0 F1000.0 ; go outside print area
G92 E0.0
G1 X60.0 E9.0 F1000.0 ; intro line
M73 Q0 S105
M73 P0 R104
G1 X100.0 E12.5 F1000.0 ; intro line
G92 E0.0
M221 S95
G21 ; set units to millimeters
G90 ; use absolute coordinates
M83 ; use relative distances for extrusion
M900 K30 ; Filament gcode
;BEFORE_LAYER_CHANGE
G92 E0.0
;0.2


G1 E-0.80000 F2100.00000
G1 Z0.600 F10800.000
;AFTER_LAYER_CHANGE
;0.2
G1 X98.495 Y98.625
G1 Z0.200
G1 E0.80000 F2100.00000
M204 S1000
G1 F1200
G1 X99.321 Y97.591 E0.04147
G1 X100.368 Y96.844 E0.04034
G1 X101.610 Y96.398 E0.04137
G1 X103.581 Y96.250 E0.06200
G1 X106.235 Y96.574 E0.08382
G1 X108.323 Y96.574 E0.06545
G1 X115.340 Y96.677 E0.22005
G1 X119.563 Y96.677 E0.13239
G1 X132.813 Y96.575 E0.41547
G1 X133.849 Y96.830 E0.03346
G1 X135.330 Y97.453 E0.05038
G1 X136.446 Y98.345 E0.04478
G1 X137.171 Y99.375 E0.03949
G1 X137.604 Y100.571 E0.03989
G1 X137.683 Y102.527 E0.06137
G1 X146.118 Y102.527 E0.26449
G1 X146.118 Y99.294 E0.10138
G1 X146.423 Y98.047 E0.04022
G1 X147.108 Y96.878 E0.04250
G1 X148.138 Y95.898 E0.04456
G1 X149.000 Y95.424 E0.03085
G1 X149.932 Y95.147 E0.03048
G1 X154.933 Y95.141 E0.15681
G1 X155.698 Y95.351 E0.02487
G1 X156.413 Y95.682 E0.02469
G1 X157.609 Y96.693 E0.04911
G1 X158.398 Y97.909 E0.04545
G1 X158.759 Y99.292 E0.04481
G1 X158.759 Y108.206 E0.27949
G1 X157.999 Y110.447 E0.07420
G1 X158.225 Y110.846 E0.01437
G1 X158.612 Y112.279 E0.04655
G1 X158.612 Y121.201 E0.27976
G1 X157.552 Y124.162 E0.09861
G1 X156.729 Y125.114 E0.03944
G1 X155.765 Y125.785 E0.03684
G1 X154.645 Y126.203 E0.03747
G1 X152.710 Y126.379 E0.06093
G1 X149.910 Y126.053 E0.08838
G1 X147.815 Y126.052 E0.06568
G1 X140.797 Y125.950 E0.22005
G1 X136.576 Y125.950 E0.13235
G1 X123.440 Y126.064 E0.41191
G1 X122.305 Y125.802 E0.03651
G1 X120.804 Y125.174 E0.05102
G1 X119.711 Y124.299 E0.04390
G1 X118.979 Y123.274 E0.03951
G1 X118.540 Y122.092 E0.03952
G1 X118.454 Y120.099 E0.06254
G1 X110.014 Y120.099 E0.26463
G1 X110.004 Y123.452 E0.10513
G1 X109.631 Y124.778 E0.04318
G1 X109.082 Y125.685 E0.03324
G1 X108.103 Y126.650 E0.04311
G1 X107.210 Y127.170 E0.03237
G1 X106.153 Y127.489 E0.03465
G1 X101.303 Y127.498 E0.15206
G1 X100.230 Y127.190 E0.03499
G1 X99.298 Y126.649 E0.03380
G1 X98.455 Y125.849 E0.03643
G1 X97.925 Y125.106 E0.02862
G1 X97.379 Y123.358 E0.05741
G1 X97.379 Y114.436 E0.27976
G1 X98.107 Y112.141 E0.07549
G1 X97.971 Y111.902 E0.00863
G1 X97.526 Y110.364 E0.05018
G1 X97.526 Y101.438 E0.27989
G1 X98.475 Y98.681 E0.09141
G1 X98.810 Y98.835 F10800.000
G1 F1200
G1 X99.598 Y97.848 E0.03960
G1 X100.564 Y97.167 E0.03705
G1 X101.663 Y96.772 E0.03663
G1 X103.591 Y96.627 E0.06061
G1 X106.212 Y96.951 E0.08280
G1 X108.319 Y96.951 E0.06606
G1 X115.337 Y97.054 E0.22010
G1 X119.564 Y97.054 E0.13252
G1 X132.746 Y96.947 E0.41333
G1 X133.717 Y97.184 E0.03133
G1 X135.160 Y97.791 E0.04909
G1 X136.154 Y98.586 E0.03991
G1 X136.825 Y99.528 E0.03627
G1 X137.239 Y100.671 E0.03813
G1 X137.318 Y102.904 E0.07005
G1 X146.496 Y102.904 E0.28776
G1 X146.496 Y99.317 E0.11247
G1 X146.782 Y98.166 E0.03719
G1 X147.418 Y97.094 E0.03909
G1 X148.378 Y96.190 E0.04134
G1 X149.129 Y95.779 E0.02684
G1 X149.962 Y95.524 E0.02730
G1 X154.859 Y95.512 E0.15357
G1 X155.555 Y95.700 E0.02258
G1 X156.231 Y96.013 E0.02336
G1 X157.343 Y96.962 E0.04586
G1 X158.042 Y98.035 E0.04014
G1 X158.382 Y99.317 E0.04157
G1 X158.382 Y108.174 E0.27771
G1 X157.585 Y110.490 E0.07679
G1 X157.868 Y110.972 E0.01753
G1 X158.235 Y112.305 E0.04335
G1 X158.235 Y121.168 E0.27791
G1 X157.215 Y123.984 E0.09392
G1 X156.493 Y124.819 E0.03461
G1 X155.608 Y125.441 E0.03392
G1 X154.585 Y125.830 E0.03431
G1 X152.695 Y126.002 E0.05949
G1 X149.932 Y125.676 E0.08724
G1 X147.819 Y125.675 E0.06625
G1 X140.800 Y125.573 E0.22010
G1 X136.575 Y125.573 E0.13249
G1 X123.502 Y125.692 E0.40990
G1 X122.436 Y125.448 E0.03429
G1 X120.974 Y124.836 E0.04968
G1 X120.001 Y124.058 E0.03907
G1 X119.323 Y123.118 E0.03634
G1 X118.904 Y121.989 E0.03775
G1 X118.818 Y119.722 E0.07113
G1 X109.638 Y119.722 E0.28783
G1 X109.627 Y123.425 E0.11611
G1 X109.295 Y124.606 E0.03846
G1 X108.799 Y125.433 E0.03022
G1 X107.856 Y126.364 E0.04157
G1 X107.043 Y126.832 E0.02940
G1 X106.072 Y127.120 E0.03175
G1 X101.331 Y127.121 E0.14866
G1 X100.359 Y126.835 E0.03176
G1 X99.541 Y126.360 E0.02964
G1 X98.728 Y125.589 E0.03515
G1 X98.250 Y124.913 E0.02596
G1 X97.756 Y123.330 E0.05199
G1 X97.756 Y114.466 E0.27793
G1 X98.519 Y112.090 E0.07825
G1 X98.324 Y111.769 E0.01178
G1 X97.903 Y110.337 E0.04679
G1 X97.903 Y101.469 E0.27804
G1 X98.790 Y98.891 E0.08548
G1 X99.126 Y99.043 F10800.000
G1 F1200
G1 X99.840 Y98.139 E0.03613
G1 X100.718 Y97.512 E0.03384
G1 X101.718 Y97.146 E0.03338
G1 X103.600 Y97.005 E0.05918
G1 X106.188 Y97.328 E0.08177
G1 X108.314 Y97.328 E0.06667
G1 X115.335 Y97.431 E0.22014
G1 X119.566 Y97.431 E0.13266
G1 X132.680 Y97.319 E0.41121
G1 X133.585 Y97.537 E0.02918
G1 X134.990 Y98.128 E0.04779
G1 X135.864 Y98.827 E0.03509
G1 X136.480 Y99.681 E0.03301
G1 X136.874 Y100.771 E0.03634
G1 X136.937 Y102.816 E0.06416
G1 X136.834 Y103.281 E0.01492
G1 X146.873 Y103.281 E0.31475
G1 X146.873 Y99.341 E0.12354
G1 X147.141 Y98.286 E0.03414
G1 X147.696 Y97.350 E0.03411
G1 X148.619 Y96.481 E0.03974
G1 X149.260 Y96.133 E0.02289
G1 X149.993 Y95.901 E0.02408
G1 X154.785 Y95.882 E0.15027
G1 X155.440 Y96.060 E0.02126
G1 X156.047 Y96.343 E0.02101
G1 X157.076 Y97.229 E0.04257
G1 X157.708 Y98.213 E0.03667
G1 X158.005 Y99.341 E0.03655
G1 X158.005 Y108.142 E0.27595
G1 X157.169 Y110.534 E0.07946
G1 X157.513 Y111.100 E0.02074
G1 X157.858 Y112.331 E0.04009
G1 X157.858 Y121.135 E0.27606
G1 X156.906 Y123.766 E0.08770
G1 X156.255 Y124.526 E0.03139
G1 X155.449 Y125.099 E0.03100
G1 X154.524 Y125.457 E0.03110
G1 X152.681 Y125.624 E0.05802
G1 X149.955 Y125.298 E0.08609
G1 X147.823 Y125.298 E0.06683
G1 X140.803 Y125.196 E0.22014
G1 X136.573 Y125.196 E0.13264
G1 X123.563 Y125.319 E0.40792
G1 X122.566 Y125.094 E0.03206
G1 X121.144 Y124.499 E0.04833
G1 X120.291 Y123.815 E0.03428
G1 X119.668 Y122.962 E0.03313
G1 X119.268 Y121.887 E0.03595
G1 X119.201 Y119.883 E0.06288
G1 X119.294 Y119.345 E0.01710
G1 X109.262 Y119.345 E0.31455
G1 X109.250 Y123.399 E0.12709
G1 X108.957 Y124.436 E0.03380
G1 X108.517 Y125.183 E0.02717
G1 X107.609 Y126.078 E0.03998
G1 X106.877 Y126.492 E0.02638
G1 X105.992 Y126.751 E0.02889
G1 X101.411 Y126.752 E0.14363
G1 X100.488 Y126.480 E0.03017
G1 X99.752 Y126.047 E0.02678
G1 X99.003 Y125.330 E0.03252
G1 X98.575 Y124.721 E0.02333
G1 X98.133 Y123.301 E0.04661
G1 X98.133 Y114.496 E0.27610
G1 X98.863 Y112.253 E0.07394
G1 X98.963 Y112.080 E0.00629
G1 X98.677 Y111.632 E0.01665
G1 X98.280 Y110.309 E0.04333
G1 X98.280 Y101.501 E0.27618
G1 X99.106 Y99.100 E0.07961
G1 X99.442 Y99.250 F10800.000
G1 F1200
G1 X100.083 Y98.428 E0.03267
G1 X100.875 Y97.856 E0.03063
G1 X101.774 Y97.520 E0.03008
G1 X103.610 Y97.382 E0.05773
G1 X106.164 Y97.705 E0.08073
G1 X108.310 Y97.705 E0.06729
G1 X115.332 Y97.808 E0.22018
G1 X119.568 Y97.808 E0.13280
G1 X132.615 Y97.691 E0.40912
G1 X133.453 Y97.891 E0.02701
G1 X134.820 Y98.466 E0.04647
G1 X135.575 Y99.071 E0.03034
G1 X136.135 Y99.835 E0.02972
G1 X136.509 Y100.870 E0.03451
G1 X136.559 Y102.798 E0.06045
G1 X136.345 Y103.658 E0.02780
G1 X147.250 Y103.658 E0.34191
G1 X147.250 Y99.365 E0.13459
G1 X147.499 Y98.406 E0.03106
G1 X147.974 Y97.607 E0.02917
G1 X148.859 Y96.773 E0.03813
G1 X149.394 Y96.485 E0.01906
G1 X150.025 Y96.278 E0.02082
G1 X154.713 Y96.253 E0.14698
G1 X155.296 Y96.408 E0.01891
G1 X155.863 Y96.673 E0.01964
G1 X156.808 Y97.496 E0.03928
G1 X157.352 Y98.340 E0.03149
G1 X157.628 Y99.366 E0.03331
G1 X157.628 Y108.109 E0.27414
G1 X156.753 Y110.581 E0.08221
G1 X157.158 Y111.231 E0.02401
G1 X157.481 Y112.358 E0.03676
G1 X157.481 Y121.103 E0.27419
G1 X156.597 Y123.548 E0.08153
G1 X156.015 Y124.234 E0.02819
G1 X155.287 Y124.757 E0.02811
G1 X154.462 Y125.084 E0.02783
G1 X152.667 Y125.247 E0.05652
G1 X149.978 Y124.921 E0.08493
G1 X147.827 Y124.921 E0.06742
G1 X140.806 Y124.818 E0.22018
G1 X136.571 Y124.818 E0.13278
G1 X123.624 Y124.946 E0.40597
G1 X122.696 Y124.740 E0.02981
G1 X121.314 Y124.161 E0.04696
G1 X120.579 Y123.571 E0.02957
G1 X120.011 Y122.805 E0.02989
G1 X119.632 Y121.785 E0.03411
G1 X119.578 Y119.893 E0.05933
G1 X119.750 Y118.968 E0.02951
G1 X108.886 Y118.968 E0.34065
G1 X108.873 Y123.372 E0.13807
G1 X108.619 Y124.268 E0.02921
G1 X108.234 Y124.932 E0.02408
G1 X107.363 Y125.791 E0.03834
G1 X106.714 Y126.152 E0.02330
G1 X105.914 Y126.381 E0.02607
G1 X101.492 Y126.382 E0.13866
G1 X100.618 Y126.125 E0.02855
G1 X99.965 Y125.735 E0.02387
G1 X99.279 Y125.072 E0.02991
G1 X98.901 Y124.530 E0.02071
G1 X98.510 Y123.273 E0.04127
G1 X98.510 Y114.526 E0.27425
G1 X99.211 Y112.402 E0.07013
G1 X99.422 Y112.085 E0.01194
G1 X99.029 Y111.494 E0.02228
G1 X98.657 Y110.280 E0.03979
G1 X98.657 Y101.532 E0.27430
G1 X99.423 Y99.306 E0.07379
G1 X99.760 Y99.455 F10800.000
G1 F1200
G1 X100.329 Y98.715 E0.02924
G1 X101.034 Y98.198 E0.02743
G1 X101.830 Y97.894 E0.02671
G1 X103.619 Y97.760 E0.05624
G1 X106.140 Y98.082 E0.07970
G1 X108.306 Y98.082 E0.06791
G1 X115.329 Y98.185 E0.22023
G1 X119.569 Y98.185 E0.13295
G1 X132.551 Y98.063 E0.40706
G1 X133.316 Y98.243 E0.02464
G1 X134.609 Y98.780 E0.04390
G1 X135.286 Y99.314 E0.02704
G1 X135.815 Y100.037 E0.02807
G1 X136.133 Y100.911 E0.02917
G1 X136.182 Y102.780 E0.05862
G1 X135.947 Y103.680 E0.02918
G1 X135.762 Y104.035 E0.01254
G1 X147.627 Y104.035 E0.37201
G1 X147.627 Y99.391 E0.14563
G1 X147.856 Y98.529 E0.02795
G1 X148.253 Y97.862 E0.02435
G1 X149.062 Y97.092 E0.03501
G1 X149.529 Y96.838 E0.01666
G1 X150.115 Y96.646 E0.01935
G1 X154.640 Y96.624 E0.14188
G1 X155.182 Y96.768 E0.01758
G1 X155.677 Y97.003 E0.01719
G1 X156.538 Y97.760 E0.03595
G1 X157.018 Y98.517 E0.02809
G1 X157.251 Y99.390 E0.02835
G1 X157.251 Y108.076 E0.27234
G1 X156.458 Y110.293 E0.07381
G1 X156.226 Y110.604 E0.01216
G1 X156.490 Y110.872 E0.01182
G1 X156.804 Y111.364 E0.01829
G1 X157.104 Y112.385 E0.03337
G1 X157.104 Y121.070 E0.27230
G1 X156.286 Y123.332 E0.07542
G1 X155.774 Y123.943 E0.02501
G1 X155.123 Y124.417 E0.02524
G1 X154.399 Y124.711 E0.02449
G1 X152.653 Y124.870 E0.05499
G1 X150.001 Y124.544 E0.08377
G1 X147.832 Y124.544 E0.06801
G1 X140.809 Y124.441 E0.22023
G1 X136.569 Y124.441 E0.13293
G1 X123.683 Y124.573 E0.40404
G1 X122.825 Y124.385 E0.02754
G1 X121.486 Y123.824 E0.04555
G1 X120.837 Y123.295 E0.02625
G1 X120.331 Y122.603 E0.02686
G1 X120.008 Y121.743 E0.02882
G1 X119.956 Y119.904 E0.05768
G1 X120.089 Y119.209 E0.02218
G1 X120.407 Y118.591 E0.02179
G1 X108.510 Y118.591 E0.37304
G1 X108.496 Y123.345 E0.14904
G1 X108.280 Y124.102 E0.02469
G1 X107.950 Y124.683 E0.02094
G1 X107.117 Y125.504 E0.03668
G1 X106.589 Y125.795 E0.01888
G1 X105.836 Y126.011 E0.02459
G1 X101.573 Y126.013 E0.13367
G1 X100.749 Y125.770 E0.02691
G1 X100.180 Y125.424 E0.02089
G1 X99.556 Y124.816 E0.02733
G1 X99.228 Y124.340 E0.01811
G1 X98.887 Y123.244 E0.03597
G1 X98.887 Y114.557 E0.27238
G1 X99.559 Y112.551 E0.06633
G1 X99.923 Y112.039 E0.01971
G1 X99.689 Y111.804 E0.01041
G1 X99.380 Y111.352 E0.01715
G1 X99.034 Y110.251 E0.03619
G1 X99.034 Y101.563 E0.27240
G1 X99.741 Y99.511 E0.06804
G1 X100.079 Y99.658 F10800.000
G1 F1200
G1 X100.576 Y99.001 E0.02583
G1 X101.197 Y98.539 E0.02426
G1 X101.887 Y98.268 E0.02326
G1 X103.628 Y98.137 E0.05472
G1 X106.116 Y98.459 E0.07866
G1 X108.302 Y98.459 E0.06855
G1 X115.326 Y98.562 E0.22027
G1 X119.571 Y98.562 E0.13309
G1 X132.488 Y98.435 E0.40503
G1 X133.181 Y98.596 E0.02228
G1 X133.724 Y98.834 E0.01860
G1 X134.399 Y99.094 E0.02267
G1 X135.031 Y99.594 E0.02527
G1 X135.494 Y100.236 E0.02483
G1 X135.757 Y100.952 E0.02391
G1 X135.804 Y102.762 E0.05676
G1 X135.592 Y103.549 E0.02557
G1 X135.063 Y104.412 E0.03175
G1 X148.004 Y104.412 E0.40576
G1 X148.004 Y99.416 E0.15664
G1 X148.213 Y98.654 E0.02479
G1 X148.533 Y98.115 E0.01964
G1 X149.266 Y97.410 E0.03192
G1 X149.663 Y97.191 E0.01422
G1 X150.204 Y97.013 E0.01785
G1 X154.569 Y96.995 E0.13685
G1 X155.037 Y97.117 E0.01517
G1 X155.491 Y97.332 E0.01575
G1 X156.267 Y98.024 E0.03261
G1 X156.662 Y98.644 E0.02306
G1 X156.874 Y99.416 E0.02510
G1 X156.874 Y108.043 E0.27049
G1 X156.116 Y110.130 E0.06962
G1 X155.708 Y110.630 E0.02024
G1 X156.185 Y111.095 E0.02089
G1 X156.472 Y111.544 E0.01671
G1 X156.727 Y112.412 E0.02836
G1 X156.727 Y121.037 E0.27043
G1 X155.976 Y123.115 E0.06928
G1 X155.500 Y123.684 E0.02324
G1 X154.957 Y124.078 E0.02105
G1 X154.335 Y124.338 E0.02111
G1 X152.639 Y124.492 E0.05341
G1 X150.024 Y124.167 E0.08261
G1 X147.836 Y124.167 E0.06862
G1 X140.811 Y124.064 E0.22027
G1 X136.567 Y124.064 E0.13308
G1 X123.742 Y124.200 E0.40215
G1 X122.961 Y124.032 E0.02504
G1 X122.399 Y123.785 E0.01925
G1 X121.699 Y123.512 E0.02355
G1 X121.095 Y123.019 E0.02446
G1 X120.652 Y122.403 E0.02378
G1 X120.384 Y121.700 E0.02359
G1 X120.334 Y119.915 E0.05599
G1 X120.453 Y119.313 E0.01925
G1 X121.047 Y118.214 E0.03917
G1 X108.134 Y118.214 E0.40489
G1 X108.119 Y123.316 E0.15996
G1 X107.925 Y123.974 E0.02153
G1 X107.666 Y124.433 E0.01650
G1 X106.871 Y125.217 E0.03501
G1 X106.466 Y125.438 E0.01447
G1 X105.757 Y125.641 E0.02312
G1 X101.653 Y125.644 E0.12868
M73 Q1 S104
G1 X100.881 Y125.416 E0.02524
G1 X100.397 Y125.116 E0.01785
G1 X99.834 Y124.561 E0.02479
G1 X99.556 Y124.151 E0.01552
G1 X99.264 Y123.216 E0.03073
G1 X99.264 Y114.589 E0.27050
M73 P1 R103
G1 X99.905 Y112.702 E0.06247
G1 X100.426 Y111.997 E0.02747
G1 X99.985 Y111.570 E0.01927
G1 X99.729 Y111.208 E0.01389
G1 X99.411 Y110.221 E0.03250
G1 X99.411 Y101.595 E0.27047
G1 X100.059 Y99.715 E0.06235
G1 X100.398 Y99.862 F10800.000
G1 F1200
G1 X100.860 Y99.250 E0.02404
G1 X101.361 Y98.879 E0.01955
G1 X101.946 Y98.642 E0.01978
G1 X103.637 Y98.515 E0.05316
G1 X106.091 Y98.836 E0.07761
G1 X108.298 Y98.836 E0.06920
G1 X115.324 Y98.939 E0.22031
G1 X119.573 Y98.939 E0.13324
G1 X132.427 Y98.808 E0.40305
G1 X133.046 Y98.948 E0.01990
G1 X133.583 Y99.184 E0.01840
G1 X134.189 Y99.409 E0.02025
G1 X134.776 Y99.873 E0.02347
G1 X135.151 Y100.394 E0.02013
G1 X135.381 Y100.995 E0.02016
G1 X135.426 Y102.742 E0.05480
G1 X135.237 Y103.419 E0.02204
G1 X134.939 Y103.894 E0.01757
G1 X134.482 Y104.350 E0.02024
G1 X134.241 Y104.532 E0.00948
G1 X134.327 Y104.789 E0.00851
G1 X148.381 Y104.789 E0.44065
G1 X148.381 Y99.443 E0.16762
G1 X148.568 Y98.781 E0.02159
G1 X148.814 Y98.368 E0.01507
G1 X149.473 Y97.726 E0.02885
G1 X149.799 Y97.543 E0.01172
G1 X150.294 Y97.381 E0.01633
G1 X154.500 Y97.366 E0.13188
G1 X154.893 Y97.466 E0.01272
G1 X155.304 Y97.660 E0.01427
G1 X155.995 Y98.286 E0.02923
G1 X156.307 Y98.775 E0.01818
G1 X156.497 Y99.443 E0.02179
G1 X156.497 Y108.009 E0.26858
G1 X155.775 Y109.966 E0.06539
G1 X155.399 Y110.405 E0.01814
G1 X155.137 Y110.610 E0.01041
G1 X155.880 Y111.318 E0.03219
G1 X156.140 Y111.725 E0.01513
G1 X156.350 Y112.439 E0.02334
G1 X156.350 Y121.004 E0.26855
G1 X155.664 Y122.901 E0.06323
G1 X155.257 Y123.395 E0.02008
G1 X154.786 Y123.742 E0.01835
G1 X154.270 Y123.965 E0.01762
G1 X152.625 Y124.115 E0.05179
G1 X150.048 Y123.790 E0.08144
