; generated by PrusaSlicer 2.3.1+win64 on 2021-11-12 at 20:25:49 UTC

; 

; external perimeters extrusion width = 0.45mm
; perimeters extrusion width = 0.45mm
; infill extrusion width = 0.45mm
; solid infill extrusion width = 0.45mm
; top infill extrusion width = 0.40mm
; support material extrusion width = 0.35mm
; first layer extrusion width = 0.42mm

M73 P0 R218
M73 Q0 S220
M201 X1000 Y1000 Z1000 E5000 ; sets maximum accelerations, mm/sec^2
M203 X200 Y200 Z12 E120 ; sets maximum feedrates, mm/sec
M204 P1250 R1250 T1250 ; sets acceleration (P, T) and retract acceleration (R), mm/sec^2
M205 X8.00 Y8.00 Z0.40 E1.50 ; sets the jerk limits, mm/sec
M205 S0 T0 ; sets the minimum extruding and travel feed rate, mm/sec
M107
;TYPE:Custom
M862.3 P "MK3S" ; printer model check
M862.1 P0.4 ; nozzle diameter check
M115 U3.8.0 ; tell printer latest fw version
G90 ; use absolute coordinates
M83 ; extruder relative mode
M104 S215 ; set extruder temp
M140 S60 ; set bed temp
M190 S60 ; wait for bed temp
M109 S215 ; wait for extruder temp
G28 W ; home all without mesh bed level
G80 ; mesh bed leveling
G1 Y-3.0 F1000.0 ; go outside print area
G92 E0.0
G1 X60.0 E9.0 F1000.0 ; intro line
G1 X100.0 E12.5 F1000.0 ; intro line
G92 E0.0
M221 S95
G21 ; set units to millimeters
G90 ; use absolute coordinates
M83 ; use relative distances for extrusion
M900 K0.05 ; Filament gcode LA 1.5
M900 K30 ; Filament gcode LA 1.0
;LAYER_CHANGE
;Z:0.2
;HEIGHT:0.2
;BEFORE_LAYER_CHANGE
G92 E0.0
;0.2


G1 E-0.80000 F2100.000
G1 Z0.600 F10800.000
;AFTER_LAYER_CHANGE
;0.2
G1 X207.100 Y87.407
G1 Z0.200
G1 E0.80000 F2100.000
M204 S1000
;TYPE:External perimeter
;WIDTH:0.42
G1 F1200.000
G1 X204.915 Y87.407 E0.06853
G1 X204.915 Y81.688 E0.17935
G1 X207.635 Y81.688 E0.08528
G1 X207.635 Y87.407 E0.17935
G1 X207.160 Y87.407 E0.01488
G1 X207.088 Y87.807 F10800.000
G1 E-0.80000 F2100.000
G1 Z0.800 F10800.000
G1 X204.915 Y59.990
G1 Z0.200
G1 E0.80000 F2100.000
G1 F1200.000
G1 X204.915 Y55.188 E0.15057
G1 X207.635 Y55.188 E0.08528
G1 X207.635 Y60.908 E0.17935
G1 X204.915 Y60.908 E0.08528
G1 X204.915 Y60.050 E0.02689
G1 X204.517 Y59.946 F10800.000
G1 E-0.80000 F2100.000
G1 Z0.800 F10800.000
G1 X206.488 Y34.408
G1 Z0.200
G1 E0.80000 F2100.000
G1 F1200.000
G1 X204.915 Y34.408 E0.04932
G1 X204.915 Y28.687 E0.17935
G1 X207.635 Y28.687 E0.08528
G1 X207.635 Y34.408 E0.17935
G1 X206.548 Y34.408 E0.03408
G1 X206.462 Y34.807 F10800.000
G1 E-0.80000 F2100.000
G1 Z0.800 F10800.000
G1 X196.915 Y86.144
G1 Z0.200
G1 E0.80000 F2100.000
;TYPE:Perimeter
G1 F1200.000
G1 X197.540 Y86.403 E0.02122
G1 X198.077 Y86.815 E0.02122
G1 X198.489 Y87.351 E0.02122
G1 X198.748 Y87.977 E0.02122
G1 X198.837 Y88.648 E0.02122
G1 X198.748 Y89.318 E0.02122
G1 X198.489 Y89.944 E0.02122
G1 X198.077 Y90.480 E0.02122
G1 X197.540 Y90.892 E0.02122
G1 X196.915 Y91.151 E0.02122
G1 X196.244 Y91.240 E0.02122
G1 X195.573 Y91.151 E0.02122
G1 X194.948 Y90.892 E0.02122
G1 X194.411 Y90.480 E0.02122
G1 X194.000 Y89.944 E0.02122
G1 X193.741 Y89.318 E0.02122
G1 X193.652 Y88.648 E0.02122
G1 X193.741 Y87.977 E0.02122
G1 X194.000 Y87.351 E0.02122
G1 X194.411 Y86.815 E0.02122
G1 X194.948 Y86.403 E0.02122
G1 X195.573 Y86.144 E0.02122
G1 X196.244 Y86.055 E0.02122
G1 X196.856 Y86.136 E0.01934
G1 X196.321 Y86.446 F10800.000
;TYPE:External perimeter
G1 F1200.000
G1 X196.817 Y86.511 E0.01568
G1 X197.350 Y86.732 E0.01810
G1 X197.808 Y87.084 E0.01810
G1 X198.160 Y87.542 E0.01810
G1 X198.381 Y88.075 E0.01810
G1 X198.456 Y88.648 E0.01810
G1 X198.381 Y89.220 E0.01810
G1 X198.160 Y89.753 E0.01810
G1 X197.808 Y90.211 E0.01810
G1 X197.350 Y90.563 E0.01810
G1 X196.817 Y90.784 E0.01810
G1 X196.244 Y90.859 E0.01810
G1 X195.672 Y90.784 E0.01810
G1 X195.138 Y90.563 E0.01810
G1 X194.680 Y90.211 E0.01810
G1 X194.329 Y89.753 E0.01810
G1 X194.108 Y89.220 E0.01810
G1 X194.033 Y88.648 E0.01810
G1 X194.108 Y88.075 E0.01810
G1 X194.329 Y87.542 E0.01810
G1 X194.680 Y87.084 E0.01810
G1 X195.138 Y86.732 E0.01810
G1 X195.672 Y86.511 E0.01810
G1 X196.262 Y86.438 E0.01863
G1 X196.524 Y86.101 F10800.000
G1 E-0.80000 F2100.000
G1 Z0.800 F10800.000
G1 X130.781 Y120.435
G1 Z0.200
G1 E0.80000 F2100.000
;TYPE:Perimeter
G1 F1200.000
G1 X130.781 Y126.910 E0.20299
G1 X127.307 Y126.910 E0.10893
G1 X127.307 Y120.435 E0.20299
G1 X130.721 Y120.435 E0.10705
G1 E-0.80000 F2100.000
G1 Z0.800 F10800.000
G1 X130.220 Y126.533
G1 Z0.200
G1 E0.80000 F2100.000
;TYPE:External perimeter
G1 F1200.000
G1 X127.684 Y126.533 E0.07951
G1 X127.684 Y120.812 E0.17935
G1 X130.404 Y120.812 E0.08528
G1 X130.404 Y126.533 E0.17935
G1 X130.280 Y126.533 E0.00389
G1 X130.216 Y126.932 F10800.000
G1 E-0.80000 F2100.000
G1 Z0.800 F10800.000
G1 X130.280 Y151.310
G1 Z0.200
G1 E0.80000 F2100.000
;TYPE:Perimeter
G1 F1200.000
G1 X130.781 Y151.310 E0.01572
G1 X130.781 Y157.785 E0.20299
G1 X127.307 Y157.785 E0.10893
G1 X127.307 Y151.310 E0.20299
G1 X130.220 Y151.310 E0.09133
G1 E-0.80000 F2100.000
G1 Z0.800 F10800.000
G1 X130.404 Y156.706
G1 Z0.200
G1 E0.80000 F2100.000
;TYPE:External perimeter
G1 F1200.000
G1 X130.404 Y157.408 E0.02199
G1 X127.684 Y157.408 E0.08528
G1 X127.684 Y151.688 E0.17935
G1 X130.404 Y151.688 E0.08528
G1 X130.404 Y156.646 E0.15547
G1 X130.779 Y156.846 F10800.000
G1 E-0.80000 F2100.000
G1 Z0.800 F10800.000
G1 X127.579 Y27.810
G1 Z0.200
G1 E0.80000 F2100.000
;TYPE:Perimeter
G1 F1200.000
G1 X127.307 Y27.810 E0.00852
G1 X127.307 Y29.260 E0.04546
G1 X126.871 Y29.260 E0.01366
G1 X126.871 Y24.993 E0.13382
G1 X127.317 Y25.065 E0.01414
G1 X128.470 Y25.180 E0.03636
G1 X129.629 Y25.222 E0.03636
G1 X130.790 Y25.190 E0.03640
G1 X131.952 Y25.084 E0.03658
G1 X133.102 Y24.905 E0.03651
G1 X134.239 Y24.654 E0.03649
G1 X135.331 Y24.335 E0.03570
G1 X136.182 Y24.335 E0.02667
G1 X137.548 Y24.719 E0.04450
G1 X138.947 Y24.996 E0.04472
G1 X140.366 Y25.164 E0.04478
G1 X141.796 Y25.221 E0.04488
G1 X143.238 Y25.166 E0.04524
G1 X144.668 Y24.998 E0.04514
G1 X146.078 Y24.719 E0.04509
G1 X147.435 Y24.335 E0.04421
G1 X148.298 Y24.335 E0.02707
G1 X149.653 Y24.719 E0.04415
G1 X151.053 Y24.996 E0.04477
G1 X152.471 Y25.164 E0.04478
G1 X153.901 Y25.221 E0.04488
G1 X155.343 Y25.166 E0.04524
G1 X156.773 Y24.998 E0.04514
G1 X158.184 Y24.719 E0.04509
G1 X159.540 Y24.335 E0.04421
G1 X160.404 Y24.335 E0.02707
G1 X161.758 Y24.719 E0.04415
G1 X163.159 Y24.996 E0.04477
G1 X164.577 Y25.164 E0.04478
G1 X166.007 Y25.221 E0.04488
G1 X167.449 Y25.166 E0.04524
G1 X168.879 Y24.998 E0.04514
G1 X170.289 Y24.719 E0.04509
G1 X171.646 Y24.335 E0.04421
G1 X172.509 Y24.335 E0.02707
G1 X173.864 Y24.719 E0.04415
G1 X175.264 Y24.996 E0.04477
G1 X176.682 Y25.164 E0.04478
G1 X178.113 Y25.221 E0.04488
G1 X179.555 Y25.166 E0.04524
G1 X180.984 Y24.998 E0.04514
G1 X182.395 Y24.719 E0.04509
G1 X183.752 Y24.335 E0.04421
G1 X184.615 Y24.335 E0.02707
G1 X185.969 Y24.719 E0.04415
G1 X187.370 Y24.996 E0.04477
G1 X188.788 Y25.164 E0.04478
G1 X190.218 Y25.221 E0.04488
G1 X191.660 Y25.166 E0.04524
G1 X193.090 Y24.998 E0.04514
G1 X194.501 Y24.719 E0.04509
G1 X195.857 Y24.335 E0.04421
G1 X196.720 Y24.335 E0.02707
G1 X198.075 Y24.719 E0.04413
G1 X199.475 Y24.996 E0.04475
G1 X200.892 Y25.164 E0.04476
G1 X202.322 Y25.221 E0.04486
G1 X203.763 Y25.166 E0.04521
G1 X205.191 Y24.999 E0.04511
G1 X206.601 Y24.721 E0.04506
G1 X207.697 Y24.410 E0.03571
G1 X207.697 Y28.310 E0.12229
G1 X204.538 Y28.310 E0.09906
G1 X204.538 Y34.785 E0.20299
G1 X207.697 Y34.785 E0.09906
G1 X207.697 Y54.810 E0.62790
G1 X204.538 Y54.810 E0.09906
G1 X204.538 Y61.285 E0.20299
G1 X207.697 Y61.285 E0.09906
G1 X207.697 Y81.310 E0.62790
G1 X204.538 Y81.310 E0.09906
G1 X204.538 Y87.785 E0.20299
G1 X207.697 Y87.785 E0.09906
G1 X207.697 Y96.960 E0.28770
G1 X144.697 Y96.960 E1.97532
G1 X144.697 Y185.660 E2.78113
G1 X126.871 Y185.660 E0.55892
G1 X126.871 Y92.035 E2.93557
M73 P0 R217
G1 X127.307 Y92.035 E0.01366
G1 X127.307 Y96.035 E0.12542
G1 X130.781 Y96.035 E0.10893
G1 X130.781 Y92.035 E0.12542
G1 X139.692 Y92.034 E0.27938
G1 X140.738 Y91.931 E0.03296
G1 X141.788 Y91.614 E0.03438
G1 X142.771 Y91.087 E0.03498
G1 X143.603 Y90.404 E0.03375
G1 X144.300 Y89.557 E0.03439
G1 X144.824 Y88.572 E0.03498
G1 X145.136 Y87.540 E0.03381
G1 X145.241 Y86.489 E0.03311
G1 X145.241 Y34.819 E1.62010
M73 Q0 S219
G1 X145.136 Y33.753 E0.03356
G1 X144.818 Y32.705 E0.03434
G1 X144.301 Y31.740 E0.03434
G1 X143.606 Y30.893 E0.03434
G1 X142.788 Y30.223 E0.03316
G1 X141.794 Y29.683 E0.03545
G1 X140.744 Y29.365 E0.03440
G1 X139.683 Y29.260 E0.03343
G1 X130.781 Y29.260 E0.27911
G1 X130.781 Y27.810 E0.04546
G1 X127.639 Y27.810 E0.09852
G1 X127.684 Y28.187 F10800.000
;TYPE:External perimeter
G1 F1200.000
G1 X127.684 Y29.638 E0.04546
G1 X126.494 Y29.638 E0.03731
G1 X126.494 Y24.549 E0.15956
G1 X127.366 Y24.691 E0.02768
G1 X128.496 Y24.804 E0.03561
G1 X129.631 Y24.844 E0.03561
G1 X130.767 Y24.813 E0.03565
G1 X131.905 Y24.710 E0.03583
G1 X133.032 Y24.534 E0.03576
G1 X134.145 Y24.288 E0.03572
G1 X135.278 Y23.957 E0.03700
G1 X136.241 Y23.957 E0.03021
G1 X137.636 Y24.352 E0.04544
G1 X139.006 Y24.623 E0.04381
G1 X140.395 Y24.788 E0.04386
G1 X141.796 Y24.844 E0.04396
G1 X143.208 Y24.790 E0.04431
G1 X144.609 Y24.626 E0.04421
G1 X145.990 Y24.352 E0.04414
G1 X147.382 Y23.957 E0.04538
G1 X148.350 Y23.957 E0.03035
G1 X149.741 Y24.352 E0.04531
G1 X151.112 Y24.623 E0.04383
G1 X152.501 Y24.788 E0.04386
G1 X153.902 Y24.844 E0.04396
G1 X155.314 Y24.790 E0.04432
G1 X156.714 Y24.626 E0.04421
G1 X158.096 Y24.352 E0.04414
G1 X159.488 Y23.957 E0.04538
G1 X160.456 Y23.957 E0.03035
G1 X161.846 Y24.352 E0.04531
G1 X163.218 Y24.623 E0.04383
G1 X164.607 Y24.788 E0.04386
G1 X166.007 Y24.844 E0.04396
G1 X167.420 Y24.790 E0.04432
G1 X168.820 Y24.626 E0.04421
G1 X170.201 Y24.352 E0.04414
G1 X171.594 Y23.957 E0.04538
G1 X172.562 Y23.957 E0.03035
G1 X173.952 Y24.352 E0.04531
G1 X175.323 Y24.623 E0.04383
G1 X176.712 Y24.788 E0.04386
G1 X178.113 Y24.844 E0.04396
G1 X179.525 Y24.790 E0.04432
G1 X180.926 Y24.626 E0.04421
G1 X182.307 Y24.352 E0.04414
G1 X183.699 Y23.957 E0.04538
G1 X184.667 Y23.957 E0.03035
G1 X186.058 Y24.352 E0.04531
G1 X187.429 Y24.623 E0.04383
G1 X188.818 Y24.788 E0.04386
G1 X190.219 Y24.844 E0.04396
G1 X191.631 Y24.790 E0.04432
G1 X193.031 Y24.626 E0.04421
G1 X194.412 Y24.352 E0.04414
G1 X195.805 Y23.957 E0.04538
G1 X196.773 Y23.957 E0.03035
G1 X198.163 Y24.352 E0.04530
G1 X199.534 Y24.623 E0.04381
G1 X200.922 Y24.788 E0.04384
G1 X202.322 Y24.844 E0.04394
G1 X203.733 Y24.790 E0.04428
G1 X205.133 Y24.626 E0.04418
G1 X206.513 Y24.354 E0.04412
G1 X207.911 Y23.957 E0.04556
G1 X208.074 Y23.957 E0.00511
G1 X208.074 Y97.338 E2.30078
G1 X145.074 Y97.338 E1.97532
G1 X145.074 Y186.037 E2.78113
G1 X126.494 Y186.037 E0.58256
G1 X126.494 Y91.658 E2.95922
G1 X127.684 Y91.658 E0.03731
G1 X127.684 Y95.658 E0.12542
G1 X130.404 Y95.658 E0.08528
G1 X130.404 Y91.657 E0.12542
G1 X139.673 Y91.657 E0.29062
G1 X140.664 Y91.559 E0.03123
G1 X141.643 Y91.264 E0.03204
G1 X142.560 Y90.772 E0.03264
G1 X143.335 Y90.136 E0.03143
G1 X143.984 Y89.347 E0.03205
G1 X144.473 Y88.428 E0.03264
G1 X144.765 Y87.466 E0.03150
G1 X144.864 Y86.471 E0.03137
G1 X144.864 Y34.837 E1.61893
G1 X144.765 Y33.827 E0.03181
G1 X144.468 Y32.851 E0.03201
G1 X143.986 Y31.950 E0.03201
G1 X143.338 Y31.161 E0.03201
G1 X142.577 Y30.537 E0.03087
G1 X141.648 Y30.033 E0.03312
G1 X140.671 Y29.737 E0.03204
G1 X139.665 Y29.638 E0.03169
G1 X130.404 Y29.638 E0.29035
G1 X130.404 Y28.187 E0.04546
G1 X127.744 Y28.187 E0.08340
G1 X127.290 Y28.122 F10800.000
G1 X127.089 Y27.622
;TYPE:Gap fill
;WIDTH:0.101624
G1 F1200.000
G1 X127.089 Y29.072 E0.00708
G1 E-0.80000 F2100.000
G1 Z0.800 F10800.000
G1 X126.985 Y26.873
G1 Z0.200
G1 E0.80000 F2100.000
;TYPE:Solid infill
;WIDTH:0.42015
G1 F1200.000
G1 X127.639 Y27.528 E0.02903
G1 X128.173 Y27.528 E0.01673
G1 X127.154 Y26.509 E0.04517
G1 X127.154 Y25.976 E0.01673
G1 X128.706 Y27.528 E0.06884
G1 X129.240 Y27.528 E0.01673
G1 X127.154 Y25.442 E0.09250
G1 X127.154 Y25.325 E0.00367
G1 X127.626 Y25.380 E0.01489
G1 X129.773 Y27.528 E0.09525
G1 X130.307 Y27.528 E0.01673
G1 X128.218 Y25.439 E0.09264
G1 X128.787 Y25.474 E0.01787
G1 X132.290 Y28.978 E0.15540
G1 X132.823 Y28.978 E0.01673
G1 X129.340 Y25.494 E0.15452
G1 X129.877 Y25.498 E0.01684
G1 X133.357 Y28.978 E0.15436
G1 X133.890 Y28.978 E0.01673
G1 X130.396 Y25.484 E0.15499
G1 X130.909 Y25.463 E0.01610
G1 X134.424 Y28.978 E0.15591
G1 X134.957 Y28.978 E0.01673
G1 X131.398 Y25.418 E0.15788
G1 X131.887 Y25.374 E0.01540
G1 X135.491 Y28.978 E0.15986
G1 X136.024 Y28.978 E0.01673
G1 X132.354 Y25.308 E0.16280
G1 X132.816 Y25.236 E0.01465
G1 X136.558 Y28.978 E0.16599
G1 X137.091 Y28.978 E0.01673
G1 X133.271 Y25.157 E0.16947
G1 X133.708 Y25.061 E0.01403
G1 X137.625 Y28.978 E0.17376
G1 X138.158 Y28.978 E0.01673
G1 X134.145 Y24.964 E0.17804
G1 X134.567 Y24.852 E0.01369
G1 X138.692 Y28.978 E0.18299
G1 X139.225 Y28.978 E0.01673
G1 X134.980 Y24.732 E0.18834
G1 X135.399 Y24.617 E0.01362
G1 X139.766 Y28.984 E0.19372
G1 X140.357 Y29.043 E0.01865
G1 X135.932 Y24.617 E0.19630
G1 X136.138 Y24.617 E0.00645
G1 X136.595 Y24.747 E0.01491
G1 X140.993 Y29.145 E0.19508
G1 X141.758 Y29.377 E0.02509
G1 X137.335 Y24.953 E0.19624
G1 X138.015 Y25.100 E0.02183
G1 X207.415 Y94.499 E3.07853
G1 X207.415 Y93.966 E0.01673
G1 X138.680 Y25.232 E3.04901
G1 X139.305 Y25.323 E0.01983
G1 X207.415 Y93.432 E3.02127
G1 X207.415 Y92.899 E0.01673
G1 X139.911 Y25.395 E2.99443
M73 P0 R216
G1 X140.502 Y25.453 E0.01863
G1 X207.415 Y92.365 E2.96821
M73 Q0 S218
G1 X207.415 Y91.832 E0.01673
G1 X141.057 Y25.475 E2.94356
G1 X141.613 Y25.497 E0.01745
G1 X207.584 Y91.468 E2.92643
G1 E-0.80000 F2100.000
G1 Z0.800 F10800.000
G1 X207.584 Y95.203
G1 Z0.200
G1 E0.80000 F2100.000
G1 F1200.000
G1 X145.125 Y32.743 E2.77067
G1 X145.358 Y33.509 E0.02513
G1 X207.415 Y95.566 E2.75281
G1 X207.415 Y96.100 E0.01673
G1 X198.887 Y87.572 E0.37829
G1 X199.024 Y87.903 E0.01123
G1 X199.075 Y88.294 E0.01238
G1 X207.415 Y96.633 E0.36992
G1 X207.415 Y96.678 E0.00139
G1 X206.925 Y96.678 E0.01534
G1 X199.095 Y88.848 E0.34733
G1 X199.033 Y89.319 E0.01491
G1 X206.392 Y96.678 E0.32642
G1 X205.858 Y96.678 E0.01673
G1 X198.892 Y89.711 E0.30904
G1 X198.735 Y90.088 E0.01280
G1 X205.325 Y96.678 E0.29232
G1 X204.791 Y96.678 E0.01673
G1 X198.503 Y90.390 E0.27893
G1 X198.270 Y90.689 E0.01192
G1 X204.258 Y96.678 E0.26564
G1 X203.724 Y96.678 E0.01673
G1 X197.968 Y90.921 E0.25536
G1 X197.662 Y91.148 E0.01196
G1 X203.191 Y96.678 E0.24528
G1 X202.657 Y96.678 E0.01673
G1 X197.284 Y91.305 E0.23835
G1 X196.989 Y91.427 E0.01002
G1 X196.887 Y91.440 E0.00324
G1 X202.124 Y96.678 E0.23232
G1 X201.590 Y96.678 E0.01673
G1 X196.415 Y91.502 E0.22957
M73 P1 R216
M73 Q1 S218
G1 X196.244 Y91.525 E0.00540
G1 X195.853 Y91.473 E0.01239
G1 X201.057 Y96.678 E0.23086
G1 X200.523 Y96.678 E0.01673
G1 X195.112 Y91.266 E0.24004
G1 X194.806 Y91.139 E0.01041
G1 X194.210 Y90.682 E0.02356
G1 X193.752 Y90.086 E0.02356
G1 X193.626 Y89.780 E0.01041
G1 X145.524 Y41.678 E2.13374
G1 X145.524 Y42.212 E0.01673
G1 X199.990 Y96.678 E2.41607
G1 X199.457 Y96.678 E0.01673
G1 X145.524 Y42.745 E2.39240
G1 X145.524 Y43.279 E0.01673
G1 X198.923 Y96.678 E2.36874
G1 X198.390 Y96.678 E0.01673
G1 X145.524 Y43.812 E2.34507
G1 X145.524 Y44.346 E0.01673
G1 X197.856 Y96.678 E2.32141
G1 X197.323 Y96.678 E0.01673
G1 X145.524 Y44.879 E2.29775
G1 X145.524 Y45.413 E0.01673
G1 X196.789 Y96.678 E2.27408
M73 P1 R215
G1 X196.256 Y96.678 E0.01673
G1 X145.524 Y45.946 E2.25042
M73 Q1 S217
G1 X145.524 Y46.480 E0.01673
G1 X195.722 Y96.678 E2.22675
G1 X195.189 Y96.678 E0.01673
G1 X145.524 Y47.013 E2.20309
G1 X145.524 Y47.547 E0.01673
G1 X194.655 Y96.678 E2.17942
G1 X194.122 Y96.678 E0.01673
G1 X145.524 Y48.080 E2.15576
G1 X145.524 Y48.614 E0.01673
G1 X193.588 Y96.678 E2.13209
G1 X193.055 Y96.678 E0.01673
G1 X145.524 Y49.147 E2.10843
G1 X145.524 Y49.680 E0.01673
G1 X192.521 Y96.678 E2.08476
G1 X191.988 Y96.678 E0.01673
G1 X145.524 Y50.214 E2.06110
G1 X145.524 Y50.747 E0.01673
G1 X191.454 Y96.678 E2.03743
G1 X190.921 Y96.678 E0.01673
G1 X145.524 Y51.281 E2.01377
G1 X145.524 Y51.814 E0.01673
G1 X190.387 Y96.678 E1.99010
G1 X189.854 Y96.678 E0.01673
G1 X145.524 Y52.348 E1.96644
