; generated by PrusaSlicer 2.3.1+win64 on 2021-12-01 at 21:02:42 UTC

; 

; external perimeters extrusion width = 0.45mm
; perimeters extrusion width = 0.45mm
; infill extrusion width = 0.45mm
; solid infill extrusion width = 0.45mm
; top infill extrusion width = 0.40mm
; support material extrusion width = 0.35mm
; first layer extrusion width = 0.42mm

M73 P0 R113
M73 Q0 S114
M201 X1000 Y1000 Z1000 E5000 ; sets maximum accelerations, mm/sec^2
M203 X200 Y200 Z12 E120 ; sets maximum feedrates, mm/sec
M204 P1250 R1250 T1250 ; sets acceleration (P, T) and retract acceleration (R), mm/sec^2
M205 X8.00 Y8.00 Z0.40 E1.50 ; sets the jerk limits, mm/sec
M205 S0 T0 ; sets the minimum extruding and travel feed rate, mm/sec
M107
;TYPE:Custom
M862.3 P "MK3S" ; printer model check
M862.1 P0.4 ; nozzle diameter check
M115 U3.8.0 ; tell printer latest fw version
G90 ; use absolute coordinates
M83 ; extruder relative mode
M104 S215 ; set extruder temp
M140 S60 ; set bed temp
M190 S60 ; wait for bed temp
M109 S215 ; wait for extruder temp
G28 W ; home all without mesh bed level
G80 ; mesh bed leveling
G1 Y-3.0 F1000.0 ; go outside print area
G92 E0.0
G1 X60.0 E9.0 F1000.0 ; intro line
G1 X100.0 E12.5 F1000.0 ; intro line
G92 E0.0
M221 S95
G21 ; set units to millimeters
G90 ; use absolute coordinates
M83 ; use relative distances for extrusion
M900 K0.05 ; Filament gcode LA 1.5
M900 K30 ; Filament gcode LA 1.0
;LAYER_CHANGE
;Z:0.2
;HEIGHT:0.2
;BEFORE_LAYER_CHANGE
G92 E0.0
;0.2


G1 E-0.80000 F2100.000
G1 Z0.600 F10800.000
;AFTER_LAYER_CHANGE
;0.2
G1 X81.816 Y68.915
G1 Z0.200
G1 E0.80000 F2100.000
M204 S1000
;TYPE:Skirt
;WIDTH:0.42
G1 F1200.000
G1 X82.583 Y68.387 E0.02919
G1 X83.497 Y68.194 E0.02931
G1 X166.482 Y68.024 E2.60192
G1 X167.359 Y68.193 E0.02802
G1 X168.112 Y68.674 E0.02802
G1 X168.634 Y69.399 E0.02802
G1 X168.852 Y70.266 E0.02802
G1 X168.821 Y109.375 E1.22624
G1 X168.586 Y110.069 E0.02297
G1 X155.008 Y136.091 E0.92031
G1 X154.611 Y136.639 E0.02119
G1 X153.976 Y137.106 E0.02473
G1 X153.220 Y137.341 E0.02484
G1 X116.135 Y141.799 E1.17112
G1 X106.922 Y141.976 E0.28894
G1 X97.039 Y141.975 E0.30987
G1 X96.176 Y141.791 E0.02767
G1 X95.440 Y141.304 E0.02767
G1 X94.924 Y140.565 E0.02825
G1 X81.345 Y109.755 E1.05572
G1 X81.185 Y109.239 E0.01692
G1 X81.144 Y70.533 E1.21362
G1 X81.326 Y69.658 E0.02802
G1 X81.783 Y68.965 E0.02602
; printing object Cockpit.stl id:1 copy 0
G1 E-0.80000 F2100.000
G1 Z0.800 F10800.000
G1 X122.738 Y103.338
G1 Z0.200
G1 E0.80000 F2100.000
;TYPE:Support material
G1 F1200.000
G1 X122.738 Y114.051 E0.33592
G1 X121.983 Y114.051 E0.02365
G1 X121.983 Y103.507 E0.33060
G1 X121.229 Y103.507 E0.02365
G1 X121.229 Y114.051 E0.33060
G1 X120.475 Y114.051 E0.02365
G1 X120.475 Y103.507 E0.33060
G1 X119.721 Y103.507 E0.02365
G1 X119.721 Y109.425 E0.18555
G1 X119.501 Y109.206 E0.00975
G1 X118.967 Y109.206 E0.01675
G1 X118.967 Y103.507 E0.17866
G1 X118.213 Y103.507 E0.02365
G1 X118.213 Y109.206 E0.17866
G1 X117.458 Y109.206 E0.02365
G1 X117.458 Y103.507 E0.17866
G1 X116.704 Y103.507 E0.02365
G1 X116.704 Y109.206 E0.17866
G1 X115.950 Y109.206 E0.02365
G1 X115.950 Y101.200 E0.25100
G1 X115.196 Y101.200 E0.02365
G1 X115.196 Y109.206 E0.25100
G1 X114.442 Y109.206 E0.02365
G1 X114.442 Y101.200 E0.25100
G1 X113.688 Y101.200 E0.02365
G1 X113.688 Y109.206 E0.25100
G1 X112.933 Y109.206 E0.02365
G1 X112.933 Y101.200 E0.25100
G1 X112.179 Y101.200 E0.02365
G1 X112.179 Y109.206 E0.25100
G1 X111.425 Y109.206 E0.02365
G1 X111.425 Y101.200 E0.25100
G1 X110.671 Y101.200 E0.02365
G1 X110.671 Y109.206 E0.25100
G1 X109.917 Y109.206 E0.02365
G1 X109.917 Y101.200 E0.25100
G1 X109.163 Y101.200 E0.02365
G1 X109.163 Y109.206 E0.25100
G1 X108.864 Y109.206 E0.00938
G1 X108.621 Y109.448 E0.01074
G1 X108.621 Y114.051 E0.14434
G1 X108.409 Y114.051 E0.00667
G1 X108.409 Y101.200 E0.40294
G1 X107.654 Y101.200 E0.02365
G1 X107.654 Y114.051 E0.40294
G1 X107.201 Y114.051 E0.01421
G1 X107.201 Y126.578 E0.39277
G1 X107.654 Y126.578 E0.01421
G1 X107.654 Y139.429 E0.40294
G1 X108.409 Y139.429 E0.02365
G1 X108.409 Y126.578 E0.40294
G1 X108.621 Y126.578 E0.00667
G1 X108.621 Y131.182 E0.14435
G1 X108.864 Y131.424 E0.01074
G1 X109.163 Y131.424 E0.00938
G1 X109.163 Y139.429 E0.25100
G1 X109.917 Y139.429 E0.02365
G1 X109.917 Y131.424 E0.25100
G1 X110.671 Y131.424 E0.02365
G1 X110.671 Y139.429 E0.25100
G1 X111.425 Y139.429 E0.02365
G1 X111.425 Y131.424 E0.25100
G1 X112.179 Y131.424 E0.02365
G1 X112.179 Y139.429 E0.25100
G1 X112.933 Y139.429 E0.02365
G1 X112.933 Y131.424 E0.25100
G1 X113.688 Y131.424 E0.02365
G1 X113.688 Y139.429 E0.25100
G1 X114.442 Y139.429 E0.02365
G1 X114.442 Y131.424 E0.25100
G1 X115.196 Y131.424 E0.02365
G1 X115.196 Y139.429 E0.25100
G1 X115.950 Y139.429 E0.02365
G1 X115.950 Y131.424 E0.25100
G1 X116.704 Y131.424 E0.02365
G1 X116.704 Y137.122 E0.17866
G1 X117.458 Y137.122 E0.02365
G1 X117.458 Y131.424 E0.17866
G1 X118.213 Y131.424 E0.02365
G1 X118.213 Y137.122 E0.17866
G1 X118.967 Y137.122 E0.02365
G1 X118.967 Y131.424 E0.17866
G1 X119.501 Y131.424 E0.01675
G1 X119.721 Y131.204 E0.00975
G1 X119.721 Y137.122 E0.18555
G1 X120.475 Y137.122 E0.02365
G1 X120.475 Y126.578 E0.33060
G1 X121.229 Y126.578 E0.02365
G1 X121.229 Y137.122 E0.33060
G1 X121.983 Y137.122 E0.02365
G1 X121.983 Y126.578 E0.33060
G1 X122.738 Y126.578 E0.02365
G1 X122.738 Y137.292 E0.33592
G1 E-0.80000 F2100.000
G1 Z0.800 F10800.000
G1 X129.525 Y130.371
G1 Z0.200
G1 E0.80000 F2100.000
G1 F1200.000
G1 X129.525 Y125.192 E0.16238
G1 X130.279 Y125.192 E0.02365
G1 X130.279 Y130.201 E0.15706
G1 X131.033 Y130.201 E0.02365
G1 X131.033 Y125.192 E0.15706
G1 X131.579 Y125.192 E0.01711
G1 X131.579 Y127.578 E0.07483
G1 X131.787 Y127.578 E0.00653
G1 X131.787 Y130.201 E0.08224
M73 Q0 S113
G1 X132.542 Y130.201 E0.02365
G1 X132.542 Y127.578 E0.08224
G1 X133.296 Y127.578 E0.02365
G1 X133.296 Y130.201 E0.08224
G1 X134.050 Y130.201 E0.02365
G1 X134.050 Y127.578 E0.08224
G1 X134.804 Y127.578 E0.02365
G1 X134.804 Y130.201 E0.08224
G1 X135.558 Y130.201 E0.02365
G1 X135.558 Y127.578 E0.08224
G1 X136.312 Y127.578 E0.02365
G1 X136.312 Y130.201 E0.08224
G1 X137.067 Y130.201 E0.02365
G1 X137.067 Y127.578 E0.08224
G1 X137.821 Y127.578 E0.02365
G1 X137.821 Y130.201 E0.08224
G1 X138.575 Y130.201 E0.02365
G1 X138.575 Y129.940 E0.00818
G1 X139.329 Y129.940 E0.02365
G1 X139.329 Y130.201 E0.00818
G1 X140.083 Y130.201 E0.02365
G1 X140.083 Y129.940 E0.00818
G1 X140.837 Y129.940 E0.02365
G1 X140.837 Y130.371 E0.01350
G1 E-0.80000 F2100.000
G1 Z0.800 F10800.000
G1 X138.184 Y127.374
G1 Z0.200
G1 E0.80000 F2100.000
;TYPE:Support material interface
;WIDTH:0.35
G1 F1200.000
G1 X138.184 Y125.157 E0.05662
M73 P0 R112
G1 X137.822 Y125.157 E0.00926
G1 X137.677 Y125.301 E0.00522
G1 X137.677 Y127.236 E0.04941
G1 X137.170 Y127.236 E0.01295
G1 X137.170 Y125.339 E0.04843
G1 X136.663 Y125.339 E0.01295
G1 X136.663 Y127.236 E0.04843
G1 X136.156 Y127.236 E0.01295
G1 X136.156 Y125.339 E0.04843
G1 X135.649 Y125.339 E0.01295
G1 X135.649 Y127.236 E0.04843
G1 X135.142 Y127.236 E0.01295
G1 X135.142 Y125.339 E0.04843
G1 X134.635 Y125.339 E0.01295
G1 X134.635 Y127.236 E0.04843
G1 X134.127 Y127.236 E0.01295
G1 X134.127 Y125.157 E0.05310
G1 X133.620 Y125.157 E0.01295
G1 X133.620 Y127.236 E0.05310
G1 X133.113 Y127.236 E0.01295
G1 X133.113 Y125.157 E0.05310
G1 X132.606 Y125.157 E0.01295
G1 X132.606 Y127.236 E0.05310
G1 X132.099 Y127.236 E0.01295
G1 X132.099 Y125.019 E0.05662
G1 E-0.80000 F2100.000
G1 Z0.800 F10800.000
G1 X138.184 Y115.611
G1 Z0.200
G1 E0.80000 F2100.000
G1 F1200.000
G1 X138.184 Y113.394 E0.05662
G1 X137.677 Y113.394 E0.01295
G1 X137.677 Y115.329 E0.04941
G1 X137.639 Y115.291 E0.00137
G1 X137.170 Y115.291 E0.01198
G1 X137.170 Y113.394 E0.04844
G1 X136.663 Y113.394 E0.01295
G1 X136.663 Y115.291 E0.04844
G1 X136.156 Y115.291 E0.01295
G1 X136.156 Y113.394 E0.04844
G1 X135.649 Y113.394 E0.01295
G1 X135.649 Y115.291 E0.04844
G1 X135.142 Y115.291 E0.01295
G1 X135.142 Y113.394 E0.04844
G1 X134.635 Y113.394 E0.01295
G1 X134.635 Y115.291 E0.04844
G1 X134.520 Y115.291 E0.00292
G1 X134.337 Y115.473 E0.00659
G1 X134.127 Y115.473 E0.00536
G1 X134.127 Y113.394 E0.05310
G1 X133.620 Y113.394 E0.01295
G1 X133.620 Y115.473 E0.05310
G1 X133.113 Y115.473 E0.01295
G1 X133.113 Y113.394 E0.05310
G1 X132.606 Y113.394 E0.01295
G1 X132.606 Y115.473 E0.05310
G1 X132.099 Y115.473 E0.01295
G1 X132.099 Y113.255 E0.05662
G1 X129.525 Y115.608 F10800.000
;TYPE:Support material
;WIDTH:0.42
G1 F1200.000
G1 X129.525 Y110.429 E0.16239
G1 X130.279 Y110.429 E0.02365
G1 X130.279 Y115.438 E0.15706
G1 X131.033 Y115.438 E0.02365
G1 X131.033 Y110.429 E0.15706
G1 X131.787 Y110.429 E0.02365
G1 X131.787 Y113.052 E0.08224
G1 X132.542 Y113.052 E0.02365
G1 X132.542 Y110.429 E0.08224
G1 X133.296 Y110.429 E0.02365
G1 X133.296 Y113.052 E0.08224
G1 X134.050 Y113.052 E0.02365
G1 X134.050 Y110.429 E0.08224
G1 X134.804 Y110.429 E0.02365
G1 X134.804 Y113.052 E0.08224
G1 X135.558 Y113.052 E0.02365
G1 X135.558 Y110.429 E0.08224
G1 X136.312 Y110.429 E0.02365
G1 X136.312 Y113.052 E0.08224
G1 X137.067 Y113.052 E0.02365
G1 X137.067 Y110.429 E0.08224
G1 X137.821 Y110.429 E0.02365
G1 X137.821 Y113.052 E0.08224
G1 X138.248 Y113.052 E0.01339
G1 X138.248 Y110.932 E0.06646
G1 X138.490 Y110.690 E0.01074
G1 X138.575 Y110.690 E0.00266
G1 X138.575 Y110.429 E0.00819
G1 X139.329 Y110.429 E0.02365
G1 X139.329 Y110.690 E0.00819
G1 X140.083 Y110.690 E0.02365
G1 X140.083 Y110.429 E0.00819
G1 X140.837 Y110.429 E0.02365
G1 X140.837 Y110.859 E0.01351
G1 E-0.80000 F2100.000
G1 Z0.800 F10800.000
G1 X143.100 Y110.859
G1 Z0.200
G1 E0.80000 F2100.000
G1 F1200.000
G1 X143.100 Y105.815 E0.15818
G1 X143.854 Y105.815 E0.02365
G1 X143.854 Y110.690 E0.15286
G1 X144.608 Y110.690 E0.02365
G1 X144.608 Y105.815 E0.15286
G1 X145.362 Y105.815 E0.02365
G1 X145.362 Y110.690 E0.15286
G1 X146.116 Y110.690 E0.02365
G1 X146.116 Y105.815 E0.15286
G1 X146.871 Y105.815 E0.02365
G1 X146.871 Y110.690 E0.15286
G1 X147.625 Y110.690 E0.02365
G1 X147.625 Y105.815 E0.15286
G1 X148.379 Y105.815 E0.02365
G1 X148.379 Y110.690 E0.15286
G1 X149.133 Y110.690 E0.02365
G1 X149.133 Y105.815 E0.15286
G1 X149.887 Y105.815 E0.02365
G1 X149.887 Y110.690 E0.15286
G1 X150.302 Y110.690 E0.01300
G1 X150.544 Y110.932 E0.01074
G1 X150.544 Y114.051 E0.09781
G1 X150.641 Y114.051 E0.00305
G1 X150.641 Y105.815 E0.25826
G1 X151.396 Y105.815 E0.02365
G1 X151.396 Y114.051 E0.25826
G1 X152.150 Y114.051 E0.02365
G1 X152.150 Y105.815 E0.25826
G1 X152.904 Y105.815 E0.02365
G1 X152.904 Y114.221 E0.26358
G1 E-0.80000 F2100.000
G1 Z0.800 F10800.000
G1 X152.904 Y134.985
G1 Z0.200
G1 E0.80000 F2100.000
G1 F1200.000
G1 X152.904 Y126.578 E0.26358
G1 X152.150 Y126.578 E0.02365
G1 X152.150 Y134.815 E0.25826
G1 X151.396 Y134.815 E0.02365
G1 X151.396 Y126.578 E0.25826
G1 X150.641 Y126.578 E0.02365
G1 X150.641 Y134.815 E0.25826
G1 X149.887 Y134.815 E0.02365
G1 X149.887 Y129.940 E0.15286
G1 X149.133 Y129.940 E0.02365
G1 X149.133 Y134.815 E0.15286
G1 X148.379 Y134.815 E0.02365
G1 X148.379 Y129.940 E0.15286
G1 X147.625 Y129.940 E0.02365
G1 X147.625 Y134.815 E0.15286
G1 X146.871 Y134.815 E0.02365
G1 X146.871 Y129.940 E0.15286
G1 X146.116 Y129.940 E0.02365
G1 X146.116 Y134.815 E0.15286
G1 X145.362 Y134.815 E0.02365
G1 X145.362 Y129.940 E0.15286
G1 X144.608 Y129.940 E0.02365
G1 X144.608 Y134.815 E0.15286
G1 X143.854 Y134.815 E0.02365
G1 X143.854 Y129.940 E0.15286
G1 X143.100 Y129.940 E0.02365
G1 X143.100 Y134.985 E0.15818
G1 E-0.80000 F2100.000
G1 Z0.800 F10800.000
G1 X106.900 Y139.599
G1 Z0.200
G1 E0.80000 F2100.000
G1 F1200.000
G1 X106.900 Y101.200 E1.20396
G1 X106.146 Y101.200 E0.02365
G1 X106.146 Y139.429 E1.19864
M73 P1 R112
M73 Q1 S113
G1 X105.392 Y139.429 E0.02365
G1 X105.392 Y101.200 E1.19864
G1 X104.638 Y101.200 E0.02365
G1 X104.638 Y139.429 E1.19864
G1 X103.884 Y139.429 E0.02365
G1 X103.884 Y101.200 E1.19864
G1 X103.129 Y101.200 E0.02365
G1 X103.129 Y139.429 E1.19864
G1 X102.375 Y139.429 E0.02365
G1 X102.375 Y101.200 E1.19864
G1 X101.621 Y101.200 E0.02365
G1 X101.621 Y139.429 E1.19864
G1 X100.867 Y139.429 E0.02365
G1 X100.867 Y101.200 E1.19864
G1 X100.113 Y101.200 E0.02365
G1 X100.113 Y139.429 E1.19864
G1 X99.359 Y139.429 E0.02365
G1 X99.359 Y101.200 E1.19864
G1 X98.604 Y101.200 E0.02365
G1 X98.604 Y139.429 E1.19864
G1 X97.850 Y139.429 E0.02365
G1 X97.850 Y101.200 E1.19864
G1 X97.096 Y101.200 E0.02365
G1 X97.096 Y139.599 E1.20396
G1 E-0.80000 F2100.000
G1 Z0.800 F10800.000
G1 X109.822 Y130.224
G1 Z0.200
G1 E0.80000 F2100.000
;TYPE:Perimeter
G1 F1200.000
G1 X109.822 Y110.406 E0.62136
G1 X118.543 Y110.406 E0.27343
G1 X118.543 Y116.639 E0.19542
G1 X139.448 Y116.639 E0.65548
G1 X139.448 Y111.890 E0.14888
G1 X149.343 Y111.890 E0.31026
G1 X149.343 Y128.739 E0.52829
G1 X139.448 Y128.739 E0.31026
G1 X139.448 Y123.991 E0.14888
G1 X118.543 Y123.991 E0.65548
G1 X118.543 Y130.224 E0.19542
G1 X109.882 Y130.224 E0.27155
G1 E-0.80000 F2100.000
G1 Z0.800 F10800.000
G1 X118.920 Y116.262
G1 Z0.200
G1 E0.80000 F2100.000
;TYPE:External perimeter
G1 F1200.000
G1 X139.071 Y116.262 E0.63183
G1 X139.071 Y111.513 E0.14888
G1 X149.721 Y111.513 E0.33390
G1 X149.721 Y129.116 E0.55193
G1 X139.071 Y129.116 E0.33390
G1 X139.071 Y124.368 E0.14888
G1 X118.920 Y124.368 E0.63183
M73 Q1 S112
G1 X118.920 Y130.601 E0.19542
G1 X109.445 Y130.601 E0.29708
G1 X109.445 Y110.029 E0.64501
G1 X118.920 Y110.029 E0.29708
M73 P1 R111
G1 X118.920 Y116.202 E0.19353
G1 X119.049 Y116.640 F10800.000
G1 E-0.80000 F2100.000
G1 Z0.800 F10800.000
G1 X149.230 Y112.772
G1 Z0.200
G1 E0.80000 F2100.000
;TYPE:Solid infill
;WIDTH:0.42276
G1 F1200.000
G1 X148.632 Y112.173 E0.02673
G1 X148.095 Y112.173 E0.01697
G1 X149.061 Y113.139 E0.04314
G1 X149.061 Y113.676 E0.01697
G1 X147.558 Y112.173 E0.06714
G1 X147.020 Y112.173 E0.01697
G1 X149.061 Y114.213 E0.09113
G1 X149.061 Y114.751 E0.01697
G1 X146.483 Y112.173 E0.11513
G1 X145.946 Y112.173 E0.01697
G1 X149.061 Y115.288 E0.13912
G1 X149.061 Y115.825 E0.01697
G1 X145.409 Y112.173 E0.16311
G1 X144.872 Y112.173 E0.01697
G1 X149.061 Y116.362 E0.18711
G1 X149.061 Y116.899 E0.01697
G1 X144.335 Y112.173 E0.21110
G1 X143.797 Y112.173 E0.01697
G1 X149.061 Y117.437 E0.23509
G1 X149.061 Y117.974 E0.01697
G1 X143.260 Y112.173 E0.25909
G1 X142.723 Y112.173 E0.01697
G1 X149.061 Y118.511 E0.28308
G1 X149.061 Y119.048 E0.01697
G1 X142.186 Y112.173 E0.30707
G1 X141.649 Y112.173 E0.01697
G1 X149.061 Y119.585 E0.33107
G1 X149.061 Y120.122 E0.01697
G1 X141.111 Y112.173 E0.35506
G1 X140.574 Y112.173 E0.01697
G1 X149.061 Y120.660 E0.37905
G1 X149.061 Y121.197 E0.01697
G1 X140.037 Y112.173 E0.40305
G1 X139.731 Y112.173 E0.00967
G1 X139.731 Y112.404 E0.00730
G1 X149.061 Y121.734 E0.41672
G1 X149.061 Y122.271 E0.01697
G1 X139.731 Y112.942 E0.41672
G1 X139.731 Y113.479 E0.01697
G1 X149.061 Y122.808 E0.41672
G1 X149.061 Y123.345 E0.01697
G1 X139.731 Y114.016 E0.41672
G1 X139.731 Y114.553 E0.01697
G1 X149.061 Y123.883 E0.41672
G1 X149.061 Y124.420 E0.01697
G1 X139.731 Y115.090 E0.41672
G1 X139.731 Y115.627 E0.01697
G1 X149.061 Y124.957 E0.41672
G1 X149.061 Y125.494 E0.01697
G1 X139.731 Y116.165 E0.41672
G1 X139.731 Y116.702 E0.01697
G1 X149.061 Y126.031 E0.41672
G1 X149.061 Y126.569 E0.01697
G1 X139.414 Y116.921 E0.43090
G1 X138.876 Y116.921 E0.01697
G1 X149.061 Y127.106 E0.45489
G1 X149.061 Y127.643 E0.01697
G1 X138.339 Y116.921 E0.47888
G1 X137.802 Y116.921 E0.01697
G1 X149.061 Y128.180 E0.50288
G1 X149.061 Y128.457 E0.00873
G1 X148.800 Y128.457 E0.00823
G1 X137.265 Y116.921 E0.51523
G1 X136.728 Y116.921 E0.01697
G1 X148.263 Y128.457 E0.51523
G1 X147.726 Y128.457 E0.01697
G1 X136.191 Y116.921 E0.51523
G1 X135.653 Y116.921 E0.01697
G1 X147.189 Y128.457 E0.51523
G1 X146.651 Y128.457 E0.01697
G1 X135.116 Y116.921 E0.51523
G1 X134.579 Y116.921 E0.01697
G1 X146.114 Y128.457 E0.51523
G1 X145.577 Y128.457 E0.01697
G1 X134.042 Y116.921 E0.51523
G1 X133.505 Y116.921 E0.01697
G1 X145.040 Y128.457 E0.51523
G1 X144.503 Y128.457 E0.01697
G1 X132.968 Y116.921 E0.51523
G1 X132.430 Y116.921 E0.01697
G1 X139.217 Y123.708 E0.30314
G1 X139.731 Y123.708 E0.01623
G1 X139.731 Y124.222 E0.01623
G1 X143.965 Y128.457 E0.18913
