; generated by PrusaSlicer 2.3.1+win64 on 2021-09-16 at 15:19:45 UTC

; 

; external perimeters extrusion width = 0.45mm
; perimeters extrusion width = 0.45mm
; infill extrusion width = 0.45mm
; solid infill extrusion width = 0.45mm
; top infill extrusion width = 0.40mm
; support material extrusion width = 0.35mm
; first layer extrusion width = 0.42mm

M73 P0 R79
M73 Q0 S80
M201 X1000 Y1000 Z1000 E5000 ; sets maximum accelerations, mm/sec^2
M203 X200 Y200 Z12 E120 ; sets maximum feedrates, mm/sec
M204 P1250 R1250 T1250 ; sets acceleration (P, T) and retract acceleration (R), mm/sec^2
M205 X8.00 Y8.00 Z0.40 E1.50 ; sets the jerk limits, mm/sec
M205 S0 T0 ; sets the minimum extruding and travel feed rate, mm/sec
M107
;TYPE:Custom
M862.3 P "MK3S" ; printer model check
M862.1 P0.4 ; nozzle diameter check
M115 U3.8.0 ; tell printer latest fw version
G90 ; use absolute coordinates
M83 ; extruder relative mode
M104 S215 ; set extruder temp
M140 S60 ; set bed temp
M190 S60 ; wait for bed temp
M109 S215 ; wait for extruder temp
G28 W ; home all without mesh bed level
G80 ; mesh bed leveling
G1 Y-3.0 F1000.0 ; go outside print area
G92 E0.0
G1 X60.0 E9.0 F1000.0 ; intro line
G1 X100.0 E12.5 F1000.0 ; intro line
G92 E0.0
M221 S95
G21 ; set units to millimeters
G90 ; use absolute coordinates
M83 ; use relative distances for extrusion
M900 K0.05 ; Filament gcode LA 1.5
M900 K30 ; Filament gcode LA 1.0
;LAYER_CHANGE
;Z:0.2
;HEIGHT:0.2
;BEFORE_LAYER_CHANGE
G92 E0.0
;0.2


G1 E-0.80000 F2100.000
G1 Z0.600 F10800.000
;AFTER_LAYER_CHANGE
;0.2
G1 X143.621 Y63.465
G1 Z0.200
G1 E0.80000 F2100.000
M204 S1000
;TYPE:Support material
;WIDTH:0.42
G1 F1200.000
G1 X143.621 Y62.815 E0.02039
G1 X142.867 Y62.815 E0.02365
G1 X142.867 Y63.295 E0.01507
G1 X142.113 Y63.295 E0.02365
G1 X142.113 Y62.815 E0.01507
G1 X141.358 Y62.815 E0.02365
G1 X141.358 Y63.295 E0.01507
G1 X141.155 Y63.295 E0.00639
G1 X140.847 Y63.604 E0.01366
G1 X140.847 Y67.056 E0.10824
G1 X141.155 Y67.364 E0.01366
G1 X141.358 Y67.364 E0.00639
G1 X141.358 Y142.637 E2.36013
G1 X142.113 Y142.637 E0.02365
G1 X142.113 Y67.364 E2.36013
G1 X142.867 Y67.364 E0.02365
G1 X142.867 Y142.637 E2.36013
G1 X143.621 Y142.637 E0.02365
G1 X143.621 Y67.364 E2.36013
G1 X144.375 Y67.364 E0.02365
G1 X144.375 Y142.637 E2.36013
G1 X145.129 Y142.637 E0.02365
G1 X145.129 Y67.364 E2.36013
G1 X145.883 Y67.364 E0.02365
G1 X145.883 Y142.637 E2.36013
G1 X146.638 Y142.637 E0.02365
G1 X146.638 Y67.364 E2.36013
G1 X147.392 Y67.364 E0.02365
G1 X147.392 Y142.637 E2.36013
M73 Q0 S79
G1 X148.146 Y142.637 E0.02365
G1 X148.146 Y67.364 E2.36013
G1 X148.900 Y67.364 E0.02365
G1 X148.900 Y142.807 E2.36545
M73 P1 R79
M73 Q1 S79
G1 X149.654 Y136.472 F10800.000
G1 F1200.000
G1 X149.654 Y142.637 E0.19331
G1 X150.408 Y142.637 E0.02365
G1 X150.408 Y136.641 E0.18799
G1 X151.162 Y136.641 E0.02365
G1 X151.162 Y142.637 E0.18799
G1 X151.917 Y142.637 E0.02365
G1 X151.917 Y136.641 E0.18799
G1 X152.671 Y136.641 E0.02365
G1 X152.671 Y142.637 E0.18799
G1 X153.425 Y142.637 E0.02365
G1 X153.425 Y136.641 E0.18799
G1 X154.179 Y136.641 E0.02365
G1 X154.179 Y142.637 E0.18799
G1 X154.933 Y142.637 E0.02365
G1 X154.933 Y136.641 E0.18799
M73 P1 R78
G1 X155.687 Y136.641 E0.02365
G1 X155.687 Y142.637 E0.18799
G1 X156.442 Y142.637 E0.02365
G1 X156.442 Y136.641 E0.18799
G1 X157.196 Y136.641 E0.02365
G1 X157.196 Y142.637 E0.18799
G1 X157.950 Y142.637 E0.02365
G1 X157.950 Y136.641 E0.18799
G1 X158.704 Y136.641 E0.02365
G1 X158.704 Y142.637 E0.18799
G1 X159.458 Y142.637 E0.02365
G1 X159.458 Y136.641 E0.18799
G1 X160.212 Y136.641 E0.02365
G1 X160.212 Y142.637 E0.18799
G1 X160.967 Y142.637 E0.02365
G1 X160.967 Y136.641 E0.18799
G1 X161.721 Y136.641 E0.02365
G1 X161.721 Y142.807 E0.19331
G1 E-0.80000 F2100.000
G1 Z0.800 F10800.000
G1 X174.541 Y147.355
G1 Z0.200
G1 E0.80000 F2100.000
G1 F1200.000
G1 X174.541 Y62.815 E2.65070
G1 X173.787 Y62.815 E0.02365
G1 X173.787 Y147.185 E2.64538
G1 X173.033 Y147.185 E0.02365
G1 X173.033 Y62.815 E2.64538
G1 X172.279 Y62.815 E0.02365
G1 X172.279 Y147.185 E2.64538
G1 X171.525 Y147.185 E0.02365
G1 X171.525 Y62.815 E2.64538
G1 X170.771 Y62.815 E0.02365
G1 X170.771 Y147.185 E2.64538
G1 X170.016 Y147.185 E0.02365
G1 X170.016 Y146.705 E0.01507
G1 X169.262 Y146.705 E0.02365
G1 X169.262 Y147.185 E0.01507
G1 X168.508 Y147.185 E0.02365
G1 X168.508 Y146.705 E0.01507
G1 X167.754 Y146.705 E0.02365
G1 X167.754 Y147.355 E0.02039
G1 E-0.80000 F2100.000
G1 Z0.800 F10800.000
G1 X170.016 Y142.807
G1 Z0.200
G1 E0.80000 F2100.000
G1 F1200.000
G1 X170.016 Y67.364 E2.36545
G1 X169.262 Y67.364 E0.02365
G1 X169.262 Y142.637 E2.36013
G1 X168.508 Y142.637 E0.02365
G1 X168.508 Y67.364 E2.36013
G1 X167.754 Y67.364 E0.02365
G1 X167.754 Y142.637 E2.36013
M73 P2 R78
M73 Q2 S79
G1 X167.000 Y142.637 E0.02365
G1 X167.000 Y67.364 E2.36013
M73 Q2 S78
G1 X166.246 Y67.364 E0.02365
G1 X166.246 Y142.637 E2.36013
G1 X165.492 Y142.637 E0.02365
G1 X165.492 Y67.364 E2.36013
G1 X164.737 Y67.364 E0.02365
G1 X164.737 Y142.637 E2.36013
M73 P2 R77
G1 X163.983 Y142.637 E0.02365
G1 X163.983 Y67.364 E2.36013
G1 X163.229 Y67.364 E0.02365
G1 X163.229 Y142.637 E2.36013
G1 X162.475 Y142.637 E0.02365
G1 X162.475 Y67.364 E2.36013
G1 X161.721 Y67.364 E0.02365
G1 X161.721 Y73.359 E0.18796
G1 X160.967 Y73.359 E0.02365
G1 X160.967 Y67.364 E0.18796
G1 X160.212 Y67.364 E0.02365
G1 X160.212 Y73.359 E0.18796
G1 X159.458 Y73.359 E0.02365
G1 X159.458 Y67.364 E0.18796
G1 X158.704 Y67.364 E0.02365
G1 X158.704 Y73.359 E0.18796
G1 X157.950 Y73.359 E0.02365
G1 X157.950 Y67.364 E0.18796
G1 X157.196 Y67.364 E0.02365
G1 X157.196 Y73.359 E0.18796
G1 X156.442 Y73.359 E0.02365
G1 X156.442 Y67.364 E0.18796
G1 X155.687 Y67.364 E0.02365
G1 X155.687 Y73.359 E0.18796
G1 X154.933 Y73.359 E0.02365
G1 X154.933 Y67.364 E0.18796
G1 X154.179 Y67.364 E0.02365
G1 X154.179 Y73.359 E0.18796
G1 X153.425 Y73.359 E0.02365
G1 X153.425 Y67.364 E0.18796
G1 X152.671 Y67.364 E0.02365
G1 X152.671 Y73.359 E0.18796
G1 X151.917 Y73.359 E0.02365
G1 X151.917 Y67.364 E0.18796
G1 X151.163 Y67.364 E0.02365
G1 X151.163 Y73.359 E0.18796
G1 X150.408 Y73.359 E0.02365
G1 X150.408 Y67.364 E0.18796
G1 X149.654 Y67.364 E0.02365
G1 X149.654 Y73.359 E0.18796
G1 X149.424 Y73.359 E0.00722
G1 X149.424 Y92.807 E0.60978
G1 X149.654 Y92.807 E0.00722
G1 X149.654 Y117.193 E0.76462
G1 X150.408 Y117.193 E0.02365
G1 X150.408 Y92.807 E0.76462
G1 X151.163 Y92.807 E0.02365
G1 X151.163 Y117.193 E0.76462
G1 X151.917 Y117.193 E0.02365
G1 X151.917 Y92.807 E0.76462
G1 X152.671 Y92.807 E0.02365
G1 X152.671 Y117.193 E0.76462
G1 X153.425 Y117.193 E0.02365
G1 X153.425 Y92.807 E0.76462
G1 X154.179 Y92.807 E0.02365
G1 X154.179 Y117.193 E0.76462
G1 X154.933 Y117.193 E0.02365
G1 X154.933 Y108.956 E0.25826
G1 X155.687 Y108.956 E0.02365
G1 X155.687 Y117.193 E0.25826
G1 X156.442 Y117.193 E0.02365
G1 X156.442 Y108.787 E0.26358
G1 E-0.80000 F2100.000
G1 Z0.800 F10800.000
G1 X154.933 Y101.213
G1 Z0.200
G1 E0.80000 F2100.000
G1 F1200.000
G1 X154.933 Y92.807 E0.26358
G1 X155.687 Y92.807 E0.02365
G1 X155.687 Y101.044 E0.25826
G1 X156.442 Y101.044 E0.02365
G1 X156.442 Y92.807 E0.25826
M73 P3 R77
G1 X157.196 Y92.807 E0.02365
G1 X157.196 Y117.193 E0.76462
M73 Q3 S78
G1 X157.950 Y117.193 E0.02365
G1 X157.950 Y92.807 E0.76462
G1 X158.704 Y92.807 E0.02365
G1 X158.704 Y117.193 E0.76462
G1 X159.458 Y117.193 E0.02365
G1 X159.458 Y92.807 E0.76462
G1 X160.212 Y92.807 E0.02365
G1 X160.212 Y117.193 E0.76462
G1 X160.967 Y117.193 E0.02365
G1 X160.967 Y92.807 E0.76462
G1 X161.721 Y92.807 E0.02365
G1 X161.721 Y117.363 E0.76994
G1 E-0.80000 F2100.000
G1 Z0.800 F10800.000
G1 X143.621 Y147.355
G1 Z0.200
G1 E0.80000 F2100.000
G1 F1200.000
G1 X143.621 Y146.705 E0.02039
G1 X142.867 Y146.705 E0.02365
G1 X142.867 Y147.185 E0.01507
G1 X142.113 Y147.185 E0.02365
G1 X142.113 Y146.705 E0.01507
G1 X141.358 Y146.705 E0.02365
G1 X141.358 Y147.185 E0.01507
G1 X140.604 Y147.185 E0.02365
G1 X140.604 Y62.815 E2.64538
G1 X139.850 Y62.815 E0.02365
G1 X139.850 Y147.185 E2.64538
M73 Q3 S77
G1 X139.096 Y147.185 E0.02365
G1 X139.096 Y62.815 E2.64538
G1 X138.342 Y62.815 E0.02365
G1 X138.342 Y147.185 E2.64538
G1 X137.588 Y147.185 E0.02365
G1 X137.588 Y62.815 E2.64538
M73 P3 R76
G1 X136.833 Y62.815 E0.02365
G1 X136.833 Y147.355 E2.65070
G1 E-0.80000 F2100.000
G1 Z0.800 F10800.000
G1 X167.754 Y63.465
G1 Z0.200
G1 E0.80000 F2100.000
G1 F1200.000
G1 X167.754 Y62.815 E0.02039
G1 X168.508 Y62.815 E0.02365
G1 X168.508 Y63.295 E0.01507
G1 X169.262 Y63.295 E0.02365
G1 X169.262 Y62.815 E0.01507
G1 X170.016 Y62.815 E0.02365
G1 X170.016 Y63.465 E0.02039
G1 E-0.80000 F2100.000
G1 Z0.800 F10800.000
G1 X150.260 Y66.251
G1 Z0.200
G1 E0.80000 F2100.000
;TYPE:Perimeter
G1 F1200.000
G1 X141.960 Y66.251 E0.26024
G1 X141.960 Y64.409 E0.05776
G1 X169.415 Y64.409 E0.86085
G1 X169.415 Y66.251 E0.05776
G1 X150.320 Y66.251 E0.59873
G1 X150.320 Y66.628 F10800.000
;TYPE:External perimeter
G1 F1200.000
G1 X141.583 Y66.628 E0.27394
G1 X141.583 Y64.032 E0.08140
G1 X169.792 Y64.032 E0.88450
G1 X169.792 Y66.628 E0.08140
G1 X150.380 Y66.628 E0.60867
G1 X150.104 Y66.291 F10800.000
G1 E-0.80000 F2100.000
G1 Z0.800 F10800.000
G1 X169.302 Y65.287
G1 Z0.200
G1 E0.80000 F2100.000
;TYPE:Solid infill
;WIDTH:0.421624
G1 F1200.000
G1 X168.706 Y64.691 E0.02654
G1 X168.171 Y64.691 E0.01686
G1 X169.132 Y65.653 E0.04284
G1 X169.132 Y65.968 E0.00991
G1 X168.912 Y65.968 E0.00696
G1 X167.635 Y64.691 E0.05685
G1 X167.099 Y64.691 E0.01686
G1 X168.376 Y65.968 E0.05685
G1 X167.840 Y65.968 E0.01686
G1 X166.564 Y64.691 E0.05685
G1 X166.028 Y64.691 E0.01686
G1 X167.305 Y65.968 E0.05685
G1 X166.769 Y65.968 E0.01686
G1 X165.493 Y64.691 E0.05685
G1 X164.957 Y64.691 E0.01686
G1 X166.234 Y65.968 E0.05685
G1 X165.698 Y65.968 E0.01686
G1 X164.422 Y64.691 E0.05685
G1 X163.886 Y64.691 E0.01686
G1 X165.163 Y65.968 E0.05685
G1 X164.627 Y65.968 E0.01686
G1 X163.350 Y64.691 E0.05685
G1 X162.815 Y64.691 E0.01686
G1 X164.091 Y65.968 E0.05685
G1 X163.556 Y65.968 E0.01686
G1 X162.279 Y64.691 E0.05685
G1 X161.744 Y64.691 E0.01686
G1 X163.020 Y65.968 E0.05685
G1 X162.485 Y65.968 E0.01686
G1 X161.208 Y64.691 E0.05685
G1 X160.673 Y64.691 E0.01686
G1 X161.949 Y65.968 E0.05685
G1 X161.414 Y65.968 E0.01686
G1 X160.137 Y64.691 E0.05685
G1 X159.601 Y64.691 E0.01686
G1 X160.878 Y65.968 E0.05685
G1 X160.342 Y65.968 E0.01686
G1 X159.066 Y64.691 E0.05685
G1 X158.530 Y64.691 E0.01686
G1 X159.807 Y65.968 E0.05685
G1 X159.271 Y65.968 E0.01686
G1 X157.995 Y64.691 E0.05685
G1 X157.459 Y64.691 E0.01686
G1 X158.736 Y65.968 E0.05685
G1 X158.200 Y65.968 E0.01686
G1 X156.924 Y64.691 E0.05685
G1 X156.388 Y64.691 E0.01686
G1 X157.665 Y65.968 E0.05685
G1 X157.129 Y65.968 E0.01686
G1 X155.852 Y64.691 E0.05685
G1 X155.317 Y64.691 E0.01686
G1 X156.593 Y65.968 E0.05685
G1 X156.058 Y65.968 E0.01686
G1 X154.781 Y64.691 E0.05685
G1 X154.246 Y64.691 E0.01686
G1 X155.522 Y65.968 E0.05685
G1 X154.987 Y65.968 E0.01686
G1 X153.710 Y64.691 E0.05685
M73 P4 R76
G1 X153.175 Y64.691 E0.01686
G1 X154.451 Y65.968 E0.05685
G1 X153.916 Y65.968 E0.01686
G1 X152.639 Y64.691 E0.05685
G1 X152.104 Y64.691 E0.01686
G1 X153.380 Y65.968 E0.05685
G1 X152.845 Y65.968 E0.01686
G1 X151.568 Y64.691 E0.05685
G1 X151.032 Y64.691 E0.01686
G1 X152.309 Y65.968 E0.05685
G1 X151.773 Y65.968 E0.01686
G1 X150.497 Y64.691 E0.05685
G1 X149.961 Y64.691 E0.01686
G1 X151.238 Y65.968 E0.05685
G1 X150.702 Y65.968 E0.01686
G1 X149.426 Y64.691 E0.05685
G1 X148.890 Y64.691 E0.01686
G1 X150.167 Y65.968 E0.05685
G1 X149.631 Y65.968 E0.01686
G1 X148.355 Y64.691 E0.05685
M73 Q4 S77
G1 X147.819 Y64.691 E0.01686
G1 X149.096 Y65.968 E0.05685
G1 X148.560 Y65.968 E0.01686
G1 X147.283 Y64.691 E0.05685
G1 X146.748 Y64.691 E0.01686
G1 X148.024 Y65.968 E0.05685
G1 X147.489 Y65.968 E0.01686
G1 X146.212 Y64.691 E0.05685
G1 X145.677 Y64.691 E0.01686
G1 X146.953 Y65.968 E0.05685
G1 X146.418 Y65.968 E0.01686
G1 X145.141 Y64.691 E0.05685
G1 X144.606 Y64.691 E0.01686
G1 X145.882 Y65.968 E0.05685
G1 X145.347 Y65.968 E0.01686
G1 X144.070 Y64.691 E0.05685
G1 X143.534 Y64.691 E0.01686
G1 X144.811 Y65.968 E0.05685
G1 X144.275 Y65.968 E0.01686
G1 X142.999 Y64.691 E0.05685
G1 X142.463 Y64.691 E0.01686
G1 X143.740 Y65.968 E0.05685
G1 X143.204 Y65.968 E0.01686
G1 X142.242 Y65.006 E0.04283
G1 X142.242 Y65.542 E0.01686
G1 X142.838 Y66.138 E0.02654
G1 E-0.80000 F2100.000
G1 Z0.800 F10800.000
G1 X164.766 Y145.591
G1 Z0.200
G1 E0.80000 F2100.000
;TYPE:Perimeter
;WIDTH:0.42
G1 F1200.000
G1 X141.960 Y145.591 E0.71508
G1 X141.960 Y143.750 E0.05773
G1 X169.415 Y143.750 E0.86085
G1 X169.415 Y145.591 E0.05773
G1 X164.826 Y145.591 E0.14389
G1 X164.826 Y145.968 F10800.000
;TYPE:External perimeter
G1 F1200.000
G1 X141.583 Y145.968 E0.72878
G1 X141.583 Y143.373 E0.08138
G1 X169.792 Y143.373 E0.88450
G1 X169.792 Y145.968 E0.08138
G1 X164.886 Y145.968 E0.15384
G1 X164.573 Y145.658 F10800.000
G1 E-0.80000 F2100.000
G1 Z0.800 F10800.000
G1 X142.838 Y145.478
G1 Z0.200
G1 E0.80000 F2100.000
;TYPE:Solid infill
;WIDTH:0.421614
G1 F1200.000
G1 X142.242 Y144.882 E0.02654
G1 X142.242 Y144.347 E0.01686
G1 X143.204 Y145.309 E0.04283
G1 X143.740 Y145.309 E0.01686
G1 X142.464 Y144.033 E0.05681
G1 X143.000 Y144.033 E0.01686
G1 X144.275 Y145.309 E0.05681
G1 X144.811 Y145.309 E0.01686
G1 X143.535 Y144.033 E0.05681
G1 X144.071 Y144.033 E0.01686
G1 X145.346 Y145.309 E0.05681
G1 X145.882 Y145.309 E0.01686
G1 X144.606 Y144.033 E0.05681
G1 X145.142 Y144.033 E0.01686
G1 X146.418 Y145.309 E0.05681
G1 X146.953 Y145.309 E0.01686
G1 X145.677 Y144.033 E0.05681
G1 X146.213 Y144.033 E0.01686
G1 X147.489 Y145.309 E0.05681
G1 X148.024 Y145.309 E0.01686
G1 X146.748 Y144.033 E0.05681
G1 X147.284 Y144.033 E0.01686
G1 X148.560 Y145.309 E0.05681
G1 X149.095 Y145.309 E0.01686
G1 X147.820 Y144.033 E0.05681
G1 X148.355 Y144.033 E0.01686
G1 X149.631 Y145.309 E0.05681
G1 X150.166 Y145.309 E0.01686
G1 X148.891 Y144.033 E0.05681
G1 X149.426 Y144.033 E0.01686
G1 X150.702 Y145.309 E0.05681
G1 X151.238 Y145.309 E0.01686
G1 X149.962 Y144.033 E0.05681
G1 X150.497 Y144.033 E0.01686
G1 X151.773 Y145.309 E0.05681
G1 X152.309 Y145.309 E0.01686
G1 X151.033 Y144.033 E0.05681
G1 X151.568 Y144.033 E0.01686
G1 X152.844 Y145.309 E0.05681
G1 X153.380 Y145.309 E0.01686
G1 X152.104 Y144.033 E0.05681
G1 X152.640 Y144.033 E0.01686
G1 X153.915 Y145.309 E0.05681
G1 X154.451 Y145.309 E0.01686
G1 X153.175 Y144.033 E0.05681
G1 X153.711 Y144.033 E0.01686
G1 X154.986 Y145.309 E0.05681
G1 X155.522 Y145.309 E0.01686
G1 X154.246 Y144.033 E0.05681
G1 X154.782 Y144.033 E0.01686
G1 X156.058 Y145.309 E0.05681
G1 X156.593 Y145.309 E0.01686
G1 X155.317 Y144.033 E0.05681
G1 X155.853 Y144.033 E0.01686
G1 X157.129 Y145.309 E0.05681
G1 X157.664 Y145.309 E0.01686
G1 X156.388 Y144.033 E0.05681
G1 X156.924 Y144.033 E0.01686
G1 X158.200 Y145.309 E0.05681
G1 X158.735 Y145.309 E0.01686
G1 X157.460 Y144.033 E0.05681
G1 X157.995 Y144.033 E0.01686
G1 X159.271 Y145.309 E0.05681
G1 X159.806 Y145.309 E0.01686
G1 X158.531 Y144.033 E0.05681
G1 X159.066 Y144.033 E0.01686
G1 X160.342 Y145.309 E0.05681
G1 X160.878 Y145.309 E0.01686
G1 X159.602 Y144.033 E0.05681
G1 X160.137 Y144.033 E0.01686
G1 X161.413 Y145.309 E0.05681
G1 X161.949 Y145.309 E0.01686
G1 X160.673 Y144.033 E0.05681
G1 X161.208 Y144.033 E0.01686
G1 X162.484 Y145.309 E0.05681
G1 X163.020 Y145.309 E0.01686
G1 X161.744 Y144.033 E0.05681
G1 X162.280 Y144.033 E0.01686
G1 X163.555 Y145.309 E0.05681
G1 X164.091 Y145.309 E0.01686
G1 X162.815 Y144.033 E0.05681
G1 X163.351 Y144.033 E0.01686
G1 X164.626 Y145.309 E0.05681
G1 X165.162 Y145.309 E0.01686
G1 X163.886 Y144.033 E0.05681
G1 X164.422 Y144.033 E0.01686
G1 X165.698 Y145.309 E0.05681
G1 X166.233 Y145.309 E0.01686
G1 X164.957 Y144.033 E0.05681
G1 X165.493 Y144.033 E0.01686
G1 X166.769 Y145.309 E0.05681
G1 X167.304 Y145.309 E0.01686
G1 X166.028 Y144.033 E0.05681
G1 X166.564 Y144.033 E0.01686
G1 X167.840 Y145.309 E0.05681
G1 X168.375 Y145.309 E0.01686
G1 X167.099 Y144.033 E0.05681
G1 X167.635 Y144.033 E0.01686
G1 X168.911 Y145.309 E0.05681
G1 X169.132 Y145.309 E0.00698
G1 X169.132 Y144.995 E0.00988
G1 X168.171 Y144.033 E0.04283
G1 X168.706 Y144.033 E0.01686
G1 X169.302 Y144.629 E0.02654
