; generated by Slic3r Prusa Edition 1.40.0+ on 2018-06-27 at 15:24:18

; 

; external perimeters extrusion width = 0.45mm
; perimeters extrusion width = 0.45mm
; infill extrusion width = 0.45mm
; solid infill extrusion width = 0.45mm
; top infill extrusion width = 0.40mm
; support material extrusion width = 0.35mm
; first layer extrusion width = 0.42mm

M107
M115 U3.1.0 ; tell printer latest fw version
M201 X9000 Y9000 Z500 E10000 ; sets maximum accelerations, mm/sec^2
M203 X500 Y500 Z12 E120 ; sets maximum feedrates, mm/sec
M204 S1500 T1500 ; sets acceleration (S) and retract acceleration (T)
M205 X10 Y10 Z0.2 E2.5 ; sets the jerk limits, mm/sec
M205 S0 T0 ; sets the minimum extruding and travel feed rate, mm/sec
M83  ; extruder relative mode
M104 S215 ; set extruder temp
M140 S60 ; set bed temp
M190 S60 ; wait for bed temp
M109 S215 ; wait for extruder temp
G28 W ; home all without mesh bed level
G80 ; mesh bed leveling
G1 Y-3.0 F1000.0 ; go outside print area
G92 E0.0
G1 X60.0 E9.0  F1000.0 ; intro line
G1 X100.0 E12.5  F1000.0 ; intro line
G92 E0.0
M900 K30; Filament gcode
G21 ; set units to millimeters
G90 ; use absolute coordinates
M83 ; use relative distances for extrusion
;BEFORE_LAYER_CHANGE
G92 E0.0
;0.2


G1 E-0.80000 F2100.00000
G1 Z0.600 F10800.000
;AFTER_LAYER_CHANGE
;0.2
G1 X46.959 Y106.315
G1 Z0.200
G1 E0.80000 F2100.00000
M204 S1000
G1 F1800
G1 X47.483 Y105.993 E0.01930
G1 X149.301 Y70.414 E3.38173
G1 X179.136 Y68.218 E0.93798
G1 X205.617 Y68.217 E0.83030
G1 X206.444 Y68.379 E0.02642
G1 X207.148 Y68.842 E0.02642
G1 X207.626 Y69.536 E0.02642
G1 X207.805 Y70.359 E0.02642
G1 X207.804 Y106.574 E1.13548
G1 X207.696 Y107.180 E0.01930
G1 X207.426 Y107.729 E0.01919
G1 X207.014 Y108.181 E0.01919
G1 X206.490 Y108.504 E0.01930
G1 X129.725 Y138.783 E2.58738
G1 X48.323 Y138.818 E2.55231
G1 X47.708 Y138.720 E0.01953
G1 X47.142 Y138.451 E0.01964
G1 X46.678 Y138.035 E0.01953
G1 X46.349 Y137.502 E0.01964
G1 X46.167 Y136.643 E0.02754
G1 X46.169 Y107.923 E0.90049
G1 X46.275 Y107.321 E0.01919
G1 X46.547 Y106.768 E0.01930
G1 X46.918 Y106.360 E0.01731
G1 F8640
G1 X47.483 Y105.993 E-0.15550
G1 X49.955 Y105.129 E-0.60450
G1 E-0.04000 F2100.00000
G1 Z0.800 F10800.000
G1 X49.609 Y108.587
G1 Z0.200
G1 E0.80000 F2100.00000
G1 F1800
G1 X128.082 Y108.587 E2.46047
G1 X128.082 Y136.043 E0.86085
G1 X49.609 Y136.043 E2.46047
G1 X49.609 Y108.647 E0.85897
G1 X49.232 Y108.210 F10800.000
G1 F1800
G1 X128.459 Y108.210 E2.48412
G1 X128.459 Y136.420 E0.88450
G1 X49.232 Y136.420 E2.48412
G1 X49.232 Y108.270 E0.88262
G1 X49.629 Y108.256 F10800.000
G1 F8640
G1 X52.523 Y108.268 E-0.76000
G1 E-0.04000 F2100.00000
G1 Z0.800 F10800.000
G1 X49.722 Y135.163
G1 Z0.200
G1 E0.80000 F2100.00000
G1 F1800
G1 X50.318 Y135.760 E0.02657
G1 X50.854 Y135.760 E0.01688
G1 X49.892 Y134.797 E0.04288
G1 X49.892 Y134.262 E0.01688
G1 X51.390 Y135.760 E0.06676
G1 X51.926 Y135.760 E0.01688
G1 X49.892 Y133.726 E0.09063
G1 X49.892 Y133.190 E0.01688
G1 X52.462 Y135.760 E0.11450
G1 X52.997 Y135.760 E0.01688
G1 X49.892 Y132.654 E0.13837
G1 X49.892 Y132.118 E0.01688
G1 X53.533 Y135.760 E0.16224
G1 X54.069 Y135.760 E0.01688
G1 X49.892 Y131.583 E0.18611
G1 X49.892 Y131.047 E0.01688
G1 X54.605 Y135.760 E0.20998
G1 X55.141 Y135.760 E0.01688
G1 X49.892 Y130.511 E0.23385
G1 X49.892 Y129.975 E0.01688
G1 X55.676 Y135.760 E0.25772
G1 X56.212 Y135.760 E0.01688
G1 X49.892 Y129.439 E0.28159
G1 X49.892 Y128.904 E0.01688
G1 X56.748 Y135.760 E0.30546
G1 X57.284 Y135.760 E0.01688
G1 X49.892 Y128.368 E0.32933
G1 X49.892 Y127.832 E0.01688
G1 X57.820 Y135.760 E0.35320
G1 X58.355 Y135.760 E0.01688
G1 X49.892 Y127.296 E0.37707
G1 X49.892 Y126.760 E0.01688
G1 X58.891 Y135.760 E0.40094
G1 X59.427 Y135.760 E0.01688
G1 X49.892 Y126.225 E0.42481
G1 X49.892 Y125.689 E0.01688
G1 X59.963 Y135.760 E0.44868
G1 X60.499 Y135.760 E0.01688
G1 X49.892 Y125.153 E0.47255
G1 X49.892 Y124.617 E0.01688
G1 X61.034 Y135.760 E0.49642
G1 X61.570 Y135.760 E0.01688
G1 X49.892 Y124.081 E0.52029
G1 X49.892 Y123.546 E0.01688
G1 X62.106 Y135.760 E0.54416
G1 X62.642 Y135.760 E0.01688
G1 X49.892 Y123.010 E0.56803
G1 X49.892 Y122.474 E0.01688
G1 X63.178 Y135.760 E0.59191
G1 X63.713 Y135.760 E0.01688
G1 X49.892 Y121.938 E0.61578
G1 X49.892 Y121.402 E0.01688
G1 X64.249 Y135.760 E0.63965
G1 X64.785 Y135.760 E0.01688
G1 X49.892 Y120.867 E0.66352
G1 X49.892 Y120.331 E0.01688
G1 X65.321 Y135.760 E0.68739
G1 X65.857 Y135.760 E0.01688
G1 X49.892 Y119.795 E0.71126
G1 X49.892 Y119.259 E0.01688
G1 X66.392 Y135.760 E0.73513
G1 X66.928 Y135.760 E0.01688
G1 X49.892 Y118.723 E0.75900
G1 X49.892 Y118.188 E0.01688
G1 X67.464 Y135.760 E0.78287
G1 X68.000 Y135.760 E0.01688
G1 X49.892 Y117.652 E0.80674
G1 X49.892 Y117.116 E0.01688
G1 X68.535 Y135.760 E0.83061
G1 X69.071 Y135.760 E0.01688
G1 X49.892 Y116.580 E0.85448
G1 X49.892 Y116.045 E0.01688
G1 X69.607 Y135.760 E0.87835
G1 X70.143 Y135.760 E0.01688
G1 X49.892 Y115.509 E0.90222
G1 X49.892 Y114.973 E0.01688
G1 X70.679 Y135.760 E0.92609
G1 X71.214 Y135.760 E0.01688
G1 X49.892 Y114.437 E0.94996
G1 X49.892 Y113.901 E0.01688
G1 X71.750 Y135.760 E0.97383
G1 X72.286 Y135.760 E0.01688
G1 X49.892 Y113.366 E0.99770
G1 X49.892 Y112.830 E0.01688
G1 X72.822 Y135.760 E1.02157
G1 X73.358 Y135.760 E0.01688
G1 X49.892 Y112.294 E1.04544
G1 X49.892 Y111.758 E0.01688
G1 X73.893 Y135.760 E1.06931
G1 X74.429 Y135.760 E0.01688
G1 X49.892 Y111.222 E1.09318
G1 X49.892 Y110.687 E0.01688
G1 X74.965 Y135.760 E1.11706
G1 X75.501 Y135.760 E0.01688
G1 X49.892 Y110.151 E1.14093
G1 X49.892 Y109.615 E0.01688
G1 X76.037 Y135.760 E1.16480
G1 X76.572 Y135.760 E0.01688
G1 X49.892 Y109.079 E1.18867
G1 X49.892 Y108.870 E0.00659
G1 X50.218 Y108.870 E0.01028
G1 X77.108 Y135.760 E1.19799
G1 X77.644 Y135.760 E0.01688
G1 X50.754 Y108.870 E1.19799
G1 X51.290 Y108.870 E0.01688
G1 X78.180 Y135.760 E1.19799
G1 X78.716 Y135.760 E0.01688
G1 X51.826 Y108.870 E1.19799
G1 X52.361 Y108.870 E0.01688
G1 X79.251 Y135.760 E1.19799
G1 X79.787 Y135.760 E0.01688
G1 X52.897 Y108.870 E1.19799
G1 X53.433 Y108.870 E0.01688
G1 X80.323 Y135.760 E1.19799
G1 X80.859 Y135.760 E0.01688
G1 X53.969 Y108.870 E1.19799
G1 X54.505 Y108.870 E0.01688
G1 X81.395 Y135.760 E1.19799
G1 X81.930 Y135.760 E0.01688
G1 X55.040 Y108.870 E1.19799
G1 X55.576 Y108.870 E0.01688
G1 X82.466 Y135.760 E1.19799
G1 X83.002 Y135.760 E0.01688
G1 X56.112 Y108.870 E1.19799
G1 X56.648 Y108.870 E0.01688
G1 X83.538 Y135.760 E1.19799
G1 X84.074 Y135.760 E0.01688
G1 X57.183 Y108.870 E1.19799
G1 X57.719 Y108.870 E0.01688
G1 X84.609 Y135.760 E1.19799
G1 X85.145 Y135.760 E0.01688
G1 X58.255 Y108.870 E1.19799
G1 X58.791 Y108.870 E0.01688
G1 X85.681 Y135.760 E1.19799
G1 X86.217 Y135.760 E0.01688
G1 X59.327 Y108.870 E1.19799
G1 X59.862 Y108.870 E0.01688
G1 X86.753 Y135.760 E1.19799
G1 X87.288 Y135.760 E0.01688
G1 X60.398 Y108.870 E1.19799
G1 X60.934 Y108.870 E0.01688
G1 X87.824 Y135.760 E1.19799
G1 X88.360 Y135.760 E0.01688
G1 X61.470 Y108.870 E1.19799
G1 X62.006 Y108.870 E0.01688
G1 X88.896 Y135.760 E1.19799
G1 X89.431 Y135.760 E0.01688
G1 X62.541 Y108.870 E1.19799
G1 X63.077 Y108.870 E0.01688
G1 X89.967 Y135.760 E1.19799
G1 X90.503 Y135.760 E0.01688
G1 X63.613 Y108.870 E1.19799
G1 X64.149 Y108.870 E0.01688
G1 X91.039 Y135.760 E1.19799
G1 X91.575 Y135.760 E0.01688
G1 X64.685 Y108.870 E1.19799
G1 X65.220 Y108.870 E0.01688
G1 X92.110 Y135.760 E1.19799
G1 X92.646 Y135.760 E0.01688
G1 X65.756 Y108.870 E1.19799
G1 X66.292 Y108.870 E0.01688
G1 X93.182 Y135.760 E1.19799
G1 X93.718 Y135.760 E0.01688
G1 X66.828 Y108.870 E1.19799
G1 X67.364 Y108.870 E0.01688
G1 X94.254 Y135.760 E1.19799
G1 X94.789 Y135.760 E0.01688
G1 X67.899 Y108.870 E1.19799
G1 X68.435 Y108.870 E0.01688
G1 X95.325 Y135.760 E1.19799
G1 X95.861 Y135.760 E0.01688
G1 X68.971 Y108.870 E1.19799
G1 X69.507 Y108.870 E0.01688
G1 X96.397 Y135.760 E1.19799
G1 X96.933 Y135.760 E0.01688
G1 X70.043 Y108.870 E1.19799
G1 X70.578 Y108.870 E0.01688
G1 X97.468 Y135.760 E1.19799
G1 X98.004 Y135.760 E0.01688
G1 X71.114 Y108.870 E1.19799
G1 X71.650 Y108.870 E0.01688
G1 X98.540 Y135.760 E1.19799
G1 X99.076 Y135.760 E0.01688
G1 X72.186 Y108.870 E1.19799
G1 X72.722 Y108.870 E0.01688
G1 X99.612 Y135.760 E1.19799
G1 X100.147 Y135.760 E0.01688
G1 X73.257 Y108.870 E1.19799
G1 X73.793 Y108.870 E0.01688
G1 X100.683 Y135.760 E1.19799
G1 X101.219 Y135.760 E0.01688
G1 X74.329 Y108.870 E1.19799
G1 X74.865 Y108.870 E0.01688
G1 X101.755 Y135.760 E1.19799
G1 X102.291 Y135.760 E0.01688
G1 X75.401 Y108.870 E1.19799
G1 X75.936 Y108.870 E0.01688
G1 X102.826 Y135.760 E1.19799
G1 X103.362 Y135.760 E0.01688
G1 X76.472 Y108.870 E1.19799
G1 X77.008 Y108.870 E0.01688
G1 X103.898 Y135.760 E1.19799
G1 X104.434 Y135.760 E0.01688
G1 X77.544 Y108.870 E1.19799
G1 X78.079 Y108.870 E0.01688
G1 X104.970 Y135.760 E1.19799
G1 X105.505 Y135.760 E0.01688
G1 X78.615 Y108.870 E1.19799
G1 X79.151 Y108.870 E0.01688
G1 X106.041 Y135.760 E1.19799
G1 X106.577 Y135.760 E0.01688
G1 X79.687 Y108.870 E1.19799
G1 X80.223 Y108.870 E0.01688
G1 X107.113 Y135.760 E1.19799
G1 X107.649 Y135.760 E0.01688
G1 X80.758 Y108.870 E1.19799
G1 X81.294 Y108.870 E0.01688
G1 X108.184 Y135.760 E1.19799
G1 X108.720 Y135.760 E0.01688
G1 X81.830 Y108.870 E1.19799
G1 X82.366 Y108.870 E0.01688
G1 X109.256 Y135.760 E1.19799
G1 X109.792 Y135.760 E0.01688
G1 X82.902 Y108.870 E1.19799
G1 X83.437 Y108.870 E0.01688
G1 X110.327 Y135.760 E1.19799
G1 X110.863 Y135.760 E0.01688
G1 X83.973 Y108.870 E1.19799
G1 X84.509 Y108.870 E0.01688
G1 X111.399 Y135.760 E1.19799
G1 X111.935 Y135.760 E0.01688
G1 X85.045 Y108.870 E1.19799
G1 X85.581 Y108.870 E0.01688
G1 X112.471 Y135.760 E1.19799
G1 X113.006 Y135.760 E0.01688
G1 X86.116 Y108.870 E1.19799
G1 X86.652 Y108.870 E0.01688
G1 X113.542 Y135.760 E1.19799
G1 X114.078 Y135.760 E0.01688
G1 X87.188 Y108.870 E1.19799
G1 X87.724 Y108.870 E0.01688
G1 X114.614 Y135.760 E1.19799
G1 X115.150 Y135.760 E0.01688
G1 X88.260 Y108.870 E1.19799
G1 X88.795 Y108.870 E0.01688
G1 X115.685 Y135.760 E1.19799
G1 X116.221 Y135.760 E0.01688
G1 X89.331 Y108.870 E1.19799
G1 X89.867 Y108.870 E0.01688
G1 X116.757 Y135.760 E1.19799
G1 X117.293 Y135.760 E0.01688
G1 X90.403 Y108.870 E1.19799
G1 X90.939 Y108.870 E0.01688
G1 X117.829 Y135.760 E1.19799
G1 X118.364 Y135.760 E0.01688
G1 X91.474 Y108.870 E1.19799
G1 X92.010 Y108.870 E0.01688
G1 X118.900 Y135.760 E1.19799
G1 X119.436 Y135.760 E0.01688
G1 X92.546 Y108.870 E1.19799
G1 X93.082 Y108.870 E0.01688
G1 X119.972 Y135.760 E1.19799
G1 X120.508 Y135.760 E0.01688
G1 X93.618 Y108.870 E1.19799
G1 X94.153 Y108.870 E0.01688
G1 X121.043 Y135.760 E1.19799
G1 X121.579 Y135.760 E0.01688
G1 X94.689 Y108.870 E1.19799
G1 X95.225 Y108.870 E0.01688
G1 X122.115 Y135.760 E1.19799
G1 X122.651 Y135.760 E0.01688
G1 X95.761 Y108.870 E1.19799
G1 X96.296 Y108.870 E0.01688
G1 X123.187 Y135.760 E1.19799
G1 X123.722 Y135.760 E0.01688
G1 X96.832 Y108.870 E1.19799
G1 X97.368 Y108.870 E0.01688
G1 X124.258 Y135.760 E1.19799
G1 X124.794 Y135.760 E0.01688
G1 X97.904 Y108.870 E1.19799
G1 X98.440 Y108.870 E0.01688
G1 X125.330 Y135.760 E1.19799
G1 X125.866 Y135.760 E0.01688
G1 X98.975 Y108.870 E1.19799
G1 X99.511 Y108.870 E0.01688
G1 X126.401 Y135.760 E1.19799
G1 X126.937 Y135.760 E0.01688
G1 X100.047 Y108.870 E1.19799
G1 X100.583 Y108.870 E0.01688
G1 X127.473 Y135.760 E1.19799
G1 X127.799 Y135.760 E0.01028
G1 X127.799 Y135.550 E0.00660
G1 X101.119 Y108.870 E1.18866
G1 X101.654 Y108.870 E0.01688
G1 X127.799 Y135.015 E1.16479
G1 X127.799 Y134.479 E0.01688
G1 X102.190 Y108.870 E1.14092
G1 X102.726 Y108.870 E0.01688
G1 X127.799 Y133.943 E1.11705
G1 X127.799 Y133.407 E0.01688
G1 X103.262 Y108.870 E1.09318
G1 X103.798 Y108.870 E0.01688
G1 X127.799 Y132.872 E1.06931
G1 X127.799 Y132.336 E0.01688
G1 X104.333 Y108.870 E1.04544
G1 X104.869 Y108.870 E0.01688
G1 X127.799 Y131.800 E1.02157
G1 X127.799 Y131.264 E0.01688
G1 X105.405 Y108.870 E0.99770
G1 X105.941 Y108.870 E0.01688
G1 X127.799 Y130.728 E0.97383
G1 X127.799 Y130.193 E0.01688
G1 X106.477 Y108.870 E0.94996
G1 X107.012 Y108.870 E0.01688
G1 X127.799 Y129.657 E0.92609
G1 X127.799 Y129.121 E0.01688
G1 X107.548 Y108.870 E0.90222
G1 X108.084 Y108.870 E0.01688
G1 X127.799 Y128.585 E0.87835
G1 X127.799 Y128.049 E0.01688
G1 X108.620 Y108.870 E0.85448
G1 X109.156 Y108.870 E0.01688
G1 X127.799 Y127.514 E0.83060
G1 X127.799 Y126.978 E0.01688
G1 X109.691 Y108.870 E0.80673
G1 X110.227 Y108.870 E0.01688
G1 X127.799 Y126.442 E0.78286
G1 X127.799 Y125.906 E0.01688
G1 X110.763 Y108.870 E0.75899
G1 X111.299 Y108.870 E0.01688
G1 X127.799 Y125.370 E0.73512
G1 X127.799 Y124.835 E0.01688
G1 X111.835 Y108.870 E0.71125
G1 X112.370 Y108.870 E0.01688
G1 X127.799 Y124.299 E0.68738
G1 X127.799 Y123.763 E0.01688
G1 X112.906 Y108.870 E0.66351
G1 X113.442 Y108.870 E0.01688
G1 X127.799 Y123.227 E0.63964
G1 X127.799 Y122.691 E0.01688
G1 X113.978 Y108.870 E0.61577
G1 X114.514 Y108.870 E0.01688
G1 X127.799 Y122.156 E0.59190
G1 X127.799 Y121.620 E0.01688
G1 X115.049 Y108.870 E0.56803
G1 X115.585 Y108.870 E0.01688
G1 X127.799 Y121.084 E0.54416
G1 X127.799 Y120.548 E0.01688
G1 X116.121 Y108.870 E0.52029
G1 X116.657 Y108.870 E0.01688
G1 X127.799 Y120.012 E0.49642
G1 X127.799 Y119.477 E0.01688
G1 X117.192 Y108.870 E0.47255
G1 X117.728 Y108.870 E0.01688
G1 X127.799 Y118.941 E0.44868
G1 X127.799 Y118.405 E0.01688
G1 X118.264 Y108.870 E0.42481
G1 X118.800 Y108.870 E0.01688
G1 X127.799 Y117.869 E0.40094
G1 X127.799 Y117.333 E0.01688
G1 X119.336 Y108.870 E0.37707
G1 X119.871 Y108.870 E0.01688
G1 X127.799 Y116.798 E0.35320
G1 X127.799 Y116.262 E0.01688
G1 X120.407 Y108.870 E0.32933
G1 X120.943 Y108.870 E0.01688
G1 X127.799 Y115.726 E0.30545
G1 X127.799 Y115.190 E0.01688
G1 X121.479 Y108.870 E0.28158
G1 X122.015 Y108.870 E0.01688
G1 X127.799 Y114.654 E0.25771
G1 X127.799 Y114.119 E0.01688
G1 X122.550 Y108.870 E0.23384
G1 X123.086 Y108.870 E0.01688
G1 X127.799 Y113.583 E0.20997
G1 X127.799 Y113.047 E0.01688
G1 X123.622 Y108.870 E0.18610
G1 X124.158 Y108.870 E0.01688
G1 X127.799 Y112.511 E0.16223
G1 X127.799 Y111.976 E0.01688
G1 X124.694 Y108.870 E0.13836
G1 X125.229 Y108.870 E0.01688
G1 X127.799 Y111.440 E0.11449
G1 X127.799 Y110.904 E0.01688
G1 X125.765 Y108.870 E0.09062
G1 X126.301 Y108.870 E0.01688
G1 X127.799 Y110.368 E0.06675
G1 X127.799 Y109.832 E0.01688
G1 X126.837 Y108.870 E0.04288
G1 X127.373 Y108.870 E0.01688
G1 X127.969 Y109.466 E0.02657
G1 F8640
G1 X127.373 Y108.870 E-0.19474
G1 X126.837 Y108.870 E-0.12372
G1 X127.799 Y109.832 E-0.31429
G1 X127.799 Y110.368 E-0.12372
G1 X127.788 Y110.357 E-0.00353
G1 E-0.04000 F2100.00000
G1 Z0.800 F10800.000
G1 X149.809 Y90.800
G1 Z0.200
G1 E0.80000 F2100.00000
G1 F1800
G1 X149.809 Y101.713 E0.34216
G1 X150.564 Y101.713 E0.02365
G1 X150.564 Y91.794 E0.31099
G1 X151.318 Y92.548 E0.03344
G1 X151.318 Y101.713 E0.28735
G1 X152.072 Y101.713 E0.02365
G1 X152.072 Y97.355 E0.13664
G1 X152.826 Y97.355 E0.02365
G1 X152.826 Y101.713 E0.13664
G1 X153.580 Y101.713 E0.02365
G1 X153.580 Y97.355 E0.13664
G1 X154.334 Y97.355 E0.02365
G1 X154.334 Y101.713 E0.13664
G1 X155.088 Y101.713 E0.02365
G1 X155.088 Y97.355 E0.13664
G1 X155.843 Y97.355 E0.02365
G1 X155.843 Y101.713 E0.13664
G1 X156.597 Y101.713 E0.02365
G1 X156.597 Y97.355 E0.13664
G1 X157.351 Y97.355 E0.02365
G1 X157.351 Y101.713 E0.13664
G1 X158.105 Y101.713 E0.02365
G1 X158.105 Y97.355 E0.13664
G1 X158.859 Y97.355 E0.02365
G1 X158.859 Y101.713 E0.13664
G1 X159.613 Y101.713 E0.02365
G1 X159.613 Y97.355 E0.13664
G1 X160.368 Y97.355 E0.02365
G1 X160.368 Y101.713 E0.13664
G1 X161.122 Y101.713 E0.02365
G1 X161.122 Y97.355 E0.13664
G1 X161.876 Y97.355 E0.02365
G1 X161.876 Y101.713 E0.13664
G1 X162.630 Y101.713 E0.02365
G1 X162.630 Y97.355 E0.13664
G1 X163.384 Y97.355 E0.02365
G1 X163.384 Y101.713 E0.13664
G1 X164.138 Y101.713 E0.02365
G1 X164.138 Y92.705 E0.28243
G1 X164.237 Y92.607 E0.00437
G1 X164.893 Y92.607 E0.02056
G1 X164.893 Y101.713 E0.28551
G1 X165.647 Y101.713 E0.02365
G1 X165.647 Y92.607 E0.28551
G1 X166.401 Y92.607 E0.02365
G1 X166.401 Y101.883 E0.29083
G1 F8640
G1 X166.401 Y98.591 E-0.76000
G1 E-0.04000 F2100.00000
G1 Z0.800 F10800.000
G1 X180.730 Y104.190
G1 Z0.200
G1 E0.80000 F2100.00000
G1 F1800
