; generated by PrusaSlicer 2.3.1+win64 on 2021-09-10 at 14:55:06 UTC

; 

; external perimeters extrusion width = 0.45mm
; perimeters extrusion width = 0.45mm
; infill extrusion width = 0.45mm
; solid infill extrusion width = 0.45mm
; top infill extrusion width = 0.40mm
; support material extrusion width = 0.35mm
; first layer extrusion width = 0.42mm

M73 P0 R41
M73 Q0 S42
M201 X1000 Y1000 Z1000 E5000 ; sets maximum accelerations, mm/sec^2
M203 X200 Y200 Z12 E120 ; sets maximum feedrates, mm/sec
M204 P1250 R1250 T1250 ; sets acceleration (P, T) and retract acceleration (R), mm/sec^2
M205 X8.00 Y8.00 Z0.40 E1.50 ; sets the jerk limits, mm/sec
M205 S0 T0 ; sets the minimum extruding and travel feed rate, mm/sec
M107
;TYPE:Custom
M862.3 P "MK3S" ; printer model check
M862.1 P0.4 ; nozzle diameter check
M115 U3.8.0 ; tell printer latest fw version
G90 ; use absolute coordinates
M83 ; extruder relative mode
M104 S215 ; set extruder temp
M140 S60 ; set bed temp
M190 S60 ; wait for bed temp
M109 S215 ; wait for extruder temp
G28 W ; home all without mesh bed level
G80 ; mesh bed leveling
G1 Y-3.0 F1000.0 ; go outside print area
G92 E0.0
G1 X60.0 E9.0 F1000.0 ; intro line
M73 Q0 S41
G1 X100.0 E12.5 F1000.0 ; intro line
G92 E0.0
M221 S95
G21 ; set units to millimeters
G90 ; use absolute coordinates
M83 ; use relative distances for extrusion
M900 K0.05 ; Filament gcode LA 1.5
M900 K30 ; Filament gcode LA 1.0
;LAYER_CHANGE
;Z:0.2
;HEIGHT:0.2
;BEFORE_LAYER_CHANGE
G92 E0.0
;0.2


G1 E-0.80000 F2100.000
G1 Z0.600 F10800.000
;AFTER_LAYER_CHANGE
;0.2
G1 X111.104 Y95.432
G1 Z0.200
G1 E0.80000 F2100.000
M204 S1000
;TYPE:Support material
;WIDTH:0.42
G1 F1200.000
G1 X113.733 Y92.803 E0.11658
G1 X114.266 Y93.336 E0.02365
G1 X111.865 Y95.738 E0.10650
G1 X111.865 Y96.804 E0.03344
G1 X114.800 Y93.869 E0.13014
G1 X115.333 Y94.403 E0.02365
G1 X111.865 Y97.871 E0.15379
G1 X111.865 Y98.075 E0.00640
G1 X113.581 Y96.359 E0.07608
G1 X114.012 Y96.791 E0.01912
G1 X115.866 Y94.936 E0.08224
G1 X116.400 Y95.469 E0.02365
G1 X114.545 Y97.324 E0.08224
G1 X115.078 Y97.857 E0.02365
G1 X116.933 Y96.002 E0.08224
G1 X117.466 Y96.536 E0.02365
G1 X115.611 Y98.390 E0.08224
G1 X116.145 Y98.924 E0.02365
G1 X117.999 Y97.069 E0.08224
G1 X118.533 Y97.602 E0.02365
G1 X116.678 Y99.457 E0.08224
G1 X117.211 Y99.990 E0.02365
G1 X119.066 Y98.136 E0.08224
G1 X119.599 Y98.669 E0.02365
G1 X118.257 Y100.011 E0.05950
G1 X119.324 Y100.011 E0.03344
G1 X120.132 Y99.202 E0.03585
G1 X120.666 Y99.735 E0.02365
G1 X120.221 Y100.180 E0.01973
G1 E-0.80000 F2100.000
G1 Z0.800 F10800.000
G1 X113.785 Y96.853
G1 Z0.200
G1 E0.80000 F2100.000
;TYPE:Support material interface
;WIDTH:0.35
G1 F1200.000
G1 X111.830 Y98.808 E0.07061
G1 X111.830 Y99.159 E0.00897
G1 X112.196 Y99.159 E0.00934
G1 X114.046 Y97.309 E0.06682
G1 X114.405 Y97.667 E0.01295
G1 X112.913 Y99.159 E0.05388
G1 X113.630 Y99.159 E0.01831
G1 X114.763 Y98.026 E0.04093
G1 X115.122 Y98.384 E0.01295
G1 X114.347 Y99.159 E0.02798
G1 X115.064 Y99.159 E0.01831
G1 X115.480 Y98.743 E0.01503
G1 X115.839 Y99.102 E0.01295
G1 X115.643 Y99.298 E0.00708
G1 E-0.80000 F2100.000
G1 Z0.800 F10800.000
G1 X116.654 Y99.721
G1 Z0.200
G1 E0.80000 F2100.000
G1 F1200.000
G1 X116.380 Y99.995 E0.00989
G1 X115.955 Y100.180 F10800.000
;TYPE:Support material
;WIDTH:0.42
G1 F1200.000
G1 X116.176 Y99.959 E0.00982
G1 X116.176 Y99.703 E0.00803
G1 X115.975 Y99.501 E0.00893
G1 X115.567 Y99.501 E0.01278
G1 X115.058 Y100.011 E0.02258
G1 X113.991 Y100.011 E0.03344
G1 X114.500 Y99.501 E0.02258
G1 X113.434 Y99.501 E0.03344
G1 X112.925 Y100.011 E0.02258
G1 X111.865 Y100.011 E0.03323
G1 X112.537 Y99.332 E0.02996
G1 E-0.80000 F2100.000
G1 Z0.800 F10800.000
G1 X115.066 Y110.668
G1 Z0.200
G1 E0.80000 F2100.000
G1 F1200.000
G1 X115.745 Y109.989 E0.03011
G1 X114.678 Y109.989 E0.03344
G1 X114.169 Y110.499 E0.02258
G1 X113.102 Y110.499 E0.03344
G1 X113.611 Y109.989 E0.02258
G1 X112.545 Y109.989 E0.03344
G1 X111.866 Y110.668 E0.03011
G1 X111.692 Y111.137 F10800.000
;TYPE:Support material interface
;WIDTH:0.35
G1 F1200.000
G1 X111.988 Y110.841 E0.01071
G1 X112.705 Y110.841 E0.01831
G1 X111.985 Y111.561 E0.02602
G1 X112.343 Y111.920 E0.01295
G1 X113.422 Y110.841 E0.03896
G1 X114.140 Y110.841 E0.01831
G1 X112.702 Y112.278 E0.05191
G1 X113.061 Y112.637 E0.01295
G1 X114.857 Y110.841 E0.06486
G1 X115.574 Y110.841 E0.01831
G1 X113.321 Y113.093 E0.08133
G1 X111.695 Y112.972 F10800.000
;TYPE:Support material
;WIDTH:0.42
G1 F1200.000
G1 X112.304 Y112.364 E0.02698
G1 X112.837 Y112.897 E0.02365
G1 X111.865 Y113.869 E0.04311
G1 X111.865 Y114.429 E0.01757
G1 X111.557 Y114.738 E0.01366
G1 X110.996 Y114.738 E0.01757
G1 X110.982 Y114.752 E0.00062
G1 X111.516 Y115.285 E0.02365
G1 X113.370 Y113.430 E0.08224
G1 X113.581 Y113.641 E0.00933
G1 X117.232 Y109.989 E0.16190
G1 X117.878 Y109.989 E0.02025
G1 X112.049 Y115.818 E0.25846
G1 X112.582 Y116.351 E0.02365
G1 X118.944 Y109.989 E0.28210
G1 X120.011 Y109.989 E0.03344
G1 X112.995 Y117.005 E0.31107
G1 E-0.80000 F2100.000
G1 Z0.800 F10800.000
G1 X124.289 Y118.510
G1 Z0.200
G1 E0.80000 F2100.000
G1 F1200.000
G1 X130.144 Y112.654 E0.25964
G1 X130.144 Y113.721 E0.03344
G1 X124.942 Y118.923 E0.23067
G1 X125.475 Y119.456 E0.02365
G1 X130.144 Y114.787 E0.20703
G1 X130.144 Y115.854 E0.03344
G1 X126.009 Y119.990 E0.18338
G1 X126.542 Y120.523 E0.02365
G1 X130.843 Y116.222 E0.19072
G1 X131.909 Y116.222 E0.03344
G1 X127.075 Y121.056 E0.21436
G1 X127.608 Y121.589 E0.02365
G1 X132.976 Y116.222 E0.23801
G1 X134.042 Y116.222 E0.03344
G1 X128.142 Y122.123 E0.26166
G1 X128.675 Y122.656 E0.02365
G1 X135.109 Y116.222 E0.28530
G1 X136.176 Y116.222 E0.03344
G1 X129.208 Y123.189 E0.30895
G1 X129.741 Y123.723 E0.02365
G1 X137.242 Y116.222 E0.33259
G1 X138.309 Y116.222 E0.03344
G1 X131.906 Y122.624 E0.28390
G1 X132.439 Y123.158 E0.02365
G1 X139.375 Y116.222 E0.30755
G1 X140.442 Y116.222 E0.03344
G1 X132.973 Y123.691 E0.33119
G1 X133.157 Y123.875 E0.00817
G1 X134.788 Y122.244 E0.07234
G1 X135.137 Y122.593 E0.01548
G1 X155.644 Y102.086 E0.90929
G1 X156.177 Y102.620 E0.02365
G1 X135.670 Y123.126 E0.90929
M73 P1 R41
M73 Q1 S41
G1 X136.204 Y123.659 E0.02365
G1 X156.710 Y103.153 E0.90929
G1 X156.926 Y103.369 E0.00957
G1 X155.295 Y105.000 E0.07234
G1 X155.612 Y105.318 E0.01408
G1 X136.737 Y124.193 E0.83696
G1 X137.270 Y124.726 E0.02365
G1 X156.145 Y105.851 E0.83696
G1 X156.679 Y106.384 E0.02365
G1 X137.804 Y125.259 E0.83696
G1 X138.051 Y125.507 E0.01096
G1 X139.682 Y123.875 E0.07234
G1 X139.968 Y124.161 E0.01268
G1 X155.581 Y108.549 E0.69228
G1 X156.114 Y109.082 E0.02365
G1 X140.501 Y124.694 E0.69228
G1 X141.035 Y125.228 E0.02365
G1 X156.647 Y109.615 E0.69228
G1 X156.926 Y109.894 E0.01236
G1 X155.295 Y111.525 E0.07234
G1 X155.549 Y111.780 E0.01128
G1 X143.199 Y124.130 E0.54761
G1 X143.733 Y124.663 E0.02365
G1 X156.082 Y112.313 E0.54761
G1 X156.616 Y112.846 E0.02365
G1 X144.266 Y125.196 E0.54761
G1 X144.576 Y125.507 E0.01376
G1 X146.208 Y123.875 E0.07234
G1 X146.430 Y124.098 E0.00988
G1 X155.518 Y115.011 E0.40294
G1 X156.051 Y115.544 E0.02365
G1 X146.964 Y124.631 E0.40294
G1 X147.497 Y125.165 E0.02365
G1 X156.584 Y116.078 E0.40294
G1 X156.926 Y116.419 E0.01516
G1 X155.295 Y118.051 E0.07234
G1 X155.486 Y118.242 E0.00849
G1 X149.662 Y124.067 E0.25826
G1 X150.195 Y124.600 E0.02365
G1 X156.019 Y118.775 E0.25826
G1 X156.553 Y119.309 E0.02365
G1 X150.608 Y125.253 E0.26358
G1 X141.322 Y115.342 F10800.000
G1 F1200.000
G1 X156.742 Y99.922 E0.68376
G1 X156.209 Y99.388 E0.02365
G1 X141.491 Y114.106 E0.65259
G1 X141.491 Y113.039 E0.03344
G1 X142.624 Y111.906 E0.05025
G1 X142.091 Y111.373 E0.02365
G1 X141.491 Y111.973 E0.02660
G1 X141.491 Y110.906 E0.03344
G1 X141.678 Y110.719 E0.00828
G1 E-0.80000 F2100.000
G1 Z0.800 F10800.000
G1 X143.205 Y111.325
G1 Z0.200
G1 E0.80000 F2100.000
G1 F1200.000
G1 X155.675 Y98.855 E0.55293
G1 X155.295 Y98.475 E0.01688
G1 X156.926 Y96.843 E0.07234
G1 X156.773 Y96.691 E0.00677
G1 X142.792 Y110.672 E0.61995
G1 X142.259 Y110.138 E0.02365
G1 X156.240 Y96.157 E0.61995
G1 X155.707 Y95.624 E0.02365
G1 X143.357 Y107.974 E0.54761
G1 X142.824 Y107.441 E0.02365
G1 X156.805 Y93.459 E0.61995
M73 P2 R41
M73 Q2 S41
G1 X156.272 Y92.926 E0.02365
G1 X142.290 Y106.907 E0.61995
M73 P2 R40
G1 X142.015 Y106.631 E0.01224
G1 X143.646 Y105.000 E0.07234
G1 X143.389 Y104.743 E0.01141
G1 X155.738 Y92.393 E0.54761
G1 X155.295 Y91.949 E0.01967
G1 X156.926 Y90.318 E0.07234
G1 X156.836 Y90.228 E0.00397
G1 X142.855 Y104.209 E0.61995
G1 X142.322 Y103.676 E0.02365
G1 X156.303 Y89.695 E0.61995
G1 X155.770 Y89.162 E0.02365
G1 X143.420 Y101.511 E0.54761
G1 X142.887 Y100.978 E0.02365
G1 X155.237 Y88.628 E0.54761
G1 X154.703 Y88.095 E0.02365
G1 X142.354 Y100.445 E0.54761
G1 X142.015 Y100.106 E0.01503
G1 X143.646 Y98.475 E0.07234
G1 X143.452 Y98.280 E0.00861
G1 X154.170 Y87.562 E0.47527
G1 X153.637 Y87.029 E0.02365
G1 X141.491 Y99.174 E0.53856
G1 X141.491 Y98.108 E0.03344
G1 X153.104 Y86.495 E0.51491
G1 X152.570 Y85.962 E0.02365
G1 X141.491 Y97.041 E0.49126
G1 X141.491 Y95.975 E0.03344
G1 X152.037 Y85.429 E0.46762
G1 X151.504 Y84.896 E0.02365
G1 X141.491 Y94.908 E0.44397
G1 X141.491 Y94.086 E0.02577
G1 X141.369 Y93.964 E0.00543
G1 X149.339 Y85.994 E0.35342
G1 X148.806 Y85.460 E0.02365
G1 X140.488 Y93.778 E0.36883
G1 X139.421 Y93.778 E0.03344
G1 X148.273 Y84.927 E0.39247
M73 Q2 S40
G1 X147.839 Y84.493 E0.01923
G1 X146.208 Y86.125 E0.07234
G1 X146.108 Y86.025 E0.00442
G1 X138.355 Y93.778 E0.34378
G1 X137.288 Y93.778 E0.03344
G1 X145.575 Y85.492 E0.36743
G1 X145.041 Y84.959 E0.02365
G1 X136.222 Y93.778 E0.39107
G1 X135.155 Y93.778 E0.03344
G1 X142.877 Y86.057 E0.34238
G1 X142.344 Y85.523 E0.02365
G1 X134.089 Y93.778 E0.36603
G1 X133.022 Y93.778 E0.03344
G1 X141.810 Y84.990 E0.38968
G1 X141.314 Y84.493 E0.02203
G1 X139.682 Y86.125 E0.07234
G1 X139.646 Y86.088 E0.00162
G1 X131.956 Y93.778 E0.34099
G1 X130.889 Y93.778 E0.03344
G1 X139.112 Y85.555 E0.36463
G1 X138.579 Y85.022 E0.02365
G1 X127.861 Y95.740 E0.47527
G1 X128.394 Y96.273 E0.02365
G1 X130.144 Y94.523 E0.07761
G1 X130.144 Y95.590 E0.03344
G1 X128.927 Y96.807 E0.05396
G1 X129.460 Y97.340 E0.02365
G1 X130.144 Y96.656 E0.03032
G1 X130.144 Y97.723 E0.03344
G1 X129.874 Y97.993 E0.01199
G1 X127.207 Y95.327 F10800.000
G1 F1200.000
G1 X134.783 Y87.751 E0.33592
G1 X134.250 Y87.218 E0.02365
G1 X126.794 Y94.674 E0.33060
G1 X126.261 Y94.140 E0.02365
G1 X133.717 Y86.685 E0.33060
G1 X133.183 Y86.151 E0.02365
G1 X125.728 Y93.607 E0.33060
G1 X125.194 Y93.074 E0.02365
G1 X131.019 Y87.249 E0.25826
G1 X130.485 Y86.716 E0.02365
G1 X124.661 Y92.541 E0.25826
G1 X124.128 Y92.007 E0.02365
G1 X130.072 Y86.063 E0.26358
G1 E-0.80000 F2100.000
G1 Z0.800 F10800.000
G1 X140.204 Y115.109
M73 P3 R40
M73 Q3 S40
G1 Z0.200
G1 E0.80000 F2100.000
;TYPE:Perimeter
G1 F1200.000
G1 X131.257 Y115.109 E0.28051
G1 X131.257 Y108.876 E0.19542
G1 X110.752 Y108.876 E0.64294
G1 X110.752 Y113.624 E0.14888
G1 X100.457 Y113.624 E0.32280
G1 X100.457 Y96.376 E0.54083
G1 X110.752 Y96.376 E0.32280
G1 X110.752 Y101.124 E0.14888
G1 X131.257 Y101.124 E0.64294
G1 X131.257 Y94.891 E0.19542
G1 X140.378 Y94.891 E0.28598
G1 X140.378 Y115.109 E0.63390
G1 X140.264 Y115.109 E0.00358
G1 X140.264 Y115.486 F10800.000
;TYPE:External perimeter
G1 F1200.000
G1 X130.880 Y115.486 E0.29422
G1 X130.880 Y109.253 E0.19542
G1 X111.129 Y109.253 E0.61929
G1 X111.129 Y114.002 E0.14888
G1 X100.079 Y114.002 E0.34644
G1 X100.079 Y95.998 E0.56448
G1 X111.129 Y95.998 E0.34644
G1 X111.129 Y100.747 E0.14888
G1 X130.880 Y100.747 E0.61929
G1 X130.880 Y94.514 E0.19542
G1 X140.755 Y94.514 E0.30962
G1 X140.755 Y115.486 E0.65755
G1 X140.324 Y115.486 E0.01352
G1 X139.919 Y115.283 F10800.000
G1 E-0.80000 F2100.000
G1 Z0.800 F10800.000
G1 X137.571 Y114.996
G1 Z0.200
G1 E0.80000 F2100.000
;TYPE:Solid infill
;WIDTH:0.42098
G1 F1200.000
G1 X131.540 Y108.965 E0.26811
G1 X131.540 Y109.499 E0.01681
G1 X136.867 Y114.826 E0.23680
G1 X136.332 Y114.826 E0.01681
G1 X131.540 Y110.034 E0.21303
G1 X131.540 Y110.569 E0.01681
G1 X135.797 Y114.826 E0.18926
G1 X135.263 Y114.826 E0.01681
G1 X131.540 Y111.103 E0.16549
G1 X131.540 Y111.638 E0.01681
G1 X134.728 Y114.826 E0.14172
G1 X134.193 Y114.826 E0.01681
G1 X131.540 Y112.173 E0.11795
G1 X131.540 Y112.707 E0.01681
G1 X133.659 Y114.826 E0.09418
G1 X133.124 Y114.826 E0.01681
G1 X131.540 Y113.242 E0.07041
G1 X131.540 Y113.777 E0.01681
G1 X132.589 Y114.826 E0.04664
G1 X132.055 Y114.826 E0.01681
G1 X131.370 Y114.142 E0.03042
G1 E-0.80000 F2100.000
G1 Z0.800 F10800.000
G1 X140.265 Y95.769
G1 Z0.200
G1 E0.80000 F2100.000
G1 F1200.000
G1 X139.670 Y95.174 E0.02644
G1 X139.136 Y95.174 E0.01681
G1 X140.095 Y96.134 E0.04266
G1 X140.095 Y96.668 E0.01681
G1 X138.601 Y95.174 E0.06643
G1 X138.066 Y95.174 E0.01681
G1 X140.095 Y97.203 E0.09020
G1 X140.095 Y97.738 E0.01681
G1 X137.532 Y95.174 E0.11397
G1 X136.997 Y95.174 E0.01681
G1 X140.095 Y98.272 E0.13774
G1 X140.095 Y98.807 E0.01681
G1 X136.462 Y95.174 E0.16151
G1 X135.928 Y95.174 E0.01681
G1 X140.095 Y99.342 E0.18528
G1 X140.095 Y99.876 E0.01681
G1 X135.393 Y95.174 E0.20905
G1 X134.858 Y95.174 E0.01681
G1 X140.095 Y100.411 E0.23282
G1 X140.095 Y100.946 E0.01681
G1 X134.324 Y95.174 E0.25659
G1 X133.789 Y95.174 E0.01681
G1 X140.095 Y101.480 E0.28036
G1 X140.095 Y102.015 E0.01681
G1 X133.254 Y95.174 E0.30412
G1 X132.720 Y95.174 E0.01681
G1 X140.095 Y102.550 E0.32789
G1 X140.095 Y103.084 E0.01681
G1 X132.185 Y95.174 E0.35166
G1 X131.650 Y95.174 E0.01681
G1 X140.095 Y103.619 E0.37543
G1 X140.095 Y104.154 E0.01681
G1 X131.540 Y95.598 E0.38034
G1 X131.540 Y96.133 E0.01681
G1 X140.095 Y104.688 E0.38034
M73 P4 R40
M73 Q4 S40
G1 X140.095 Y105.223 E0.01681
G1 X131.540 Y96.668 E0.38034
G1 X131.540 Y97.202 E0.01681
G1 X140.095 Y105.758 E0.38034
G1 X140.095 Y106.292 E0.01681
G1 X131.540 Y97.737 E0.38034
G1 X131.540 Y98.272 E0.01681
G1 X140.095 Y106.827 E0.38034
G1 X140.095 Y107.362 E0.01681
G1 X131.540 Y98.806 E0.38034
G1 X131.540 Y99.341 E0.01681
G1 X140.095 Y107.896 E0.38034
G1 X140.095 Y108.431 E0.01681
G1 X131.540 Y99.876 E0.38034
G1 X131.540 Y100.410 E0.01681
G1 X140.095 Y108.966 E0.38034
G1 X140.095 Y109.500 E0.01681
G1 X131.540 Y100.945 E0.38034
G1 X131.540 Y101.407 E0.01451
G1 X131.467 Y101.407 E0.00230
G1 X140.095 Y110.035 E0.38358
G1 X140.095 Y110.569 E0.01681
G1 X130.932 Y101.407 E0.40735
G1 X130.398 Y101.407 E0.01681
G1 X140.095 Y111.104 E0.43112
G1 X140.095 Y111.639 E0.01681
G1 X129.863 Y101.407 E0.45489
G1 X129.328 Y101.407 E0.01681
G1 X140.095 Y112.173 E0.47866
G1 X140.095 Y112.708 E0.01681
G1 X128.794 Y101.407 E0.50243
G1 X128.259 Y101.407 E0.01681
G1 X140.095 Y113.243 E0.52620
M73 P4 R39
G1 X140.095 Y113.777 E0.01681
G1 X127.724 Y101.407 E0.54997
G1 X127.190 Y101.407 E0.01681
G1 X140.095 Y114.312 E0.57374
G1 X140.095 Y114.826 E0.01615
G1 X140.074 Y114.826 E0.00065
G1 X126.655 Y101.407 E0.59658
G1 X126.120 Y101.407 E0.01681
G1 X139.540 Y114.826 E0.59658
G1 X139.005 Y114.826 E0.01681
G1 X125.586 Y101.407 E0.59658
G1 X125.051 Y101.407 E0.01681
G1 X138.470 Y114.826 E0.59658
G1 X137.936 Y114.826 E0.01681
G1 X124.517 Y101.407 E0.59658
G1 X123.982 Y101.407 E0.01681
G1 X131.169 Y108.593 E0.31950
G1 X130.634 Y108.593 E0.01681
G1 X123.447 Y101.407 E0.31950
G1 X122.913 Y101.407 E0.01681
G1 X130.099 Y108.593 E0.31950
G1 X129.565 Y108.593 E0.01681
G1 X122.378 Y101.407 E0.31950
G1 X121.843 Y101.407 E0.01681
G1 X129.030 Y108.593 E0.31950
G1 X128.495 Y108.593 E0.01681
G1 X121.309 Y101.407 E0.31950
G1 X120.774 Y101.407 E0.01681
G1 X127.961 Y108.593 E0.31950
G1 X127.426 Y108.593 E0.01681
G1 X120.239 Y101.407 E0.31950
G1 X119.705 Y101.407 E0.01681
G1 X126.891 Y108.593 E0.31950
G1 X126.357 Y108.593 E0.01681
G1 X119.170 Y101.407 E0.31950
G1 X118.635 Y101.407 E0.01681
G1 X125.822 Y108.593 E0.31950
M73 Q4 S39
G1 X125.287 Y108.593 E0.01681
G1 X118.101 Y101.407 E0.31950
G1 X117.566 Y101.407 E0.01681
M73 P5 R39
G1 X124.753 Y108.593 E0.31950
M73 Q5 S39
G1 X124.218 Y108.593 E0.01681
G1 X117.031 Y101.407 E0.31950
G1 X116.497 Y101.407 E0.01681
G1 X123.683 Y108.593 E0.31950
G1 X123.149 Y108.593 E0.01681
G1 X115.962 Y101.407 E0.31950
G1 X115.427 Y101.407 E0.01681
G1 X122.614 Y108.593 E0.31950
