; generated by PrusaSlicer 2.3.1+win64 on 2021-09-15 at 17:38:31 UTC

; 

; external perimeters extrusion width = 0.45mm
; perimeters extrusion width = 0.45mm
; infill extrusion width = 0.45mm
; solid infill extrusion width = 0.45mm
; top infill extrusion width = 0.40mm
; support material extrusion width = 0.35mm
; first layer extrusion width = 0.42mm

M73 P0 R32
M73 Q0 S32
M201 X1000 Y1000 Z1000 E5000 ; sets maximum accelerations, mm/sec^2
M203 X200 Y200 Z12 E120 ; sets maximum feedrates, mm/sec
M204 P1250 R1250 T1250 ; sets acceleration (P, T) and retract acceleration (R), mm/sec^2
M205 X8.00 Y8.00 Z0.40 E1.50 ; sets the jerk limits, mm/sec
M205 S0 T0 ; sets the minimum extruding and travel feed rate, mm/sec
M107
;TYPE:Custom
M862.3 P "MK3S" ; printer model check
M862.1 P0.4 ; nozzle diameter check
M115 U3.8.0 ; tell printer latest fw version
G90 ; use absolute coordinates
M83 ; extruder relative mode
M104 S215 ; set extruder temp
M140 S60 ; set bed temp
M190 S60 ; wait for bed temp
M109 S215 ; wait for extruder temp
G28 W ; home all without mesh bed level
G80 ; mesh bed leveling
G1 Y-3.0 F1000.0 ; go outside print area
G92 E0.0
G1 X60.0 E9.0 F1000.0 ; intro line
G1 X100.0 E12.5 F1000.0 ; intro line
G92 E0.0
M221 S95
G21 ; set units to millimeters
G90 ; use absolute coordinates
M83 ; use relative distances for extrusion
M900 K0.05 ; Filament gcode LA 1.5
M900 K30 ; Filament gcode LA 1.0
;LAYER_CHANGE
;Z:0.2
;HEIGHT:0.2
;BEFORE_LAYER_CHANGE
G92 E0.0
;0.2


G1 E-0.80000 F2100.000
G1 Z0.600 F10800.000
;AFTER_LAYER_CHANGE
;0.2
G1 X109.163 Y95.432
G1 Z0.200
G1 E0.80000 F2100.000
M204 S1000
;TYPE:Support material
;WIDTH:0.42
G1 F1200.000
G1 X109.163 Y95.114 E0.00998
G1 X109.917 Y95.114 E0.02365
G1 X109.917 Y95.262 E0.00466
G1 X110.671 Y95.262 E0.02365
G1 X110.671 Y95.114 E0.00466
G1 X111.425 Y95.114 E0.02365
G1 X111.425 Y95.262 E0.00466
G1 X111.557 Y95.262 E0.00412
G1 X111.865 Y95.571 E0.01366
G1 X111.865 Y97.737 E0.06792
G1 X112.179 Y97.737 E0.00986
G1 X112.179 Y95.114 E0.08224
G1 X112.933 Y95.114 E0.02365
G1 X112.933 Y97.737 E0.08224
G1 X113.688 Y97.737 E0.02365
G1 X113.688 Y95.114 E0.08224
G1 X114.442 Y95.114 E0.02365
G1 X114.442 Y97.737 E0.08224
G1 X115.196 Y97.737 E0.02365
G1 X115.196 Y95.114 E0.08224
G1 X115.950 Y95.114 E0.02365
G1 X115.950 Y97.737 E0.08224
G1 X116.704 Y97.737 E0.02365
G1 X116.704 Y95.114 E0.08224
G1 X117.458 Y95.114 E0.02365
G1 X117.458 Y97.737 E0.08224
G1 X118.213 Y97.737 E0.02365
G1 X118.213 Y95.114 E0.08224
G1 X118.967 Y95.114 E0.02365
G1 X118.967 Y100.011 E0.15354
G1 X119.721 Y100.011 E0.02365
G1 X119.721 Y95.114 E0.15354
G1 X120.475 Y95.114 E0.02365
G1 X120.475 Y100.180 E0.15886
G1 E-0.80000 F2100.000
G1 Z0.800 F10800.000
G1 X117.901 Y100.184
G1 Z0.200
G1 E0.80000 F2100.000
;TYPE:Support material interface
;WIDTH:0.35
G1 F1200.000
G1 X117.901 Y98.079 E0.05375
G1 X117.394 Y98.079 E0.01295
G1 X117.394 Y100.046 E0.05022
G1 X116.887 Y100.046 E0.01295
G1 X116.887 Y98.079 E0.05022
G1 X116.380 Y98.079 E0.01295
G1 X116.380 Y100.046 E0.05022
G1 X115.873 Y100.046 E0.01295
G1 X115.873 Y98.079 E0.05022
G1 X115.365 Y98.079 E0.01295
G1 X115.365 Y100.046 E0.05022
G1 X114.858 Y100.046 E0.01295
G1 X114.858 Y98.079 E0.05022
G1 X114.351 Y98.079 E0.01295
G1 X114.351 Y100.046 E0.05022
G1 X113.844 Y100.046 E0.01295
G1 X113.844 Y98.079 E0.05022
G1 X113.337 Y98.079 E0.01295
G1 X113.337 Y100.046 E0.05022
G1 X112.830 Y100.046 E0.01295
G1 X112.830 Y98.079 E0.05022
G1 X112.323 Y98.079 E0.01295
G1 X112.323 Y100.184 E0.05375
G1 E-0.80000 F2100.000
G1 Z0.800 F10800.000
G1 X112.323 Y112.059
G1 Z0.200
G1 E0.80000 F2100.000
G1 F1200.000
G1 X112.323 Y109.954 E0.05375
G1 X112.830 Y109.954 E0.01295
G1 X112.830 Y111.921 E0.05022
G1 X113.337 Y111.921 E0.01295
G1 X113.337 Y109.954 E0.05022
G1 X113.844 Y109.954 E0.01295
G1 X113.844 Y111.921 E0.05022
G1 X114.351 Y111.921 E0.01295
G1 X114.351 Y109.954 E0.05022
G1 X114.858 Y109.954 E0.01295
G1 X114.858 Y111.921 E0.05022
G1 X115.365 Y111.921 E0.01295
G1 X115.365 Y109.954 E0.05022
G1 X115.873 Y109.954 E0.01295
G1 X115.873 Y111.921 E0.05022
G1 X116.380 Y111.921 E0.01295
G1 X116.380 Y109.954 E0.05022
G1 X116.887 Y109.954 E0.01295
G1 X116.887 Y111.921 E0.05022
G1 X117.394 Y111.921 E0.01295
G1 X117.394 Y109.954 E0.05022
G1 X117.901 Y109.954 E0.01295
G1 X117.901 Y112.059 E0.05375
G1 X120.475 Y115.056 F10800.000
;TYPE:Support material
;WIDTH:0.42
G1 F1200.000
G1 X120.475 Y109.989 E0.15886
G1 X119.721 Y109.989 E0.02365
G1 X119.721 Y114.886 E0.15354
G1 X118.967 Y114.886 E0.02365
G1 X118.967 Y109.989 E0.15354
G1 X118.421 Y109.989 E0.01712
G1 X118.421 Y112.263 E0.07130
G1 X118.213 Y112.263 E0.00653
G1 X118.213 Y114.886 E0.08224
G1 X117.458 Y114.886 E0.02365
G1 X117.458 Y112.263 E0.08224
G1 X116.704 Y112.263 E0.02365
G1 X116.704 Y114.886 E0.08224
G1 X115.950 Y114.886 E0.02365
G1 X115.950 Y112.263 E0.08224
G1 X115.196 Y112.263 E0.02365
G1 X115.196 Y114.886 E0.08224
G1 X114.442 Y114.886 E0.02365
G1 X114.442 Y112.263 E0.08224
G1 X113.688 Y112.263 E0.02365
G1 X113.688 Y114.886 E0.08224
G1 X112.933 Y114.886 E0.02365
G1 X112.933 Y112.263 E0.08224
G1 X112.179 Y112.263 E0.02365
G1 X112.179 Y114.886 E0.08224
G1 X111.425 Y114.886 E0.02365
G1 X111.425 Y114.738 E0.00466
G1 X110.671 Y114.738 E0.02365
G1 X110.671 Y114.886 E0.00466
G1 X109.917 Y114.886 E0.02365
G1 X109.917 Y114.738 E0.00466
G1 X109.163 Y114.738 E0.02365
G1 X109.163 Y115.056 E0.00998
G1 E-0.80000 F2100.000
G1 Z0.800 F10800.000
G1 X127.262 Y111.094
G1 Z0.200
G1 E0.80000 F2100.000
G1 F1200.000
G1 X127.262 Y121.807 E0.33592
G1 X128.017 Y121.807 E0.02365
G1 X128.017 Y111.263 E0.33060
G1 X128.771 Y111.263 E0.02365
G1 X128.771 Y121.807 E0.33060
M73 Q1 S32
G1 X129.525 Y121.807 E0.02365
G1 X129.525 Y111.263 E0.33060
M73 P1 R32
G1 X130.144 Y111.263 E0.01941
G1 X130.144 Y115.914 E0.14581
G1 X130.279 Y116.049 E0.00598
G1 X130.279 Y121.807 E0.18056
G1 X131.033 Y121.807 E0.02365
G1 X131.033 Y116.222 E0.17513
G1 X131.787 Y116.222 E0.02365
G1 X131.787 Y121.807 E0.17513
G1 X132.542 Y121.807 E0.02365
G1 X132.542 Y116.222 E0.17513
G1 X133.296 Y116.222 E0.02365
G1 X133.296 Y121.807 E0.17513
G1 X133.570 Y121.807 E0.00861
G1 X133.570 Y124.114 E0.07234
G1 X134.050 Y124.114 E0.01503
G1 X134.050 Y116.222 E0.24747
G1 X134.804 Y116.222 E0.02365
G1 X134.804 Y124.114 E0.24747
G1 X135.558 Y124.114 E0.02365
G1 X135.558 Y116.222 E0.24747
G1 X136.312 Y116.222 E0.02365
G1 X136.312 Y124.114 E0.24747
G1 X137.067 Y124.114 E0.02365
G1 X137.067 Y116.222 E0.24747
G1 X137.821 Y116.222 E0.02365
G1 X137.821 Y124.114 E0.24747
G1 X138.575 Y124.114 E0.02365
G1 X138.575 Y116.222 E0.24747
G1 X139.329 Y116.222 E0.02365
G1 X139.329 Y124.114 E0.24747
G1 X140.083 Y124.114 E0.02365
G1 X140.083 Y116.222 E0.24747
G1 X140.837 Y116.222 E0.02365
G1 X140.837 Y124.114 E0.24747
G1 X141.591 Y124.114 E0.02365
G1 X141.591 Y111.263 E0.40294
G1 X142.346 Y111.263 E0.02365
G1 X142.346 Y124.114 E0.40294
G1 X143.100 Y124.114 E0.02365
G1 X143.100 Y85.886 E1.19864
G1 X143.854 Y85.886 E0.02365
G1 X143.854 Y124.114 E1.19864
G1 X144.608 Y124.114 E0.02365
G1 X144.608 Y85.886 E1.19864
G1 X145.362 Y85.886 E0.02365
G1 X145.362 Y124.114 E1.19864
G1 X146.116 Y124.114 E0.02365
G1 X146.116 Y85.886 E1.19864
G1 X146.871 Y85.886 E0.02365
G1 X146.871 Y124.114 E1.19864
M73 P2 R32
M73 Q2 S32
G1 X147.625 Y124.114 E0.02365
G1 X147.625 Y85.886 E1.19864
M73 P2 R31
G1 X148.379 Y85.886 E0.02365
G1 X148.379 Y124.114 E1.19864
G1 X149.133 Y124.114 E0.02365
G1 X149.133 Y85.886 E1.19864
G1 X149.887 Y85.886 E0.02365
G1 X149.887 Y124.114 E1.19864
G1 X150.641 Y124.114 E0.02365
G1 X150.641 Y85.886 E1.19864
G1 X151.396 Y85.886 E0.02365
G1 X151.396 Y124.114 E1.19864
M73 Q2 S31
G1 X152.150 Y124.114 E0.02365
G1 X152.150 Y85.886 E1.19864
G1 X152.904 Y85.886 E0.02365
G1 X152.904 Y124.284 E1.20396
G1 E-0.80000 F2100.000
G1 Z0.800 F10800.000
G1 X142.346 Y98.906
G1 Z0.200
G1 E0.80000 F2100.000
G1 F1200.000
G1 X142.346 Y85.886 E0.40825
G1 X141.591 Y85.886 E0.02365
G1 X141.591 Y98.737 E0.40294
G1 X141.491 Y98.737 E0.00314
G1 X141.491 Y94.086 E0.14581
G1 X141.183 Y93.778 E0.01366
G1 X140.837 Y93.778 E0.01084
G1 X140.837 Y85.886 E0.24747
M73 Q3 S31
G1 X140.083 Y85.886 E0.02365
G1 X140.083 Y93.778 E0.24747
M73 P3 R31
G1 X139.329 Y93.778 E0.02365
G1 X139.329 Y85.886 E0.24747
G1 X138.575 Y85.886 E0.02365
G1 X138.575 Y93.778 E0.24747
G1 X137.821 Y93.778 E0.02365
G1 X137.821 Y85.886 E0.24747
G1 X137.067 Y85.886 E0.02365
G1 X137.067 Y93.778 E0.24747
G1 X136.312 Y93.778 E0.02365
G1 X136.312 Y85.886 E0.24747
G1 X135.558 Y85.886 E0.02365
G1 X135.558 Y93.778 E0.24747
G1 X134.804 Y93.778 E0.02365
G1 X134.804 Y85.886 E0.24747
G1 X134.050 Y85.886 E0.02365
G1 X134.050 Y93.778 E0.24747
G1 X133.296 Y93.778 E0.02365
G1 X133.296 Y88.193 E0.17513
G1 X132.542 Y88.193 E0.02365
G1 X132.542 Y93.778 E0.17513
G1 X131.787 Y93.778 E0.02365
G1 X131.787 Y88.193 E0.17513
G1 X131.033 Y88.193 E0.02365
G1 X131.033 Y93.778 E0.17513
G1 X130.452 Y93.778 E0.01822
G1 X130.279 Y93.951 E0.00768
G1 X130.279 Y88.193 E0.18056
G1 X129.525 Y88.193 E0.02365
G1 X129.525 Y98.737 E0.33060
G1 X128.771 Y98.737 E0.02365
G1 X128.771 Y88.193 E0.33060
G1 X128.017 Y88.193 E0.02365
G1 X128.017 Y98.737 E0.33060
G1 X127.262 Y98.737 E0.02365
G1 X127.262 Y88.023 E0.33592
G1 E-0.80000 F2100.000
G1 Z0.800 F10800.000
G1 X140.204 Y115.109
G1 Z0.200
G1 E0.80000 F2100.000
;TYPE:Perimeter
G1 F1200.000
G1 X131.257 Y115.109 E0.28051
G1 X131.257 Y108.876 E0.19542
G1 X110.752 Y108.876 E0.64294
G1 X110.752 Y113.624 E0.14888
G1 X100.457 Y113.624 E0.32280
G1 X100.457 Y96.376 E0.54083
G1 X110.752 Y96.376 E0.32280
G1 X110.752 Y101.124 E0.14888
G1 X131.257 Y101.124 E0.64294
G1 X131.257 Y94.891 E0.19542
G1 X140.378 Y94.891 E0.28598
G1 X140.378 Y115.109 E0.63390
G1 X140.264 Y115.109 E0.00358
G1 X140.264 Y115.486 F10800.000
;TYPE:External perimeter
G1 F1200.000
G1 X130.880 Y115.486 E0.29422
G1 X130.880 Y109.253 E0.19542
G1 X111.129 Y109.253 E0.61929
G1 X111.129 Y114.002 E0.14888
G1 X100.079 Y114.002 E0.34644
G1 X100.079 Y95.998 E0.56448
G1 X111.129 Y95.998 E0.34644
M73 P4 R31
M73 Q4 S31
G1 X111.129 Y100.747 E0.14888
G1 X130.880 Y100.747 E0.61929
G1 X130.880 Y94.514 E0.19542
G1 X140.755 Y94.514 E0.30962
G1 X140.755 Y115.486 E0.65755
G1 X140.324 Y115.486 E0.01352
G1 X139.919 Y115.283 F10800.000
G1 E-0.80000 F2100.000
G1 Z0.800 F10800.000
G1 X137.571 Y114.996
G1 Z0.200
G1 E0.80000 F2100.000
;TYPE:Solid infill
;WIDTH:0.42098
G1 F1200.000
G1 X131.540 Y108.965 E0.26811
G1 X131.540 Y109.499 E0.01681
G1 X136.867 Y114.826 E0.23680
G1 X136.332 Y114.826 E0.01681
G1 X131.540 Y110.034 E0.21303
G1 X131.540 Y110.569 E0.01681
G1 X135.797 Y114.826 E0.18926
G1 X135.263 Y114.826 E0.01681
G1 X131.540 Y111.103 E0.16549
G1 X131.540 Y111.638 E0.01681
G1 X134.728 Y114.826 E0.14172
G1 X134.193 Y114.826 E0.01681
G1 X131.540 Y112.173 E0.11795
G1 X131.540 Y112.707 E0.01681
G1 X133.659 Y114.826 E0.09418
G1 X133.124 Y114.826 E0.01681
G1 X131.540 Y113.242 E0.07041
G1 X131.540 Y113.777 E0.01681
G1 X132.589 Y114.826 E0.04664
G1 X132.055 Y114.826 E0.01681
G1 X131.370 Y114.142 E0.03042
G1 E-0.80000 F2100.000
G1 Z0.800 F10800.000
G1 X140.265 Y95.769
G1 Z0.200
G1 E0.80000 F2100.000
G1 F1200.000
G1 X139.670 Y95.174 E0.02644
G1 X139.136 Y95.174 E0.01681
G1 X140.095 Y96.134 E0.04266
G1 X140.095 Y96.668 E0.01681
G1 X138.601 Y95.174 E0.06643
G1 X138.066 Y95.174 E0.01681
G1 X140.095 Y97.203 E0.09020
G1 X140.095 Y97.738 E0.01681
G1 X137.532 Y95.174 E0.11397
G1 X136.997 Y95.174 E0.01681
G1 X140.095 Y98.272 E0.13774
G1 X140.095 Y98.807 E0.01681
G1 X136.462 Y95.174 E0.16151
G1 X135.928 Y95.174 E0.01681
G1 X140.095 Y99.342 E0.18528
G1 X140.095 Y99.876 E0.01681
G1 X135.393 Y95.174 E0.20905
G1 X134.858 Y95.174 E0.01681
G1 X140.095 Y100.411 E0.23282
G1 X140.095 Y100.946 E0.01681
G1 X134.324 Y95.174 E0.25659
G1 X133.789 Y95.174 E0.01681
G1 X140.095 Y101.480 E0.28036
G1 X140.095 Y102.015 E0.01681
G1 X133.254 Y95.174 E0.30412
G1 X132.720 Y95.174 E0.01681
G1 X140.095 Y102.550 E0.32789
G1 X140.095 Y103.084 E0.01681
G1 X132.185 Y95.174 E0.35166
G1 X131.650 Y95.174 E0.01681
G1 X140.095 Y103.619 E0.37543
G1 X140.095 Y104.154 E0.01681
G1 X131.540 Y95.598 E0.38034
G1 X131.540 Y96.133 E0.01681
G1 X140.095 Y104.688 E0.38034
G1 X140.095 Y105.223 E0.01681
G1 X131.540 Y96.668 E0.38034
G1 X131.540 Y97.202 E0.01681
G1 X140.095 Y105.758 E0.38034
G1 X140.095 Y106.292 E0.01681
G1 X131.540 Y97.737 E0.38034
G1 X131.540 Y98.272 E0.01681
G1 X140.095 Y106.827 E0.38034
G1 X140.095 Y107.362 E0.01681
G1 X131.540 Y98.806 E0.38034
G1 X131.540 Y99.341 E0.01681
G1 X140.095 Y107.896 E0.38034
G1 X140.095 Y108.431 E0.01681
G1 X131.540 Y99.876 E0.38034
G1 X131.540 Y100.410 E0.01681
G1 X140.095 Y108.966 E0.38034
G1 X140.095 Y109.500 E0.01681
G1 X131.540 Y100.945 E0.38034
M73 P5 R31
M73 Q5 S31
G1 X131.540 Y101.407 E0.01451
G1 X131.467 Y101.407 E0.00230
G1 X140.095 Y110.035 E0.38358
G1 X140.095 Y110.569 E0.01681
G1 X130.932 Y101.407 E0.40735
G1 X130.398 Y101.407 E0.01681
G1 X140.095 Y111.104 E0.43112
G1 X140.095 Y111.639 E0.01681
G1 X129.863 Y101.407 E0.45489
G1 X129.328 Y101.407 E0.01681
G1 X140.095 Y112.173 E0.47866
M73 P5 R30
G1 X140.095 Y112.708 E0.01681
G1 X128.794 Y101.407 E0.50243
G1 X128.259 Y101.407 E0.01681
G1 X140.095 Y113.243 E0.52620
G1 X140.095 Y113.777 E0.01681
G1 X127.724 Y101.407 E0.54997
G1 X127.190 Y101.407 E0.01681
G1 X140.095 Y114.312 E0.57374
G1 X140.095 Y114.826 E0.01615
G1 X140.074 Y114.826 E0.00065
G1 X126.655 Y101.407 E0.59658
G1 X126.120 Y101.407 E0.01681
G1 X139.540 Y114.826 E0.59658
G1 X139.005 Y114.826 E0.01681
G1 X125.586 Y101.407 E0.59658
G1 X125.051 Y101.407 E0.01681
G1 X138.470 Y114.826 E0.59658
G1 X137.936 Y114.826 E0.01681
G1 X124.517 Y101.407 E0.59658
G1 X123.982 Y101.407 E0.01681
G1 X131.169 Y108.593 E0.31950
M73 Q5 S30
G1 X130.634 Y108.593 E0.01681
G1 X123.447 Y101.407 E0.31950
G1 X122.913 Y101.407 E0.01681
G1 X130.099 Y108.593 E0.31950
G1 X129.565 Y108.593 E0.01681
G1 X122.378 Y101.407 E0.31950
G1 X121.843 Y101.407 E0.01681
G1 X129.030 Y108.593 E0.31950
G1 X128.495 Y108.593 E0.01681
G1 X121.309 Y101.407 E0.31950
G1 X120.774 Y101.407 E0.01681
G1 X127.961 Y108.593 E0.31950
G1 X127.426 Y108.593 E0.01681
G1 X120.239 Y101.407 E0.31950
G1 X119.705 Y101.407 E0.01681
G1 X126.891 Y108.593 E0.31950
G1 X126.357 Y108.593 E0.01681
G1 X119.170 Y101.407 E0.31950
G1 X118.635 Y101.407 E0.01681
G1 X125.822 Y108.593 E0.31950
G1 X125.287 Y108.593 E0.01681
G1 X118.101 Y101.407 E0.31950
G1 X117.566 Y101.407 E0.01681
G1 X124.753 Y108.593 E0.31950
M73 P6 R30
M73 Q6 S30
G1 X124.218 Y108.593 E0.01681
G1 X117.031 Y101.407 E0.31950
G1 X116.497 Y101.407 E0.01681
G1 X123.683 Y108.593 E0.31950
G1 X123.149 Y108.593 E0.01681
G1 X115.962 Y101.407 E0.31950
G1 X115.427 Y101.407 E0.01681
G1 X122.614 Y108.593 E0.31950
G1 X122.079 Y108.593 E0.01681
G1 X114.893 Y101.407 E0.31950
G1 X114.358 Y101.407 E0.01681
G1 X121.545 Y108.593 E0.31950
G1 X121.010 Y108.593 E0.01681
G1 X113.823 Y101.407 E0.31950
G1 X113.289 Y101.407 E0.01681
G1 X120.476 Y108.593 E0.31950
G1 X119.941 Y108.593 E0.01681
G1 X112.754 Y101.407 E0.31950
G1 X112.219 Y101.407 E0.01681
G1 X119.406 Y108.593 E0.31950
G1 X118.872 Y108.593 E0.01681
G1 X111.685 Y101.407 E0.31950
G1 X111.150 Y101.407 E0.01681
G1 X118.337 Y108.593 E0.31950
G1 X117.802 Y108.593 E0.01681
G1 X105.867 Y96.658 E0.53060
G1 X105.332 Y96.658 E0.01681
G1 X117.268 Y108.593 E0.53060
G1 X116.733 Y108.593 E0.01681
G1 X104.798 Y96.658 E0.53060
G1 X104.263 Y96.658 E0.01681
G1 X116.198 Y108.593 E0.53060
G1 X115.664 Y108.593 E0.01681
G1 X103.729 Y96.658 E0.53060
G1 X103.194 Y96.658 E0.01681
G1 X115.129 Y108.593 E0.53060
G1 X114.594 Y108.593 E0.01681
G1 X102.659 Y96.658 E0.53060
G1 X102.125 Y96.658 E0.01681
G1 X114.060 Y108.593 E0.53060
G1 X113.525 Y108.593 E0.01681
G1 X101.590 Y96.658 E0.53060
G1 X101.055 Y96.658 E0.01681
G1 X112.990 Y108.593 E0.53060
G1 X112.456 Y108.593 E0.01681
G1 X100.739 Y96.877 E0.52087
G1 X100.739 Y97.412 E0.01681
G1 X111.921 Y108.593 E0.49710
G1 X111.386 Y108.593 E0.01681
G1 X100.739 Y97.946 E0.47333
G1 X100.739 Y98.481 E0.01681
G1 X110.852 Y108.593 E0.44957
G1 X110.469 Y108.593 E0.01203
G1 X110.469 Y108.745 E0.00477
G1 X100.739 Y99.016 E0.43255
M73 P7 R30
