; generated by Slic3r Prusa Edition 1.42.0-alpha3+ on 2019-03-20 at 17:03:05

; 

; external perimeters extrusion width = 0.40mm
; perimeters extrusion width = 0.40mm
; infill extrusion width = 0.40mm
; solid infill extrusion width = 0.40mm
; top infill extrusion width = 0.40mm
; first layer extrusion width = 0.40mm

M201 X9000 Y9000 Z500 E10000 ; sets maximum accelerations, mm/sec^2
M203 X500 Y500 Z12 E120 ; sets maximum feedrates, mm/sec
M204 P2000 R1500 T2000 ; sets acceleration (P, T) and retract acceleration (R), mm/sec^2
M205 X10.00 Y10.00 Z0.20 E2.50 ; sets the jerk limits, mm/sec
M205 S0 T0 ; sets the minimum extruding and travel feed rate, mm/sec
M107
M115 U3.1.0 ; tell printer latest fw version
M83  ; extruder relative mode
M204 S2000 T1500 ; MK2 firmware only supports the old M204 format
M104 S230 ; set extruder temp
M140 S60 ; set bed temp
M190 S60 ; wait for bed temp
M109 S230 ; wait for extruder temp
G28 W ; home all without mesh bed level
G80 ; mesh bed leveling
G1 Y-3.0 F1000.0 ; go outside print area
G92 E0.0
G1 X60.0 E9.0  F1000.0 ; intro line
G1 X100.0 E12.5  F1000.0 ; intro line
G92 E0.0
M900 K30; Filament gcode
G21 ; set units to millimeters
G90 ; use absolute coordinates
M83 ; use relative distances for extrusion
;BEFORE_LAYER_CHANGE
G92 E0.0
;0.2


G1 E-0.80000 F2100.00000
G1 Z0.600 F10800.000
;AFTER_LAYER_CHANGE
;0.2
; PURGING FINISHED
G1 X129.289 Y93.215
G1 Z0.200
G1 E0.80000 F2100.00000
M204 S1000
G1 F1035
G1 X130.319 Y93.204 E0.03056
G1 X130.319 Y116.789 E0.70025
G1 X129.289 Y116.795 E0.03056
G1 X129.289 Y93.275 E0.69834
G1 X128.932 Y92.863 F10800.000
G1 F1035
G1 X130.133 Y92.845 E0.03567
G1 X130.676 Y92.863 E0.01611
G1 X130.676 Y117.137 E0.72074
G1 X129.803 Y117.159 E0.02593
G1 X128.932 Y117.137 E0.02586
G1 X128.932 Y92.923 E0.71894
G1 X129.283 Y93.056 F10800.000
G1 F8640
G1 X130.133 Y92.845 E-0.27792
G1 X130.676 Y92.863 E-0.12532
G1 X130.676 Y94.408 E-0.35675
G1 E-0.04000 F2100.00000
G1 Z0.800 F10800.000
G1 X130.211 Y94.035
G1 Z0.200
G1 E0.80000 F2100.00000
G1 F1035
G1 X129.655 Y93.479 E0.02337
G1 X129.557 Y93.480 E0.00293
G1 X129.557 Y93.886 E0.01207
G1 X130.051 Y94.380 E0.02075
G1 X130.051 Y94.885 E0.01502
G1 X129.557 Y94.391 E0.02075
G1 X129.557 Y94.897 E0.01502
G1 X130.051 Y95.391 E0.02075
G1 X130.051 Y95.896 E0.01502
G1 X129.557 Y95.402 E0.02075
G1 X129.557 Y95.908 E0.01502
G1 X130.051 Y96.401 E0.02075
G1 X130.051 Y96.907 E0.01502
G1 X129.557 Y96.413 E0.02075
G1 X129.557 Y96.919 E0.01502
G1 X130.051 Y97.412 E0.02075
G1 X130.051 Y97.918 E0.01502
G1 X129.557 Y97.424 E0.02075
G1 X129.557 Y97.929 E0.01502
G1 X130.051 Y98.423 E0.02075
G1 X130.051 Y98.929 E0.01502
G1 X129.557 Y98.435 E0.02075
G1 X129.557 Y98.940 E0.01502
G1 X130.051 Y99.434 E0.02075
G1 X130.051 Y99.940 E0.01502
G1 X129.557 Y99.446 E0.02075
G1 X129.557 Y99.951 E0.01502
G1 X130.051 Y100.445 E0.02075
G1 X130.051 Y100.951 E0.01502
G1 X129.557 Y100.457 E0.02075
G1 X129.557 Y100.962 E0.01502
G1 X130.051 Y101.456 E0.02075
G1 X130.051 Y101.961 E0.01502
G1 X129.557 Y101.468 E0.02075
G1 X129.557 Y101.973 E0.01502
G1 X130.051 Y102.467 E0.02075
G1 X130.051 Y102.972 E0.01502
G1 X129.557 Y102.479 E0.02075
G1 X129.557 Y102.984 E0.01502
G1 X130.051 Y103.478 E0.02075
G1 X130.051 Y103.983 E0.01502
G1 X129.557 Y103.489 E0.02075
G1 X129.557 Y103.995 E0.01502
G1 X130.051 Y104.489 E0.02075
G1 X130.051 Y104.994 E0.01502
G1 X129.557 Y104.500 E0.02075
G1 X129.557 Y105.006 E0.01502
G1 X130.051 Y105.500 E0.02075
G1 X130.051 Y106.005 E0.01502
G1 X129.557 Y105.511 E0.02075
G1 X129.557 Y106.017 E0.01502
G1 X130.051 Y106.510 E0.02075
G1 X130.051 Y107.016 E0.01502
G1 X129.557 Y106.522 E0.02075
G1 X129.557 Y107.028 E0.01502
G1 X130.051 Y107.521 E0.02075
G1 X130.051 Y108.027 E0.01502
G1 X129.557 Y107.533 E0.02075
G1 X129.557 Y108.038 E0.01502
G1 X130.051 Y108.532 E0.02075
G1 X130.051 Y109.038 E0.01502
G1 X129.557 Y108.544 E0.02075
G1 X129.557 Y109.049 E0.01502
G1 X130.051 Y109.543 E0.02075
G1 X130.051 Y110.049 E0.01502
G1 X129.557 Y109.555 E0.02075
G1 X129.557 Y110.060 E0.01502
G1 X130.051 Y110.554 E0.02075
G1 X130.051 Y111.059 E0.01502
G1 X129.557 Y110.566 E0.02075
G1 X129.557 Y111.071 E0.01502
G1 X130.051 Y111.565 E0.02075
G1 X130.051 Y112.070 E0.01502
G1 X129.557 Y111.577 E0.02075
G1 X129.557 Y112.082 E0.01502
G1 X130.051 Y112.576 E0.02075
G1 X130.051 Y113.081 E0.01502
G1 X129.557 Y112.587 E0.02075
G1 X129.557 Y113.093 E0.01502
G1 X130.051 Y113.587 E0.02075
G1 X130.051 Y114.092 E0.01502
G1 X129.557 Y113.598 E0.02075
G1 X129.557 Y114.104 E0.01502
G1 X130.051 Y114.598 E0.02075
G1 X130.051 Y115.103 E0.01502
G1 X129.557 Y114.609 E0.02075
G1 X129.557 Y115.115 E0.01502
G1 X130.051 Y115.608 E0.02075
G1 X130.051 Y116.114 E0.01502
G1 X129.557 Y115.620 E0.02075
G1 X129.557 Y116.126 E0.01502
G1 X130.114 Y116.683 E0.02343
G1 F8640
G1 X129.557 Y116.126 E-0.18201
G1 X129.557 Y115.620 E-0.11671
G1 X130.051 Y116.114 E-0.16124
G1 X130.051 Y115.608 E-0.11671
G1 X129.557 Y115.115 E-0.16124
G1 X129.557 Y115.019 E-0.02209
G1 E-0.04000 F2100.00000
G1 Z0.800 F10800.000
G1 X119.681 Y93.215
G1 Z0.200
G1 E0.80000 F2100.00000
G1 F1035
G1 X120.711 Y93.204 E0.03056
G1 X120.711 Y116.789 E0.70025
G1 X119.681 Y116.795 E0.03056
G1 X119.681 Y93.275 E0.69834
G1 X119.324 Y92.863 F10800.000
G1 F1035
G1 X120.525 Y92.845 E0.03567
G1 X121.068 Y92.863 E0.01611
G1 X121.068 Y117.137 E0.72074
G1 X120.195 Y117.159 E0.02593
G1 X119.324 Y117.137 E0.02586
G1 X119.324 Y92.923 E0.71894
G1 X119.675 Y93.056 F10800.000
G1 F8640
G1 X120.525 Y92.845 E-0.27792
G1 X121.068 Y92.863 E-0.12532
G1 X121.068 Y94.408 E-0.35675
G1 E-0.04000 F2100.00000
G1 Z0.800 F10800.000
G1 X120.604 Y94.035
G1 Z0.200
G1 E0.80000 F2100.00000
G1 F1035
G1 X120.048 Y93.479 E0.02337
G1 X119.949 Y93.480 E0.00293
G1 X119.949 Y93.886 E0.01207
G1 X120.443 Y94.380 E0.02075
G1 X120.443 Y94.885 E0.01502
G1 X119.949 Y94.391 E0.02075
G1 X119.949 Y94.897 E0.01502
G1 X120.443 Y95.391 E0.02075
G1 X120.443 Y95.896 E0.01502
G1 X119.949 Y95.402 E0.02075
G1 X119.949 Y95.908 E0.01502
G1 X120.443 Y96.401 E0.02075
G1 X120.443 Y96.907 E0.01502
G1 X119.949 Y96.413 E0.02075
G1 X119.949 Y96.919 E0.01502
G1 X120.443 Y97.412 E0.02075
G1 X120.443 Y97.918 E0.01502
G1 X119.949 Y97.424 E0.02075
G1 X119.949 Y97.929 E0.01502
G1 X120.443 Y98.423 E0.02075
G1 X120.443 Y98.929 E0.01502
G1 X119.949 Y98.435 E0.02075
G1 X119.949 Y98.940 E0.01502
G1 X120.443 Y99.434 E0.02075
G1 X120.443 Y99.940 E0.01502
G1 X119.949 Y99.446 E0.02075
G1 X119.949 Y99.951 E0.01502
G1 X120.443 Y100.445 E0.02075
G1 X120.443 Y100.951 E0.01502
G1 X119.949 Y100.457 E0.02075
G1 X119.949 Y100.962 E0.01502
G1 X120.443 Y101.456 E0.02075
G1 X120.443 Y101.961 E0.01502
G1 X119.949 Y101.468 E0.02075
G1 X119.949 Y101.973 E0.01502
G1 X120.443 Y102.467 E0.02075
G1 X120.443 Y102.972 E0.01502
G1 X119.949 Y102.479 E0.02075
G1 X119.949 Y102.984 E0.01502
G1 X120.443 Y103.478 E0.02075
G1 X120.443 Y103.983 E0.01502
G1 X119.949 Y103.489 E0.02075
G1 X119.949 Y103.995 E0.01502
G1 X120.443 Y104.489 E0.02075
G1 X120.443 Y104.994 E0.01502
G1 X119.949 Y104.500 E0.02075
G1 X119.949 Y105.006 E0.01502
G1 X120.443 Y105.500 E0.02075
G1 X120.443 Y106.005 E0.01502
G1 X119.949 Y105.511 E0.02075
G1 X119.949 Y106.017 E0.01502
G1 X120.443 Y106.510 E0.02075
G1 X120.443 Y107.016 E0.01502
G1 X119.949 Y106.522 E0.02075
G1 X119.949 Y107.028 E0.01502
G1 X120.443 Y107.521 E0.02075
G1 X120.443 Y108.027 E0.01502
G1 X119.949 Y107.533 E0.02075
G1 X119.949 Y108.038 E0.01502
G1 X120.443 Y108.532 E0.02075
G1 X120.443 Y109.038 E0.01502
G1 X119.949 Y108.544 E0.02075
G1 X119.949 Y109.049 E0.01502
G1 X120.443 Y109.543 E0.02075
G1 X120.443 Y110.049 E0.01502
G1 X119.949 Y109.555 E0.02075
G1 X119.949 Y110.060 E0.01502
G1 X120.443 Y110.554 E0.02075
G1 X120.443 Y111.059 E0.01502
G1 X119.949 Y110.566 E0.02075
G1 X119.949 Y111.071 E0.01502
G1 X120.443 Y111.565 E0.02075
G1 X120.443 Y112.070 E0.01502
G1 X119.949 Y111.577 E0.02075
G1 X119.949 Y112.082 E0.01502
G1 X120.443 Y112.576 E0.02075
G1 X120.443 Y113.081 E0.01502
G1 X119.949 Y112.587 E0.02075
G1 X119.949 Y113.093 E0.01502
G1 X120.443 Y113.587 E0.02075
G1 X120.443 Y114.092 E0.01502
G1 X119.949 Y113.598 E0.02075
G1 X119.949 Y114.104 E0.01502
G1 X120.443 Y114.598 E0.02075
G1 X120.443 Y115.103 E0.01502
G1 X119.949 Y114.609 E0.02075
G1 X119.949 Y115.115 E0.01502
G1 X120.443 Y115.608 E0.02075
G1 X120.443 Y116.114 E0.01502
G1 X119.949 Y115.620 E0.02075
G1 X119.949 Y116.126 E0.01502
G1 X120.507 Y116.683 E0.02343
M106 S255
;BEFORE_LAYER_CHANGE
G92 E0.0
;0.4


G1 F8640
G1 X119.949 Y116.126 E-0.18201
G1 X119.949 Y115.620 E-0.11671
G1 X120.443 Y116.114 E-0.16124
G1 X120.443 Y115.608 E-0.11671
G1 X119.949 Y115.115 E-0.16124
G1 X119.949 Y115.019 E-0.02209
G1 E-0.04000 F2100.00000
G1 Z0.800 F10800.000
;AFTER_LAYER_CHANGE
;0.4
; PURGING FINISHED
G1 X129.283 Y93.036
G1 Z0.400
G1 E0.80000 F2100.00000
M204 S800
G1 F1342
G1 X129.359 Y93.001 E0.00247
G1 X129.527 Y93.002 E0.00499
G1 X129.607 Y92.976 E0.00252
G1 X130.403 Y92.994 E0.02364
G1 X130.458 Y93.035 E0.00202
G1 X130.458 Y116.963 E0.71047
G1 X130.326 Y116.963 E0.00392
G1 X130.248 Y116.998 E0.00254
G1 X130.080 Y116.999 E0.00500
G1 X129.995 Y117.026 E0.00265
G1 X129.622 Y117.034 E0.01108
G1 X129.206 Y117.007 E0.01237
G1 X129.150 Y116.965 E0.00207
G1 X129.150 Y93.036 E0.71049
G1 X129.223 Y93.036 E0.00217
M204 S1000
G1 X128.793 Y92.857 F10800.000
M204 S800
G1 F1342
G1 X129.029 Y92.679 E0.00878
G1 X129.205 Y92.679 E0.00524
G1 X129.281 Y92.644 E0.00247
G1 X129.471 Y92.644 E0.00564
G1 X129.552 Y92.619 E0.00251
G1 X130.082 Y92.619 E0.01575
G1 X130.514 Y92.642 E0.01285
G1 X130.815 Y92.857 E0.01097
G1 X130.815 Y117.143 E0.72109
G1 X130.579 Y117.321 E0.00876
G1 X130.403 Y117.320 E0.00524
G1 X130.327 Y117.355 E0.00249
G1 X130.136 Y117.356 E0.00565
G1 X130.054 Y117.382 E0.00256
G1 X129.614 Y117.391 E0.01307
G1 X129.095 Y117.358 E0.01545
G1 X128.793 Y117.143 E0.01100
G1 X128.793 Y92.917 E0.71931
M204 S1000
G1 X129.087 Y92.883 F10800.000
G1 F8640
G1 X129.029 Y92.679 E-0.07740
G1 X129.205 Y92.679 E-0.04079
G1 X129.281 Y92.644 E-0.01917
G1 X129.471 Y92.644 E-0.04387
G1 X129.552 Y92.619 E-0.01956
G1 X130.082 Y92.619 E-0.12245
G1 X130.514 Y92.642 E-0.09991
G1 X130.815 Y92.857 E-0.08534
G1 X130.815 Y93.946 E-0.25151
G1 E-0.04000 F2100.00000
G1 Z1.000 F10800.000
G1 X130.060 Y93.093
G1 Z0.400
G1 E0.80000 F2100.00000
M204 S2000
G1 F1342
G1 X129.418 Y93.735 E0.02705
G1 X129.418 Y94.242 E0.01509
G1 X130.190 Y93.470 E0.03252
G1 X130.190 Y93.976 E0.01509
G1 X129.418 Y94.748 E0.03252
G1 X129.418 Y95.255 E0.01509
G1 X130.190 Y94.483 E0.03252
G1 X130.190 Y94.989 E0.01509
G1 X129.418 Y95.762 E0.03252
G1 X129.418 Y96.268 E0.01509
G1 X130.190 Y95.496 E0.03252
G1 X130.190 Y96.002 E0.01509
G1 X129.418 Y96.775 E0.03252
G1 X129.418 Y97.281 E0.01509
G1 X130.190 Y96.509 E0.03252
G1 X130.190 Y97.015 E0.01509
G1 X129.418 Y97.788 E0.03252
G1 X129.418 Y98.294 E0.01509
G1 X130.190 Y97.522 E0.03252
G1 X130.190 Y98.029 E0.01509
G1 X129.418 Y98.801 E0.03252
G1 X129.418 Y99.307 E0.01509
G1 X130.190 Y98.535 E0.03252
G1 X130.190 Y99.042 E0.01509
G1 X129.418 Y99.814 E0.03252
G1 X129.418 Y100.320 E0.01509
G1 X130.190 Y99.548 E0.03252
G1 X130.190 Y100.055 E0.01509
G1 X129.418 Y100.827 E0.03252
G1 X129.418 Y101.333 E0.01509
G1 X130.190 Y100.561 E0.03252
G1 X130.190 Y101.068 E0.01509
G1 X129.418 Y101.840 E0.03252
G1 X129.418 Y102.346 E0.01509
G1 X130.190 Y101.574 E0.03252
G1 X130.190 Y102.081 E0.01509
G1 X129.418 Y102.853 E0.03252
G1 X129.418 Y103.359 E0.01509
G1 X130.190 Y102.587 E0.03252
G1 X130.190 Y103.094 E0.01509
G1 X129.418 Y103.866 E0.03252
G1 X129.418 Y104.372 E0.01509
G1 X130.190 Y103.600 E0.03252
G1 X130.190 Y104.107 E0.01509
G1 X129.418 Y104.879 E0.03252
G1 X129.418 Y105.386 E0.01509
G1 X130.190 Y104.613 E0.03252
G1 X130.190 Y105.120 E0.01509
G1 X129.418 Y105.892 E0.03252
G1 X129.418 Y106.399 E0.01509
G1 X130.190 Y105.626 E0.03252
G1 X130.190 Y106.133 E0.01509
G1 X129.418 Y106.905 E0.03252
G1 X129.418 Y107.412 E0.01509
G1 X130.190 Y106.640 E0.03252
G1 X130.190 Y107.146 E0.01509
G1 X129.418 Y107.918 E0.03252
G1 X129.418 Y108.425 E0.01509
G1 X130.190 Y107.653 E0.03252
G1 X130.190 Y108.159 E0.01509
G1 X129.418 Y108.931 E0.03252
G1 X129.418 Y109.438 E0.01509
G1 X130.190 Y108.666 E0.03252
G1 X130.190 Y109.172 E0.01509
G1 X129.418 Y109.944 E0.03252
G1 X129.418 Y110.451 E0.01509
G1 X130.190 Y109.679 E0.03252
G1 X130.190 Y110.185 E0.01509
G1 X129.418 Y110.957 E0.03252
G1 X129.418 Y111.464 E0.01509
G1 X130.190 Y110.692 E0.03252
G1 X130.190 Y111.198 E0.01509
G1 X129.418 Y111.970 E0.03252
G1 X129.418 Y112.477 E0.01509
G1 X130.190 Y111.705 E0.03252
G1 X130.190 Y112.211 E0.01509
G1 X129.418 Y112.983 E0.03252
G1 X129.418 Y113.490 E0.01509
G1 X130.190 Y112.718 E0.03252
G1 X130.190 Y113.224 E0.01509
G1 X129.418 Y113.996 E0.03252
G1 X129.418 Y114.503 E0.01509
G1 X130.190 Y113.731 E0.03252
G1 X130.190 Y114.237 E0.01509
G1 X129.418 Y115.010 E0.03252
G1 X129.418 Y115.516 E0.01509
G1 X130.190 Y114.744 E0.03252
G1 X130.190 Y115.250 E0.01509
G1 X129.418 Y116.023 E0.03252
G1 X129.418 Y116.529 E0.01509
G1 X130.190 Y115.757 E0.03252
G1 X130.190 Y116.264 E0.01509
G1 X129.533 Y116.921 E0.02768
M204 S1000
G1 F8640
G1 X130.190 Y116.264 E-0.21462
G1 X130.190 Y115.757 E-0.11696
G1 X129.418 Y116.529 E-0.25214
G1 X129.418 Y116.023 E-0.11696
G1 X129.599 Y115.841 E-0.05932
G1 E-0.04000 F2100.00000
G1 Z1.000 F10800.000
G1 X119.675 Y93.036
G1 Z0.400
G1 E0.80000 F2100.00000
M204 S800
G1 F1342
G1 X119.751 Y93.001 E0.00247
G1 X119.919 Y93.002 E0.00499
G1 X120.000 Y92.976 E0.00252
G1 X120.796 Y92.994 E0.02364
G1 X120.850 Y93.035 E0.00202
G1 X120.850 Y116.963 E0.71047
G1 X120.718 Y116.963 E0.00392
G1 X120.640 Y116.998 E0.00254
G1 X120.472 Y116.999 E0.00500
G1 X120.387 Y117.026 E0.00265
G1 X120.014 Y117.034 E0.01108
G1 X119.598 Y117.007 E0.01237
G1 X119.542 Y116.965 E0.00207
G1 X119.542 Y93.036 E0.71049
G1 X119.615 Y93.036 E0.00217
M204 S1000
G1 X119.185 Y92.857 F10800.000
M204 S800
G1 F1342
G1 X119.421 Y92.679 E0.00878
G1 X119.598 Y92.679 E0.00524
G1 X119.673 Y92.644 E0.00247
G1 X119.863 Y92.644 E0.00564
G1 X119.944 Y92.619 E0.00251
G1 X120.474 Y92.619 E0.01575
G1 X120.906 Y92.642 E0.01285
G1 X121.207 Y92.857 E0.01097
G1 X121.207 Y117.143 E0.72109
G1 X120.972 Y117.321 E0.00876
G1 X120.795 Y117.320 E0.00524
G1 X120.719 Y117.355 E0.00249
G1 X120.529 Y117.356 E0.00565
G1 X120.446 Y117.382 E0.00256
G1 X120.006 Y117.391 E0.01307
G1 X119.487 Y117.358 E0.01545
G1 X119.185 Y117.143 E0.01100
G1 X119.185 Y92.917 E0.71931
M204 S1000
G1 X119.480 Y92.883 F10800.000
G1 F8640
G1 X119.421 Y92.679 E-0.07740
G1 X119.598 Y92.679 E-0.04079
G1 X119.673 Y92.644 E-0.01917
G1 X119.863 Y92.644 E-0.04387
G1 X119.944 Y92.619 E-0.01956
G1 X120.474 Y92.619 E-0.12245
G1 X120.906 Y92.642 E-0.09991
G1 X121.207 Y92.857 E-0.08534
G1 X121.207 Y93.946 E-0.25151
G1 E-0.04000 F2100.00000
G1 Z1.000 F10800.000
G1 X120.452 Y93.093
G1 Z0.400
G1 E0.80000 F2100.00000
M204 S2000
G1 F1342
G1 X119.810 Y93.735 E0.02705
G1 X119.810 Y94.242 E0.01509
G1 X120.582 Y93.470 E0.03252
G1 X120.582 Y93.976 E0.01509
G1 X119.810 Y94.748 E0.03252
G1 X119.810 Y95.255 E0.01509
G1 X120.582 Y94.483 E0.03252
G1 X120.582 Y94.989 E0.01509
G1 X119.810 Y95.762 E0.03252
G1 X119.810 Y96.268 E0.01509
G1 X120.582 Y95.496 E0.03252
G1 X120.582 Y96.002 E0.01509
G1 X119.810 Y96.775 E0.03252
G1 X119.810 Y97.281 E0.01509
G1 X120.582 Y96.509 E0.03252
G1 X120.582 Y97.015 E0.01509
G1 X119.810 Y97.788 E0.03252
G1 X119.810 Y98.294 E0.01509
G1 X120.582 Y97.522 E0.03252
G1 X120.582 Y98.029 E0.01509
G1 X119.810 Y98.801 E0.03252
G1 X119.810 Y99.307 E0.01509
G1 X120.582 Y98.535 E0.03252
G1 X120.582 Y99.042 E0.01509
G1 X119.810 Y99.814 E0.03252
G1 X119.810 Y100.320 E0.01509
G1 X120.582 Y99.548 E0.03252
G1 X120.582 Y100.055 E0.01509
G1 X119.810 Y100.827 E0.03252
G1 X119.810 Y101.333 E0.01509
G1 X120.582 Y100.561 E0.03252
G1 X120.582 Y101.068 E0.01509
G1 X119.810 Y101.840 E0.03252
G1 X119.810 Y102.346 E0.01509
G1 X120.582 Y101.574 E0.03252
G1 X120.582 Y102.081 E0.01509
G1 X119.810 Y102.853 E0.03252
G1 X119.810 Y103.359 E0.01509
G1 X120.582 Y102.587 E0.03252
G1 X120.582 Y103.094 E0.01509
G1 X119.810 Y103.866 E0.03252
