; generated by PrusaSlicer 2.5.0+win64 on 2023-02-17 at 18:28:58 UTC


;
;
; 

; external perimeters extrusion width = 0.45mm
; perimeters extrusion width = 0.45mm
; infill extrusion width = 0.45mm
; solid infill extrusion width = 0.45mm
; top infill extrusion width = 0.40mm
; first layer extrusion width = 0.42mm

; external perimeters extrusion width = 0.45mm
; perimeters extrusion width = 0.45mm
; infill extrusion width = 0.45mm
; solid infill extrusion width = 0.45mm
; top infill extrusion width = 0.40mm
; first layer extrusion width = 0.42mm

M73 P0 R189
M73 C34
M73 Q0 S193
M73 D34
M201 X1000 Y1000 Z200 E5000 ; sets maximum accelerations, mm/sec^2
M203 X200 Y200 Z12 E120 ; sets maximum feedrates, mm / sec
M204 P1250 R1250 T1250 ; sets acceleration (P, T) and retract acceleration (R), mm/sec^2
M205 X8.00 Y8.00 Z0.40 E4.50 ; sets the jerk limits, mm/sec
M205 S0 T0 ; sets the minimum extruding and travel feed rate, mm/sec
M107
;TYPE:Custom
M862.3 P "MK3S" ; printer model check
M862.1 P0.4 ; nozzle diameter check
M115 U3.11.0 ; tell printer latest fw version
G90 ; use absolute coordinates
M83 ; extruder relative mode
M104 S215 ; set extruder temp
M140 S60 ; set bed temp
M190 S60 ; wait for bed temp
M109 S215 ; wait for extruder temp
G28 W ; home all without mesh bed level
G80 ; mesh bed leveling

G1 Z0.2 F720
G1 Y-3 F1000 ; go outside print area
G92 E0
G1 X60 E9 F1000 ; intro line
G1 X100 E12.5 F1000 ; intro line

G92 E0
M221 S95

; Don't change E values below. Excessive value can damage the printer.

G21 ; set units to millimeters
G90 ; use absolute coordinates
M83 ; use relative distances for extrusion
M900 K0.05 ; Filament gcode LA 1.5
M900 K30 ; Filament gcode LA 1.0
M107
;LAYER_CHANGE
;Z:0.2
;HEIGHT:0.2
;BEFORE_LAYER_CHANGE
G92 E0.0
;0.2


G1 E-.8 F2100
G1 Z.4 F900
;AFTER_LAYER_CHANGE
;0.2
M73 C33
G1 X70.364 Y68.943 F13200
G1 Z.2 F900
G1 E.8 F2100
M204 S800
;TYPE:Skirt/Brim
;WIDTH:0.42
G1 F600
G1 X71.41 Y68.067 E.04278
G1 X72.183 Y67.879 E.02495
G1 X133.383 Y63.579 E1.92361
G1 X177.65 Y63.573 E1.38795
G1 X178.957 Y63.965 E.04278
M73 D33
G1 X179.833 Y65.01 E.04278
G1 X180.027 Y65.95 E.03008
G1 X180.027 Y144.05 E2.44877
G1 X179.636 Y145.357 E.04278
G1 X178.59 Y146.233 E.04278
G1 X177.65 Y146.427 E.03008
G1 X133.383 Y146.421 E1.38795
G1 X72.183 Y142.121 E1.92361
G1 X70.907 Y141.639 E.04278
G1 X70.106 Y140.534 E.04278
G1 X69.973 Y139.75 E.02495
G1 X69.973 Y70.25 E2.17912
G1 X70.347 Y69 E.0409
M204 S1000
; printing object Board Bracket Bottom.stl id:0 copy 0
;WIPE_START
M73 Q0 S192
G1 F10560
G1 X71.41 Y68.067 E-.26731
G1 X72.183 Y67.879 E-.15031
G1 X73.991 Y67.752 E-.34238
;WIPE_END
G1 E-.04 F2100
G1 Z.6 F900
G1 X171.417 Y132.267 F13200
G1 Z.2 F900
G1 E.8 F2100
M204 S800
;TYPE:Perimeter
;WIDTH:0.419999
G1 F540
G1 X171.311 Y132.282 E.00334
G1 X144.021 Y132.282 E.85568
G1 X143.64 Y132.202 E.0122
G1 X143.338 Y131.99 E.01157
G1 X143.149 Y131.697 E.01093
G1 X143.078 Y131.339 E.01144
G1 X143.078 Y78.661 E1.65169
G1 X143.129 Y78.356 E.00969
G1 X143.329 Y78.021 E.01225
G1 X143.64 Y77.798 E.012
G1 X144.021 Y77.718 E.0122
G1 X171.311 Y77.718 E.85568
G1 X171.598 Y77.763 E.00911
G1 X171.924 Y77.944 E.0117
G1 X172.079 Y78.114 E.00719
G1 X172.187 Y78.31 E.00703
G1 X172.254 Y78.661 E.01119
G1 X172.254 Y131.339 E1.65169
G1 X172.24 Y131.502 E.00513
M73 P0 R188
G1 X172.143 Y131.783 E.00931
G1 X171.877 Y132.093 E.01282
G1 X171.575 Y132.244 E.01057
G1 X171.476 Y132.258 E.00313
M204 S1000
G1 X171.364 Y131.897 F13200
M204 S800
G1 F540
G1 X144.021 Y131.905 E.85734
G1 X143.792 Y131.857 E.00732
M73 C32
G1 X143.575 Y131.687 E.00864
G1 X143.467 Y131.456 E.00801
G1 X143.455 Y130.471 E.03086
G1 X143.455 Y78.661 E1.62448
G1 X143.508 Y78.421 E.00769
G1 X143.664 Y78.222 E.00795
G1 X143.923 Y78.104 E.00891
G1 X144.021 Y78.095 E.00308
G1 X171.311 Y78.095 E.85568
G1 X171.581 Y78.164 E.00872
G1 X171.772 Y78.333 E.008
G1 X171.836 Y78.451 E.00422
G1 X171.877 Y78.661 E.00671
G1 X171.877 Y131.339 E1.65169
G1 X171.81 Y131.605 E.0086
M73 D32
G1 X171.651 Y131.792 E.00769
G1 X171.424 Y131.889 E.00775
M204 S1000
G1 X171.311 Y131.528 F13200
M204 S800
;TYPE:External perimeter
G1 F300
G1 X144.021 Y131.528 E.85568
G1 X143.884 Y131.469 E.00466
G1 X143.832 Y131.339 E.00439
G1 X143.832 Y78.661 E1.65169
G1 X143.902 Y78.514 E.00508
G1 X144.021 Y78.472 E.00395
G1 X171.311 Y78.472 E.85568
G1 X171.447 Y78.53 E.00463
M73 Q0 S191
G1 X171.5 Y78.661 E.00442
G1 X171.5 Y131.339 E1.65169
G1 X171.425 Y131.49 E.00529
M73 P1 R188
G1 X171.368 Y131.509 E.00186
M204 S1000
G1 X171.208 Y131.914 F13200
;WIPE_START
G1 F10560
G1 X167.345 Y131.512 E-.76
;WIPE_END
G1 E-.04 F2100
G1 Z.6 F900
G1 X176.486 Y142.886 F13200
G1 Z.2 F900
G1 E.8 F2100
M204 S800
;TYPE:Perimeter
G1 F540
G1 X134.714 Y142.886 E1.30972
G1 X134.714 Y131.414 E.35969
M73 P1 R187
M73 Q1 S191
G1 X137.071 Y131.414 E.07391
G1 X137.254 Y131.396 E.00576
G1 X137.573 Y131.27 E.01075
G1 X137.829 Y131.033 E.01093
G1 X137.985 Y130.703 E.01144
G1 X138.014 Y130.471 E.00732
G1 X138.014 Y97.525 E1.033
G1 X137.925 Y97.126 E.01282
G1 X137.703 Y96.826 E.01172
G1 X137.434 Y96.655 E.00999
G1 X137.071 Y96.583 E.01159
G1 X133.848 Y96.583 E.10108
G1 X131.286 Y95.18 E.09159
G1 X131.103 Y95.104 E.00619
G1 X117.014 Y90.883 E.46115
G1 X117.014 Y88.279 E.08166
;WIDTH:0.466814
M73 C31
G1 X117.038 Y88.156 E.0044
;WIDTH:0.513628
G1 X117.061 Y88.034 E.00489
;WIDTH:0.560442
G1 X117.084 Y87.911 E.00538
;WIDTH:0.607256
G1 X117.108 Y87.788 E.00586
;WIDTH:0.65407
G1 X117.131 Y87.665 E.00635
G1 X117.164 Y87.722 E.00334
;WIDTH:0.616088
G1 X117.197 Y87.779 E.00313
;WIDTH:0.578105
G1 X117.269 Y87.932 E.00752
;WIDTH:0.538579
G1 X117.341 Y88.085 E.00696
;WIDTH:0.499052
G1 X117.413 Y88.238 E.00641
;WIDTH:0.459526
G1 X117.484 Y88.391 E.00585
;WIDTH:0.419999
G1 X117.815 Y88.972 E.02097
G1 X118.254 Y89.477 E.02097
G1 X118.782 Y89.887 E.02097
G1 X119.38 Y90.186 E.02097
G1 X120.025 Y90.363 E.02097
G1 X120.692 Y90.411 E.02097
G1 X121.356 Y90.327 E.02097
G1 X121.991 Y90.116 E.02097
G1 X122.572 Y89.785 E.02097
G1 X123.077 Y89.346 E.02097
G1 X123.487 Y88.818 E.02097
G1 X123.786 Y88.22 E.02097
G1 X123.963 Y87.575 E.02097
G1 X124.011 Y86.908 E.02097
G1 X123.927 Y86.244 E.02097
G1 X123.716 Y85.609 E.02097
G1 X123.385 Y85.028 E.02097
G1 X122.946 Y84.523 E.02097
G1 X122.418 Y84.113 E.02097
G1 X121.82 Y83.814 E.02097
G1 X121.16 Y83.635 E.02143
G1 X120.466 Y83.593 E.0218
G1 X119.844 Y83.673 E.01966
G1 X119.209 Y83.884 E.02097
G1 X118.628 Y84.215 E.02097
G1 X118.123 Y84.654 E.02097
G1 X117.713 Y85.182 E.02097
G1 X117.414 Y85.78 E.02097
;WIDTH:0.464642
G1 X117.356 Y85.907 E.00488
;WIDTH:0.509284
G1 X117.298 Y86.034 E.0054
;WIDTH:0.553926
G1 X117.241 Y86.161 E.00592
;WIDTH:0.598568
G1 X117.183 Y86.287 E.00643
;WIDTH:0.64321
G1 X117.126 Y86.414 E.00695
G1 X117.103 Y86.276 E.00701
;WIDTH:0.598568
G1 X117.081 Y86.137 E.00649
;WIDTH:0.553926
G1 X117.059 Y85.998 E.00597
;WIDTH:0.509284
G1 X117.036 Y85.86 E.00545
;WIDTH:0.464642
G1 X117.014 Y85.721 E.00493
;WIDTH:0.419999
G1 X117.014 Y83.117 E.08166
G1 X131.103 Y78.896 E.46115
G1 X131.286 Y78.82 E.00619
G1 X134.224 Y77.211 E.10504
G1 X134.487 Y76.998 E.0106
G1 X134.664 Y76.689 E.01117
G1 X134.714 Y76.384 E.00969
G1 X134.714 Y67.114 E.29066
G1 X176.486 Y67.114 E1.30972
G1 X176.486 Y78.586 E.35969
M73 D31
G1 X174.129 Y78.586 E.07391
G1 X173.935 Y78.606 E.00609
G1 X173.602 Y78.746 E.01134
G1 X173.349 Y78.998 E.01119
G1 X173.186 Y79.529 E.0174
G1 X173.186 Y135.471 E1.75405
G1 X173.203 Y135.65 E.00562
G1 X173.294 Y135.91 E.00863
G1 X173.47 Y136.146 E.00924
G1 X173.749 Y136.335 E.01057
G1 X174.129 Y136.414 E.01215
G1 X176.486 Y136.414 E.07391
G1 X176.486 Y138.771 E.07391
G1 X176.486 Y142.826 E.12712
M204 S1000
G1 X176.863 Y143.263 F13200
M204 S800
G1 F540
G1 X134.337 Y143.263 E1.33337
G1 X134.337 Y131.037 E.38333
G1 X137.181 Y131.026 E.08917
G1 X137.418 Y130.919 E.00816
G1 X137.579 Y130.721 E.00801
G1 X137.637 Y130.471 E.00802
G1 X137.637 Y97.525 E1.033
G1 X137.623 Y97.401 E.00392
G1 X137.524 Y97.186 E.00743
G1 X137.289 Y97.003 E.00933
G1 X137.071 Y96.96 E.00696
G1 X133.751 Y96.96 E.1041
G1 X130.995 Y95.465 E.09831
G1 X116.637 Y91.164 E.46995
G1 X116.637 Y82.836 E.26113
G1 X130.995 Y78.535 E.46995
G1 X134.097 Y76.847 E.11074
M73 Q1 S190
G1 X134.284 Y76.624 E.00911
G1 X134.337 Y76.384 E.00769
G1 X134.337 Y66.737 E.30248
G1 X176.863 Y66.737 E1.33337
G1 X176.863 Y78.963 E.38333
G1 X174.066 Y78.966 E.08768
G1 X173.813 Y79.059 E.00847
G1 X173.661 Y79.21 E.00671
G1 X173.563 Y79.529 E.01044
G1 X173.563 Y135.471 E1.75405
G1 X173.573 Y135.578 E.00337
G1 X173.673 Y135.807 E.00781
G1 X173.901 Y135.989 E.00917
G1 X174.129 Y136.037 E.00729
G1 X176.863 Y136.037 E.08573
G1 X176.863 Y143.203 E.22468
M204 S1000
G1 X177.24 Y143.64 F13200
M204 S800
;TYPE:External perimeter
G1 F300
G1 X133.96 Y143.64 E1.35701
G1 X133.96 Y130.66 E.40698
M73 P1 R186
M73 C30
G1 X137.071 Y130.66 E.09756
G1 X137.204 Y130.605 E.0045
G1 X137.26 Y130.471 E.00455
G1 X137.26 Y97.525 E1.033
G1 X137.198 Y97.386 E.0048
G1 X137.071 Y97.337 E.00424
G1 X133.655 Y97.337 E.10712
G1 X130.887 Y95.826 E.09887
M73 D30
G1 X116.26 Y91.445 E.47875
G1 X116.26 Y82.555 E.27873
G1 X130.887 Y78.174 E.47875
G1 X133.898 Y76.524 E.10764
G1 X133.96 Y76.384 E.0048
G1 X133.96 Y66.36 E.3143
G1 X177.24 Y66.36 E1.35701
G1 X177.24 Y79.34 E.40698
G1 X174.129 Y79.34 E.09756
G1 X174.023 Y79.372 E.00345
G1 X173.94 Y79.529 E.00556
G1 X173.94 Y135.471 E1.75405
G1 X173.997 Y135.606 E.00459
M73 P2 R186
M73 Q1 S189
G1 X174.129 Y135.66 E.00446
G1 X177.24 Y135.66 E.09756
G1 X177.24 Y143.58 E.24833
M204 S1000
M73 Q2 S189
G1 X176.872 Y143.484 F13200
;WIPE_START
G1 F10560
G1 X173.217 Y143.586 E-.76
;WIPE_END
G1 E-.04 F2100
G1 Z.6 F900
G1 X120.55 Y90.027 F13200
G1 Z.2 F900
G1 E.8 F2100
M204 S800
;TYPE:Perimeter
G1 F300
G1 X120.062 Y89.988 E.01534
G1 X119.49 Y89.826 E.01866
G1 X118.96 Y89.555 E.01866
G1 X118.493 Y89.186 E.01866
G1 X118.107 Y88.732 E.01866
G1 X117.817 Y88.213 E.01866
G1 X117.634 Y87.647 E.01866
G1 X117.565 Y87.055 E.01866
G1 X117.612 Y86.462 E.01866
G1 X117.774 Y85.89 E.01866
G1 X118.045 Y85.36 E.01866
G1 X118.493 Y84.814 E.02212
G1 X118.96 Y84.445 E.01866
G1 X119.49 Y84.174 E.01866
G1 X120.062 Y84.012 E.01866
G1 X120.605 Y83.968 E.01707
G1 X121.129 Y84.011 E.01648
G1 X121.71 Y84.174 E.01894
G1 X122.24 Y84.445 E.01866
G1 X122.707 Y84.814 E.01866
G1 X123.093 Y85.268 E.01866
G1 X123.383 Y85.787 E.01866
G1 X123.566 Y86.353 E.01866
G1 X123.635 Y86.945 E.01866
G1 X123.588 Y87.538 E.01866
G1 X123.426 Y88.11 E.01866
G1 X123.155 Y88.64 E.01866
G1 X122.786 Y89.107 E.01866
G1 X122.332 Y89.493 E.01866
G1 X121.813 Y89.783 E.01866
G1 X121.247 Y89.966 E.01866
G1 X120.61 Y90.032 E.02007
M204 S1000
M73 P2 R185
G1 X120.578 Y89.656 F13200
M204 S800
;TYPE:External perimeter
G1 F300
G1 X120.099 Y89.613 E.01508
G1 X119.599 Y89.465 E.01635
G1 X119.137 Y89.222 E.01635
G1 X118.732 Y88.894 E.01635
G1 X118.398 Y88.493 E.01635
G1 X118.149 Y88.035 E.01635
G1 X117.995 Y87.537 E.01635
G1 X117.94 Y87.018 E.01635
G1 X117.987 Y86.499 E.01635
G1 X118.135 Y85.999 E.01635
G1 X118.378 Y85.537 E.01635
G1 X118.732 Y85.106 E.0175
G1 X119.137 Y84.778 E.01635
G1 X119.599 Y84.535 E.01635
G1 X120.099 Y84.387 E.01635
G1 X120.574 Y84.344 E.01495
G1 X121.098 Y84.387 E.01648
G1 X121.601 Y84.535 E.01645
G1 X122.063 Y84.778 E.01635
G1 X122.468 Y85.106 E.01635
G1 X122.802 Y85.507 E.01635
G1 X123.051 Y85.965 E.01635
G1 X123.205 Y86.463 E.01635
G1 X123.26 Y86.982 E.01635
G1 X123.213 Y87.501 E.01635
G1 X123.065 Y88.001 E.01635
G1 X122.822 Y88.463 E.01635
G1 X122.494 Y88.868 E.01635
G1 X122.093 Y89.202 E.01635
G1 X121.635 Y89.451 E.01635
G1 X121.137 Y89.605 E.01635
G1 X120.638 Y89.658 E.01574
M204 S1000
G1 X120.379 Y90.004 F13200
;WIPE_START
G1 F10560
G1 X120.099 Y89.613 E-.10213
G1 X119.599 Y89.465 E-.09852
G1 X119.137 Y89.222 E-.09852
G1 X118.732 Y88.894 E-.09852
G1 X118.398 Y88.493 E-.09852
G1 X118.149 Y88.035 E-.09852
G1 X117.995 Y87.537 E-.09852
G1 X117.957 Y87.186 E-.06674
;WIPE_END
G1 E-.04 F2100
G1 Z.6 F900
G1 X117.131 Y87.665 F13200
G1 Z.2 F900
G1 E.8 F2100
M204 S800
;TYPE:Perimeter
;WIDTH:0.65407
G1 F540
G1 X117.117 Y87.383 E.01436
;WIDTH:0.624823
G1 X117.102 Y87.101 E.01367
;WIDTH:0.64321
G1 X117.126 Y86.414 E.0343
M204 S1000
;WIPE_START
G1 F10560
G1 X117.102 Y87.101 E-.12982
G1 X117.117 Y87.383 E-.05339
G1 X117.131 Y87.665 E-.05339
;WIPE_END
G1 E-.5634 F2100
G1 Z.6 F900
G1 X176.373 Y67.992 F13200
G1 Z.2 F900
G1 E.8 F2100
M204 S800
;TYPE:Solid infill
;WIDTH:0.421226
G1 F960
G1 X175.778 Y67.397 E.02648
G1 X175.243 Y67.397 E.01683
G1 X176.203 Y68.357 E.04273
G1 X176.203 Y68.892 E.01683
G1 X174.708 Y67.397 E.06653
G1 X174.173 Y67.397 E.01683
G1 X176.203 Y69.427 E.09033
G1 X176.203 Y69.962 E.01683
G1 X173.638 Y67.397 E.11413
G1 X173.103 Y67.397 E.01683
G1 X176.203 Y70.497 E.13793
G1 X176.203 Y71.032 E.01683
G1 X172.568 Y67.397 E.16173
G1 X172.033 Y67.397 E.01683
G1 X176.203 Y71.567 E.18553
G1 X176.203 Y72.103 E.01683
G1 X171.498 Y67.397 E.20933
G1 X170.963 Y67.397 E.01683
G1 X176.203 Y72.638 E.23313
G1 X176.203 Y73.173 E.01683
G1 X170.428 Y67.397 E.25693
G1 X169.892 Y67.397 E.01683
M73 C29
G1 X176.203 Y73.708 E.28073
G1 X176.203 Y74.243 E.01683
G1 X169.357 Y67.397 E.30453
G1 X168.822 Y67.397 E.01683
G1 X176.203 Y74.778 E.32833
G1 X176.203 Y75.313 E.01683
G1 X168.287 Y67.397 E.35213
G1 X167.752 Y67.397 E.01683
G1 X176.203 Y75.848 E.37593
G1 X176.203 Y76.383 E.01683
G1 X167.217 Y67.397 E.39973
G1 X166.682 Y67.397 E.01683
G1 X176.203 Y76.918 E.42353
G1 X176.203 Y77.453 E.01683
G1 X166.147 Y67.397 E.44733
G1 X165.612 Y67.397 E.01683
G1 X176.203 Y77.988 E.47113
G1 X176.203 Y78.303 E.00992
G1 X175.984 Y78.303 E.00691
G1 X165.077 Y67.397 E.48517
G1 X164.542 Y67.397 E.01683
G1 X175.449 Y78.303 E.48517
G1 X174.914 Y78.303 E.01683
G1 X164.007 Y67.397 E.48517
G1 X163.472 Y67.397 E.01683
M73 D29
G1 X174.379 Y78.303 E.48517
G1 X174.124 Y78.303 E.00802
G1 X173.871 Y78.331 E.00799
G1 X162.937 Y67.397 E.48639
G1 X162.402 Y67.397 E.01683
G1 X173.492 Y78.487 E.49333
G1 X173.441 Y78.513 E.00181
G1 X173.212 Y78.741 E.01018
G1 X161.867 Y67.397 E.50465
G1 X161.332 Y67.397 E.01683
G1 X171.375 Y77.44 E.44676
G1 X171.685 Y77.493 E.00989
G1 X171.898 Y77.584 E.00729
G1 X172.192 Y77.807 E.0116
G1 X172.311 Y77.951 E.00587
G1 X172.451 Y78.208 E.00922
G1 X172.525 Y78.589 E.01222
G1 X173.032 Y79.096 E.02255
G1 X172.906 Y79.505 E.01346
G1 X172.537 Y79.136 E.01641
G1 X172.537 Y79.671 E.01683
G1 X172.903 Y80.038 E.01629
G1 X172.903 Y80.573 E.01683
G1 X172.537 Y80.206 E.01629
G1 X172.537 Y80.741 E.01683
G1 X172.903 Y81.108 E.01629
G1 X172.903 Y81.643 E.01683
G1 X172.537 Y81.276 E.01629
G1 X172.537 Y81.811 E.01683
G1 X172.903 Y82.178 E.01629
G1 X172.903 Y82.713 E.01683
G1 X172.537 Y82.346 E.01629
G1 X172.537 Y82.881 E.01683
G1 X172.903 Y83.248 E.01629
G1 X172.903 Y83.783 E.01683
G1 X172.537 Y83.416 E.01629
G1 X172.537 Y83.951 E.01683
G1 X172.903 Y84.318 E.01629
G1 X172.903 Y84.853 E.01683
G1 X172.537 Y84.487 E.01629
G1 X172.537 Y85.022 E.01683
G1 X172.903 Y85.388 E.01629
G1 X172.903 Y85.923 E.01683
G1 X172.537 Y85.557 E.01629
G1 X172.537 Y86.092 E.01683
G1 X172.903 Y86.458 E.01629
G1 X172.903 Y86.993 E.01683
G1 X172.537 Y86.627 E.01629
G1 X172.537 Y87.162 E.01683
G1 X172.903 Y87.528 E.01629
G1 X172.903 Y88.063 E.01683
G1 X172.537 Y87.697 E.01629
G1 X172.537 Y88.232 E.01683
G1 X172.903 Y88.598 E.01629
G1 X172.903 Y89.133 E.01683
G1 X172.537 Y88.767 E.01629
G1 X172.537 Y89.302 E.01683
G1 X172.903 Y89.668 E.01629
G1 X172.903 Y90.203 E.01683
G1 X172.537 Y89.837 E.01629
G1 X172.537 Y90.372 E.01683
G1 X172.903 Y90.738 E.01629
G1 X172.903 Y91.273 E.01683
G1 X172.537 Y90.907 E.01629
G1 X172.537 Y91.442 E.01683
G1 X172.903 Y91.808 E.01629
G1 X172.903 Y92.343 E.01683
G1 X172.537 Y91.977 E.01629
G1 X172.537 Y92.512 E.01683
G1 X172.903 Y92.878 E.01629
G1 X172.903 Y93.413 E.01683
G1 X172.537 Y93.047 E.01629
G1 X172.537 Y93.582 E.01683
G1 X172.903 Y93.948 E.01629
G1 X172.903 Y94.483 E.01683
G1 X172.537 Y94.117 E.01629
G1 X172.537 Y94.652 E.01683
G1 X172.903 Y95.018 E.01629
G1 X172.903 Y95.553 E.01683
G1 X172.537 Y95.187 E.01629
G1 X172.537 Y95.722 E.01683
G1 X172.903 Y96.088 E.01629
