; generated by PrusaSlicer 2.5.0+win64 on 2022-10-07 at 18:46:02 UTC

; 

; external perimeters extrusion width = 0.45mm
; perimeters extrusion width = 0.45mm
; infill extrusion width = 0.45mm
; solid infill extrusion width = 0.45mm
; top infill extrusion width = 0.40mm
; support material extrusion width = 0.35mm
; first layer extrusion width = 0.42mm

; external perimeters extrusion width = 0.45mm
; perimeters extrusion width = 0.45mm
; infill extrusion width = 0.45mm
; solid infill extrusion width = 0.45mm
; top infill extrusion width = 0.40mm
; support material extrusion width = 0.35mm
; first layer extrusion width = 0.42mm

M73 P0 R51
M73 Q0 S51
M201 X1000 Y1000 Z200 E5000 ; sets maximum accelerations, mm/sec^2
M203 X200 Y200 Z12 E120 ; sets maximum feedrates, mm / sec
M204 P1250 R1250 T1250 ; sets acceleration (P, T) and retract acceleration (R), mm/sec^2
M205 X8.00 Y8.00 Z0.40 E4.50 ; sets the jerk limits, mm/sec
M205 S0 T0 ; sets the minimum extruding and travel feed rate, mm/sec
M107
;TYPE:Custom
M862.3 P "MK3S" ; printer model check
M862.1 P0.4 ; nozzle diameter check
M115 U3.10.1 ; tell printer latest fw version
G90 ; use absolute coordinates
M83 ; extruder relative mode
M104 S215 ; set extruder temp
M140 S60 ; set bed temp
M190 S60 ; wait for bed temp
M109 S215 ; wait for extruder temp
G28 W ; home all without mesh bed level
G80 ; mesh bed leveling
G1 Z0.2 F720
G1 Y-3 F1000 ; go outside print area
G92 E0
G1 X60 E9 F1000 ; intro line
G1 X100 E12.5 F1000 ; intro line
G92 E0
M221 S95

; Don't change E values below. Excessive value can damage the printer.

G21 ; set units to millimeters
G90 ; use absolute coordinates
M83 ; use relative distances for extrusion
M900 K0.05 ; Filament gcode LA 1.5
M900 K30 ; Filament gcode LA 1.0
M107
;LAYER_CHANGE
;Z:0.2
;HEIGHT:0.2
;BEFORE_LAYER_CHANGE
G92 E0.0
;0.2


G1 E-.8 F2100
G1 Z.4 F720
;AFTER_LAYER_CHANGE
;0.2
G1 X51.07 Y65.821 F10800
G1 Z.2 F720
G1 E.8 F2100
M204 S800
;TYPE:Skirt/Brim
;WIDTH:0.42
G1 F600
G1 X52.751 Y64.517 E.06672
G1 X54.755 Y63.116 E.07667
G1 X56.792 Y61.836 E.07541
G1 X62.906 Y58.46 E.21898
G1 X64.666 Y58.021 E.05689
G1 X99.666 Y58.022 E1.0974
G1 X101.427 Y58.46 E.05689
G1 X105.492 Y60.65 E.14477
G1 X107.66 Y61.908 E.0786
G1 X109.733 Y63.219 E.07692
G1 X111.732 Y64.628 E.07665
G1 X113.652 Y66.13 E.07645
G1 X115.493 Y67.722 E.07631
G1 X117.251 Y69.402 E.07623
G1 X118.924 Y71.165 E.07621
G1 X120.508 Y73.009 E.07621
G1 X122 Y74.928 E.07621
G1 X123.396 Y76.918 E.07623
G1 X124.692 Y78.974 E.07621
G1 X125.886 Y81.091 E.0762
G1 X126.975 Y83.264 E.07621
G1 X127.957 Y85.489 E.07623
G1 X128.827 Y87.758 E.07621
G1 X129.585 Y90.068 E.07621
G1 X130.229 Y92.411 E.07621
G1 X130.758 Y94.785 E.07623
G1 X131.168 Y97.18 E.07621
G1 X131.461 Y99.593 E.07621
G1 X131.636 Y102.017 E.07621
G1 X131.691 Y104.448 E.07623
G1 X131.627 Y106.878 E.07621
G1 X131.443 Y109.301 E.07621
G1 X131.141 Y111.713 E.07621
G1 X130.722 Y114.108 E.07623
G1 X130.184 Y116.479 E.07621
G1 X129.532 Y118.82 E.07621
G1 X128.765 Y121.127 E.07621
G1 X127.886 Y123.393 E.07623
G1 X126.897 Y125.614 E.07621
G1 X125.8 Y127.783 E.07621
G1 X124.598 Y129.895 E.07621
G1 X123.293 Y131.947 E.07623
G1 X121.89 Y133.932 E.07621
G1 X120.391 Y135.845 E.07621
G1 X118.8 Y137.683 E.07621
G1 X117.12 Y139.44 E.07623
G1 X115.357 Y141.113 E.07621
G1 X113.513 Y142.697 E.07621
G1 X111.594 Y144.189 E.07621
G1 X109.604 Y145.585 E.07623
G1 X107.548 Y146.882 E.07621
G1 X105.431 Y148.076 E.07621
G1 X103.258 Y149.165 E.07621
G1 X101.033 Y150.146 E.07623
G1 X98.764 Y151.017 E.07621
G1 X96.455 Y151.775 E.07621
G1 X94.111 Y152.419 E.07621
G1 X91.737 Y152.947 E.07623
G1 X89.342 Y153.358 E.07621
G1 X86.929 Y153.651 E.07621
G1 X84.505 Y153.825 E.07621
G1 X82.074 Y153.881 E.07623
G1 X79.644 Y153.816 E.07621
G1 X77.221 Y153.633 E.07621
G1 X74.809 Y153.331 E.07621
G1 X72.414 Y152.911 E.07623
G1 X70.043 Y152.374 E.07621
G1 X67.702 Y151.721 E.07621
G1 X65.395 Y150.955 E.07621
G1 X63.129 Y150.075 E.07623
G1 X60.908 Y149.086 E.07621
G1 X58.739 Y147.989 E.07621
G1 X56.627 Y146.787 E.07621
G1 X54.575 Y145.483 E.07623
G1 X52.59 Y144.079 E.07621
G1 X50.677 Y142.58 E.07621
G1 X48.839 Y140.989 E.07621
G1 X47.082 Y139.31 E.07623
G1 X45.409 Y137.546 E.07621
G1 X43.825 Y135.703 E.07621
G1 X42.333 Y133.784 E.07621
G1 X40.937 Y131.794 E.07623
G1 X39.64 Y129.737 E.07621
G1 X38.446 Y127.62 E.0762
M73 P1 R51
M73 Q1 S51
G1 X37.357 Y125.447 E.07621
G1 X36.376 Y123.223 E.07623
G1 X35.505 Y120.953 E.07621
G1 X34.747 Y118.644 E.07621
G1 X34.103 Y116.3 E.07621
G1 X33.575 Y113.927 E.07623
M73 P1 R50
G1 X33.164 Y111.531 E.07621
G1 X32.871 Y109.119 E.07621
G1 X32.697 Y106.694 E.07621
G1 X32.641 Y104.263 E.07623
G1 X32.706 Y101.834 E.07621
G1 X32.889 Y99.41 E.07621
G1 X33.191 Y96.998 E.07621
G1 X33.611 Y94.603 E.07623
G1 X34.148 Y92.233 E.07621
G1 X34.801 Y89.892 E.07621
G1 X35.567 Y87.585 E.07621
G1 X36.447 Y85.318 E.07623
G1 X37.436 Y83.098 E.07621
G1 X38.533 Y80.929 E.07621
G1 X39.735 Y78.816 E.07621
G1 X41.039 Y76.764 E.07623
G1 X42.443 Y74.78 E.07621
G1 X43.942 Y72.867 E.07621
G1 X45.533 Y71.029 E.07621
G1 X47.212 Y69.271 E.07623
G1 X48.977 Y67.598 E.07625
G1 X51.022 Y65.858 E.08419
M204 S1000
G1 X51.253 Y66.156 F10800
M204 S800
G1 F600
G1 X52.968 Y64.825 E.06804
G1 X54.956 Y63.435 E.07608
G1 X56.981 Y62.162 E.07498
G1 X63.082 Y58.793 E.21855
G1 X64.666 Y58.399 E.05118
G1 X99.666 Y58.399 E1.0974
G1 X101.25 Y58.793 E.05118
G1 X105.311 Y60.981 E.14463
G1 X107.459 Y62.227 E.07787
G1 X109.517 Y63.528 E.07633
G1 X111.5 Y64.925 E.07606
G1 X113.406 Y66.415 E.07586
G1 X115.233 Y67.995 E.07573
G1 X116.978 Y69.662 E.07565
G1 X118.638 Y71.412 E.07563
G1 X120.21 Y73.241 E.07563
G1 X121.691 Y75.145 E.07563
G1 X123.077 Y77.12 E.07565
M73 Q1 S50
G1 X124.364 Y79.16 E.07563
G1 X125.55 Y81.261 E.07563
G1 X126.631 Y83.417 E.07563
G1 X127.605 Y85.624 E.07565
G1 X128.469 Y87.877 E.07563
G1 X129.222 Y90.168 E.07563
G1 X129.861 Y92.494 E.07563
G1 X130.386 Y94.849 E.07565
G1 X130.794 Y97.226 E.07563
G1 X131.085 Y99.621 E.07563
G1 X131.259 Y102.027 E.07563
G1 X131.314 Y104.439 E.07565
G1 X131.251 Y106.85 E.07563
G1 X131.069 Y109.255 E.07563
G1 X130.77 Y111.649 E.07563
G1 X130.354 Y114.026 E.07565
G1 X129.821 Y116.378 E.07563
G1 X129.174 Y118.702 E.07563
G1 X128.413 Y120.991 E.07563
G1 X127.541 Y123.241 E.07565
G1 X126.56 Y125.444 E.07563
G1 X125.472 Y127.597 E.07563
G1 X124.279 Y129.694 E.07563
G1 X122.985 Y131.73 E.07565
G1 X121.593 Y133.7 E.07563
G1 X120.105 Y135.599 E.07563
G1 X118.527 Y137.423 E.07563
G1 X116.86 Y139.167 E.07565
G1 X115.11 Y140.828 E.07563
G1 X113.281 Y142.4 E.07563
G1 X111.377 Y143.881 E.07563
G1 X109.402 Y145.267 E.07565
G1 X107.362 Y146.554 E.07563
G1 X105.261 Y147.739 E.07563
G1 X103.105 Y148.82 E.07563
G1 X100.898 Y149.794 E.07565
G1 X98.646 Y150.658 E.07563
G1 X96.354 Y151.411 E.07563
G1 X94.028 Y152.051 E.07563
G1 X91.673 Y152.576 E.07565
G1 X89.296 Y152.984 E.07563
G1 X86.901 Y153.275 E.07563
G1 X84.495 Y153.448 E.07563
G1 X82.083 Y153.504 E.07565
G1 X79.672 Y153.44 E.07563
G1 X77.267 Y153.259 E.07563
G1 X74.873 Y152.959 E.07563
G1 X72.496 Y152.543 E.07565
G1 X70.144 Y152.01 E.07563
G1 X67.82 Y151.363 E.07563
G1 X65.531 Y150.603 E.07563
G1 X63.281 Y149.731 E.07565
G1 X61.078 Y148.749 E.07563
G1 X58.925 Y147.661 E.07563
G1 X56.828 Y146.469 E.07563
G1 X54.792 Y145.175 E.07565
G1 X52.822 Y143.782 E.07563
G1 X50.923 Y142.295 E.07563
G1 X49.099 Y140.716 E.07563
G1 X47.355 Y139.05 E.07565
G1 X45.694 Y137.3 E.07563
G1 X44.122 Y135.471 E.07563
G1 X42.641 Y133.567 E.07563
G1 X41.255 Y131.592 E.07565
G1 X39.968 Y129.552 E.07563
G1 X38.783 Y127.451 E.07563
M73 P2 R50
G1 X37.702 Y125.294 E.07563
M73 Q2 S50
G1 X36.728 Y123.087 E.07565
G1 X35.864 Y120.835 E.07563
G1 X35.111 Y118.543 E.07563
G1 X34.471 Y116.218 E.07563
G1 X33.946 Y113.863 E.07565
G1 X33.538 Y111.485 E.07563
G1 X33.247 Y109.091 E.07563
G1 X33.074 Y106.685 E.07563
G1 X33.018 Y104.273 E.07565
G1 X33.082 Y101.861 E.07563
G1 X33.263 Y99.456 E.07563
G1 X33.563 Y97.063 E.07563
G1 X33.979 Y94.686 E.07565
G1 X34.512 Y92.333 E.07563
G1 X35.159 Y90.01 E.07563
G1 X35.919 Y87.721 E.07563
G1 X36.791 Y85.471 E.07565
G1 X37.773 Y83.267 E.07563
G1 X38.861 Y81.115 E.07563
G1 X40.053 Y79.018 E.07563
G1 X41.347 Y76.982 E.07565
G1 X42.74 Y75.012 E.07563
G1 X44.227 Y73.113 E.07563
G1 X45.806 Y71.289 E.07563
G1 X47.472 Y69.544 E.07565
G1 X49.223 Y67.883 E.07567
G1 X51.206 Y66.192 E.0817
M204 S1000
; printing object Top.stl id:0 copy 0
;WIPE_START
G1 F8640
G1 X52.968 Y64.825 E-.51491
G1 X53.837 Y64.217 E-.24509
;WIPE_END
G1 E-.04 F2100
G1 Z.6 F720
G1 X63.502 Y74.2 F10800
G1 Z.2 F720
G1 E.8 F2100
M204 S800
;TYPE:Perimeter
;WIDTH:0.419999
G1 F540
G1 X63.168 Y74.391 E.01207
G1 X62.553 Y74.799 E.02314
G1 X60.786 Y76.128 E.06934
G1 X59.635 Y77.076 E.04675
G1 X58.424 Y78.139 E.05052
G1 X57.139 Y79.359 E.05556
G1 X55.941 Y80.618 E.05447
G1 X54.837 Y81.897 E.05299
G1 X53.74 Y83.302 E.05589
G1 X52.767 Y84.684 E.05299
G1 X51.837 Y86.15 E.05444
G1 X50.958 Y87.701 E.05588
G1 X50.179 Y89.252 E.05444
G1 X49.494 Y90.797 E.05299
G1 X48.852 Y92.46 E.05589
G1 X48.309 Y94.109 E.05444
G1 X47.847 Y95.783 E.05444
G1 X47.467 Y97.477 E.05444
G1 X47.179 Y99.143 E.05299
G1 X46.96 Y100.912 E.05589
G1 X46.834 Y102.643 E.05444
G1 X46.792 Y104.333 E.05299
G1 X46.836 Y106.115 E.05589
G1 X46.961 Y107.8 E.05299
G1 X47.172 Y109.523 E.05444
G1 X47.476 Y111.28 E.05589
G1 X47.858 Y112.973 E.05444
G1 X48.322 Y114.646 E.05443
G1 X48.868 Y116.295 E.05444
G1 X49.476 Y117.871 E.05299
G1 X50.199 Y119.501 E.05589
G1 X50.98 Y121.051 E.05444
G1 X51.813 Y122.522 E.05299
G1 X52.767 Y124.028 E.05589
G1 X53.767 Y125.447 E.05444
G1 X54.807 Y126.779 E.05299
G1 X55.971 Y128.129 E.05589
G1 X57.169 Y129.385 E.05444
G1 X58.394 Y130.551 E.05299
G1 X59.708 Y131.685 E.05444
G1 X61.075 Y132.755 E.05444
G1 X62.533 Y133.781 E.05589
G1 X64 Y134.709 E.05444
G1 X65.471 Y135.542 E.05299
G1 X67.063 Y136.343 E.05588
G1 X68.651 Y137.046 E.05444
G1 X70.227 Y137.654 E.05299
G1 X71.92 Y138.213 E.05589
G1 X73.593 Y138.675 E.05444
G1 X75.242 Y139.046 E.05299
G1 X76.999 Y139.35 E.05589
G1 X78.722 Y139.562 E.05444
G1 X80.454 Y139.688 E.05444
G1 X82.189 Y139.73 E.05444
G1 X83.879 Y139.688 E.05299
G1 X85.611 Y139.562 E.05444
G1 X87.334 Y139.35 E.05444
G1 X89.09 Y139.046 E.05589
G1 X90.784 Y138.664 E.05444
G1 X92.457 Y138.2 E.05444
G1 X94.105 Y137.654 E.05444
G1 X95.682 Y137.046 E.05299
G1 X97.27 Y136.343 E.05444
G1 X98.821 Y135.564 E.05444
G1 X100.332 Y134.709 E.05444
G1 X101.8 Y133.781 E.05444
G1 X103.257 Y132.754 E.05589
G1 X104.625 Y131.685 E.05443
G1 X105.939 Y130.551 E.05444
G1 X107.196 Y129.353 E.05444
G1 X108.361 Y128.128 E.05299
G1 X109.496 Y126.814 E.05444
G1 X110.565 Y125.447 E.05443
G1 X111.592 Y123.989 E.05589
G1 X112.519 Y122.522 E.05444
G1 X113.374 Y121.01 E.05443
G1 X114.154 Y119.459 E.05444
G1 X114.856 Y117.871 E.05444
G1 X115.48 Y116.251 E.05444
G1 X116.01 Y114.646 E.05299
G1 X116.486 Y112.929 E.05588
G1 X116.856 Y111.28 E.05299
G1 X117.154 Y109.569 E.05444
G1 X117.372 Y107.8 E.05589
G1 X117.499 Y106.068 E.05444
G1 X117.54 Y104.379 E.05299
G1 X117.496 Y102.597 E.05589
G1 X117.367 Y100.866 E.05444
G1 X117.161 Y99.188 E.05299
G1 X116.856 Y97.432 E.05589
G1 X116.486 Y95.783 E.05299
G1 X116.024 Y94.109 E.05444
G1 X115.48 Y92.46 E.05444
G1 X114.856 Y90.84 E.05444
G1 X114.134 Y89.211 E.05589
G1 X113.352 Y87.66 E.05443
G1 X112.496 Y86.15 E.05444
G1 X111.566 Y84.684 E.05444
G1 X110.565 Y83.265 E.05444
G1 X109.496 Y81.897 E.05443
G1 X108.361 Y80.584 E.05444
G1 X107.161 Y79.327 E.05446
G1 X105.936 Y78.164 E.05296
G1 X104.699 Y77.076 E.05166
G1 X103.549 Y76.128 E.04674
G1 X102.534 Y75.338 E.04033
G1 X101.755 Y74.771 E.03019
G1 X100.83 Y74.179 E.03444
G1 X100.83 Y63.712 E.32817
G1 X103.119 Y64.959 E.08173
G1 X105.057 Y66.081 E.07021
G1 X106.932 Y67.262 E.06945
G1 X108.732 Y68.525 E.06897
G1 X110.463 Y69.874 E.0688
G1 X112.123 Y71.304 E.06869
G1 X113.708 Y72.814 E.06864
M73 P2 R49
G1 X115.218 Y74.399 E.06864
G1 X116.648 Y76.057 E.06865
M73 P3 R49
G1 X117.995 Y77.783 E.06865
M73 Q3 S50
G1 X119.256 Y79.573 E.06864
G1 X120.427 Y81.423 E.06864
G1 X121.506 Y83.328 E.06865
G1 X122.491 Y85.284 E.06865
G1 X123.378 Y87.285 E.06864
G1 X124.166 Y89.328 E.06865
G1 X124.853 Y91.407 E.06865
G1 X125.437 Y93.517 E.06865
G1 X125.916 Y95.653 E.06865
G1 X126.291 Y97.81 E.06864
G1 X126.559 Y99.984 E.06865
G1 X126.72 Y102.167 E.06865
G1 X126.771 Y104.469 E.0722
G1 X126.72 Y106.544 E.06508
G1 X126.559 Y108.728 E.06865
G1 X126.291 Y110.901 E.06865
G1 X125.916 Y113.058 E.06864
G1 X125.437 Y115.194 E.06865
G1 X124.853 Y117.304 E.06865
G1 X124.166 Y119.383 E.06865
G1 X123.378 Y121.426 E.06865
G1 X122.491 Y123.428 E.06864
G1 X121.506 Y125.383 E.06865
G1 X120.427 Y127.288 E.06865
G1 X119.256 Y129.138 E.06865
G1 X117.995 Y130.928 E.06864
G1 X116.648 Y132.654 E.06865
G1 X115.218 Y134.312 E.06865
G1 X113.708 Y135.898 E.06864
G1 X112.123 Y137.407 E.06865
G1 X110.465 Y138.837 E.06865
G1 X108.739 Y140.185 E.06865
G1 X106.949 Y141.445 E.06864
G1 X105.099 Y142.617 E.06865
G1 X103.194 Y143.696 E.06865
G1 X101.238 Y144.68 E.06865
G1 X99.237 Y145.568 E.06864
G1 X97.194 Y146.355 E.06865
G1 X95.115 Y147.042 E.06865
G1 X93.005 Y147.626 E.06865
G1 X90.869 Y148.106 E.06865
G1 X88.712 Y148.48 E.06864
G1 X86.539 Y148.748 E.06865
G1 X84.355 Y148.909 E.06865
G1 X82.166 Y148.963 E.06864
G1 X79.978 Y148.909 E.06864
G1 X77.794 Y148.748 E.06865
G1 X75.621 Y148.48 E.06865
G1 X73.464 Y148.106 E.06864
G1 X71.328 Y147.626 E.06865
G1 X69.218 Y147.042 E.06865
G1 X67.139 Y146.355 E.06865
G1 X65.096 Y145.568 E.06865
M73 Q3 S49
G1 X63.094 Y144.68 E.06864
G1 X61.139 Y143.696 E.06865
G1 X59.234 Y142.617 E.06865
G1 X57.384 Y141.445 E.06865
G1 X55.594 Y140.185 E.06865
G1 X53.868 Y138.838 E.06865
G1 X52.21 Y137.407 E.06865
G1 X50.624 Y135.898 E.06864
G1 X49.115 Y134.312 E.06864
G1 X47.685 Y132.654 E.06865
G1 X46.337 Y130.928 E.06865
G1 X45.077 Y129.138 E.06864
G1 X43.905 Y127.289 E.06865
G1 X42.826 Y125.383 E.06865
G1 X41.842 Y123.428 E.06865
G1 X40.954 Y121.426 E.06864
G1 X40.167 Y119.384 E.06865
G1 X39.48 Y117.305 E.06865
G1 X38.896 Y115.194 E.06865
G1 X38.416 Y113.058 E.06865
G1 X38.042 Y110.901 E.06864
G1 X37.774 Y108.728 E.06865
G1 X37.613 Y106.544 E.06865
G1 X37.559 Y104.356 E.06864
G1 X37.613 Y102.167 E.06864
G1 X37.774 Y99.984 E.06865
G1 X38.042 Y97.81 E.06865
G1 X38.416 Y95.653 E.06864
G1 X38.896 Y93.517 E.06865
G1 X39.48 Y91.407 E.06865
G1 X40.167 Y89.328 E.06865
G1 X40.954 Y87.285 E.06865
G1 X41.842 Y85.284 E.06864
G1 X42.826 Y83.328 E.06865
G1 X43.905 Y81.423 E.06865
G1 X45.077 Y79.573 E.06865
G1 X46.337 Y77.783 E.06864
G1 X47.685 Y76.057 E.06865
G1 X49.115 Y74.399 E.06865
G1 X50.624 Y72.814 E.06864
G1 X52.21 Y71.304 E.06864
G1 X53.869 Y69.874 E.06869
G1 X55.6 Y68.525 E.0688
G1 X57.401 Y67.262 E.06897
G1 X59.275 Y66.081 E.06945
G1 X61.213 Y64.959 E.07021
G1 X63.502 Y63.712 E.08173
G1 X63.502 Y74.14 E.32695
M204 S1000
G1 X63.879 Y74.419 F10800
M204 S800
G1 F540
G1 X63.376 Y74.706 E.01816
G1 X62.774 Y75.104 E.02264
G1 X61.025 Y76.42 E.06859
G1 X59.888 Y77.356 E.0462
G1 X58.673 Y78.422 E.05069
G1 X57.412 Y79.62 E.05451
G1 X56.227 Y80.864 E.05389
G1 X55.122 Y82.143 E.05299
G1 X54.048 Y83.519 E.05473
G1 X53.06 Y84.924 E.05386
G1 X52.155 Y86.352 E.05299
G1 X51.308 Y87.846 E.05386
G1 X50.535 Y89.38 E.05386
G1 X49.828 Y90.976 E.05473
G1 X49.21 Y92.579 E.05386
G1 X48.672 Y94.21 E.05386
G1 X48.215 Y95.866 E.05386
G1 X47.844 Y97.515 E.05299
G1 X47.546 Y99.234 E.05473
G1 X47.339 Y100.912 E.05299
G1 X47.212 Y102.625 E.05386
G1 X47.169 Y104.37 E.05473
G1 X47.212 Y106.087 E.05386
G1 X47.337 Y107.772 E.05299
G1 X47.55 Y109.505 E.05473
G1 X47.844 Y111.197 E.05386
G1 X48.215 Y112.846 E.05299
M73 P4 R49
G1 X48.672 Y114.502 E.05386
G1 X49.21 Y116.133 E.05386
M73 Q4 S49
G1 X49.839 Y117.761 E.05473
G1 X50.535 Y119.331 E.05386
G1 X51.295 Y120.841 E.05299
G1 X52.155 Y122.36 E.05473
G1 X53.075 Y123.811 E.05386
G1 X54.048 Y125.192 E.05299
G1 X55.122 Y126.568 E.05473
G1 X56.245 Y127.869 E.05386
G1 X57.41 Y129.093 E.05299
G1 X58.674 Y130.296 E.05473
G1 X59.975 Y131.418 E.05386
G1 X61.307 Y132.457 E.05299
G1 X62.735 Y133.462 E.05473
G1 X64.186 Y134.381 E.05386
