; generated by PrusaSlicer 2.0.0+ on 2019-06-11 at 16:19:27

; 

; external perimeters extrusion width = 0.45mm
; perimeters extrusion width = 0.45mm
; infill extrusion width = 0.45mm
; solid infill extrusion width = 0.45mm
; top infill extrusion width = 0.40mm
; first layer extrusion width = 0.42mm

M73 P0 R30
M73 Q0 S30
M201 X1000 Y1000 Z1000 E5000 ; sets maximum accelerations, mm/sec^2
M203 X200 Y200 Z12 E120 ; sets maximum feedrates, mm/sec
M204 P1250 R1250 T1250 ; sets acceleration (P, T) and retract acceleration (R), mm/sec^2
M205 X8.00 Y8.00 Z0.40 E1.50 ; sets the jerk limits, mm/sec
M205 S0 T0 ; sets the minimum extruding and travel feed rate, mm/sec
M107
M115 U3.7.1 ; tell printer latest fw version
G90 ; use absolute coordinates
M83 ; extruder relative mode
M104 S200 ; set extruder temp
M140 S60 ; set bed temp
M190 S60 ; wait for bed temp
M109 S200 ; wait for extruder temp
G28 W ; home all without mesh bed level
G80 ; mesh bed leveling
G1 Y-3.0 F1000.0 ; go outside print area
G92 E0.0
G1 X60.0 E9.0 F1000.0 ; intro line
M73 Q0 S30
M73 P0 R30
G1 X100.0 E12.5 F1000.0 ; intro line
G92 E0.0
M221 S95
M900 K30 ; Filament gcode
G21 ; set units to millimeters
G90 ; use absolute coordinates
M83 ; use relative distances for extrusion
;BEFORE_LAYER_CHANGE
G92 E0.0
;0.2


G1 E-0.80000 F2100.00000
G1 Z0.600 F10800.000
;AFTER_LAYER_CHANGE
;0.2
G1 X118.814 Y83.185
G1 Z0.200
G1 E0.80000 F2100.00000
M204 S1000
G1 F1200
G1 X119.359 Y82.922 E0.01896
G1 X119.958 Y82.818 E0.01908
G1 X129.974 Y82.817 E0.31404
G1 X130.477 Y82.876 E0.01589
G1 X130.957 Y83.052 E0.01601
G1 X131.383 Y83.333 E0.01601
G1 X131.729 Y83.703 E0.01589
G1 X139.772 Y95.763 E0.45451
G1 X140.073 Y96.469 E0.02405
G1 X140.129 Y96.958 E0.01544
G1 X140.129 Y125.002 E0.87930
G1 X139.955 Y125.852 E0.02721
G1 X139.636 Y126.379 E0.01930
G1 X139.184 Y126.796 E0.01930
G1 X138.633 Y127.071 E0.01930
G1 X138.027 Y127.181 E0.01930
G1 X112.045 Y127.183 E0.81467
G1 X111.202 Y127.008 E0.02698
G1 X110.672 Y126.688 E0.01942
G1 X110.256 Y126.234 E0.01930
G1 X109.982 Y125.683 E0.01930
G1 X109.872 Y125.077 E0.01930
G1 X109.871 Y96.951 E0.88188
G1 X110.045 Y96.105 E0.02709
G1 X118.219 Y83.776 E0.46378
G1 X118.772 Y83.228 E0.02443
G1 F8640
G1 X119.359 Y82.922 E-0.15281
G1 X119.958 Y82.818 E-0.14048
G1 X121.979 Y82.818 E-0.46672
G1 E-0.04000 F2100.00000
G1 Z0.800 F10800.000
G1 X132.970 Y116.588
G1 Z0.200
G1 E0.80000 F2100.00000
G1 F1200
G1 X131.938 Y116.382 E0.03301
G1 X131.062 Y115.797 E0.03301
G1 X130.477 Y114.922 E0.03301
G1 X130.272 Y113.889 E0.03301
G1 X130.477 Y112.856 E0.03301
G1 X131.062 Y111.981 E0.03301
G1 X131.938 Y111.396 E0.03301
G1 X132.970 Y111.190 E0.03301
G1 X134.003 Y111.396 E0.03301
G1 X134.879 Y111.981 E0.03301
G1 X135.464 Y112.856 E0.03301
G1 X135.669 Y113.889 E0.03301
G1 X135.464 Y114.922 E0.03301
G1 X134.879 Y115.797 E0.03301
G1 X134.003 Y116.382 E0.03301
G1 X133.029 Y116.576 E0.03113
G1 X132.970 Y116.203 F10800.000
G1 F1200
G1 X132.085 Y116.027 E0.02831
G1 X131.334 Y115.525 E0.02831
G1 X130.832 Y114.775 E0.02831
G1 X130.656 Y113.889 E0.02831
G1 X130.832 Y113.003 E0.02831
G1 X131.334 Y112.253 E0.02831
G1 X132.085 Y111.751 E0.02831
G1 X132.970 Y111.575 E0.02831
G1 X133.856 Y111.751 E0.02831
G1 X134.607 Y112.253 E0.02831
G1 X135.108 Y113.003 E0.02831
G1 X135.285 Y113.889 E0.02831
G1 X135.108 Y114.775 E0.02831
G1 X134.607 Y115.525 E0.02831
G1 X133.856 Y116.027 E0.02831
G1 X133.029 Y116.191 E0.02643
G1 X132.770 Y116.550 F10800.000
G1 F8640
G1 X132.085 Y116.027 E-0.22135
G1 X131.334 Y115.525 E-0.20849
G1 X130.832 Y114.775 E-0.20849
G1 X130.730 Y114.258 E-0.12168
G1 E-0.04000 F2100.00000
G1 Z0.800 F10800.000
G1 X132.970 Y124.408
G1 Z0.200
G1 E0.80000 F2100.00000
G1 F1200
G1 X128.587 Y124.408 E0.13744
G1 X128.587 Y110.417 E0.43865
G1 X128.715 Y109.930 E0.01580
G1 X129.006 Y109.634 E0.01303
G1 X129.476 Y109.506 E0.01527
G1 X136.465 Y109.506 E0.21911
G1 X136.934 Y109.634 E0.01527
G1 X137.226 Y109.930 E0.01303
G1 X137.354 Y110.417 E0.01580
G1 X137.354 Y124.408 E0.43865
G1 X133.030 Y124.408 E0.13556
G1 X132.970 Y124.785 F10800.000
G1 F1200
G1 X128.210 Y124.785 E0.14926
G1 X128.210 Y110.369 E0.45201
G1 X128.376 Y109.737 E0.02046
G1 X128.809 Y109.297 E0.01936
G1 X129.426 Y109.129 E0.02005
G1 X136.515 Y109.129 E0.22228
G1 X137.132 Y109.297 E0.02005
G1 X137.565 Y109.737 E0.01936
G1 X137.731 Y110.369 E0.02046
G1 X137.731 Y124.785 E0.45201
G1 X133.030 Y124.785 E0.14738
G1 X132.647 Y124.549 F10800.000
G1 F8640
G1 X129.739 Y124.785 E-0.76000
G1 E-0.04000 F2100.00000
G1 Z0.800 F10800.000
G1 X129.477 Y124.294
G1 Z0.200
G1 E0.80000 F2100.00000
G1 F1200
G1 X128.870 Y123.688 E0.02739
G1 X128.870 Y123.145 E0.01733
G1 X129.850 Y124.125 E0.04423
G1 X130.393 Y124.125 E0.01733
G1 X128.870 Y122.602 E0.06873
G1 X128.870 Y122.059 E0.01733
G1 X130.935 Y124.125 E0.09324
G1 X131.478 Y124.125 E0.01733
G1 X128.870 Y121.516 E0.11774
G1 X128.870 Y120.973 E0.01733
G1 X132.021 Y124.125 E0.14224
G1 X132.564 Y124.125 E0.01733
G1 X128.870 Y120.431 E0.16674
G1 X128.870 Y119.888 E0.01733
G1 X133.107 Y124.125 E0.19124
G1 X133.650 Y124.125 E0.01733
G1 X128.870 Y119.345 E0.21574
G1 X128.870 Y118.802 E0.01733
G1 X134.192 Y124.125 E0.24025
G1 X134.735 Y124.125 E0.01733
G1 X128.870 Y118.259 E0.26475
G1 X128.870 Y117.716 E0.01733
G1 X135.278 Y124.125 E0.28925
G1 X135.821 Y124.125 E0.01733
G1 X128.870 Y117.174 E0.31375
G1 X128.870 Y116.631 E0.01733
G1 X136.364 Y124.125 E0.33825
G1 X136.907 Y124.125 E0.01733
G1 X128.870 Y116.088 E0.36275
G1 X128.870 Y115.545 E0.01733
G1 X137.071 Y123.746 E0.37017
G1 X137.071 Y123.203 E0.01733
G1 X128.870 Y115.002 E0.37017
G1 X128.870 Y114.459 E0.01733
G1 X137.241 Y122.830 E0.37783
G1 F8640
G1 X134.913 Y120.503 E-0.76000
G1 E-0.04000 F2100.00000
G1 Z0.800 F10800.000
G1 X137.210 Y110.314
G1 Z0.200
G1 E0.80000 F2100.00000
G1 F1200
G1 X136.780 Y109.885 E0.01937
G1 X136.427 Y109.788 E0.01170
G1 X136.141 Y109.788 E0.00911
G1 X137.071 Y110.718 E0.04197
G1 X137.071 Y111.261 E0.01733
G1 X135.598 Y109.788 E0.06647
G1 X135.055 Y109.788 E0.01733
G1 X137.071 Y111.804 E0.09097
G1 X137.071 Y112.347 E0.01733
G1 X134.513 Y109.788 E0.11548
G1 X133.970 Y109.788 E0.01733
G1 X137.071 Y112.890 E0.13998
G1 X137.071 Y113.432 E0.01733
G1 X133.427 Y109.788 E0.16448
G1 X132.884 Y109.788 E0.01733
G1 X137.071 Y113.975 E0.18898
G1 X137.071 Y114.518 E0.01733
G1 X135.837 Y113.284 E0.05570
G1 X135.957 Y113.889 E0.01968
G1 X135.948 Y113.938 E0.00158
G1 X137.071 Y115.061 E0.05070
G1 X137.071 Y115.604 E0.01733
G1 X135.858 Y114.390 E0.05477
G1 X135.768 Y114.843 E0.01473
G1 X137.071 Y116.147 E0.05883
G1 X137.071 Y116.689 E0.01733
G1 X135.603 Y115.222 E0.06625
G1 X135.386 Y115.547 E0.01249
G1 X137.071 Y117.232 E0.07606
G1 X137.071 Y117.775 E0.01733
G1 X135.168 Y115.872 E0.08588
G1 X135.083 Y116.001 E0.00493
G1 X134.886 Y116.133 E0.00756
G1 X137.071 Y118.318 E0.09864
G1 X137.071 Y118.861 E0.01733
G1 X134.560 Y116.350 E0.11333
G1 X134.235 Y116.567 E0.01249
G1 X137.071 Y119.404 E0.12801
G1 X137.071 Y119.946 E0.01733
G1 X133.830 Y116.705 E0.14631
G1 X133.377 Y116.795 E0.01473
G1 X137.071 Y120.489 E0.16674
G1 X137.071 Y121.032 E0.01733
G1 X132.901 Y116.862 E0.18822
G1 X132.223 Y116.727 E0.02205
G1 X137.071 Y121.575 E0.21881
G1 X137.071 Y122.118 E0.01733
G1 X128.870 Y113.917 E0.37017
G1 X128.870 Y113.374 E0.01733
G1 X130.132 Y114.636 E0.05697
G1 X129.997 Y113.958 E0.02205
G1 X128.870 Y112.831 E0.05089
G1 X128.870 Y112.288 E0.01733
G1 X130.064 Y113.483 E0.05392
G1 X130.154 Y113.030 E0.01473
G1 X128.870 Y111.745 E0.05798
G1 X128.870 Y111.202 E0.01733
G1 X130.292 Y112.625 E0.06419
G1 X130.509 Y112.299 E0.01249
G1 X128.870 Y110.660 E0.07400
G1 X128.870 Y110.454 E0.00657
G1 X128.940 Y110.187 E0.00881
G1 X130.727 Y111.974 E0.08065
G1 X130.858 Y111.777 E0.00756
G1 X130.987 Y111.691 E0.00493
G1 X129.176 Y109.881 E0.08172
G1 X129.514 Y109.788 E0.01117
G1 X129.627 Y109.788 E0.00361
G1 X131.312 Y111.474 E0.07606
G1 X131.638 Y111.256 E0.01249
G1 X130.170 Y109.788 E0.06625
G1 X130.713 Y109.788 E0.01733
G1 X132.016 Y111.092 E0.05883
G1 X132.469 Y111.002 E0.01473
G1 X131.256 Y109.788 E0.05477
G1 X131.798 Y109.788 E0.01733
G1 X132.922 Y110.912 E0.05070
G1 X132.970 Y110.902 E0.00158
G1 X133.575 Y111.022 E0.01968
G1 X132.172 Y109.619 E0.06336
G1 F8640
G1 X133.575 Y111.022 E-0.45836
G1 X132.970 Y110.902 E-0.14240
G1 X132.922 Y110.912 E-0.01145
G1 X132.469 Y110.459 E-0.14779
G1 E-0.04000 F2100.00000
G1 Z0.800 F10800.000
G1 X117.030 Y116.588
G1 Z0.200
G1 E0.80000 F2100.00000
G1 F1200
G1 X115.997 Y116.382 E0.03301
G1 X115.121 Y115.797 E0.03301
G1 X114.536 Y114.922 E0.03301
G1 X114.331 Y113.889 E0.03301
G1 X114.536 Y112.856 E0.03301
G1 X115.121 Y111.981 E0.03301
G1 X115.997 Y111.396 E0.03301
G1 X117.030 Y111.190 E0.03301
G1 X118.062 Y111.396 E0.03301
G1 X118.938 Y111.981 E0.03301
G1 X119.523 Y112.856 E0.03301
G1 X119.728 Y113.889 E0.03301
G1 X119.523 Y114.922 E0.03301
G1 X118.938 Y115.797 E0.03301
G1 X118.062 Y116.382 E0.03301
G1 X117.088 Y116.576 E0.03113
G1 X117.030 Y116.203 F10800.000
G1 F1200
G1 X116.144 Y116.027 E0.02831
G1 X115.393 Y115.525 E0.02831
G1 X114.892 Y114.775 E0.02831
G1 X114.715 Y113.889 E0.02831
G1 X114.892 Y113.003 E0.02831
G1 X115.393 Y112.253 E0.02831
G1 X116.144 Y111.751 E0.02831
G1 X117.030 Y111.575 E0.02831
G1 X117.915 Y111.751 E0.02831
G1 X118.666 Y112.253 E0.02831
G1 X119.168 Y113.003 E0.02831
G1 X119.344 Y113.889 E0.02831
G1 X119.168 Y114.775 E0.02831
G1 X118.666 Y115.525 E0.02831
G1 X117.915 Y116.027 E0.02831
G1 X117.088 Y116.191 E0.02643
G1 X116.830 Y116.550 F10800.000
G1 F8640
G1 X116.144 Y116.027 E-0.22135
G1 X115.393 Y115.525 E-0.20849
G1 X114.892 Y114.775 E-0.20849
G1 X114.789 Y114.258 E-0.12168
G1 E-0.04000 F2100.00000
G1 Z0.800 F10800.000
G1 X117.030 Y124.408
G1 Z0.200
G1 E0.80000 F2100.00000
G1 F1200
G1 X112.646 Y124.408 E0.13744
G1 X112.646 Y110.417 E0.43865
G1 X112.774 Y109.930 E0.01580
G1 X113.066 Y109.634 E0.01303
G1 X113.535 Y109.506 E0.01527
G1 X120.524 Y109.506 E0.21911
G1 X120.994 Y109.634 E0.01527
G1 X121.285 Y109.930 E0.01303
G1 X121.413 Y110.417 E0.01580
G1 X121.413 Y124.408 E0.43865
G1 X117.090 Y124.408 E0.13556
G1 X117.030 Y124.785 F10800.000
G1 F1200
G1 X112.269 Y124.785 E0.14926
G1 X112.269 Y110.369 E0.45201
G1 X112.435 Y109.737 E0.02046
G1 X112.868 Y109.297 E0.01936
G1 X113.485 Y109.129 E0.02005
G1 X120.574 Y109.129 E0.22228
G1 X121.191 Y109.297 E0.02005
G1 X121.624 Y109.737 E0.01936
G1 X121.790 Y110.369 E0.02046
G1 X121.790 Y124.785 E0.45201
G1 X117.090 Y124.785 E0.14738
G1 X116.706 Y124.549 F10800.000
G1 F8640
G1 X113.798 Y124.785 E-0.76000
G1 E-0.04000 F2100.00000
G1 Z0.800 F10800.000
G1 X113.536 Y124.294
G1 Z0.200
G1 E0.80000 F2100.00000
G1 F1200
G1 X112.929 Y123.688 E0.02739
G1 X112.929 Y123.145 E0.01733
G1 X113.909 Y124.125 E0.04423
G1 X114.452 Y124.125 E0.01733
G1 X112.929 Y122.602 E0.06873
G1 X112.929 Y122.059 E0.01733
G1 X114.995 Y124.125 E0.09324
G1 X115.537 Y124.125 E0.01733
G1 X112.929 Y121.516 E0.11774
G1 X112.929 Y120.973 E0.01733
G1 X116.080 Y124.125 E0.14224
G1 X116.623 Y124.125 E0.01733
G1 X112.929 Y120.431 E0.16674
G1 X112.929 Y119.888 E0.01733
G1 X117.166 Y124.125 E0.19124
G1 X117.709 Y124.125 E0.01733
G1 X112.929 Y119.345 E0.21574
G1 X112.929 Y118.802 E0.01733
G1 X118.252 Y124.125 E0.24025
G1 X118.794 Y124.125 E0.01733
G1 X112.929 Y118.259 E0.26475
G1 X112.929 Y117.716 E0.01733
G1 X119.337 Y124.125 E0.28925
G1 X119.880 Y124.125 E0.01733
G1 X112.929 Y117.174 E0.31375
G1 X112.929 Y116.631 E0.01733
G1 X120.423 Y124.125 E0.33825
G1 X120.966 Y124.125 E0.01733
G1 X112.929 Y116.088 E0.36275
G1 X112.929 Y115.545 E0.01733
G1 X121.130 Y123.746 E0.37017
G1 X121.130 Y123.203 E0.01733
G1 X112.929 Y115.002 E0.37017
G1 X112.929 Y114.459 E0.01733
G1 X121.300 Y122.830 E0.37783
G1 F8640
G1 X118.972 Y120.503 E-0.76000
G1 E-0.04000 F2100.00000
G1 Z0.800 F10800.000
G1 X121.269 Y110.314
G1 Z0.200
G1 E0.80000 F2100.00000
G1 F1200
G1 X120.840 Y109.885 E0.01937
G1 X120.486 Y109.788 E0.01170
G1 X120.200 Y109.788 E0.00911
G1 X121.130 Y110.718 E0.04197
G1 X121.130 Y111.261 E0.01733
G1 X119.657 Y109.788 E0.06647
G1 X119.115 Y109.788 E0.01733
G1 X121.130 Y111.804 E0.09097
G1 X121.130 Y112.347 E0.01733
G1 X118.572 Y109.788 E0.11548
G1 X118.029 Y109.788 E0.01733
G1 X121.130 Y112.890 E0.13998
G1 X121.130 Y113.432 E0.01733
G1 X117.486 Y109.788 E0.16448
G1 X116.943 Y109.788 E0.01733
G1 X121.130 Y113.975 E0.18898
G1 X121.130 Y114.518 E0.01733
G1 X119.896 Y113.284 E0.05570
G1 X120.016 Y113.889 E0.01968
G1 X120.007 Y113.938 E0.00158
G1 X121.130 Y115.061 E0.05070
G1 X121.130 Y115.604 E0.01733
G1 X119.917 Y114.390 E0.05477
G1 X119.827 Y114.843 E0.01473
G1 X121.130 Y116.147 E0.05883
G1 X121.130 Y116.689 E0.01733
G1 X119.662 Y115.222 E0.06625
G1 X119.445 Y115.547 E0.01249
G1 X121.130 Y117.232 E0.07606
G1 X121.130 Y117.775 E0.01733
G1 X119.228 Y115.872 E0.08588
G1 X119.142 Y116.001 E0.00493
G1 X118.945 Y116.133 E0.00756
G1 X121.130 Y118.318 E0.09864
G1 X121.130 Y118.861 E0.01733
G1 X118.619 Y116.350 E0.11333
G1 X118.294 Y116.567 E0.01249
G1 X121.130 Y119.404 E0.12801
G1 X121.130 Y119.946 E0.01733
G1 X117.889 Y116.705 E0.14631
G1 X117.436 Y116.795 E0.01473
G1 X121.130 Y120.489 E0.16674
G1 X121.130 Y121.032 E0.01733
G1 X116.960 Y116.862 E0.18822
G1 X116.283 Y116.727 E0.02205
G1 X121.130 Y121.575 E0.21881
G1 X121.130 Y122.118 E0.01733
G1 X112.929 Y113.917 E0.37017
G1 X112.929 Y113.374 E0.01733
G1 X114.191 Y114.636 E0.05697
G1 X114.056 Y113.958 E0.02205
G1 X112.929 Y112.831 E0.05089
G1 X112.929 Y112.288 E0.01733
G1 X114.123 Y113.483 E0.05392
G1 X114.214 Y113.030 E0.01473
G1 X112.929 Y111.745 E0.05798
G1 X112.929 Y111.202 E0.01733
G1 X114.351 Y112.625 E0.06419
G1 X114.569 Y112.299 E0.01249
G1 X112.929 Y110.660 E0.07400
G1 X112.929 Y110.454 E0.00657
G1 X112.999 Y110.187 E0.00881
G1 X114.786 Y111.974 E0.08065
G1 X114.918 Y111.777 E0.00756
G1 X115.046 Y111.691 E0.00493
G1 X113.236 Y109.881 E0.08172
G1 X113.573 Y109.788 E0.01117
G1 X113.686 Y109.788 E0.00361
G1 X115.371 Y111.474 E0.07606
G1 X115.697 Y111.256 E0.01249
G1 X114.229 Y109.788 E0.06625
G1 X114.772 Y109.788 E0.01733
G1 X116.075 Y111.092 E0.05883
G1 X116.528 Y111.002 E0.01473
G1 X115.315 Y109.788 E0.05477
G1 X115.858 Y109.788 E0.01733
G1 X116.981 Y110.912 E0.05070
G1 X117.030 Y110.902 E0.00158
G1 X117.634 Y111.022 E0.01968
G1 X116.231 Y109.619 E0.06336
G1 F8640
G1 X117.634 Y111.022 E-0.45836
G1 X117.030 Y110.902 E-0.14240
G1 X116.981 Y110.912 E-0.01145
G1 X116.528 Y110.459 E-0.14779
G1 E-0.04000 F2100.00000
G1 Z0.800 F10800.000
G1 X132.970 Y102.331
G1 Z0.200
G1 E0.80000 F2100.00000
G1 F1200
G1 X128.587 Y102.331 E0.13744
G1 X128.587 Y97.549 E0.14995
G1 X137.354 Y97.549 E0.27487
G1 X137.354 Y102.331 E0.14995
G1 X133.030 Y102.331 E0.13556
G1 X132.970 Y102.709 F10800.000
G1 F1200
G1 X128.210 Y102.709 E0.14926
G1 X128.210 Y97.172 E0.17360
G1 X137.731 Y97.172 E0.29852
G1 X137.731 Y102.709 E0.17360
G1 X133.030 Y102.709 E0.14738
G1 X132.681 Y102.433 F10800.000
G1 F8640
G1 X129.739 Y102.709 E-0.76000
G1 E-0.04000 F2100.00000
G1 Z0.800 F10800.000
G1 X129.486 Y102.218
G1 Z0.200
G1 E0.80000 F2100.00000
G1 F1200
G1 X128.870 Y101.603 E0.02810
G1 X128.870 Y101.054 E0.01771
G1 X129.865 Y102.049 E0.04541
G1 X130.414 Y102.049 E0.01771
G1 X128.870 Y100.505 E0.07045
G1 X128.870 Y99.956 E0.01771
G1 X130.963 Y102.049 E0.09550
G1 X131.511 Y102.049 E0.01771
G1 X128.870 Y99.407 E0.12055
G1 X128.870 Y98.858 E0.01771
G1 X132.060 Y102.049 E0.14559
G1 X132.609 Y102.049 E0.01771
M73 Q3 S29
G1 X128.870 Y98.310 E0.17064
G1 X128.870 Y97.832 E0.01541
G1 X128.941 Y97.832 E0.00230
G1 X133.158 Y102.049 E0.19244
M73 P3 R29
G1 X133.707 Y102.049 E0.01771
G1 X129.490 Y97.832 E0.19244
G1 X130.039 Y97.832 E0.01771
G1 X134.256 Y102.049 E0.19244
G1 X134.804 Y102.049 E0.01771
G1 X130.588 Y97.832 E0.19244
G1 X131.136 Y97.832 E0.01771
G1 X135.353 Y102.049 E0.19244
G1 X135.902 Y102.049 E0.01771
G1 X131.685 Y97.832 E0.19244
G1 X132.234 Y97.832 E0.01771
G1 X136.451 Y102.049 E0.19244
G1 X137.000 Y102.049 E0.01771
G1 X132.783 Y97.832 E0.19244
G1 X133.332 Y97.832 E0.01771
G1 X137.071 Y101.571 E0.17065
G1 X137.071 Y101.022 E0.01771
G1 X133.881 Y97.832 E0.14560
G1 X134.429 Y97.832 E0.01771
