; generated by PrusaSlicer 2.4.2+win64 on 2022-09-04 at 03:29:08 UTC

; 

; external perimeters extrusion width = 0.45mm
; perimeters extrusion width = 0.45mm
; infill extrusion width = 0.45mm
; solid infill extrusion width = 0.45mm
; top infill extrusion width = 0.40mm
; support material extrusion width = 0.35mm
; first layer extrusion width = 0.42mm

M73 P0 R29
M73 Q0 S29
M107
;TYPE:Custom
M862.3 P "MK3S" ; printer model check
M862.1 P0.4 ; nozzle diameter check
M115 U3.8.0 ; tell printer latest fw version
G90 ; use absolute coordinates
M83 ; extruder relative mode
M104 S215 ; set extruder temp
M140 S60 ; set bed temp
M190 S60 ; wait for bed temp
M109 S215 ; wait for extruder temp
G28 W ; home all without mesh bed level
G80 ; mesh bed leveling
G1 Y-3.0 F1000.0 ; go outside print area
G92 E0.0
G1 X60.0 E9.0 F1000.0 ; intro line
G1 X100.0 E12.5 F1000.0 ; intro line
G92 E0.0
M221 S95
G21 ; set units to millimeters
G90 ; use absolute coordinates
M83 ; use relative distances for extrusion
M900 K0.05 ; Filament gcode LA 1.5
M900 K30 ; Filament gcode LA 1.0
M107
;LAYER_CHANGE
;Z:0.2
;HEIGHT:0.2
;BEFORE_LAYER_CHANGE
G92 E0.0
;0.2


G1 E-.8 F2100
G1 Z.6 F10800
;AFTER_LAYER_CHANGE
;0.2
G1 X99.163 Y81.178
G1 Z.2
G1 E.8 F2100
M204 S1000
;TYPE:Skirt/Brim
;WIDTH:0.42
G1 F1200
G1 X99.945 Y80.324 E.03631
G1 X100.685 Y79.77 E.029
G1 X101.734 Y79.259 E.03658
G1 X103.036 Y78.957 E.04189
G1 X137.981 Y75.63 E1.10063
G1 X146.4 Y75.619 E.26398
M73 P0 R28
G1 X147.707 Y76.011 E.04278
G1 X148.368 Y76.662 E.0291
G1 X151.341 Y81.049 E.16616
G1 X151.811 Y81.903 E.03056
G1 X152.077 Y82.711 E.02666
G1 X152.305 Y84.274 E.04953
G1 X152.538 Y87.752 E.10928
G1 X152.517 Y90.159 E.07549
G1 X152.234 Y93.569 E.10727
G1 X151.86 Y95.93 E.07498
G1 X151.355 Y98.213 E.07329
G1 X150.718 Y100.453 E.07302
G1 X150.08 Y102.172 E.0575
G1 X149.421 Y103.138 E.03667
G1 X149.014 Y103.551 E.01817
G1 X148.322 Y104.073 E.02718
G1 X147.547 Y104.467 E.02727
G1 X146.513 Y104.756 E.03364
G1 X107.453 Y110.629 E1.23848
G1 X106.641 Y110.631 E.02546
G1 X105.598 Y110.508 E.03292
G1 X104.496 Y110.212 E.03579
G1 X103.653 Y109.865 E.02857
G1 X102.743 Y109.343 E.03292
G1 X101.785 Y108.586 E.03828
G1 X101.205 Y107.989 E.02608
G1 X100.572 Y107.151 E.03292
G1 X99.903 Y105.886 E.04488
G1 X99.434 Y104.285 E.05232
G1 X97.497 Y91.476 E.40618
G1 X97.454 Y90.747 E.0229
M73 Q0 S28
G1 X97.52 Y88.631 E.06636
G1 X97.693 Y86.586 E.06435
G1 X97.982 Y84.49 E.06636
G1 X98.284 Y82.97 E.04859
G1 X98.718 Y81.885 E.03663
G1 X99.131 Y81.229 E.0243
; printing object mount-base-v2.STL id:0 copy 0
G1 E-.8 F2100
G1 Z.8 F10800
G1 X107.783 Y84.238
G1 Z.2
G1 E.8 F2100
;TYPE:Support material
G1 F1200
G1 X113.83 Y84.831 E.19052
G1 X114.179 Y84.881 E.01105
G1 X114.513 Y84.96 E.01074
G1 X114.838 Y85.068 E.01074
G1 X115.152 Y85.205 E.01074
G1 X115.452 Y85.37 E.01074
G1 X115.737 Y85.561 E.01074
G1 X116.003 Y85.777 E.01074
G1 X116.249 Y86.016 E.01074
G1 X116.472 Y86.276 E.01074
G1 X116.671 Y86.555 E.01074
G1 X116.845 Y86.85 E.01074
G1 X116.991 Y87.16 E.01074
G1 X117.109 Y87.482 E.01074
G1 X117.197 Y87.813 E.01075
G1 X117.256 Y88.151 E.01074
G1 X117.284 Y88.492 E.01074
G1 X117.281 Y88.835 E.01074
G1 X117.248 Y89.176 E.01074
G1 X117.184 Y89.512 E.01074
G1 X117.09 Y89.842 E.01074
G1 X116.967 Y90.162 E.01074
G1 X116.816 Y90.469 E.01074
G1 X116.638 Y90.762 E.01074
G1 X116.434 Y91.038 E.01074
G1 X116.206 Y91.294 E.01074
G1 X115.957 Y91.529 E.01074
G1 X115.687 Y91.74 E.01074
G1 X115.4 Y91.927 E.01074
G1 X115.097 Y92.087 E.01074
G1 X114.781 Y92.219 E.01075
G1 X114.454 Y92.322 E.01074
G1 X114.119 Y92.396 E.01074
G1 X113.779 Y92.439 E.01074
G1 X113.437 Y92.452 E.01075
G1 X113.085 Y92.433 E.01105
G1 X107.037 Y91.84 E.19052
G1 X106.688 Y91.79 E.01105
G1 X106.355 Y91.711 E.01074
G1 X106.03 Y91.603 E.01075
G1 X105.716 Y91.465 E.01074
G1 X105.415 Y91.301 E.01074
G1 X105.131 Y91.109 E.01074
G1 X104.865 Y90.894 E.01075
G1 X104.619 Y90.655 E.01074
G1 X104.396 Y90.395 E.01074
G1 X104.196 Y90.116 E.01074
G1 X104.023 Y89.821 E.01074
G1 X103.877 Y89.511 E.01075
G1 X103.759 Y89.189 E.01074
G1 X103.67 Y88.858 E.01074
G1 X103.612 Y88.52 E.01074
G1 X103.584 Y88.179 E.01074
G1 X103.587 Y87.836 E.01074
G1 X103.62 Y87.495 E.01074
G1 X103.684 Y87.158 E.01074
G1 X103.778 Y86.829 E.01074
G1 X103.901 Y86.509 E.01074
G1 X104.052 Y86.201 E.01075
G1 X104.23 Y85.908 E.01074
G1 X104.434 Y85.633 E.01074
G1 X104.661 Y85.377 E.01074
G1 X104.911 Y85.142 E.01075
G1 X105.18 Y84.93 E.01074
G1 X105.468 Y84.744 E.01074
G1 X105.771 Y84.584 E.01074
G1 X106.087 Y84.452 E.01074
G1 X106.414 Y84.348 E.01074
G1 X106.749 Y84.275 E.01074
G1 X107.089 Y84.232 E.01074
G1 X107.431 Y84.219 E.01074
G1 X107.727 Y84.235 E.00928
G1 X116.62 Y90.464 F10800
G1 F1200
M73 Q1 S28
G1 X116.62 Y87.17 E.10328
G1 X116.386 Y86.739 E.01537
G1 X116.201 Y86.481 E.00995
G1 X116.201 Y90.781 E.13482
G1 X115.963 Y91.057 E.01144
M73 P1 R28
G1 X115.783 Y91.227 E.00776
G1 X115.783 Y86.036 E.16276
G1 X115.364 Y85.719 E.01647
G1 X115.364 Y91.546 E.18269
G1 X114.945 Y91.783 E.01509
G1 X114.945 Y85.485 E.19745
G1 X114.526 Y85.322 E.0141
G1 X114.526 Y91.944 E.20763
G1 X114.107 Y92.051 E.01356
G1 X114.107 Y85.213 E.2144
G1 X113.688 Y85.158 E.01325
G1 X113.688 Y92.103 E.21777
G1 X113.269 Y92.103 E.01314
G1 X113.269 Y85.117 E.21906
G1 X112.85 Y85.075 E.0132
G1 X112.85 Y92.069 E.21928
G1 X112.431 Y92.028 E.0132
G1 X112.431 Y85.034 E.21928
G1 X112.012 Y84.993 E.0132
G1 X112.012 Y91.987 E.21928
G1 X111.593 Y91.946 E.0132
G1 X111.593 Y84.952 E.21928
G1 X111.174 Y84.911 E.0132
G1 X111.174 Y91.905 E.21928
G1 X110.755 Y91.864 E.0132
G1 X110.755 Y84.87 E.21928
G1 X110.336 Y84.829 E.0132
G1 X110.336 Y91.823 E.21928
G1 X109.917 Y91.781 E.0132
G1 X109.917 Y84.788 E.21928
G1 X109.498 Y84.747 E.0132
G1 X109.498 Y91.74 E.21928
G1 X109.079 Y91.699 E.0132
G1 X109.079 Y84.706 E.21928
G1 X108.66 Y84.665 E.0132
G1 X108.66 Y91.658 E.21928
G1 X108.241 Y91.617 E.0132
G1 X108.241 Y84.623 E.21928
G1 X107.822 Y84.582 E.0132
G1 X107.822 Y91.576 E.21928
G1 X107.403 Y91.535 E.0132
G1 X107.403 Y84.56 E.21871
G1 X106.984 Y84.587 E.01316
G1 X106.984 Y91.49 E.21643
G1 X106.565 Y91.412 E.01336
G1 X106.565 Y84.663 E.21162
G1 X106.146 Y84.795 E.01378
G1 X106.146 Y91.283 E.20343
G1 X105.727 Y91.084 E.01454
G1 X105.727 Y84.991 E.19106
G1 X105.308 Y85.261 E.01564
G1 X105.308 Y90.816 E.17416
G1 X105.09 Y90.64 E.00879
G1 X104.889 Y90.444 E.0088
G1 X104.889 Y85.631 E.15091
G1 X104.698 Y85.847 E.00904
G1 X104.47 Y86.167 E.01231
G1 X104.47 Y89.912 E.11743
G1 X104.323 Y89.662 E.00909
G1 X104.19 Y89.38 E.00979
G1 X104.051 Y88.968 E.01363
G1 X104.051 Y86.591 E.07454
G1 E-.8 F2100
G1 Z.8 F10800
G1 X135.483 Y97.61
G1 Z.2
G1 E.8 F2100
G1 F1200
G1 X135.962 Y97.699 E.01527
G1 X136.409 Y97.867 E.01497
G1 X136.628 Y97.984 E.00779
G1 X142.121 Y101.232 E.20008
G1 X141.818 Y102.34 E.036
G1 X133.592 Y102.34 E.25792
G1 X133.592 Y97.424 E.15412
G1 X135.427 Y97.604 E.05781
G1 X141.34 Y102.17 F10800
G1 F1200
G1 X141.34 Y101.165 E.03152
G1 X140.921 Y100.917 E.01526
G1 X140.921 Y102 E.03397
G1 X140.502 Y102 E.01314
G1 X140.502 Y100.669 E.04174
G1 X140.083 Y100.421 E.01526
G1 X140.083 Y102 E.04951
G1 X139.664 Y102 E.01314
G1 X139.664 Y100.173 E.05728
G1 X139.245 Y99.926 E.01526
G1 X139.245 Y102 E.06505
G1 X138.826 Y102 E.01314
G1 X138.826 Y99.678 E.07282
G1 X138.407 Y99.43 E.01526
G1 X138.407 Y102 E.08059
G1 X137.988 Y102 E.01314
G1 X137.988 Y99.182 E.08836
G1 X137.569 Y98.934 E.01526
G1 X137.569 Y102 E.09613
G1 X137.15 Y102 E.01314
G1 X137.15 Y98.687 E.10389
G1 X136.731 Y98.439 E.01526
G1 X136.731 Y102 E.11166
G1 X136.312 Y102 E.01314
G1 X136.312 Y98.2 E.11915
G1 X135.893 Y98.033 E.01414
G1 X135.893 Y102 E.12438
G1 X135.474 Y102 E.01314
G1 X135.474 Y97.951 E.12696
G1 X135.055 Y97.909 E.0132
G1 X135.055 Y102 E.12829
G1 X134.636 Y102 E.01314
G1 X134.636 Y97.868 E.12958
G1 X134.217 Y97.827 E.0132
G1 X134.217 Y102.17 E.13619
G1 E-.8 F2100
G1 Z.8 F10800
G1 X146.4 Y81.008
G1 Z.2
G1 E.8 F2100
G1 F1200
G1 X137.766 Y84.032 E.28684
G1 X137.295 Y84.11 E.01497
G1 X137.056 Y84.118 E.00749
G1 X135.899 Y84.015 E.03642
G1 X135.899 Y80.303 E.11639
G1 X138.206 Y80.303 E.07234
G1 X138.206 Y77.996 E.07234
G1 X146.4 Y77.996 E.25692
M73 Q2 S28
G1 X146.4 Y80.952 E.09268
M73 P2 R28
G1 X145.949 Y80.982 F10800
G1 F1200
G1 X145.949 Y78.335 E.08298
G1 X145.53 Y78.335 E.01314
G1 X145.53 Y80.95 E.08197
G1 X145.111 Y81.097 E.01393
G1 X145.111 Y78.335 E.08659
G1 X144.692 Y78.335 E.01314
G1 X144.692 Y81.245 E.09122
G1 X144.273 Y81.392 E.01393
G1 X144.273 Y78.335 E.09585
G1 X143.854 Y78.335 E.01314
G1 X143.854 Y81.54 E.10047
G1 X143.435 Y81.687 E.01393
G1 X143.435 Y78.335 E.1051
G1 X143.016 Y78.335 E.01314
G1 X143.016 Y81.835 E.10972
G1 X142.597 Y81.982 E.01393
G1 X142.597 Y78.335 E.11435
G1 X142.178 Y78.335 E.01314
G1 X142.178 Y82.13 E.11898
G1 X141.759 Y82.278 E.01393
G1 X141.759 Y78.335 E.1236
G1 X141.34 Y78.335 E.01314
G1 X141.34 Y82.425 E.12823
G1 X140.921 Y82.573 E.01393
G1 X140.921 Y78.335 E.13285
G1 X140.502 Y78.335 E.01314
G1 X140.502 Y82.72 E.13748
G1 X140.083 Y82.868 E.01393
G1 X140.083 Y78.335 E.14211
G1 X139.664 Y78.335 E.01314
G1 X139.664 Y83.015 E.14673
G1 X139.245 Y83.163 E.01393
G1 X139.245 Y78.335 E.15136
G1 X138.826 Y78.335 E.01314
G1 X138.826 Y83.31 E.15598
G1 X138.407 Y83.458 E.01393
G1 X138.407 Y80.643 E.08827
G1 X137.988 Y80.643 E.01314
G1 X137.988 Y83.605 E.0929
G1 X137.569 Y83.727 E.01368
G1 X137.569 Y80.643 E.0967
G1 X137.15 Y80.643 E.01314
G1 X137.15 Y83.775 E.09822
G1 X136.731 Y83.756 E.01315
G1 X136.731 Y80.643 E.09762
G1 X136.312 Y80.643 E.01314
G1 X136.312 Y83.885 E.10168
G1 E-.8 F2100
G1 Z.8 F10800
G1 X109.454 Y101.264
G1 Z.2
G1 E.8 F2100
;TYPE:Perimeter
G1 F1200
G1 X109.655 Y101.602 E.01234
G1 X109.801 Y101.943 E.01161
G1 X109.896 Y102.271 E.01073
G1 X109.96 Y102.661 E.01239
G1 X109.97 Y103.034 E.0117
G1 X109.934 Y103.403 E.01161
G1 X109.852 Y103.764 E.01161
G1 X109.725 Y104.111 E.01161
G1 X109.556 Y104.441 E.01161
G1 X109.347 Y104.746 E.01161
G1 X109.101 Y105.023 E.01161
G1 X108.823 Y105.267 E.01161
G1 X108.539 Y105.458 E.01073
G1 X108.188 Y105.64 E.01239
G1 X107.837 Y105.765 E.0117
G1 X107.475 Y105.844 E.01161
G1 X107.107 Y105.878 E.01161
G1 X106.737 Y105.865 E.01161
G1 X106.371 Y105.806 E.01161
G1 X106.016 Y105.701 E.01161
G1 X105.677 Y105.553 E.01161
G1 X105.383 Y105.378 E.01073
G1 X105.069 Y105.137 E.01239
G1 X104.807 Y104.873 E.0117
G1 X104.581 Y104.579 E.01161
G1 X104.393 Y104.26 E.01161
G1 X104.248 Y103.92 E.01161
G1 X104.146 Y103.564 E.01161
G1 X104.089 Y103.198 E.01161
G1 X104.079 Y102.828 E.01161
G1 X104.115 Y102.46 E.01161
G1 X104.197 Y102.099 E.01161
G1 X104.323 Y101.751 E.01161
G1 X104.493 Y101.422 E.01161
G1 X104.702 Y101.116 E.01161
G1 X104.947 Y100.84 E.01161
G1 X105.226 Y100.596 E.01161
G1 X105.533 Y100.389 E.01161
G1 X105.863 Y100.222 E.01161
G1 X106.212 Y100.098 E.01161
G1 X106.574 Y100.018 E.01161
G1 X106.914 Y99.987 E.01073
G1 X107.309 Y99.997 E.01239
G1 X107.678 Y100.057 E.0117
G1 X108.033 Y100.161 E.01161
G1 X108.372 Y100.31 E.01161
G1 X108.69 Y100.499 E.01161
G1 X108.981 Y100.727 E.01161
G1 X109.242 Y100.99 E.01161
G1 X109.417 Y101.217 E.00898
G1 X109.155 Y101.494 F10800
;TYPE:External perimeter
G1 F1200
G1 X109.318 Y101.773 E.01012
G1 X109.445 Y102.069 E.01012
G1 X109.527 Y102.354 E.0093
G1 X109.584 Y102.697 E.0109
G1 X109.593 Y103.021 E.01015
G1 X109.561 Y103.342 E.01012
G1 X109.49 Y103.657 E.01012
G1 X109.379 Y103.96 E.01012
G1 X109.232 Y104.247 E.01012
G1 X109.049 Y104.513 E.01012
G1 X108.835 Y104.755 E.01012
G1 X108.592 Y104.967 E.01012
G1 X108.346 Y105.133 E.0093
G1 X108.038 Y105.293 E.0109
G1 X107.733 Y105.402 E.01015
G1 X107.417 Y105.471 E.01012
G1 X107.096 Y105.5 E.01012
G1 X106.774 Y105.489 E.01012
G1 X106.455 Y105.437 E.01012
G1 X106.145 Y105.346 E.01012
G1 X105.85 Y105.217 E.01012
G1 X105.595 Y105.065 E.0093
G1 X105.319 Y104.854 E.0109
G1 X105.091 Y104.624 E.01015
G1 X104.894 Y104.368 E.01012
G1 X104.731 Y104.09 E.01012
G1 X104.603 Y103.793 E.01012
G1 X104.515 Y103.483 E.01012
G1 X104.465 Y103.164 E.01012
G1 X104.456 Y102.842 E.01012
G1 X104.488 Y102.52 E.01012
G1 X104.559 Y102.206 E.01012
G1 X104.67 Y101.902 E.01012
G1 X104.817 Y101.615 E.01012
G1 X104.999 Y101.349 E.01012
G1 X105.214 Y101.108 E.01012
G1 X105.456 Y100.895 E.01012
G1 X105.724 Y100.715 E.01012
G1 X106.012 Y100.569 E.01012
G1 X106.316 Y100.461 E.01012
G1 X106.631 Y100.392 E.01012
G1 X106.927 Y100.365 E.0093
G1 X107.274 Y100.374 E.0109
G1 X107.594 Y100.425 E.01015
G1 X107.903 Y100.516 E.01012
G1 X108.199 Y100.646 E.01012
G1 X108.476 Y100.811 E.01012
G1 X108.731 Y101.01 E.01012
G1 X108.958 Y101.239 E.01012
G1 X109.118 Y101.447 E.00824
G1 X109.477 Y101.472 F10800
G1 E-.8 F2100
G1 Z.8 F10800
G1 X109.953 Y93.354
G1 Z.2
G1 E.8 F2100
;TYPE:Perimeter
G1 F1200
G1 X106.891 Y93.054 E.09648
G1 X106.46 Y92.992 E.01363
G1 X106.02 Y92.888 E.01419
G1 X105.591 Y92.744 E.01419
G1 X105.176 Y92.563 E.01419
G1 X104.78 Y92.346 E.01419
G1 X104.404 Y92.093 E.01419
G1 X104.053 Y91.808 E.01419
G1 X103.728 Y91.493 E.01419
G1 X103.433 Y91.15 E.01419
G1 X103.17 Y90.782 E.01419
G1 X102.941 Y90.392 E.01419
G1 X102.748 Y89.982 E.01419
G1 X102.593 Y89.558 E.01419
G1 X102.476 Y89.121 E.01419
G1 X102.398 Y88.675 E.01419
G1 X102.361 Y88.224 E.01419
G1 X102.365 Y87.771 E.01419
G1 X102.409 Y87.321 E.01419
G1 X102.494 Y86.877 E.01419
G1 X102.617 Y86.441 E.01419
G1 X102.78 Y86.019 E.01419
G1 X102.971 Y85.63 E.01359
G1 X103.214 Y85.227 E.01474
G1 X103.483 Y84.863 E.01422
G1 X103.784 Y84.524 E.01419
G1 X104.113 Y84.214 E.01419
G1 X104.469 Y83.935 E.01419
G1 X104.849 Y83.689 E.01419
G1 X105.249 Y83.477 E.01419
G1 X105.666 Y83.303 E.01419
G1 X106.098 Y83.167 E.01419
G1 X106.54 Y83.069 E.01419
G1 X106.989 Y83.012 E.01419
G1 X107.422 Y82.996 E.01359
G1 X107.874 Y83.019 E.01419
G1 X113.977 Y83.617 E.19228
G1 X114.407 Y83.679 E.01363
G1 X114.848 Y83.783 E.01419
G1 X115.277 Y83.926 E.01419
G1 X115.691 Y84.107 E.01419
G1 X116.088 Y84.325 E.01419
G1 X116.464 Y84.577 E.01419
G1 X116.815 Y84.862 E.01419
G1 X117.14 Y85.178 E.01419
G1 X117.435 Y85.521 E.01419
G1 X117.698 Y85.889 E.01419
G1 X117.927 Y86.279 E.01419
G1 X118.12 Y86.688 E.01419
G1 X118.275 Y87.113 E.01419
G1 X118.392 Y87.55 E.01419
G1 X118.469 Y87.996 E.01419
G1 X118.506 Y88.447 E.01419
G1 X118.503 Y88.899 E.01419
G1 X118.458 Y89.35 E.01419
G1 X118.374 Y89.794 E.01419
G1 X118.25 Y90.229 E.01419
G1 X118.088 Y90.652 E.01419
G1 X117.888 Y91.058 E.01419
G1 X117.653 Y91.444 E.01419
G1 X117.384 Y91.808 E.01419
G1 X117.084 Y92.147 E.01419
G1 X116.754 Y92.457 E.01419
G1 X116.398 Y92.736 E.01419
G1 X116.019 Y92.982 E.01419
G1 X115.619 Y93.193 E.01419
G1 X115.201 Y93.368 E.01419
G1 X114.77 Y93.504 E.01419
G1 X114.328 Y93.601 E.01419
G1 X113.879 Y93.658 E.01419
G1 X113.427 Y93.675 E.01419
G1 X112.993 Y93.652 E.01363
G1 X110.013 Y93.36 E.09388
G1 X109.99 Y92.979 F10800
;TYPE:External perimeter
G1 F1200
G1 X106.936 Y92.679 E.09622
G1 X106.531 Y92.621 E.01284
G1 X106.123 Y92.525 E.01312
G1 X105.726 Y92.392 E.01312
G1 X105.343 Y92.224 E.01312
G1 X104.976 Y92.023 E.01312
G1 X104.628 Y91.79 E.01312
G1 X104.303 Y91.526 E.01312
G1 X104.003 Y91.235 E.01312
G1 X103.73 Y90.917 E.01312
G1 X103.487 Y90.576 E.01312
G1 X103.275 Y90.215 E.01312
G1 X103.096 Y89.837 E.01312
G1 X102.952 Y89.444 E.01312
G1 X102.844 Y89.039 E.01312
G1 X102.773 Y88.627 E.01312
G1 X102.739 Y88.21 E.01312
G1 X102.742 Y87.791 E.01312
G1 X102.783 Y87.375 E.01312
G1 X102.861 Y86.963 E.01312
G1 X102.975 Y86.561 E.01312
G1 X103.126 Y86.17 E.01312
G1 X103.302 Y85.811 E.01255
G1 X103.528 Y85.437 E.01368
G1 X103.777 Y85.1 E.01314
G1 X104.055 Y84.787 E.01312
G1 X104.359 Y84.5 E.01312
G1 X104.689 Y84.242 E.01312
G1 X105.04 Y84.014 E.01312
G1 X105.41 Y83.819 E.01312
G1 X105.796 Y83.657 E.01312
G1 X106.195 Y83.531 E.01312
G1 X106.604 Y83.441 E.01312
G1 X107.019 Y83.389 E.01312
G1 X107.42 Y83.374 E.01255
G1 X107.846 Y83.395 E.01339
G1 X113.932 Y83.992 E.19173
G1 X114.337 Y84.05 E.01284
G1 X114.744 Y84.146 E.01312
G1 X115.141 Y84.279 E.01312
G1 X115.525 Y84.446 E.01312
G1 X115.892 Y84.648 E.01312
G1 X116.239 Y84.881 E.01312
G1 X116.565 Y85.145 E.01312
G1 X116.865 Y85.436 E.01312
