; generated by PrusaSlicer 2.1.1+win64 on 2020-06-09 at 18:30:57 UTC

; 

; external perimeters extrusion width = 0.45mm
; perimeters extrusion width = 0.45mm
; infill extrusion width = 0.45mm
; solid infill extrusion width = 0.45mm
; top infill extrusion width = 0.40mm
; first layer extrusion width = 0.42mm

M73 P0 R138
M73 Q0 S139
M201 X1000 Y1000 Z1000 E5000 ; sets maximum accelerations, mm/sec^2
M203 X200 Y200 Z12 E120 ; sets maximum feedrates, mm/sec
M204 P1250 R1250 T1250 ; sets acceleration (P, T) and retract acceleration (R), mm/sec^2
M205 X8.00 Y8.00 Z0.40 E1.50 ; sets the jerk limits, mm/sec
M205 S0 T0 ; sets the minimum extruding and travel feed rate, mm/sec
M107
M862.3 P "MK3S" ; printer model check
M862.1 P0.4 ; nozzle diameter check
M115 U3.8.0 ; tell printer latest fw version
G90 ; use absolute coordinates
M83 ; extruder relative mode
M104 S215 ; set extruder temp
M140 S60 ; set bed temp
M190 S60 ; wait for bed temp
M109 S215 ; wait for extruder temp
G28 W ; home all without mesh bed level
G80 ; mesh bed leveling
G1 Y-3.0 F1000.0 ; go outside print area
G92 E0.0
G1 X60.0 E9.0 F1000.0 ; intro line
M73 Q0 S139
M73 P0 R137
G1 X100.0 E12.5 F1000.0 ; intro line
G92 E0.0
M221 S95
G21 ; set units to millimeters
G90 ; use absolute coordinates
M83 ; use relative distances for extrusion
M900 K30 ; Filament gcode
;BEFORE_LAYER_CHANGE
G92 E0.0
;0.2


G1 E-0.80000 F2100.00000
G1 Z0.600 F10800.000
;AFTER_LAYER_CHANGE
;0.2
G1 X123.659 Y148.947
G1 Z0.200
G1 E0.80000 F2100.00000
M204 S1000
G1 F1200
G1 X122.025 Y148.867 E0.05130
G1 X120.406 Y148.627 E0.05130
G1 X118.819 Y148.229 E0.05130
G1 X117.279 Y147.678 E0.05130
G1 X115.800 Y146.978 E0.05130
G1 X114.397 Y146.137 E0.05130
G1 X113.083 Y145.163 E0.05130
G1 X111.871 Y144.064 E0.05130
G1 X110.772 Y142.852 E0.05130
G1 X109.797 Y141.538 E0.05130
G1 X108.956 Y140.135 E0.05130
G1 X108.257 Y138.656 E0.05130
G1 X107.706 Y137.115 E0.05130
G1 X107.308 Y135.528 E0.05130
G1 X107.068 Y133.910 E0.05130
G1 X106.988 Y132.276 E0.05130
G1 X107.068 Y130.642 E0.05130
G1 X107.308 Y129.024 E0.05130
G1 X107.706 Y127.437 E0.05130
G1 X108.257 Y125.896 E0.05130
G1 X108.956 Y124.417 E0.05130
G1 X109.797 Y123.014 E0.05130
G1 X110.772 Y121.700 E0.05130
G1 X111.871 Y120.488 E0.05130
G1 X113.083 Y119.389 E0.05130
G1 X114.397 Y118.415 E0.05130
G1 X115.800 Y117.574 E0.05130
G1 X117.279 Y116.874 E0.05130
G1 X118.819 Y116.323 E0.05130
G1 X120.406 Y115.925 E0.05130
G1 X122.025 Y115.685 E0.05130
G1 X123.584 Y115.609 E0.04895
G1 X125.291 Y115.685 E0.05359
G1 X126.911 Y115.925 E0.05134
G1 X128.498 Y116.323 E0.05130
G1 X130.038 Y116.874 E0.05130
G1 X131.517 Y117.574 E0.05130
G1 X132.921 Y118.415 E0.05130
G1 X134.235 Y119.389 E0.05130
G1 X135.447 Y120.488 E0.05130
G1 X136.545 Y121.700 E0.05130
G1 X137.520 Y123.014 E0.05130
G1 X138.361 Y124.417 E0.05130
G1 X139.061 Y125.896 E0.05130
G1 X139.612 Y127.437 E0.05130
G1 X140.009 Y129.024 E0.05130
G1 X140.249 Y130.642 E0.05130
G1 X140.330 Y132.276 E0.05130
G1 X140.249 Y133.910 E0.05130
G1 X140.009 Y135.528 E0.05130
G1 X139.612 Y137.115 E0.05130
G1 X139.061 Y138.656 E0.05130
G1 X138.361 Y140.135 E0.05130
G1 X137.520 Y141.538 E0.05130
G1 X136.546 Y142.852 E0.05130
G1 X135.447 Y144.064 E0.05130
G1 X134.235 Y145.163 E0.05130
G1 X132.921 Y146.137 E0.05130
G1 X131.517 Y146.978 E0.05130
G1 X130.038 Y147.678 E0.05130
G1 X128.498 Y148.229 E0.05130
G1 X126.911 Y148.627 E0.05130
G1 X125.293 Y148.867 E0.05130
G1 X123.719 Y148.944 E0.04941
G1 X123.659 Y148.569 F10800.000
G1 F1200
G1 X122.062 Y148.491 E0.05014
G1 X120.480 Y148.256 E0.05013
G1 X118.929 Y147.868 E0.05013
G1 X117.423 Y147.329 E0.05013
G1 X115.978 Y146.645 E0.05013
G1 X114.607 Y145.823 E0.05013
G1 X113.322 Y144.871 E0.05013
G1 X112.138 Y143.797 E0.05013
G1 X111.064 Y142.612 E0.05013
G1 X110.111 Y141.328 E0.05013
G1 X109.289 Y139.957 E0.05013
G1 X108.606 Y138.511 E0.05013
G1 X108.067 Y137.006 E0.05013
G1 X107.678 Y135.455 E0.05013
G1 X107.444 Y133.873 E0.05013
G1 X107.365 Y132.276 E0.05013
G1 X107.444 Y130.679 E0.05013
G1 X107.678 Y129.097 E0.05013
G1 X108.067 Y127.546 E0.05013
G1 X108.606 Y126.041 E0.05013
G1 X109.289 Y124.595 E0.05013
G1 X110.111 Y123.224 E0.05013
G1 X111.064 Y121.940 E0.05013
G1 X112.138 Y120.755 E0.05013
G1 X113.322 Y119.681 E0.05013
G1 X114.607 Y118.729 E0.05013
G1 X115.978 Y117.907 E0.05013
G1 X117.424 Y117.223 E0.05013
G1 X118.929 Y116.684 E0.05013
G1 X120.480 Y116.296 E0.05013
G1 X122.062 Y116.061 E0.05013
G1 X123.585 Y115.986 E0.04781
G1 X125.255 Y116.061 E0.05243
G1 X126.837 Y116.296 E0.05015
G1 X128.388 Y116.684 E0.05013
G1 X129.894 Y117.223 E0.05013
G1 X131.339 Y117.907 E0.05013
G1 X132.711 Y118.729 E0.05013
G1 X133.995 Y119.681 E0.05013
G1 X135.180 Y120.755 E0.05013
G1 X136.254 Y121.940 E0.05013
G1 X137.206 Y123.224 E0.05013
G1 X138.028 Y124.595 E0.05013
G1 X138.712 Y126.041 E0.05013
G1 X139.251 Y127.546 E0.05013
G1 X139.639 Y129.097 E0.05013
G1 X139.874 Y130.679 E0.05013
G1 X139.952 Y132.276 E0.05013
G1 X139.874 Y133.873 E0.05013
G1 X139.639 Y135.455 E0.05013
G1 X139.251 Y137.006 E0.05013
G1 X138.712 Y138.511 E0.05013
G1 X138.028 Y139.957 E0.05013
G1 X137.206 Y141.328 E0.05013
G1 X136.254 Y142.612 E0.05013
G1 X135.180 Y143.797 E0.05013
G1 X133.995 Y144.871 E0.05013
G1 X132.711 Y145.823 E0.05013
G1 X131.339 Y146.646 E0.05013
G1 X129.894 Y147.329 E0.05013
G1 X128.388 Y147.868 E0.05013
G1 X126.837 Y148.256 E0.05013
G1 X125.256 Y148.491 E0.05013
G1 X123.719 Y148.566 E0.04825
G1 X123.459 Y148.916 F10800.000
G1 E-0.80000 F2100.00000
G1 Z0.800 F10800.000
G1 X123.659 Y155.951
G1 Z0.200
G1 E0.80000 F2100.00000
G1 F1200
G1 X121.338 Y155.837 E0.07285
G1 X119.040 Y155.496 E0.07285
G1 X116.786 Y154.932 E0.07285
G1 X114.599 Y154.149 E0.07285
G1 X112.498 Y153.156 E0.07285
G1 X110.505 Y151.961 E0.07285
G1 X108.639 Y150.577 E0.07285
G1 X106.918 Y149.017 E0.07285
G1 X105.357 Y147.295 E0.07285
G1 X103.973 Y145.429 E0.07285
G1 X102.779 Y143.436 E0.07285
G1 X101.786 Y141.336 E0.07285
G1 X101.003 Y139.149 E0.07285
G1 X100.438 Y136.895 E0.07285
G1 X100.097 Y134.597 E0.07285
G1 X99.983 Y132.276 E0.07285
G1 X100.097 Y129.955 E0.07285
G1 X100.438 Y127.657 E0.07285
G1 X101.003 Y125.403 E0.07285
G1 X101.786 Y123.216 E0.07285
G1 X102.779 Y121.116 E0.07285
G1 X103.973 Y119.123 E0.07285
G1 X105.357 Y117.257 E0.07285
G1 X106.918 Y115.535 E0.07285
G1 X108.639 Y113.975 E0.07285
G1 X110.505 Y112.591 E0.07285
G1 X112.498 Y111.396 E0.07285
G1 X114.599 Y110.403 E0.07285
G1 X116.786 Y109.620 E0.07285
G1 X119.040 Y109.056 E0.07285
G1 X121.338 Y108.715 E0.07285
G1 X123.659 Y108.601 E0.07285
G1 X125.979 Y108.715 E0.07285
G1 X128.278 Y109.056 E0.07285
G1 X130.531 Y109.620 E0.07285
G1 X132.719 Y110.403 E0.07285
G1 X134.819 Y111.396 E0.07285
G1 X136.812 Y112.591 E0.07285
G1 X138.678 Y113.975 E0.07285
G1 X140.400 Y115.535 E0.07285
G1 X141.960 Y117.257 E0.07285
G1 X143.344 Y119.123 E0.07285
G1 X144.538 Y121.116 E0.07285
G1 X145.532 Y123.216 E0.07285
G1 X146.315 Y125.403 E0.07285
G1 X146.879 Y127.657 E0.07285
G1 X147.220 Y129.955 E0.07285
G1 X147.334 Y132.276 E0.07285
G1 X147.220 Y134.597 E0.07285
G1 X146.879 Y136.895 E0.07285
G1 X146.315 Y139.149 E0.07285
G1 X145.532 Y141.336 E0.07285
G1 X144.538 Y143.436 E0.07285
G1 X143.344 Y145.429 E0.07285
G1 X141.960 Y147.295 E0.07285
G1 X140.400 Y149.017 E0.07285
G1 X138.678 Y150.577 E0.07285
G1 X136.812 Y151.961 E0.07285
G1 X134.819 Y153.156 E0.07285
G1 X132.719 Y154.149 E0.07285
G1 X130.531 Y154.932 E0.07285
G1 X128.278 Y155.496 E0.07285
G1 X125.979 Y155.837 E0.07285
G1 X123.719 Y155.948 E0.07097
G1 X123.659 Y156.329 F10800.000
G1 F1200
G1 X121.301 Y156.213 E0.07401
G1 X118.966 Y155.867 E0.07401
G1 X116.677 Y155.293 E0.07401
G1 X114.454 Y154.498 E0.07401
G1 X112.320 Y153.489 E0.07401
G1 X110.296 Y152.275 E0.07401
G1 X108.400 Y150.869 E0.07401
G1 X106.651 Y149.284 E0.07401
G1 X105.066 Y147.535 E0.07401
G1 X103.660 Y145.639 E0.07401
G1 X102.446 Y143.614 E0.07401
G1 X101.437 Y141.481 E0.07401
G1 X100.642 Y139.258 E0.07401
G1 X100.068 Y136.968 E0.07401
G1 X99.722 Y134.634 E0.07401
G1 X99.606 Y132.276 E0.07401
G1 X99.722 Y129.918 E0.07401
G1 X100.068 Y127.584 E0.07401
G1 X100.642 Y125.294 E0.07401
G1 X101.437 Y123.071 E0.07401
G1 X102.446 Y120.938 E0.07401
G1 X103.660 Y118.913 E0.07401
G1 X105.066 Y117.017 E0.07401
G1 X106.651 Y115.268 E0.07401
G1 X108.400 Y113.683 E0.07401
G1 X110.296 Y112.277 E0.07401
G1 X112.320 Y111.063 E0.07401
G1 X114.454 Y110.054 E0.07401
G1 X116.677 Y109.259 E0.07401
G1 X118.966 Y108.685 E0.07401
G1 X121.301 Y108.339 E0.07401
G1 X123.659 Y108.223 E0.07401
G1 X126.016 Y108.339 E0.07401
G1 X128.351 Y108.685 E0.07401
G1 X130.641 Y109.259 E0.07401
G1 X132.863 Y110.054 E0.07401
G1 X134.997 Y111.063 E0.07401
G1 X137.022 Y112.277 E0.07401
G1 X138.918 Y113.683 E0.07401
G1 X140.667 Y115.268 E0.07401
G1 X142.252 Y117.017 E0.07401
G1 X143.658 Y118.913 E0.07401
G1 X144.871 Y120.938 E0.07401
G1 X145.881 Y123.071 E0.07401
G1 X146.676 Y125.294 E0.07401
G1 X147.249 Y127.584 E0.07401
G1 X147.596 Y129.918 E0.07401
G1 X147.712 Y132.276 E0.07401
G1 X147.596 Y134.634 E0.07401
G1 X147.249 Y136.968 E0.07401
G1 X146.676 Y139.258 E0.07401
G1 X145.881 Y141.481 E0.07401
G1 X144.871 Y143.614 E0.07401
G1 X143.658 Y145.639 E0.07401
G1 X142.252 Y147.535 E0.07401
G1 X140.667 Y149.284 E0.07401
G1 X138.918 Y150.869 E0.07401
G1 X137.022 Y152.275 E0.07401
G1 X134.997 Y153.489 E0.07401
G1 X132.863 Y154.498 E0.07401
G1 X130.641 Y155.293 E0.07401
G1 X128.351 Y155.867 E0.07401
G1 X126.016 Y156.213 E0.07401
G1 X123.719 Y156.326 E0.07213
G1 X123.459 Y155.982 F10800.000
G1 E-0.80000 F2100.00000
G1 Z0.800 F10800.000
G1 X112.233 Y152.865
G1 Z0.200
G1 E0.80000 F2100.00000
G1 F1200
G1 X103.070 Y143.702 E0.40654
G1 E-0.80000 F2100.00000
G1 Z0.800 F10800.000
G1 X102.515 Y142.613
G1 Z0.200
G1 E0.80000 F2100.00000
G1 F1200
G1 X112.966 Y153.064 E0.46369
G1 X113.978 Y153.543 E0.03513
G1 X102.392 Y141.957 E0.51405
G1 X102.047 Y141.228 E0.02529
G1 X101.964 Y140.995 E0.00775
G1 X114.940 Y153.971 E0.57569
G1 X115.771 Y154.268 E0.02768
G1 X101.667 Y140.164 E0.62575
G1 X101.369 Y139.333 E0.02768
G1 X116.601 Y154.565 E0.67580
G1 X116.868 Y154.661 E0.00889
G1 X117.352 Y154.782 E0.01563
G1 X101.153 Y138.583 E0.71869
G1 X100.975 Y137.871 E0.02302
G1 X118.063 Y154.960 E0.75818
G1 X118.775 Y155.139 E0.02302
G1 X100.796 Y137.159 E0.79768
G1 X100.716 Y136.840 E0.01034
G1 X100.665 Y136.495 E0.01094
G1 X119.440 Y155.270 E0.83300
G1 X120.067 Y155.363 E0.01987
G1 X100.572 Y135.868 E0.86492
G1 X100.479 Y135.242 E0.01987
G1 X120.693 Y155.456 E0.89684
G1 X121.320 Y155.549 E0.01987
G1 X100.386 Y134.615 E0.92876
G1 X100.354 Y134.049 E0.01778
G1 X121.886 Y155.581 E0.95531
G1 X122.447 Y155.609 E0.01763
G1 X100.326 Y133.488 E0.98143
G1 X100.299 Y132.927 E0.01763
G1 X123.008 Y155.636 E1.00754
G1 X123.569 Y155.664 E0.01763
G1 X114.336 Y146.431 E0.40965
G1 X115.174 Y146.735 F10800.000
G1 F1200
G1 X124.086 Y155.647 E0.39540
G1 X124.595 Y155.622 E0.01597
G1 X116.680 Y147.707 E0.35115
G1 X117.171 Y147.940 E0.01703
G1 X117.599 Y148.093 E0.01426
G1 X125.103 Y155.597 E0.33295
G1 X125.612 Y155.572 E0.01597
G1 X118.430 Y148.390 E0.31865
G1 X118.737 Y148.500 E0.01025
G1 X119.186 Y148.612 E0.01450
G1 X126.106 Y155.533 E0.30703
G1 X126.571 Y155.464 E0.01474
G1 X119.897 Y148.791 E0.29606
G1 X120.351 Y148.904 E0.01467
G1 X120.578 Y148.938 E0.00721
G1 X127.035 Y155.395 E0.28647
G1 X127.500 Y155.326 E0.01474
G1 X121.205 Y149.031 E0.27929
G1 X121.831 Y149.124 E0.01987
G1 X127.964 Y155.257 E0.27210
G1 X128.412 Y155.171 E0.01430
G1 X122.410 Y149.169 E0.26631
G1 X122.971 Y149.196 E0.01763
G1 X128.839 Y155.064 E0.26034
G1 X129.266 Y154.957 E0.01380
G1 X123.532 Y149.224 E0.25438
G1 X124.053 Y149.211 E0.01633
G1 X129.692 Y154.850 E0.25022
G1 X130.119 Y154.744 E0.01380
G1 X124.561 Y149.186 E0.24658
G1 X125.070 Y149.161 E0.01597
G1 X130.538 Y154.629 E0.24261
G1 X130.931 Y154.488 E0.01309
G1 X125.556 Y149.113 E0.23847
G1 X126.021 Y149.045 E0.01474
G1 X131.324 Y154.348 E0.23529
G1 X131.717 Y154.207 E0.01309
G1 X126.485 Y148.976 E0.23211
M73 Q0 S138
G1 X126.950 Y148.907 E0.01474
G1 X132.110 Y154.067 E0.22893
G1 X132.503 Y153.926 E0.01309
G1 X127.378 Y148.801 E0.22737
M73 P0 R136
G1 X127.805 Y148.694 E0.01380
G1 X132.874 Y153.763 E0.22489
G1 X133.236 Y153.592 E0.01257
G1 X128.231 Y148.587 E0.22203
G1 X128.652 Y148.474 E0.01366
G1 X133.598 Y153.420 E0.21944
G1 X133.960 Y153.249 E0.01257
G1 X129.045 Y148.334 E0.21808
G1 X129.438 Y148.193 E0.01309
G1 X134.323 Y153.078 E0.21672
G1 X134.685 Y152.906 E0.01257
G1 X129.831 Y148.053 E0.21535
G1 X130.218 Y147.906 E0.01298
G1 X135.018 Y152.707 E0.21299
G1 X135.352 Y152.507 E0.01220
G1 X130.580 Y147.735 E0.21172
G1 X130.942 Y147.563 E0.01257
G1 X135.686 Y152.307 E0.21045
G1 X136.019 Y152.107 E0.01220
G1 X131.305 Y147.392 E0.20918
G1 X131.666 Y147.219 E0.01255
G1 X136.353 Y151.907 E0.20797
G1 X136.684 Y151.704 E0.01217
G1 X131.999 Y147.019 E0.20785
G1 X132.333 Y146.819 E0.01220
G1 X136.990 Y151.477 E0.20664
G1 X137.297 Y151.250 E0.01197
G1 X132.666 Y146.619 E0.20543
G1 X133.000 Y146.419 E0.01220
G1 X137.603 Y151.023 E0.20422
G1 X137.909 Y150.795 E0.01197
G1 X133.313 Y146.199 E0.20394
G1 X133.619 Y145.971 E0.01197
G1 X138.216 Y150.568 E0.20394
G1 X138.520 Y150.339 E0.01195
G1 X133.925 Y145.744 E0.20385
G1 X134.232 Y145.517 E0.01197
G1 X138.800 Y150.085 E0.20268
G1 X139.080 Y149.832 E0.01185
G1 X134.527 Y145.279 E0.20198
G1 X134.807 Y145.025 E0.01185
G1 X139.360 Y149.578 E0.20198
G1 X139.640 Y149.324 E0.01185
G1 X135.087 Y144.772 E0.20198
G1 X135.367 Y144.518 E0.01185
G1 X139.920 Y149.070 E0.20198
G1 X140.199 Y148.817 E0.01185
G1 X135.647 Y144.264 E0.20198
G1 X135.901 Y143.984 E0.01185
G1 X140.453 Y148.537 E0.20198
G1 X140.707 Y148.257 E0.01185
G1 X136.154 Y143.705 E0.20198
G1 X136.408 Y143.425 E0.01185
G1 X140.960 Y147.977 E0.20198
G1 X141.214 Y147.697 E0.01185
G1 X136.662 Y143.145 E0.20198
G1 X136.900 Y142.849 E0.01191
G1 X141.468 Y147.417 E0.20268
G1 X141.722 Y147.137 E0.01185
G1 X137.127 Y142.543 E0.20385
G1 X137.354 Y142.236 E0.01197
G1 X141.951 Y146.833 E0.20394
G1 X142.178 Y146.527 E0.01197
G1 X137.581 Y141.930 E0.20394
G1 X137.802 Y141.617 E0.01201
G1 X142.405 Y146.220 E0.20422
G1 X142.632 Y145.914 E0.01197
G1 X138.002 Y141.284 E0.20543
G1 X138.202 Y140.950 E0.01220
G1 X142.860 Y145.608 E0.20664
G1 X143.087 Y145.301 E0.01197
G1 X138.402 Y140.617 E0.20785
G1 X138.602 Y140.283 E0.01220
G1 X143.289 Y144.970 E0.20797
G1 X143.489 Y144.637 E0.01220
G1 X138.775 Y139.922 E0.20918
G1 X138.946 Y139.560 E0.01257
G1 X143.689 Y144.303 E0.21045
G1 X143.889 Y143.969 E0.01220
G1 X139.117 Y139.197 E0.21172
G1 X139.289 Y138.835 E0.01257
G1 X144.089 Y143.636 E0.21299
G1 X144.289 Y143.302 E0.01220
G1 X139.435 Y138.448 E0.21535
G1 X139.576 Y138.055 E0.01309
G1 X144.460 Y142.940 E0.21672
G1 X144.632 Y142.578 E0.01257
G1 X139.716 Y137.662 E0.21808
G1 X139.857 Y137.269 E0.01309
G1 X144.803 Y142.215 E0.21944
G1 X144.974 Y141.853 E0.01257
G1 X139.970 Y136.849 E0.22203
G1 X140.077 Y136.422 E0.01380
G1 X145.146 Y141.491 E0.22489
G1 X145.270 Y141.228 E0.00913
G1 X145.309 Y141.120 E0.00358
G1 X140.184 Y135.995 E0.22737
G1 X140.289 Y135.567 E0.01383
G1 X145.449 Y140.727 E0.22893
G1 X145.590 Y140.334 E0.01309
G1 X140.358 Y135.103 E0.23211
G1 X140.427 Y134.638 E0.01474
G1 X145.731 Y139.941 E0.23529
G1 X145.871 Y139.548 E0.01309
G1 X140.496 Y134.173 E0.23847
G1 X140.543 Y133.687 E0.01533
G1 X146.012 Y139.155 E0.24261
G1 X146.126 Y138.736 E0.01363
G1 X140.568 Y133.179 E0.24658
G1 X140.593 Y132.670 E0.01597
G1 X146.233 Y138.310 E0.25022
G1 X146.340 Y137.883 E0.01380
G1 X140.607 Y132.150 E0.25438
G1 X140.579 Y131.588 E0.01763
G1 X146.447 Y137.456 E0.26034
G1 X146.554 Y137.030 E0.01380
G1 X140.551 Y131.027 E0.26631
G1 X140.507 Y130.449 E0.01820
G1 X146.640 Y136.582 E0.27210
G1 X146.709 Y136.117 E0.01474
G1 X140.414 Y129.822 E0.27928
G1 X140.321 Y129.196 E0.01987
G1 X146.777 Y135.653 E0.28646
G1 X146.846 Y135.188 E0.01474
G1 X140.173 Y128.515 E0.29606
G1 X139.995 Y127.803 E0.02302
G1 X146.915 Y134.723 E0.30703
G1 X146.955 Y134.229 E0.01555
G1 X139.773 Y127.047 E0.31865
G1 X139.475 Y126.216 E0.02768
G1 X146.980 Y133.721 E0.33295
