; generated by PrusaSlicer 2.1.1+win64 on 2020-06-09 at 18:32:38 UTC

; 

; external perimeters extrusion width = 0.45mm
; perimeters extrusion width = 0.45mm
; infill extrusion width = 0.45mm
; solid infill extrusion width = 0.45mm
; top infill extrusion width = 0.40mm
; first layer extrusion width = 0.42mm

M73 P0 R53
M73 Q0 S53
M201 X1000 Y1000 Z1000 E5000 ; sets maximum accelerations, mm/sec^2
M203 X200 Y200 Z12 E120 ; sets maximum feedrates, mm/sec
M204 P1250 R1250 T1250 ; sets acceleration (P, T) and retract acceleration (R), mm/sec^2
M205 X8.00 Y8.00 Z0.40 E1.50 ; sets the jerk limits, mm/sec
M205 S0 T0 ; sets the minimum extruding and travel feed rate, mm/sec
M107
M862.3 P "MK3S" ; printer model check
M862.1 P0.4 ; nozzle diameter check
M115 U3.8.0 ; tell printer latest fw version
G90 ; use absolute coordinates
M83 ; extruder relative mode
M104 S215 ; set extruder temp
M140 S60 ; set bed temp
M190 S60 ; wait for bed temp
M109 S215 ; wait for extruder temp
G28 W ; home all without mesh bed level
G80 ; mesh bed leveling
G1 Y-3.0 F1000.0 ; go outside print area
G92 E0.0
G1 X60.0 E9.0 F1000.0 ; intro line
M73 Q0 S53
M73 P0 R53
G1 X100.0 E12.5 F1000.0 ; intro line
G92 E0.0
M221 S95
G21 ; set units to millimeters
G90 ; use absolute coordinates
M83 ; use relative distances for extrusion
M900 K30 ; Filament gcode
;BEFORE_LAYER_CHANGE
G92 E0.0
;0.2


G1 E-0.80000 F2100.00000
G1 Z0.600 F10800.000
;AFTER_LAYER_CHANGE
;0.2
G1 X105.140 Y112.669
G1 Z0.200
G1 E0.80000 F2100.00000
M204 S1000
G1 F1200
G1 X105.633 Y111.954 E0.02721
G1 X106.180 Y111.305 E0.02663
G1 X106.802 Y110.699 E0.02723
G1 X107.500 Y110.143 E0.02797
G1 X108.237 Y109.667 E0.02751
G1 X109.035 Y109.258 E0.02812
G1 X109.853 Y108.939 E0.02752
G1 X110.716 Y108.697 E0.02812
G1 X111.600 Y108.545 E0.02812
G1 X112.490 Y108.482 E0.02798
G1 X113.136 Y108.498 E0.02025
G1 X113.738 Y108.546 E0.01894
G1 X114.613 Y108.698 E0.02785
G1 X115.477 Y108.939 E0.02812
G1 X116.312 Y109.267 E0.02812
G1 X117.109 Y109.677 E0.02812
G1 X117.861 Y110.166 E0.02812
G1 X118.560 Y110.728 E0.02812
G1 X119.198 Y111.359 E0.02812
G1 X119.769 Y112.050 E0.02812
G1 X120.267 Y112.796 E0.02812
G1 X120.688 Y113.589 E0.02812
G1 X121.025 Y114.420 E0.02812
G1 X121.277 Y115.280 E0.02812
G1 X121.441 Y116.162 E0.02812
G1 X121.515 Y117.056 E0.02811
G1 X121.498 Y117.948 E0.02798
G1 X121.395 Y118.813 E0.02733
G1 X121.206 Y119.667 E0.02742
G1 X120.935 Y120.498 E0.02742
G1 X120.583 Y121.298 E0.02738
G1 X120.155 Y122.057 E0.02735
G1 X119.641 Y122.787 E0.02797
G1 X119.071 Y123.447 E0.02734
G1 X118.440 Y124.047 E0.02732
G1 X117.750 Y124.583 E0.02738
G1 X116.997 Y125.057 E0.02790
G1 X116.218 Y125.445 E0.02730
G1 X115.401 Y125.756 E0.02742
G1 X114.556 Y125.985 E0.02744
G1 X113.695 Y126.129 E0.02737
G1 X112.828 Y126.188 E0.02724
G1 X111.937 Y126.159 E0.02795
G1 X111.049 Y126.041 E0.02810
G1 X110.177 Y125.832 E0.02812
G1 X109.330 Y125.537 E0.02812
G1 X108.517 Y125.158 E0.02812
G1 X107.747 Y124.698 E0.02812
G1 X107.027 Y124.163 E0.02812
G1 X106.369 Y123.560 E0.02798
G1 X105.935 Y123.082 E0.02025
G1 X105.555 Y122.612 E0.01894
G1 X105.062 Y121.874 E0.02785
G1 X104.642 Y121.081 E0.02812
G1 X104.304 Y120.250 E0.02812
G1 X104.052 Y119.389 E0.02812
G1 X103.888 Y118.508 E0.02812
G1 X103.815 Y117.614 E0.02810
G1 X103.831 Y116.723 E0.02795
G1 X103.934 Y115.862 E0.02719
G1 X104.115 Y115.032 E0.02664
G1 X104.382 Y114.206 E0.02722
G1 X104.727 Y113.411 E0.02717
G1 X105.111 Y112.721 E0.02475
G1 X105.456 Y112.875 F10800.000
G1 F1200
G1 X105.927 Y112.190 E0.02606
G1 X106.451 Y111.569 E0.02549
G1 X107.045 Y110.988 E0.02606
G1 X107.712 Y110.455 E0.02677
G1 X108.433 Y109.989 E0.02691
G1 X109.198 Y109.599 E0.02693
G1 X109.981 Y109.294 E0.02633
G1 X110.808 Y109.063 E0.02693
G1 X111.654 Y108.918 E0.02692
G1 X112.507 Y108.859 E0.02680
G1 X113.121 Y108.875 E0.01926
G1 X113.683 Y108.919 E0.01767
G1 X114.521 Y109.063 E0.02668
G1 X115.349 Y109.294 E0.02692
G1 X116.148 Y109.606 E0.02693
G1 X116.912 Y109.999 E0.02693
G1 X117.633 Y110.466 E0.02692
G1 X118.302 Y111.004 E0.02693
G1 X118.914 Y111.607 E0.02693
G1 X119.461 Y112.268 E0.02692
G1 X119.939 Y112.982 E0.02692
G1 X120.342 Y113.740 E0.02693
G1 X120.666 Y114.535 E0.02693
G1 X120.909 Y115.359 E0.02692
G1 X121.066 Y116.203 E0.02692
G1 X121.138 Y117.059 E0.02691
G1 X121.122 Y117.913 E0.02679
G1 X121.024 Y118.741 E0.02615
G1 X120.840 Y119.577 E0.02683
G1 X120.579 Y120.372 E0.02624
G1 X120.242 Y121.137 E0.02621
G1 X119.831 Y121.864 E0.02618
G1 X119.339 Y122.562 E0.02679
G1 X118.792 Y123.193 E0.02616
G1 X118.187 Y123.767 E0.02616
G1 X117.527 Y124.279 E0.02621
G1 X116.820 Y124.724 E0.02616
G1 X116.075 Y125.096 E0.02613
G1 X115.275 Y125.400 E0.02682
G1 X114.467 Y125.618 E0.02626
G1 X113.642 Y125.756 E0.02620
G1 X112.813 Y125.811 E0.02607
G1 X111.959 Y125.783 E0.02677
G1 X111.109 Y125.668 E0.02691
G1 X110.274 Y125.468 E0.02692
G1 X109.463 Y125.184 E0.02692
G1 X108.686 Y124.820 E0.02693
G1 X107.949 Y124.379 E0.02692
G1 X107.260 Y123.866 E0.02692
G1 X106.630 Y123.289 E0.02680
G1 X106.219 Y122.833 E0.01926
G1 X105.864 Y122.395 E0.01767
G1 X105.390 Y121.688 E0.02668
G1 X104.987 Y120.930 E0.02692
G1 X104.663 Y120.135 E0.02692
G1 X104.421 Y119.311 E0.02693
G1 X104.263 Y118.467 E0.02692
G1 X104.192 Y117.611 E0.02691
G1 X104.207 Y116.758 E0.02677
G1 X104.304 Y115.933 E0.02604
G1 X104.477 Y115.138 E0.02550
G1 X104.731 Y114.347 E0.02606
G1 X105.062 Y113.586 E0.02602
G1 X105.426 Y112.927 E0.02360
G1 X105.772 Y113.081 F10800.000
G1 F1200
G1 X106.222 Y112.426 E0.02491
G1 X106.721 Y111.831 E0.02434
G1 X107.288 Y111.276 E0.02489
G1 X107.925 Y110.766 E0.02559
G1 X108.614 Y110.320 E0.02571
G1 X109.344 Y109.947 E0.02573
G1 X110.109 Y109.649 E0.02573
G1 X110.899 Y109.429 E0.02573
G1 X111.708 Y109.291 E0.02573
G1 X112.523 Y109.236 E0.02562
G1 X113.106 Y109.252 E0.01827
G1 X113.628 Y109.292 E0.01642
G1 X114.430 Y109.429 E0.02551
G1 X115.221 Y109.648 E0.02573
G1 X115.985 Y109.947 E0.02573
G1 X116.716 Y110.320 E0.02573
G1 X117.405 Y110.766 E0.02573
G1 X118.045 Y111.279 E0.02573
G1 X118.630 Y111.855 E0.02573
G1 X119.154 Y112.486 E0.02573
G1 X119.611 Y113.168 E0.02573
G1 X119.997 Y113.892 E0.02573
G1 X120.307 Y114.651 E0.02573
G1 X120.540 Y115.438 E0.02573
G1 X120.691 Y116.245 E0.02573
G1 X120.760 Y117.062 E0.02572
G1 X120.747 Y117.879 E0.02561
G1 X120.654 Y118.670 E0.02497
G1 X120.479 Y119.469 E0.02564
G1 X120.230 Y120.229 E0.02507
G1 X119.909 Y120.960 E0.02505
G1 X119.517 Y121.654 E0.02500
G1 X119.047 Y122.323 E0.02562
G1 X118.526 Y122.926 E0.02499
G1 X117.948 Y123.475 E0.02499
G1 X117.317 Y123.966 E0.02505
G1 X116.643 Y124.391 E0.02500
G1 X115.931 Y124.747 E0.02495
G1 X115.168 Y125.039 E0.02563
G1 X114.378 Y125.252 E0.02566
G1 X113.590 Y125.382 E0.02503
G1 X112.798 Y125.434 E0.02491
G1 X111.982 Y125.406 E0.02559
G1 X111.169 Y125.296 E0.02571
G1 X110.372 Y125.104 E0.02573
G1 X109.597 Y124.832 E0.02573
G1 X108.855 Y124.483 E0.02573
G1 X108.151 Y124.061 E0.02573
G1 X107.494 Y123.570 E0.02573
G1 X106.892 Y123.017 E0.02562
G1 X106.502 Y122.584 E0.01827
G1 X106.172 Y122.178 E0.01642
G1 X105.719 Y121.502 E0.02551
G1 X105.333 Y120.778 E0.02573
G1 X105.022 Y120.018 E0.02573
G1 X104.790 Y119.231 E0.02573
G1 X104.638 Y118.425 E0.02573
G1 X104.569 Y117.608 E0.02571
G1 X104.583 Y116.792 E0.02559
G1 X104.675 Y116.004 E0.02488
G1 X104.839 Y115.245 E0.02435
G1 X105.081 Y114.488 E0.02491
G1 X105.396 Y113.760 E0.02487
G1 X105.743 Y113.133 E0.02246
G1 X106.088 Y113.286 F10800.000
G1 F1200
G1 X106.516 Y112.661 E0.02375
G1 X107.004 Y112.081 E0.02376
G1 X107.545 Y111.552 E0.02372
G1 X108.153 Y111.067 E0.02440
G1 X108.810 Y110.642 E0.02452
G1 X109.507 Y110.287 E0.02453
G1 X110.236 Y110.004 E0.02453
G1 X110.990 Y109.795 E0.02453
G1 X111.762 Y109.665 E0.02453
G1 X112.539 Y109.613 E0.02444
G1 X113.574 Y109.666 E0.03247
G1 X114.339 Y109.795 E0.02434
G1 X115.093 Y110.004 E0.02453
G1 X115.823 Y110.287 E0.02453
G1 X116.519 Y110.642 E0.02453
G1 X117.177 Y111.067 E0.02453
G1 X117.788 Y111.555 E0.02453
G1 X118.346 Y112.103 E0.02453
G1 X118.846 Y112.705 E0.02453
G1 X119.283 Y113.354 E0.02453
G1 X119.652 Y114.044 E0.02453
G1 X119.949 Y114.768 E0.02453
G1 X120.171 Y115.518 E0.02453
G1 X120.316 Y116.287 E0.02453
G1 X120.383 Y117.066 E0.02452
G1 X120.371 Y117.845 E0.02443
G1 X120.284 Y118.599 E0.02379
G1 X120.117 Y119.361 E0.02446
G1 X119.881 Y120.085 E0.02389
G1 X119.567 Y120.799 E0.02445
G1 X119.193 Y121.461 E0.02382
G1 X118.744 Y122.098 E0.02444
G1 X118.247 Y122.672 E0.02382
G1 X117.696 Y123.195 E0.02383
G1 X117.094 Y123.662 E0.02388
G1 X116.450 Y124.067 E0.02384
G1 X115.772 Y124.406 E0.02379
G1 X115.043 Y124.683 E0.02445
G1 X114.289 Y124.885 E0.02447
G1 X113.539 Y125.008 E0.02385
G1 X112.783 Y125.057 E0.02374
G1 X112.005 Y125.030 E0.02440
G1 X111.230 Y124.924 E0.02452
G1 X110.470 Y124.740 E0.02453
G1 X109.732 Y124.480 E0.02453
G1 X109.024 Y124.146 E0.02453
G1 X108.354 Y123.743 E0.02453
G1 X107.728 Y123.274 E0.02453
G1 X107.154 Y122.746 E0.02444
G1 X106.480 Y121.960 E0.03247
G1 X106.046 Y121.316 E0.02435
G1 X105.678 Y120.626 E0.02453
G1 X105.381 Y119.902 E0.02453
G1 X105.158 Y119.152 E0.02453
G1 X105.013 Y118.383 E0.02453
G1 X104.946 Y117.604 E0.02452
G1 X104.958 Y116.826 E0.02441
G1 X105.045 Y116.074 E0.02373
G1 X105.201 Y115.350 E0.02320
G1 X105.431 Y114.629 E0.02375
G1 X105.731 Y113.934 E0.02373
G1 X106.059 Y113.339 E0.02131
G1 X106.414 Y113.476 F10800.000
G1 F1200
G1 X106.822 Y112.883 E0.02259
G1 X107.286 Y112.331 E0.02260
G1 X107.801 Y111.829 E0.02256
G1 X108.380 Y111.367 E0.02322
G1 X109.006 Y110.965 E0.02332
G1 X109.669 Y110.627 E0.02333
G1 X110.363 Y110.359 E0.02333
G1 X111.081 Y110.162 E0.02333
G1 X111.814 Y110.038 E0.02333
G1 X112.555 Y109.990 E0.02326
G1 X113.520 Y110.039 E0.03030
G1 X114.249 Y110.162 E0.02318
G1 X114.966 Y110.359 E0.02333
G1 X115.660 Y110.627 E0.02333
G1 X116.324 Y110.965 E0.02333
G1 X116.949 Y111.368 E0.02333
G1 X117.531 Y111.832 E0.02333
G1 X118.063 Y112.352 E0.02333
G1 X118.539 Y112.924 E0.02333
G1 X118.955 Y113.541 E0.02333
G1 X119.307 Y114.197 E0.02333
G1 X119.590 Y114.885 E0.02333
G1 X119.802 Y115.598 E0.02333
G1 X119.942 Y116.329 E0.02333
G1 X120.006 Y117.070 E0.02333
G1 X119.995 Y117.811 E0.02325
G1 X119.913 Y118.528 E0.02262
G1 X119.756 Y119.254 E0.02328
G1 X119.532 Y119.943 E0.02271
G1 X119.234 Y120.622 E0.02327
G1 X118.879 Y121.252 E0.02264
G1 X118.453 Y121.858 E0.02326
G1 X117.980 Y122.405 E0.02265
G1 X117.457 Y122.903 E0.02265
G1 X116.870 Y123.358 E0.02329
G1 X116.258 Y123.742 E0.02266
G1 X115.612 Y124.064 E0.02262
G1 X114.918 Y124.327 E0.02326
G1 X114.201 Y124.518 E0.02328
G1 X113.487 Y124.635 E0.02268
G1 X112.769 Y124.680 E0.02258
G1 X112.028 Y124.653 E0.02322
G1 X111.292 Y124.551 E0.02332
G1 X110.569 Y124.376 E0.02333
G1 X109.867 Y124.127 E0.02333
G1 X109.194 Y123.809 E0.02333
G1 X108.557 Y123.425 E0.02333
G1 X107.962 Y122.978 E0.02333
G1 X107.417 Y122.475 E0.02326
G1 X106.788 Y121.742 E0.03030
G1 X106.374 Y121.129 E0.02318
G1 X106.023 Y120.473 E0.02333
G1 X105.739 Y119.785 E0.02333
G1 X105.527 Y119.072 E0.02333
G1 X105.388 Y118.341 E0.02333
G1 X105.323 Y117.600 E0.02332
G1 X105.334 Y116.859 E0.02322
G1 X105.416 Y116.144 E0.02258
G1 X105.563 Y115.456 E0.02206
G1 X105.781 Y114.769 E0.02260
G1 X106.065 Y114.108 E0.02256
G1 X106.385 Y113.529 E0.02073
G1 X106.739 Y113.667 F10800.000
G1 F1200
G1 X107.127 Y113.104 E0.02143
G1 X107.568 Y112.582 E0.02144
G1 X108.057 Y112.106 E0.02140
G1 X108.607 Y111.669 E0.02204
G1 X109.201 Y111.287 E0.02213
G1 X109.831 Y110.968 E0.02213
G1 X110.490 Y110.714 E0.02213
G1 X111.171 Y110.528 E0.02213
G1 X111.867 Y110.412 E0.02213
G1 X112.570 Y110.367 E0.02208
G1 X113.466 Y110.412 E0.02816
G1 X114.159 Y110.528 E0.02201
G1 X114.840 Y110.714 E0.02213
G1 X115.498 Y110.968 E0.02213
G1 X116.128 Y111.287 E0.02214
G1 X116.722 Y111.669 E0.02213
G1 X117.275 Y112.108 E0.02213
G1 X117.780 Y112.602 E0.02214
G1 X118.232 Y113.143 E0.02213
G1 X118.628 Y113.728 E0.02213
G1 X118.962 Y114.350 E0.02214
G1 X119.232 Y115.002 E0.02213
G1 X119.434 Y115.679 E0.02213
G1 X119.567 Y116.372 E0.02213
G1 X119.629 Y117.075 E0.02213
G1 X119.620 Y117.779 E0.02206
G1 X119.543 Y118.458 E0.02144
G1 X119.394 Y119.147 E0.02210
G1 X119.183 Y119.801 E0.02153
G1 X118.901 Y120.446 E0.02209
G1 X118.565 Y121.043 E0.02147
G1 X118.161 Y121.620 E0.02208
G1 X117.714 Y122.138 E0.02147
G1 X117.204 Y122.623 E0.02205
G1 X116.647 Y123.054 E0.02209
G1 X116.066 Y123.417 E0.02148
G1 X115.453 Y123.722 E0.02145
G1 X114.794 Y123.970 E0.02208
G1 X114.114 Y124.152 E0.02209
G1 X113.437 Y124.261 E0.02150
G1 X112.755 Y124.303 E0.02142
G1 X112.052 Y124.277 E0.02204
G1 X111.353 Y124.179 E0.02213
G1 X110.668 Y124.012 E0.02213
G1 X110.002 Y123.775 E0.02213
G1 X109.365 Y123.473 E0.02213
G1 X108.760 Y123.108 E0.02213
G1 X108.197 Y122.683 E0.02213
G1 X107.680 Y122.205 E0.02208
G1 X107.095 Y121.523 E0.02816
G1 X106.702 Y120.942 E0.02201
G1 X106.367 Y120.320 E0.02213
G1 X106.098 Y119.667 E0.02213
G1 X105.895 Y118.991 E0.02213
G1 X105.763 Y118.298 E0.02213
G1 X105.701 Y117.595 E0.02213
G1 X105.710 Y116.892 E0.02204
G1 X105.787 Y116.213 E0.02141
G1 X105.930 Y115.544 E0.02147
G1 X106.138 Y114.893 E0.02143
G1 X106.408 Y114.266 E0.02140
G1 X106.710 Y113.720 E0.01957
G1 X107.064 Y113.858 F10800.000
G1 F1200
G1 X107.432 Y113.326 E0.02027
G1 X107.850 Y112.833 E0.02028
G1 X108.313 Y112.384 E0.02024
G1 X108.834 Y111.970 E0.02086
G1 X109.396 Y111.610 E0.02093
G1 X109.992 Y111.309 E0.02094
G1 X110.616 Y111.070 E0.02094
G1 X111.260 Y110.894 E0.02094
G1 X111.919 Y110.785 E0.02094
G1 X112.584 Y110.744 E0.02090
G1 X113.414 Y110.786 E0.02605
G1 X114.069 Y110.894 E0.02084
G1 X114.714 Y111.070 E0.02094
G1 X115.337 Y111.309 E0.02094
G1 X115.933 Y111.610 E0.02094
G1 X116.495 Y111.970 E0.02094
G1 X117.018 Y112.385 E0.02094
G1 X117.497 Y112.851 E0.02094
G1 X117.926 Y113.363 E0.02094
G1 X118.300 Y113.916 E0.02094
G1 X118.617 Y114.503 E0.02094
G1 X118.873 Y115.120 E0.02094
G1 X119.066 Y115.760 E0.02094
G1 X119.192 Y116.415 E0.02094
G1 X119.252 Y117.080 E0.02093
G1 X119.244 Y117.746 E0.02088
G1 X119.172 Y118.388 E0.02026
G1 X119.032 Y119.041 E0.02092
G1 X118.833 Y119.659 E0.02035
G1 X118.567 Y120.270 E0.02091
G1 X118.251 Y120.835 E0.02029
G1 X117.869 Y121.381 E0.02090
G1 X117.447 Y121.872 E0.02030
G1 X116.965 Y122.331 E0.02086
G1 X116.438 Y122.740 E0.02091
G1 X115.889 Y123.084 E0.02032
G1 X115.310 Y123.373 E0.02028
G1 X114.687 Y123.609 E0.02089
G1 X114.044 Y123.781 E0.02089
G1 X113.386 Y123.887 E0.02090
G1 X112.742 Y123.926 E0.02024
G1 X112.077 Y123.900 E0.02086
G1 X111.416 Y123.807 E0.02093
G1 X110.767 Y123.648 E0.02094
G1 X110.138 Y123.423 E0.02094
G1 X109.535 Y123.137 E0.02094
G1 X108.964 Y122.790 E0.02094
G1 X108.432 Y122.388 E0.02094
G1 X107.943 Y121.935 E0.02090
G1 X107.402 Y121.304 E0.02605
G1 X107.029 Y120.754 E0.02084
G1 X106.712 Y120.166 E0.02094
G1 X106.456 Y119.550 E0.02094
G1 X106.264 Y118.910 E0.02094
G1 X106.137 Y118.254 E0.02094
G1 X106.078 Y117.589 E0.02093
G1 X106.086 Y116.924 E0.02086
G1 X106.157 Y116.283 E0.02023
G1 X106.297 Y115.632 E0.02087
G1 X106.494 Y115.017 E0.02025
G1 X106.750 Y114.424 E0.02025
G1 X107.035 Y113.911 E0.01841
G1 X107.380 Y114.064 F10800.000
G1 F1200
G1 X107.725 Y113.563 E0.01909
G1 X108.131 Y113.084 E0.01968
G1 X108.568 Y112.661 E0.01906
G1 X109.060 Y112.272 E0.01968
G1 X109.591 Y111.933 E0.01974
G1 X110.153 Y111.650 E0.01974
G1 X110.741 Y111.425 E0.01974
G1 X111.349 Y111.261 E0.01974
G1 X111.970 Y111.159 E0.01974
G1 X112.598 Y111.120 E0.01971
G1 X113.361 Y111.159 E0.02398
G1 X113.980 Y111.261 E0.01967
G1 X114.588 Y111.425 E0.01974
G1 X115.176 Y111.650 E0.01974
G1 X115.738 Y111.933 E0.01974
G1 X116.269 Y112.272 E0.01974
G1 X116.763 Y112.663 E0.01974
G1 X117.214 Y113.101 E0.01974
G1 X117.619 Y113.583 E0.01974
G1 X117.974 Y114.104 E0.01974
G1 X118.273 Y114.657 E0.01974
G1 X118.515 Y115.239 E0.01974
G1 X118.697 Y115.841 E0.01974
G1 X118.818 Y116.459 E0.01974
G1 X118.875 Y117.086 E0.01974
G1 X118.868 Y117.714 E0.01970
G1 X118.801 Y118.319 E0.01909
G1 X118.670 Y118.935 E0.01973
G1 X118.477 Y119.534 E0.01974
G1 X118.225 Y120.110 E0.01971
G1 X117.927 Y120.642 E0.01911
G1 X117.566 Y121.157 E0.01972
G1 X117.167 Y121.618 E0.01912
