; generated by PrusaSlicer 2.2.0+win64 on 2020-10-15 at 19:19:04 UTC

; 

; external perimeters extrusion width = 0.45mm
; perimeters extrusion width = 0.45mm
; infill extrusion width = 0.45mm
; solid infill extrusion width = 0.45mm
; top infill extrusion width = 0.40mm
; first layer extrusion width = 0.42mm

M73 P0 R6
M73 Q0 S6
M201 X1000 Y1000 Z1000 E5000 ; sets maximum accelerations, mm/sec^2
M203 X200 Y200 Z12 E120 ; sets maximum feedrates, mm/sec
M204 P1250 R1250 T1250 ; sets acceleration (P, T) and retract acceleration (R), mm/sec^2
M205 X8.00 Y8.00 Z0.40 E1.50 ; sets the jerk limits, mm/sec
M205 S0 T0 ; sets the minimum extruding and travel feed rate, mm/sec
M107
M862.3 P "MK3S" ; printer model check
M862.1 P0.4 ; nozzle diameter check
M115 U3.8.0 ; tell printer latest fw version
G90 ; use absolute coordinates
M83 ; extruder relative mode
M104 S215 ; set extruder temp
M140 S60 ; set bed temp
M190 S60 ; wait for bed temp
M109 S215 ; wait for extruder temp
G28 W ; home all without mesh bed level
G80 ; mesh bed leveling
G1 Y-3.0 F1000.0 ; go outside print area
G92 E0.0
G1 X60.0 E9.0 F1000.0 ; intro line
M73 Q0 S6
M73 P0 R6
G1 X100.0 E12.5 F1000.0 ; intro line
G92 E0.0
M221 S95
G21 ; set units to millimeters
G90 ; use absolute coordinates
M83 ; use relative distances for extrusion
M900 K0.05 ; Filament gcode LA 1.5
M900 K30 ; Filament gcode LA 1.0
;BEFORE_LAYER_CHANGE
G92 E0.0
;0.2


G1 E-0.80000 F2100.00000
G1 Z0.600 F10800.000
;AFTER_LAYER_CHANGE
;0.2
G1 X125.000 Y95.704
G1 Z0.200
G1 E0.80000 F2100.00000
M204 S1000
G1 F1200.000
G1 X125.906 Y95.751 E0.02846
G1 X126.903 Y95.901 E0.03160
G1 X127.827 Y96.144 E0.02996
G1 X128.723 Y96.482 E0.03001
G1 X129.579 Y96.910 E0.03001
G1 X130.386 Y97.424 E0.03001
G1 X131.137 Y98.018 E0.03001
G1 X131.822 Y98.686 E0.03001
G1 X132.435 Y99.420 E0.03001
G1 X132.970 Y100.215 E0.03001
G1 X133.419 Y101.059 E0.03001
G1 X133.780 Y101.946 E0.03001
G1 X134.047 Y102.865 E0.03001
G1 X134.219 Y103.806 E0.03001
G1 X134.293 Y104.761 E0.03001
G1 X134.268 Y105.717 E0.03001
G1 X134.145 Y106.667 E0.03001
G1 X133.925 Y107.598 E0.03001
G1 X133.611 Y108.502 E0.03001
G1 X133.205 Y109.369 E0.03001
G1 X132.713 Y110.189 E0.03001
G1 X132.138 Y110.955 E0.03001
G1 X131.488 Y111.657 E0.03001
G1 X130.769 Y112.289 E0.03001
G1 X129.989 Y112.844 E0.03001
G1 X129.156 Y113.315 E0.03001
G1 X128.279 Y113.698 E0.03001
G1 X127.367 Y113.989 E0.03001
G1 X126.431 Y114.185 E0.03001
G1 X125.471 Y114.284 E0.03025
G1 X125.000 Y114.297 E0.01477
G1 X124.529 Y114.284 E0.01477
G1 X123.569 Y114.185 E0.03025
G1 X122.633 Y113.989 E0.03001
G1 X121.721 Y113.698 E0.03001
G1 X120.844 Y113.315 E0.03001
G1 X120.011 Y112.844 E0.03001
G1 X119.231 Y112.289 E0.03001
G1 X118.512 Y111.657 E0.03001
G1 X117.895 Y110.991 E0.02846
G1 X117.287 Y110.188 E0.03160
G1 X116.795 Y109.369 E0.02996
G1 X116.389 Y108.502 E0.03001
G1 X116.075 Y107.598 E0.03001
G1 X115.855 Y106.667 E0.03001
G1 X115.732 Y105.717 E0.03001
G1 X115.707 Y104.761 E0.03001
G1 X115.781 Y103.806 E0.03001
G1 X115.953 Y102.865 E0.03001
G1 X116.220 Y101.946 E0.03001
G1 X116.581 Y101.059 E0.03001
G1 X117.030 Y100.215 E0.03001
G1 X117.565 Y99.420 E0.03001
G1 X118.178 Y98.686 E0.03001
G1 X118.863 Y98.018 E0.03001
G1 X119.614 Y97.424 E0.03001
G1 X120.421 Y96.910 E0.03001
G1 X121.277 Y96.482 E0.03001
G1 X122.173 Y96.144 E0.03001
G1 X123.099 Y95.901 E0.03001
G1 X124.044 Y95.753 E0.03001
G1 X124.940 Y95.707 E0.02813
G1 E-0.80000 F2100.00000
G1 Z0.800 F10800.000
G1 X125.000 Y114.674
G1 Z0.200
G1 E0.80000 F2100.00000
G1 F1200.000
G1 X124.505 Y114.661 E0.01553
G1 X123.511 Y114.558 E0.03131
G1 X122.536 Y114.355 E0.03123
G1 X121.588 Y114.052 E0.03123
G1 X120.675 Y113.653 E0.03123
G1 X119.808 Y113.162 E0.03123
G1 X118.997 Y112.585 E0.03123
G1 X118.248 Y111.928 E0.03123
G1 X117.606 Y111.234 E0.02965
G1 X116.974 Y110.400 E0.03281
G1 X116.461 Y109.546 E0.03121
G1 X116.039 Y108.644 E0.03123
G1 X115.712 Y107.704 E0.03123
G1 X115.483 Y106.734 E0.03123
G1 X115.355 Y105.747 E0.03123
G1 X115.330 Y104.751 E0.03123
G1 X115.407 Y103.758 E0.03123
G1 X115.585 Y102.778 E0.03123
G1 X115.863 Y101.822 E0.03123
G1 X116.239 Y100.899 E0.03123
G1 X116.707 Y100.020 E0.03123
G1 X117.263 Y99.194 E0.03123
G1 X117.901 Y98.429 E0.03123
G1 X118.614 Y97.734 E0.03123
G1 X119.395 Y97.116 E0.03123
G1 X120.235 Y96.581 E0.03123
G1 X121.126 Y96.136 E0.03123
G1 X122.058 Y95.785 E0.03123
G1 X123.021 Y95.531 E0.03123
G1 X124.005 Y95.378 E0.03123
G1 X125.000 Y95.327 E0.03123
G1 X125.944 Y95.375 E0.02965
G1 X126.979 Y95.531 E0.03281
G1 X127.942 Y95.785 E0.03121
G1 X128.874 Y96.136 E0.03123
G1 X129.765 Y96.581 E0.03123
G1 X130.605 Y97.116 E0.03123
G1 X131.386 Y97.734 E0.03123
G1 X132.099 Y98.429 E0.03123
G1 X132.737 Y99.194 E0.03123
G1 X133.293 Y100.020 E0.03123
G1 X133.761 Y100.899 E0.03123
G1 X134.137 Y101.822 E0.03123
G1 X134.415 Y102.778 E0.03123
G1 X134.593 Y103.758 E0.03123
G1 X134.670 Y104.751 E0.03123
G1 X134.645 Y105.747 E0.03123
G1 X134.517 Y106.734 E0.03123
G1 X134.288 Y107.704 E0.03123
G1 X133.961 Y108.644 E0.03123
G1 X133.539 Y109.546 E0.03123
G1 X133.026 Y110.400 E0.03123
G1 X132.428 Y111.197 E0.03123
G1 X131.752 Y111.928 E0.03123
G1 X131.003 Y112.585 E0.03123
G1 X130.192 Y113.162 E0.03123
G1 X129.325 Y113.653 E0.03123
G1 X128.412 Y114.052 E0.03123
G1 X127.464 Y114.355 E0.03123
G1 X126.489 Y114.558 E0.03123
G1 X125.495 Y114.661 E0.03131
G1 X125.060 Y114.672 E0.01365
G1 X124.797 Y114.329 F10800.000
G1 E-0.80000 F2100.00000
G1 Z0.800 F10800.000
G1 X132.600 Y99.868
G1 Z0.200
G1 E0.80000 F2100.00000
G1 F1200.000
G1 X130.950 Y98.230 E0.07407
G1 X130.222 Y97.654 E0.02957
G1 X129.439 Y97.156 E0.02957
G1 X129.254 Y97.064 E0.00660
G1 X132.927 Y100.737 E0.16555
G1 X133.163 Y101.179 E0.01596
G1 X133.393 Y101.744 E0.01944
G1 X128.257 Y96.609 E0.23145
G1 X127.741 Y96.414 E0.01757
G1 X127.442 Y96.335 E0.00987
G1 X133.663 Y102.557 E0.28039
G1 X133.772 Y102.930 E0.01237
G1 X133.834 Y103.269 E0.01100
G1 X126.724 Y96.160 E0.32039
G1 X126.086 Y96.064 E0.02057
G1 X133.944 Y103.922 E0.35413
G1 X133.990 Y104.509 E0.01878
G1 X125.493 Y96.013 E0.38292
G1 X124.929 Y95.991 E0.01798
G1 X134.002 Y105.064 E0.40888
G1 X133.989 Y105.592 E0.01684
G1 X124.414 Y96.017 E0.43149
G1 X123.914 Y96.060 E0.01598
G1 X133.936 Y106.082 E0.45164
G1 X133.874 Y106.561 E0.01542
G1 X123.445 Y96.133 E0.46997
G1 X122.992 Y96.221 E0.01473
G1 X133.775 Y107.005 E0.48596
G1 X133.671 Y107.443 E0.01436
G1 X122.563 Y96.334 E0.50063
G1 X122.144 Y96.458 E0.01391
G1 X133.538 Y107.851 E0.51348
G1 X133.398 Y108.254 E0.01357
G1 X121.750 Y96.606 E0.52491
G1 X121.360 Y96.757 E0.01335
G1 X133.237 Y108.634 E0.53526
G1 X133.064 Y109.004 E0.01299
G1 X120.998 Y96.938 E0.54376
G1 X120.637 Y97.118 E0.01287
G1 X132.880 Y109.361 E0.55175
G1 X132.677 Y109.700 E0.01259
G1 X120.299 Y97.323 E0.55780
G1 X119.968 Y97.533 E0.01251
G1 X132.473 Y110.038 E0.56353
G1 X132.240 Y110.348 E0.01234
G1 X119.649 Y97.756 E0.56744
G1 X119.346 Y97.996 E0.01229
G1 X132.008 Y110.657 E0.57060
G1 X131.758 Y110.949 E0.01225
G1 X119.044 Y98.236 E0.57294
G1 X118.770 Y98.503 E0.01221
G1 X131.497 Y111.231 E0.57357
G1 X131.231 Y111.507 E0.01221
G1 X118.495 Y98.771 E0.57394
G1 X118.386 Y98.878 E0.00489
G1 X118.238 Y99.055 E0.00736
G1 X130.943 Y111.760 E0.57256
G1 X130.654 Y112.014 E0.01224
G1 X117.991 Y99.351 E0.57067
G1 X117.750 Y99.651 E0.01229
G1 X130.343 Y112.245 E0.56753
G1 X130.027 Y112.470 E0.01239
G1 X117.532 Y99.975 E0.56308
G1 X117.314 Y100.299 E0.01244
G1 X129.698 Y112.683 E0.55809
G1 X129.352 Y112.879 E0.01267
G1 X117.120 Y100.648 E0.55123
G1 X116.932 Y101.001 E0.01277
G1 X129.004 Y113.073 E0.54403
G1 X128.627 Y113.238 E0.01312
G1 X116.759 Y101.371 E0.53481
G1 X116.603 Y101.756 E0.01325
G1 X128.250 Y113.403 E0.52487
G1 X127.845 Y113.540 E0.01362
G1 X116.455 Y102.150 E0.51329
G1 X116.333 Y102.570 E0.01393
G1 X127.434 Y113.671 E0.50028
G1 X126.998 Y113.778 E0.01429
G1 X116.216 Y102.995 E0.48591
G1 X116.133 Y103.454 E0.01485
G1 X126.550 Y113.871 E0.46947
G1 X126.075 Y113.938 E0.01530
G1 X116.056 Y103.919 E0.45150
G1 X116.017 Y104.422 E0.01608
G1 X125.583 Y113.988 E0.43112
G1 X125.055 Y114.002 E0.01686
G1 X115.995 Y104.942 E0.40829
G1 X116.009 Y105.498 E0.01773
G1 X124.509 Y113.998 E0.38306
G1 X123.905 Y113.936 E0.01936
G1 X116.066 Y106.097 E0.35324
G1 X116.161 Y106.734 E0.02053
G1 X123.258 Y113.831 E0.31983
G1 X122.705 Y113.716 E0.01802
G1 X122.552 Y113.667 E0.00512
G1 X116.329 Y107.444 E0.28045
G1 X116.605 Y108.262 E0.02752
G1 X121.742 Y113.399 E0.23151
G1 X120.970 Y113.062 E0.02683
G1 X120.723 Y112.921 E0.00908
G1 X117.056 Y109.255 E0.16522
G1 X117.521 Y110.029 E0.02878
G1 X118.112 Y110.809 E0.03118
G1 X118.660 Y111.401 E0.02569
G1 X119.849 Y112.589 E0.05356
M106 S255
;BEFORE_LAYER_CHANGE
G92 E0.0
;0.4


G1 E-0.80000 F2100.00000
G1 Z0.800 F10800.000
;AFTER_LAYER_CHANGE
;0.4
M104 S210 ; set temperature
G1 X125.000 Y114.251
G1 Z0.400
G1 E0.80000 F2100.00000
M204 S800
G1 F2301
G1 X124.532 Y114.239 E0.01585
G1 X123.576 Y114.141 E0.03252
G1 X122.644 Y113.946 E0.03224
G1 X121.737 Y113.656 E0.03224
G1 X120.864 Y113.275 E0.03224
G1 X120.035 Y112.806 E0.03224
G1 X119.259 Y112.254 E0.03224
G1 X118.543 Y111.625 E0.03224
G1 X117.896 Y110.926 E0.03224
G1 X117.325 Y110.164 E0.03224
G1 X116.834 Y109.348 E0.03224
G1 X116.431 Y108.485 E0.03224
G1 X116.118 Y107.585 E0.03224
G1 X115.899 Y106.658 E0.03224
G1 X115.777 Y105.714 E0.03224
G1 X115.752 Y104.762 E0.03224
G1 X115.826 Y103.812 E0.03224
G1 X115.996 Y102.875 E0.03224
G1 X116.263 Y101.961 E0.03224
G1 X116.621 Y101.078 E0.03224
G1 X117.069 Y100.238 E0.03224
G1 X117.601 Y99.447 E0.03224
G1 X118.211 Y98.716 E0.03224
G1 X118.893 Y98.051 E0.03224
G1 X119.640 Y97.460 E0.03224
G1 X120.444 Y96.949 E0.03224
G1 X121.295 Y96.523 E0.03224
G1 X122.187 Y96.187 E0.03224
G1 X123.108 Y95.945 E0.03224
G1 X124.049 Y95.798 E0.03224
G1 X125.000 Y95.749 E0.03224
G1 X125.951 Y95.798 E0.03224
G1 X126.892 Y95.945 E0.03224
G1 X127.813 Y96.187 E0.03224
G1 X128.705 Y96.523 E0.03224
G1 X129.556 Y96.949 E0.03224
G1 X130.360 Y97.460 E0.03224
G1 X131.107 Y98.051 E0.03224
G1 X131.789 Y98.716 E0.03224
G1 X132.399 Y99.447 E0.03224
G1 X132.931 Y100.238 E0.03224
G1 X133.379 Y101.078 E0.03224
G1 X133.737 Y101.961 E0.03224
G1 X134.004 Y102.875 E0.03224
G1 X134.174 Y103.812 E0.03224
G1 X134.248 Y104.762 E0.03224
G1 X134.223 Y105.714 E0.03224
G1 X134.101 Y106.658 E0.03224
G1 X133.882 Y107.585 E0.03224
G1 X133.569 Y108.485 E0.03224
G1 X133.166 Y109.348 E0.03224
G1 X132.675 Y110.164 E0.03224
G1 X132.104 Y110.926 E0.03224
G1 X131.457 Y111.625 E0.03224
G1 X130.741 Y112.254 E0.03224
G1 X129.965 Y112.806 E0.03224
G1 X129.136 Y113.275 E0.03224
G1 X128.263 Y113.656 E0.03224
G1 X127.356 Y113.946 E0.03224
G1 X126.424 Y114.141 E0.03224
G1 X125.468 Y114.239 E0.03252
G1 X125.060 Y114.250 E0.01382
M204 S1000
G1 X125.000 Y114.659 F10800.000
M204 S800
G1 F2100.000
G1 X124.506 Y114.646 E0.01674
G1 X123.514 Y114.543 E0.03376
G1 X122.540 Y114.340 E0.03366
G1 X121.593 Y114.038 E0.03366
G1 X120.682 Y113.639 E0.03366
G1 X119.816 Y113.150 E0.03366
G1 X119.006 Y112.573 E0.03366
G1 X118.259 Y111.917 E0.03366
G1 X117.583 Y111.187 E0.03366
G1 X116.987 Y110.392 E0.03366
G1 X116.475 Y109.539 E0.03366
G1 X116.053 Y108.639 E0.03366
G1 X115.726 Y107.699 E0.03366
G1 X115.498 Y106.732 E0.03366
G1 X115.370 Y105.745 E0.03366
G1 X115.345 Y104.751 E0.03366
G1 X115.421 Y103.760 E0.03366
G1 X115.600 Y102.782 E0.03366
G1 X115.878 Y101.827 E0.03366
G1 X116.252 Y100.906 E0.03366
G1 X116.720 Y100.028 E0.03366
G1 X117.275 Y99.203 E0.03366
G1 X117.912 Y98.439 E0.03366
G1 X118.624 Y97.745 E0.03366
G1 X119.404 Y97.128 E0.03366
G1 X120.243 Y96.594 E0.03366
G1 X121.132 Y96.150 E0.03366
G1 X122.063 Y95.799 E0.03366
G1 X123.024 Y95.546 E0.03366
G1 X124.007 Y95.393 E0.03366
G1 X125.000 Y95.342 E0.03366
G1 X125.993 Y95.393 E0.03366
G1 X126.976 Y95.546 E0.03366
G1 X127.937 Y95.799 E0.03366
G1 X128.868 Y96.150 E0.03366
G1 X129.757 Y96.594 E0.03366
G1 X130.596 Y97.128 E0.03366
G1 X131.376 Y97.745 E0.03366
G1 X132.088 Y98.439 E0.03366
G1 X132.725 Y99.203 E0.03366
G1 X133.280 Y100.028 E0.03366
G1 X133.748 Y100.906 E0.03366
G1 X134.122 Y101.827 E0.03366
G1 X134.400 Y102.782 E0.03366
G1 X134.579 Y103.760 E0.03366
G1 X134.655 Y104.751 E0.03366
G1 X134.630 Y105.745 E0.03366
G1 X134.502 Y106.732 E0.03366
G1 X134.274 Y107.699 E0.03366
G1 X133.947 Y108.639 E0.03366
G1 X133.525 Y109.539 E0.03366
G1 X133.013 Y110.392 E0.03366
G1 X132.417 Y111.187 E0.03366
G1 X131.741 Y111.917 E0.03366
G1 X130.994 Y112.573 E0.03366
G1 X130.184 Y113.150 E0.03366
G1 X129.318 Y113.639 E0.03366
G1 X128.407 Y114.038 E0.03366
G1 X127.460 Y114.340 E0.03366
G1 X126.486 Y114.543 E0.03366
G1 X125.494 Y114.646 E0.03376
G1 X125.060 Y114.657 E0.01471
M204 S1000
G1 X124.797 Y114.314 F10800.000
G1 E-0.80000 F2100.00000
G1 Z1.000 F10800.000
G1 X117.399 Y99.966
G1 Z0.400
G1 E0.80000 F2100.00000
M204 S1250
G1 F2301
G1 X119.095 Y98.281 E0.08261
G1 X119.817 Y97.709 E0.03183
G1 X120.594 Y97.215 E0.03183
G1 X120.881 Y97.072 E0.01109
G1 X117.073 Y100.880 E0.18614
G1 X116.898 Y101.208 E0.01286
G1 X116.601 Y101.940 E0.02732
G1 X121.931 Y96.610 E0.26054
G1 X122.280 Y96.479 E0.01289
G1 X122.782 Y96.346 E0.01797
G1 X116.339 Y102.789 E0.31495
G1 X116.294 Y102.945 E0.00563
G1 X116.188 Y103.529 E0.02050
G1 X123.528 Y96.188 E0.35882
G1 X124.209 Y96.096 E0.02374
G1 X116.102 Y104.203 E0.39629
G1 X116.059 Y104.833 E0.02183
G1 X124.829 Y96.064 E0.42865
G1 X125.404 Y96.076 E0.01991
G1 X116.074 Y105.406 E0.45608
G1 X116.082 Y105.690 E0.00984
G1 X116.115 Y105.952 E0.00914
G1 X125.950 Y96.118 E0.48075
G1 X126.464 Y96.192 E0.01795
G1 X116.183 Y106.473 E0.50257
G1 X116.284 Y106.960 E0.01719
G1 X126.964 Y96.279 E0.52208
G1 X127.430 Y96.402 E0.01663
G1 X116.396 Y107.435 E0.53934
G1 X116.542 Y107.877 E0.01608
G1 X127.881 Y96.539 E0.55423
G1 X128.307 Y96.700 E0.01577
G1 X116.694 Y108.313 E0.56768
G1 X116.877 Y108.718 E0.01536
G1 X128.722 Y96.873 E0.57900
G1 X129.114 Y97.069 E0.01515
G1 X117.064 Y109.119 E0.58900
G1 X117.278 Y109.493 E0.01490
G1 X129.498 Y97.273 E0.59732
G1 X129.857 Y97.502 E0.01472
G1 X117.498 Y109.860 E0.60410
G1 X117.739 Y110.208 E0.01460
G1 X130.213 Y97.733 E0.60976
G1 X130.541 Y97.993 E0.01447
G1 X117.991 Y110.543 E0.61348
G1 X118.257 Y110.866 E0.01443
G1 X130.870 Y98.253 E0.61654
G1 X131.171 Y98.540 E0.01437
G1 X118.539 Y111.171 E0.61744
G1 X118.829 Y111.469 E0.01437
G1 X131.468 Y98.830 E0.61784
G1 X131.565 Y98.924 E0.00465
G1 X131.746 Y99.141 E0.00976
G1 X119.142 Y111.744 E0.61610
G1 X119.455 Y112.019 E0.01440
G1 X132.013 Y99.461 E0.61385
M73 Q16 S5
M73 P16 R5
G1 X132.266 Y99.796 E0.01451
G1 X119.799 Y112.263 E0.60941
G1 X120.142 Y112.507 E0.01457
G1 X132.502 Y100.147 E0.60417
G1 X132.729 Y100.508 E0.01474
G1 X120.513 Y112.725 E0.59717
G1 X120.888 Y112.938 E0.01491
G1 X132.933 Y100.892 E0.58881
G1 X133.132 Y101.282 E0.01511
G1 X121.287 Y113.126 E0.57899
G1 X121.696 Y113.305 E0.01543
G1 X133.302 Y101.700 E0.56730
G1 X133.466 Y102.123 E0.01569
G1 X122.128 Y113.461 E0.55423
G1 X122.574 Y113.603 E0.01617
G1 X133.599 Y102.578 E0.53893
G1 X133.723 Y103.041 E0.01659
G1 X123.047 Y113.718 E0.52190
G1 X123.533 Y113.820 E0.01717
G1 X133.814 Y103.539 E0.50256
G1 X133.871 Y103.851 E0.01099
G1 X133.887 Y104.054 E0.00701
G1 X124.057 Y113.883 E0.48049
G1 X124.594 Y113.934 E0.01865
G1 X133.929 Y104.599 E0.45630
G1 X133.931 Y105.185 E0.02023
G1 X125.182 Y113.934 E0.42768
G1 X125.452 Y113.934 E0.00934
G1 X125.807 Y113.898 E0.01231
G1 X133.904 Y105.800 E0.39583
G1 X133.817 Y106.475 E0.02354
G1 X126.474 Y113.818 E0.35895
G1 X127.217 Y113.663 E0.02624
G1 X133.653 Y107.227 E0.31462
G1 X133.589 Y107.500 E0.00971
G1 X133.387 Y108.081 E0.02127
G1 X128.071 Y113.397 E0.25986
G1 X128.999 Y113.001 E0.03490
G1 X129.126 Y112.930 E0.00503
G1 X132.934 Y109.121 E0.18616
G1 X132.422 Y109.994 E0.03498
G1 X131.869 Y110.730 E0.03183
G1 X131.315 Y111.328 E0.02816
G1 X130.044 Y112.600 E0.06216
M204 S1000
;BEFORE_LAYER_CHANGE
G92 E0.0
;0.6


G1 E-0.80000 F2100.00000
G1 Z1.000 F10800.000
;AFTER_LAYER_CHANGE
;0.6
G1 X125.000 Y114.251
G1 Z0.600
G1 E0.80000 F2100.00000
M204 S800
G1 F2301
G1 X124.532 Y114.239 E0.01585
G1 X123.576 Y114.141 E0.03252
