; generated by PrusaSlicer 2.2.0+win64 on 2020-10-15 at 19:10:32 UTC

; 

; external perimeters extrusion width = 0.45mm
; perimeters extrusion width = 0.45mm
; infill extrusion width = 0.45mm
; solid infill extrusion width = 0.45mm
; top infill extrusion width = 0.40mm
; first layer extrusion width = 0.42mm

M73 P0 R17
M73 Q0 S17
M201 X1000 Y1000 Z1000 E5000 ; sets maximum accelerations, mm/sec^2
M203 X200 Y200 Z12 E120 ; sets maximum feedrates, mm/sec
M204 P1250 R1250 T1250 ; sets acceleration (P, T) and retract acceleration (R), mm/sec^2
M205 X8.00 Y8.00 Z0.40 E1.50 ; sets the jerk limits, mm/sec
M205 S0 T0 ; sets the minimum extruding and travel feed rate, mm/sec
M107
M862.3 P "MK3S" ; printer model check
M862.1 P0.4 ; nozzle diameter check
M115 U3.8.0 ; tell printer latest fw version
G90 ; use absolute coordinates
M83 ; extruder relative mode
M104 S215 ; set extruder temp
M140 S60 ; set bed temp
M190 S60 ; wait for bed temp
M109 S215 ; wait for extruder temp
G28 W ; home all without mesh bed level
G80 ; mesh bed leveling
G1 Y-3.0 F1000.0 ; go outside print area
G92 E0.0
G1 X60.0 E9.0 F1000.0 ; intro line
M73 Q0 S17
M73 P0 R17
G1 X100.0 E12.5 F1000.0 ; intro line
G92 E0.0
M221 S95
G21 ; set units to millimeters
G90 ; use absolute coordinates
M83 ; use relative distances for extrusion
M900 K0.05 ; Filament gcode LA 1.5
M900 K30 ; Filament gcode LA 1.0
;BEFORE_LAYER_CHANGE
G92 E0.0
;0.2


G1 E-0.80000 F2100.00000
G1 Z0.600 F10800.000
;AFTER_LAYER_CHANGE
;0.2
G1 X149.440 Y91.601
G1 Z0.200
G1 E0.80000 F2100.00000
M204 S1000
G1 F1200.000
G1 X153.033 Y91.601 E0.11264
G1 X153.033 Y97.694 E0.19103
G1 X149.440 Y97.694 E0.11264
G1 X149.440 Y91.661 E0.18915
G1 X149.369 Y91.208 F10800.000
G1 E-0.80000 F2100.00000
G1 Z0.800 F10800.000
G1 X153.613 Y97.694
G1 Z0.200
G1 E0.80000 F2100.00000
G1 F1200.000
G1 X153.613 Y91.601 E0.19103
G1 X157.205 Y91.601 E0.11265
G1 X157.205 Y97.694 E0.19103
G1 X153.673 Y97.694 E0.11076
G1 X153.236 Y97.830 F10800.000
G1 E-0.80000 F2100.00000
G1 Z0.800 F10800.000
G1 X153.613 Y91.021
G1 Z0.200
G1 E0.80000 F2100.00000
G1 F1200.000
G1 X153.613 Y84.929 E0.19103
G1 X157.205 Y84.929 E0.11265
G1 X157.205 Y91.021 E0.19103
G1 X153.673 Y91.021 E0.11076
G1 X153.236 Y91.157 F10800.000
G1 E-0.80000 F2100.00000
G1 Z0.800 F10800.000
G1 X149.440 Y91.021
G1 Z0.200
G1 E0.80000 F2100.00000
G1 F1200.000
G1 X149.440 Y84.929 E0.19103
G1 X153.033 Y84.929 E0.11264
G1 X153.033 Y91.021 E0.19103
G1 X149.500 Y91.021 E0.11076
G1 X149.064 Y91.157 F10800.000
G1 E-0.80000 F2100.00000
G1 Z0.800 F10800.000
G1 X142.923 Y97.747
G1 Z0.200
G1 E0.80000 F2100.00000
G1 F1200.000
G1 X136.782 Y97.747 E0.19252
G1 X136.782 Y84.876 E0.40357
G1 X149.063 Y84.876 E0.38505
G1 X149.063 Y97.747 E0.40357
G1 X142.983 Y97.747 E0.19064
G1 E-0.80000 F2100.00000
G1 Z0.800 F10800.000
G1 X136.405 Y97.694
G1 Z0.200
G1 E0.80000 F2100.00000
G1 F1200.000
G1 X132.813 Y97.694 E0.11265
G1 X132.813 Y91.601 E0.19103
G1 X136.405 Y91.601 E0.11265
G1 X136.405 Y97.634 E0.18915
G1 X136.476 Y98.088 F10800.000
G1 E-0.80000 F2100.00000
G1 Z0.800 F10800.000
G1 X132.233 Y97.694
G1 Z0.200
G1 E0.80000 F2100.00000
G1 F1200.000
G1 X128.640 Y97.694 E0.11264
G1 X128.640 Y91.601 E0.19103
G1 X132.233 Y91.601 E0.11264
G1 X132.233 Y97.634 E0.18915
G1 X132.303 Y98.088 F10800.000
G1 E-0.80000 F2100.00000
G1 Z0.800 F10800.000
G1 X132.233 Y91.021
G1 Z0.200
G1 E0.80000 F2100.00000
G1 F1200.000
G1 X128.640 Y91.021 E0.11264
G1 X128.640 Y84.929 E0.19103
G1 X132.233 Y84.929 E0.11264
G1 X132.233 Y90.961 E0.18915
G1 X132.303 Y91.415 F10800.000
G1 E-0.80000 F2100.00000
G1 Z0.800 F10800.000
G1 X136.405 Y91.021
G1 Z0.200
G1 E0.80000 F2100.00000
G1 F1200.000
G1 X132.813 Y91.021 E0.11265
G1 X132.813 Y84.929 E0.19103
G1 X136.405 Y84.929 E0.11265
G1 X136.405 Y90.961 E0.18915
G1 X136.476 Y91.415 F10800.000
G1 E-0.80000 F2100.00000
G1 Z0.800 F10800.000
G1 X142.923 Y98.124
G1 Z0.200
G1 E0.80000 F2100.00000
G1 F1200.000
G1 X128.210 Y98.124 E0.46130
G1 X128.210 Y84.499 E0.42721
G1 X157.635 Y84.499 E0.92261
G1 X157.635 Y98.124 E0.42721
G1 X142.983 Y98.124 E0.45942
G1 X142.643 Y97.838 F10800.000
G1 E-0.80000 F2100.00000
G1 Z0.800 F10800.000
G1 X137.666 Y97.634
G1 Z0.200
G1 E0.80000 F2100.00000
G1 F1200.000
G1 X137.065 Y97.033 E0.02689
G1 X137.065 Y96.495 E0.01705
G1 X138.035 Y97.464 E0.04341
G1 X138.573 Y97.464 E0.01705
G1 X137.065 Y95.956 E0.06753
G1 X137.065 Y95.418 E0.01705
G1 X139.112 Y97.464 E0.09165
G1 X139.650 Y97.464 E0.01705
G1 X137.065 Y94.879 E0.11577
G1 X137.065 Y94.340 E0.01705
G1 X140.189 Y97.464 E0.13989
G1 X140.727 Y97.464 E0.01705
G1 X137.065 Y93.802 E0.16401
G1 X137.065 Y93.263 E0.01705
G1 X141.266 Y97.464 E0.18812
G1 X141.805 Y97.464 E0.01705
G1 X137.065 Y92.725 E0.21224
G1 X137.065 Y92.186 E0.01705
G1 X142.343 Y97.464 E0.23636
G1 X142.882 Y97.464 E0.01705
G1 X137.065 Y91.648 E0.26048
G1 X137.065 Y91.109 E0.01705
G1 X143.420 Y97.464 E0.28460
G1 X143.959 Y97.464 E0.01705
G1 X137.065 Y90.570 E0.30872
G1 X137.065 Y90.032 E0.01705
G1 X144.497 Y97.464 E0.33284
G1 X145.036 Y97.464 E0.01705
G1 X137.065 Y89.493 E0.35696
G1 X137.065 Y88.955 E0.01705
G1 X145.575 Y97.464 E0.38108
G1 X146.113 Y97.464 E0.01705
G1 X137.065 Y88.416 E0.40520
G1 X137.065 Y87.877 E0.01705
G1 X146.652 Y97.464 E0.42932
G1 X147.190 Y97.464 E0.01705
G1 X137.065 Y87.339 E0.45343
G1 X137.065 Y86.800 E0.01705
G1 X147.729 Y97.464 E0.47755
G1 X148.268 Y97.464 E0.01705
G1 X137.065 Y86.262 E0.50167
G1 X137.065 Y85.723 E0.01705
G1 X148.780 Y97.438 E0.52463
G1 X148.780 Y96.900 E0.01705
G1 X137.065 Y85.185 E0.52463
G1 X137.065 Y85.159 E0.00082
G1 X137.578 Y85.159 E0.01623
G1 X148.780 Y96.361 E0.50168
G1 X148.780 Y95.822 E0.01705
G1 X138.116 Y85.159 E0.47756
G1 X138.655 Y85.159 E0.01705
G1 X148.780 Y95.284 E0.45344
G1 X148.780 Y94.745 E0.01705
G1 X139.193 Y85.159 E0.42932
G1 X139.732 Y85.159 E0.01705
G1 X148.780 Y94.207 E0.40520
G1 X148.780 Y93.668 E0.01705
G1 X140.271 Y85.159 E0.38108
G1 X140.809 Y85.159 E0.01705
G1 X148.780 Y93.130 E0.35696
G1 X148.780 Y92.591 E0.01705
G1 X141.348 Y85.159 E0.33284
G1 X141.886 Y85.159 E0.01705
G1 X148.780 Y92.052 E0.30872
G1 X148.780 Y91.514 E0.01705
G1 X142.425 Y85.159 E0.28461
G1 X142.963 Y85.159 E0.01705
G1 X148.780 Y90.975 E0.26049
G1 X148.780 Y90.437 E0.01705
G1 X143.502 Y85.159 E0.23637
G1 X144.041 Y85.159 E0.01705
G1 X148.780 Y89.898 E0.21225
G1 X148.780 Y89.359 E0.01705
G1 X144.579 Y85.159 E0.18813
G1 X145.118 Y85.159 E0.01705
G1 X148.780 Y88.821 E0.16401
G1 X148.780 Y88.282 E0.01705
G1 X145.656 Y85.159 E0.13989
G1 X146.195 Y85.159 E0.01705
G1 X148.780 Y87.744 E0.11577
G1 X148.780 Y87.205 E0.01705
G1 X146.734 Y85.159 E0.09165
G1 X147.272 Y85.159 E0.01705
G1 X148.780 Y86.667 E0.06753
G1 X148.780 Y86.128 E0.01705
G1 X147.811 Y85.159 E0.04341
G1 X148.349 Y85.159 E0.01705
G1 X148.950 Y85.759 E0.02689
G1 E-0.80000 F2100.00000
G1 Z0.800 F10800.000
G1 X149.251 Y84.714
G1 Z0.200
G1 E0.80000 F2100.00000
G1 F1200.000
G1 X153.221 Y84.714 E0.01747
G1 X153.248 Y84.727 E0.00020
G1 X153.274 Y84.740 E0.00026
G1 X153.323 Y84.687 F10800.000
G1 F1200.000
G1 X153.323 Y91.210 E0.11006
G1 X153.323 Y91.261 E0.00103
G1 X153.323 Y91.311 E0.00121
G1 X153.272 Y91.311 E0.00121
G1 X153.221 Y91.311 E0.00103
G1 X149.251 Y91.311 E0.06698
G1 E-0.80000 F2100.00000
G1 Z0.800 F10800.000
G1 X149.251 Y97.909
G1 Z0.200
G1 E0.80000 F2100.00000
G1 F1200.000
G1 X153.221 Y97.909 E0.01747
G1 X153.248 Y97.896 E0.00020
G1 X153.274 Y97.883 E0.00026
G1 X153.323 Y97.935 F10800.000
G1 F1200.000
G1 X153.323 Y91.413 E0.11006
G1 X153.323 Y91.362 E0.00103
G1 X153.323 Y91.311 E0.00121
G1 X157.447 Y91.311 E0.06959
G1 X157.394 Y91.360 F10800.000
G1 F1200.000
G1 X157.407 Y91.386 E0.00026
G1 X157.420 Y91.413 E0.00020
G1 X157.416 Y97.904 E0.02857
G1 X153.424 Y97.909 E0.01756
G1 X153.221 Y97.808 E0.00100
G1 E-0.80000 F2100.00000
G1 Z0.800 F10800.000
G1 X157.394 Y91.263
G1 Z0.200
G1 E0.80000 F2100.00000
G1 F1200.000
G1 X157.407 Y91.236 E0.00026
G1 X157.420 Y91.210 E0.00020
G1 X157.416 Y84.718 E0.02857
G1 X153.424 Y84.714 E0.01756
G1 X153.221 Y84.815 E0.00100
G1 E-0.80000 F2100.00000
G1 Z0.800 F10800.000
G1 X136.594 Y91.311
G1 Z0.200
G1 E0.80000 F2100.00000
G1 F1200.000
G1 X132.523 Y91.311 E0.06869
G1 X132.472 Y91.311 E0.00121
G1 X132.421 Y91.311 E0.00103
G1 X128.399 Y91.311 E0.06787
G1 X128.451 Y91.360 F10800.000
G1 F1200.000
G1 X128.438 Y91.386 E0.00026
G1 X128.425 Y91.413 E0.00020
G1 X128.430 Y97.904 E0.02857
G1 X132.421 Y97.909 E0.01756
G1 X132.624 Y97.808 E0.00100
G1 E-0.80000 F2100.00000
G1 Z0.800 F10800.000
G1 X136.594 Y97.909
G1 Z0.200
G1 E0.80000 F2100.00000
G1 F1200.000
G1 X132.624 Y97.909 E0.01747
G1 X132.571 Y97.883 E0.00026
G1 X132.523 Y97.935 F10800.000
G1 F1200.000
G1 X132.523 Y91.413 E0.11006
G1 X132.523 Y91.362 E0.00103
G1 X132.523 Y91.311 E0.00121
G1 X132.523 Y91.261 E0.00121
G1 X132.523 Y91.210 E0.00103
G1 X132.523 Y84.687 E0.11006
G1 X132.571 Y84.740 F10800.000
G1 F1200.000
G1 X132.624 Y84.714 E0.00026
G1 X136.594 Y84.714 E0.01747
G1 E-0.80000 F2100.00000
G1 Z0.800 F10800.000
G1 X132.624 Y84.815
G1 Z0.200
G1 E0.80000 F2100.00000
G1 F1200.000
G1 X132.523 Y84.764 E0.00100
G1 X132.421 Y84.714 E0.00075
G1 X128.430 Y84.718 E0.01757
G1 X128.425 Y91.210 E0.02857
G1 X128.451 Y91.263 E0.00026
G1 E-0.80000 F2100.00000
G1 Z0.800 F10800.000
G1 X149.440 Y117.739
G1 Z0.200
G1 E0.80000 F2100.00000
G1 F1200.000
G1 X149.440 Y111.647 E0.19103
G1 X153.033 Y111.647 E0.11264
G1 X153.033 Y117.739 E0.19103
G1 X149.500 Y117.739 E0.11076
G1 X149.064 Y117.875 F10800.000
G1 E-0.80000 F2100.00000
G1 Z0.800 F10800.000
G1 X153.613 Y117.739
G1 Z0.200
G1 E0.80000 F2100.00000
G1 F1200.000
G1 X153.613 Y111.647 E0.19103
G1 X157.205 Y111.647 E0.11265
G1 X157.205 Y117.739 E0.19103
G1 X153.673 Y117.739 E0.11076
G1 X153.236 Y117.875 F10800.000
G1 E-0.80000 F2100.00000
G1 Z0.800 F10800.000
G1 X153.613 Y111.067
G1 Z0.200
G1 E0.80000 F2100.00000
G1 F1200.000
G1 X153.613 Y104.974 E0.19103
G1 X157.205 Y104.974 E0.11265
G1 X157.205 Y111.067 E0.19103
G1 X153.673 Y111.067 E0.11076
G1 X153.236 Y111.202 F10800.000
G1 E-0.80000 F2100.00000
G1 Z0.800 F10800.000
G1 X149.440 Y111.067
G1 Z0.200
G1 E0.80000 F2100.00000
G1 F1200.000
G1 X149.440 Y104.974 E0.19103
G1 X153.033 Y104.974 E0.11264
G1 X153.033 Y111.067 E0.19103
G1 X149.500 Y111.067 E0.11076
G1 X149.064 Y111.202 F10800.000
G1 E-0.80000 F2100.00000
G1 Z0.800 F10800.000
G1 X142.923 Y117.792
G1 Z0.200
G1 E0.80000 F2100.00000
G1 F1200.000
G1 X136.782 Y117.792 E0.19252
G1 X136.782 Y104.921 E0.40357
G1 X149.063 Y104.921 E0.38505
G1 X149.063 Y117.792 E0.40357
G1 X142.983 Y117.792 E0.19064
G1 E-0.80000 F2100.00000
G1 Z0.800 F10800.000
G1 X136.405 Y117.739
G1 Z0.200
G1 E0.80000 F2100.00000
G1 F1200.000
G1 X132.813 Y117.739 E0.11265
M73 Q6 S16
G1 X132.813 Y111.647 E0.19103
G1 X136.405 Y111.647 E0.11265
M73 P6 R16
G1 X136.405 Y117.679 E0.18915
G1 X136.476 Y118.133 F10800.000
G1 E-0.80000 F2100.00000
G1 Z0.800 F10800.000
G1 X132.233 Y117.739
G1 Z0.200
G1 E0.80000 F2100.00000
G1 F1200.000
G1 X128.640 Y117.739 E0.11264
G1 X128.640 Y111.647 E0.19103
G1 X132.233 Y111.647 E0.11264
G1 X132.233 Y117.679 E0.18915
G1 X132.303 Y118.133 F10800.000
G1 E-0.80000 F2100.00000
G1 Z0.800 F10800.000
G1 X132.233 Y111.067
G1 Z0.200
G1 E0.80000 F2100.00000
G1 F1200.000
G1 X128.640 Y111.067 E0.11264
G1 X128.640 Y104.974 E0.19103
G1 X132.233 Y104.974 E0.11264
G1 X132.233 Y111.007 E0.18915
G1 X132.303 Y111.460 F10800.000
G1 E-0.80000 F2100.00000
G1 Z0.800 F10800.000
G1 X136.405 Y111.067
G1 Z0.200
G1 E0.80000 F2100.00000
G1 F1200.000
G1 X132.813 Y111.067 E0.11265
G1 X132.813 Y104.974 E0.19103
G1 X136.405 Y104.974 E0.11265
G1 X136.405 Y111.007 E0.18915
G1 X136.476 Y111.460 F10800.000
G1 E-0.80000 F2100.00000
G1 Z0.800 F10800.000
G1 X142.923 Y118.169
G1 Z0.200
G1 E0.80000 F2100.00000
G1 F1200.000
G1 X128.210 Y118.169 E0.46130
G1 X128.210 Y104.544 E0.42721
G1 X157.635 Y104.544 E0.92261
G1 X157.635 Y118.169 E0.42721
G1 X142.983 Y118.169 E0.45942
G1 X142.643 Y117.883 F10800.000
G1 E-0.80000 F2100.00000
G1 Z0.800 F10800.000
G1 X137.666 Y117.679
G1 Z0.200
G1 E0.80000 F2100.00000
G1 F1200.000
G1 X137.065 Y117.079 E0.02689
G1 X137.065 Y116.540 E0.01705
G1 X138.035 Y117.509 E0.04341
G1 X138.573 Y117.509 E0.01705
G1 X137.065 Y116.001 E0.06753
G1 X137.065 Y115.463 E0.01705
G1 X139.112 Y117.509 E0.09165
G1 X139.650 Y117.509 E0.01705
G1 X137.065 Y114.924 E0.11577
G1 X137.065 Y114.386 E0.01705
G1 X140.189 Y117.509 E0.13989
G1 X140.727 Y117.509 E0.01705
G1 X137.065 Y113.847 E0.16401
G1 X137.065 Y113.309 E0.01705
G1 X141.266 Y117.509 E0.18812
G1 X141.805 Y117.509 E0.01705
G1 X137.065 Y112.770 E0.21224
G1 X137.065 Y112.231 E0.01705
G1 X142.343 Y117.509 E0.23636
G1 X142.882 Y117.509 E0.01705
G1 X137.065 Y111.693 E0.26048
G1 X137.065 Y111.154 E0.01705
G1 X143.420 Y117.509 E0.28460
G1 X143.959 Y117.509 E0.01705
G1 X137.065 Y110.616 E0.30872
G1 X137.065 Y110.077 E0.01705
G1 X144.497 Y117.509 E0.33284
G1 X145.036 Y117.509 E0.01705
G1 X137.065 Y109.539 E0.35696
G1 X137.065 Y109.000 E0.01705
G1 X145.575 Y117.509 E0.38108
G1 X146.113 Y117.509 E0.01705
G1 X137.065 Y108.461 E0.40520
G1 X137.065 Y107.923 E0.01705
G1 X146.652 Y117.509 E0.42932
G1 X147.190 Y117.509 E0.01705
G1 X137.065 Y107.384 E0.45343
G1 X137.065 Y106.846 E0.01705
G1 X147.729 Y117.509 E0.47755
G1 X148.268 Y117.509 E0.01705
G1 X137.065 Y106.307 E0.50167
G1 X137.065 Y105.768 E0.01705
G1 X148.780 Y117.483 E0.52463
G1 X148.780 Y116.945 E0.01705
G1 X137.065 Y105.230 E0.52463
G1 X137.065 Y105.204 E0.00082
G1 X137.578 Y105.204 E0.01623
G1 X148.780 Y116.406 E0.50168
G1 X148.780 Y115.868 E0.01705
G1 X138.116 Y105.204 E0.47756
G1 X138.655 Y105.204 E0.01705
G1 X148.780 Y115.329 E0.45344
G1 X148.780 Y114.791 E0.01705
G1 X139.193 Y105.204 E0.42932
G1 X139.732 Y105.204 E0.01705
G1 X148.780 Y114.252 E0.40520
G1 X148.780 Y113.713 E0.01705
G1 X140.271 Y105.204 E0.38108
G1 X140.809 Y105.204 E0.01705
G1 X148.780 Y113.175 E0.35696
G1 X148.780 Y112.636 E0.01705
G1 X141.348 Y105.204 E0.33284
G1 X141.886 Y105.204 E0.01705
G1 X148.780 Y112.098 E0.30872
G1 X148.780 Y111.559 E0.01705
G1 X142.425 Y105.204 E0.28461
G1 X142.963 Y105.204 E0.01705
G1 X148.780 Y111.020 E0.26049
G1 X148.780 Y110.482 E0.01705
G1 X143.502 Y105.204 E0.23637
G1 X144.041 Y105.204 E0.01705
G1 X148.780 Y109.943 E0.21225
G1 X148.780 Y109.405 E0.01705
G1 X144.579 Y105.204 E0.18813
G1 X145.118 Y105.204 E0.01705
G1 X148.780 Y108.866 E0.16401
G1 X148.780 Y108.328 E0.01705
G1 X145.656 Y105.204 E0.13989
G1 X146.195 Y105.204 E0.01705
G1 X148.780 Y107.789 E0.11577
G1 X148.780 Y107.250 E0.01705
G1 X146.734 Y105.204 E0.09165
G1 X147.272 Y105.204 E0.01705
G1 X148.780 Y106.712 E0.06753
G1 X148.780 Y106.173 E0.01705
G1 X147.811 Y105.204 E0.04341
G1 X148.349 Y105.204 E0.01705
G1 X148.950 Y105.804 E0.02689
G1 E-0.80000 F2100.00000
G1 Z0.800 F10800.000
G1 X149.251 Y104.759
G1 Z0.200
G1 E0.80000 F2100.00000
G1 F1200.000
G1 X153.221 Y104.759 E0.01747
G1 X153.248 Y104.772 E0.00020
G1 X153.274 Y104.785 E0.00026
G1 X153.323 Y104.733 F10800.000
G1 F1200.000
G1 X153.323 Y111.255 E0.11006
G1 X153.323 Y111.306 E0.00103
G1 X153.323 Y111.357 E0.00121
G1 X153.323 Y111.407 E0.00121
G1 X153.323 Y111.458 E0.00103
G1 X153.323 Y117.981 E0.11006
G1 X153.274 Y117.928 F10800.000
G1 F1200.000
G1 X153.248 Y117.941 E0.00026
G1 X153.221 Y117.954 E0.00020
G1 X149.251 Y117.954 E0.01747
G1 E-0.80000 F2100.00000
G1 Z0.800 F10800.000
G1 X153.221 Y117.853
G1 Z0.200
G1 E0.80000 F2100.00000
G1 F1200.000
G1 X153.424 Y117.954 E0.00100
G1 X157.416 Y117.950 E0.01756
G1 X157.420 Y111.458 E0.02857
G1 X157.407 Y111.432 E0.00020
G1 X157.394 Y111.405 E0.00026
G1 E-0.80000 F2100.00000
G1 Z0.800 F10800.000
G1 X153.221 Y104.860
G1 Z0.200
G1 E0.80000 F2100.00000
G1 F1200.000
G1 X153.424 Y104.759 E0.00100
G1 X157.416 Y104.764 E0.01756
G1 X157.420 Y111.255 E0.02857
G1 X157.407 Y111.282 E0.00020
G1 X157.394 Y111.308 E0.00026
G1 X157.447 Y111.357 F10800.000
G1 F1200.000
G1 X153.323 Y111.357 E0.06959
G1 X153.272 Y111.357 E0.00121
G1 X153.221 Y111.357 E0.00103
G1 X149.251 Y111.357 E0.06698
G1 E-0.80000 F2100.00000
G1 Z0.800 F10800.000
G1 X136.594 Y111.357
G1 Z0.200
G1 E0.80000 F2100.00000
G1 F1200.000
G1 X132.523 Y111.357 E0.06869
