; generated by PrusaSlicer 2.1.1+win64 on 2020-04-24 at 17:15:13 UTC

; 

; external perimeters extrusion width = 0.45mm
; perimeters extrusion width = 0.45mm
; infill extrusion width = 0.45mm
; solid infill extrusion width = 0.45mm
; top infill extrusion width = 0.40mm
; support material extrusion width = 0.35mm
; first layer extrusion width = 0.42mm

M73 P0 R53
M73 Q0 S54
M201 X1000 Y1000 Z1000 E5000 ; sets maximum accelerations, mm/sec^2
M203 X200 Y200 Z12 E120 ; sets maximum feedrates, mm/sec
M204 P1250 R1250 T1250 ; sets acceleration (P, T) and retract acceleration (R), mm/sec^2
M205 X8.00 Y8.00 Z0.40 E1.50 ; sets the jerk limits, mm/sec
M205 S0 T0 ; sets the minimum extruding and travel feed rate, mm/sec
M107
M862.3 P "MK3S" ; printer model check
M862.1 P0.4 ; nozzle diameter check
M115 U3.8.0 ; tell printer latest fw version
G90 ; use absolute coordinates
M83 ; extruder relative mode
M104 S215 ; set extruder temp
M140 S60 ; set bed temp
M190 S60 ; wait for bed temp
M109 S215 ; wait for extruder temp
G28 W ; home all without mesh bed level
G80 ; mesh bed leveling
G1 Y-3.0 F1000.0 ; go outside print area
G92 E0.0
G1 X60.0 E9.0 F1000.0 ; intro line
M73 Q0 S54
M73 P0 R53
G1 X100.0 E12.5 F1000.0 ; intro line
G92 E0.0
M221 S95
G21 ; set units to millimeters
G90 ; use absolute coordinates
M83 ; use relative distances for extrusion
M900 K30 ; Filament gcode
;BEFORE_LAYER_CHANGE
G92 E0.0
;0.2


G1 E-0.80000 F2100.00000
G1 Z0.600 F10800.000
;AFTER_LAYER_CHANGE
;0.2
G1 X137.016 Y112.850
G1 Z0.200
G1 E0.80000 F2100.00000
M204 S1000
G1 F1200
G1 X134.875 Y112.855 E0.06714
G1 X132.326 Y112.789 E0.07995
G1 X130.723 Y112.681 E0.05037
G1 X128.218 Y112.385 E0.07907
G1 X127.791 Y110.134 E0.07186
G1 X127.637 Y109.058 E0.03406
G1 X127.591 Y108.462 E0.01876
G1 X127.584 Y107.840 E0.01949
G1 X127.628 Y107.198 E0.02019
G1 X127.723 Y106.544 E0.02072
G1 X127.868 Y105.881 E0.02127
G1 X128.064 Y105.213 E0.02183
G1 X128.309 Y104.542 E0.02239
G1 X128.597 Y103.886 E0.02247
G1 X128.922 Y103.259 E0.02214
G1 X129.281 Y102.676 E0.02148
G1 X130.383 Y101.209 E0.05752
G1 X129.793 Y101.351 E0.01904
G1 X129.263 Y101.578 E0.01806
G1 X128.648 Y101.928 E0.02218
G1 X127.993 Y102.378 E0.02492
G1 X127.338 Y102.909 E0.02645
G1 X126.712 Y103.502 E0.02703
G1 X126.147 Y104.142 E0.02675
G1 X125.671 Y104.807 E0.02567
G1 X125.303 Y105.491 E0.02434
G1 X125.028 Y106.188 E0.02349
G1 X124.835 Y106.883 E0.02261
G1 X124.713 Y107.560 E0.02157
G1 X124.654 Y108.207 E0.02037
G1 X124.637 Y108.799 E0.01855
G1 X124.665 Y110.033 E0.03872
G1 X124.532 Y111.322 E0.04063
G1 X122.768 Y110.165 E0.06615
G1 X122.306 Y109.813 E0.01821
G1 X121.882 Y109.424 E0.01803
G1 X121.525 Y108.994 E0.01753
G1 X121.240 Y108.546 E0.01664
G1 X121.020 Y108.094 E0.01577
G1 X120.857 Y107.649 E0.01486
G1 X120.743 Y107.220 E0.01391
G1 X120.669 Y106.795 E0.01352
G1 X120.620 Y106.017 E0.02445
G1 X120.645 Y105.267 E0.02353
G1 X120.733 Y104.365 E0.02842
G1 X120.788 Y104.079 E0.00911
G1 X120.885 Y103.784 E0.00975
G1 X121.033 Y103.473 E0.01079
G1 X121.240 Y103.133 E0.01249
G1 X121.506 Y102.756 E0.01447
G1 X122.193 Y101.923 E0.03383
G1 X122.629 Y101.451 E0.02016
G1 X123.582 Y100.494 E0.04235
G1 X124.555 Y99.583 E0.04179
G1 X125.037 Y99.166 E0.01999
G1 X125.521 Y98.787 E0.01927
G1 X126.014 Y98.452 E0.01868
G1 X126.516 Y98.177 E0.01795
G1 X127.020 Y97.959 E0.01723
G1 X127.526 Y97.791 E0.01670
G1 X128.032 Y97.666 E0.01633
G1 X128.545 Y97.574 E0.01637
G1 X129.646 Y97.468 E0.03468
G1 X131.049 Y97.409 E0.04402
G1 X132.752 Y97.370 E0.05342
G1 X135.368 Y97.347 E0.08202
G1 X139.368 Y97.376 E0.12541
G1 X140.302 Y97.420 E0.02932
G1 X141.118 Y97.502 E0.02570
G1 X141.760 Y97.639 E0.02060
G1 X142.258 Y97.827 E0.01669
G1 X142.645 Y98.062 E0.01419
G1 X143.092 Y98.493 E0.01946
G1 X143.280 Y98.753 E0.01005
G1 X143.503 Y99.231 E0.01655
G1 X143.655 Y99.792 E0.01822
G1 X143.751 Y100.437 E0.02045
G1 X143.800 Y101.184 E0.02347
G1 X143.821 Y102.664 E0.04641
G1 X143.817 Y104.329 E0.05220
G1 X143.789 Y105.352 E0.03209
G1 X143.700 Y106.131 E0.02456
G1 X143.544 Y106.915 E0.02508
G1 X143.370 Y107.466 E0.01812
G1 X143.231 Y107.770 E0.01048
G1 X143.056 Y108.067 E0.01079
G1 X142.668 Y108.587 E0.02036
G1 X141.820 Y109.521 E0.03956
G1 X141.759 Y109.623 E0.00371
G1 X141.662 Y109.878 E0.00855
G1 X141.573 Y110.390 E0.01630
G1 X141.499 Y110.652 E0.00855
G1 X141.361 Y110.941 E0.01003
G1 X141.156 Y111.215 E0.01072
G1 X140.922 Y111.459 E0.01061
G1 X140.660 Y111.688 E0.01091
G1 X140.142 Y112.053 E0.01988
G1 X139.857 Y112.213 E0.01026
G1 X139.560 Y112.353 E0.01028
G1 X138.937 Y112.578 E0.02078
G1 X138.549 Y112.679 E0.01255
G1 X138.112 Y112.759 E0.01393
G1 X137.606 Y112.817 E0.01597
G1 X137.076 Y112.847 E0.01666
G1 X137.005 Y112.473 F10800.000
G1 F1200
G1 X134.879 Y112.478 E0.06665
G1 X132.343 Y112.413 E0.07954
G1 X130.758 Y112.305 E0.04983
G1 X128.537 Y112.043 E0.07010
G1 X128.163 Y110.072 E0.06292
G1 X128.012 Y109.017 E0.03341
G1 X127.968 Y108.445 E0.01799
G1 X127.961 Y107.851 E0.01863
G1 X128.003 Y107.238 E0.01926
G1 X128.094 Y106.611 E0.01985
G1 X128.234 Y105.975 E0.02044
G1 X128.422 Y105.331 E0.02103
G1 X128.659 Y104.683 E0.02162
G1 X128.937 Y104.049 E0.02172
G1 X129.251 Y103.445 E0.02133
G1 X129.593 Y102.888 E0.02050
G1 X130.538 Y101.630 E0.04933
G1 X130.673 Y101.353 E0.00966
G1 X130.683 Y101.146 E0.00650
G1 X130.611 Y101.004 E0.00499
G1 X130.445 Y100.905 E0.00607
G1 X130.137 Y100.880 E0.00969
G1 X129.673 Y100.992 E0.01494
G1 X129.095 Y101.240 E0.01973
G1 X128.448 Y101.608 E0.02335
G1 X127.768 Y102.076 E0.02589
G1 X127.089 Y102.625 E0.02737
G1 X126.441 Y103.240 E0.02802
G1 X125.852 Y103.906 E0.02788
G1 X125.350 Y104.608 E0.02704
G1 X124.960 Y105.332 E0.02579
G1 X124.670 Y106.068 E0.02480
G1 X124.467 Y106.799 E0.02379
G1 X124.339 Y107.510 E0.02263
G1 X124.277 Y108.185 E0.02126
G1 X124.260 Y108.798 E0.01923
G1 X124.288 Y110.018 E0.03827
G1 X124.221 Y110.667 E0.02045
G1 X122.986 Y109.857 E0.04631
G1 X122.548 Y109.524 E0.01725
G1 X122.156 Y109.164 E0.01668
G1 X121.831 Y108.772 E0.01598
G1 X121.570 Y108.362 E0.01523
G1 X121.368 Y107.946 E0.01450
G1 X121.217 Y107.535 E0.01372
G1 X121.112 Y107.139 E0.01285
G1 X121.044 Y106.751 E0.01235
G1 X120.998 Y106.012 E0.02323
G1 X121.022 Y105.292 E0.02258
G1 X121.107 Y104.419 E0.02750
G1 X121.154 Y104.174 E0.00782
G1 X121.235 Y103.924 E0.00823
G1 X121.365 Y103.653 E0.00942
G1 X121.555 Y103.340 E0.01149
G1 X121.806 Y102.985 E0.01362
G1 X122.477 Y102.172 E0.03306
G1 X122.901 Y101.712 E0.01961
G1 X123.845 Y100.765 E0.04192
G1 X124.807 Y99.863 E0.04135
G1 X125.277 Y99.457 E0.01947
G1 X125.743 Y99.092 E0.01857
G1 X126.211 Y98.775 E0.01771
G1 X126.682 Y98.516 E0.01684
G1 X127.155 Y98.312 E0.01616
G1 X127.631 Y98.154 E0.01572
G1 X128.110 Y98.035 E0.01548
G1 X128.597 Y97.948 E0.01550
G1 X129.673 Y97.844 E0.03389
G1 X131.061 Y97.786 E0.04358
G1 X132.758 Y97.747 E0.05322
G1 X135.369 Y97.724 E0.08184
G1 X139.358 Y97.753 E0.12508
G1 X140.275 Y97.796 E0.02878
G1 X141.059 Y97.875 E0.02473
G1 X141.653 Y98.002 E0.01905
G1 X142.092 Y98.168 E0.01472
G1 X142.414 Y98.362 E0.01178
G1 X142.806 Y98.741 E0.01709
G1 X142.953 Y98.944 E0.00788
G1 X143.147 Y99.361 E0.01440
G1 X143.285 Y99.869 E0.01652
G1 X143.376 Y100.477 E0.01927
G1 X143.423 Y101.199 E0.02268
G1 X143.444 Y102.666 E0.04601
G1 X143.440 Y104.323 E0.05195
G1 X143.412 Y105.326 E0.03144
G1 X143.327 Y106.072 E0.02356
G1 X143.178 Y106.821 E0.02394
G1 X143.018 Y107.331 E0.01674
G1 X142.896 Y107.595 E0.00913
G1 X142.742 Y107.857 E0.00954
G1 X142.378 Y108.345 E0.01909
G1 X141.640 Y109.143 E0.03408
G1 X141.510 Y109.305 E0.00650
G1 X141.419 Y109.456 E0.00554
G1 X141.296 Y109.777 E0.01076
G1 X141.205 Y110.306 E0.01683
G1 X141.145 Y110.519 E0.00693
G1 X141.037 Y110.745 E0.00785
G1 X140.868 Y110.970 E0.00883
G1 X140.661 Y111.186 E0.00936
G1 X140.426 Y111.391 E0.00978
G1 X139.941 Y111.734 E0.01865
G1 X139.684 Y111.878 E0.00922
G1 X139.415 Y112.004 E0.00932
G1 X138.825 Y112.218 E0.01968
G1 X138.468 Y112.310 E0.01156
G1 X138.057 Y112.386 E0.01311
G1 X137.574 Y112.441 E0.01523
G1 X137.065 Y112.470 E0.01599
G1 X136.815 Y112.825 F10800.000
G1 E-0.80000 F2100.00000
G1 Z0.800 F10800.000
G1 X103.528 Y125.804
G1 Z0.200
G1 E0.80000 F2100.00000
G1 F1200
G1 X83.860 Y125.802 E0.61667
G1 X83.154 Y121.762 E0.12859
G1 X74.783 Y124.669 E0.27784
G1 X74.607 Y124.682 E0.00553
G1 X74.358 Y124.662 E0.00784
G1 X74.198 Y124.599 E0.00541
G1 X74.065 Y124.507 E0.00507
G1 X73.876 Y124.312 E0.00850
G1 X73.355 Y123.154 E0.03982
G1 X73.037 Y122.511 E0.02249
G1 X72.680 Y121.864 E0.02315
G1 X72.276 Y121.218 E0.02390
G1 X71.852 Y120.605 E0.02338
G1 X71.432 Y120.049 E0.02185
G1 X71.035 Y119.576 E0.01936
G1 X70.685 Y119.213 E0.01580
G1 X70.366 Y118.934 E0.01331
G1 X69.993 Y118.672 E0.01427
G1 X69.807 Y118.165 E0.01696
G1 X69.756 Y117.895 E0.00860
G1 X69.748 Y117.662 E0.00731
G1 X69.778 Y117.460 E0.00640
G1 X69.886 Y117.219 E0.00829
G1 X69.998 Y117.089 E0.00536
G1 X70.173 Y116.967 E0.00671
G1 X70.474 Y116.853 E0.01008
G1 X70.843 Y116.794 E0.01173
G1 X71.355 Y116.799 E0.01603
G1 X72.585 Y117.292 E0.04156
G1 X73.299 Y117.551 E0.02380
G1 X74.054 Y117.792 E0.02488
G1 X74.862 Y118.010 E0.02624
G1 X75.719 Y118.203 E0.02754
G1 X76.625 Y118.372 E0.02890
G1 X77.407 Y118.491 E0.02480
G1 X78.585 Y118.638 E0.03721
G1 X81.918 Y118.935 E0.10491
G1 X82.133 Y117.799 E0.03623
G1 X80.778 Y117.412 E0.04418
G1 X80.207 Y117.289 E0.01831
G1 X76.454 Y116.710 E0.11907
G1 X75.136 Y116.464 E0.04204
G1 X74.592 Y116.339 E0.01750
G1 X73.686 Y116.069 E0.02963
G1 X73.315 Y115.928 E0.01244
G1 X72.569 Y115.593 E0.02566
G1 X71.686 Y115.137 E0.03114
G1 X71.726 Y114.965 E0.00551
G1 X75.680 Y114.872 E0.12402
G1 X77.941 Y114.739 E0.07102
G1 X79.509 Y114.591 E0.04938
G1 X80.204 Y114.502 E0.02196
G1 X80.782 Y114.403 E0.01840
G1 X81.275 Y114.292 E0.01584
G1 X81.706 Y114.163 E0.01412
G1 X82.103 Y114.013 E0.01330
G1 X82.831 Y113.672 E0.02521
G1 X83.871 Y113.109 E0.03706
G1 X84.247 Y112.884 E0.01375
G1 X84.658 Y112.605 E0.01557
G1 X85.110 Y112.249 E0.01803
G1 X85.610 Y111.798 E0.02112
G1 X86.122 Y111.293 E0.02257
G1 X86.616 Y110.767 E0.02261
G1 X87.058 Y110.254 E0.02122
G1 X87.415 Y109.788 E0.01843
G1 X87.920 Y108.998 E0.02938
G1 X88.515 Y107.926 E0.03846
G1 X88.858 Y107.215 E0.02475
G1 X88.997 Y106.849 E0.01227
G1 X89.193 Y106.194 E0.02143
G1 X89.358 Y105.554 E0.02073
G1 X89.503 Y104.815 E0.02360
G1 X89.557 Y104.341 E0.01498
G1 X89.587 Y103.790 E0.01729
G1 X89.591 Y103.184 E0.01902
G1 X89.563 Y102.544 E0.02007
G1 X89.497 Y101.895 E0.02044
G1 X89.386 Y101.272 E0.01985
G1 X89.244 Y100.675 E0.01926
G1 X89.089 Y100.140 E0.01745
G1 X91.373 Y99.554 E0.07395
G1 X87.982 Y87.046 E0.40634
G1 X86.502 Y81.485 E0.18043
G1 X85.086 Y75.921 E0.17999
G1 X83.983 Y71.154 E0.15341
G1 X83.442 Y67.985 E0.10082
G1 X83.318 Y66.032 E0.06135
G1 X83.453 Y64.895 E0.03590
G1 X83.983 Y63.321 E0.05208
G1 X80.445 Y63.321 E0.11093
G1 X81.069 Y62.787 E0.02575
G1 X81.454 Y62.505 E0.01498
G1 X81.910 Y62.220 E0.01685
G1 X82.449 Y61.940 E0.01903
G1 X83.156 Y61.676 E0.02367
G1 X84.141 Y61.441 E0.03175
G1 X85.499 Y61.256 E0.04298
G1 X87.323 Y61.142 E0.05729
G1 X89.717 Y61.085 E0.07509
G1 X95.712 Y61.067 E0.18797
G1 X117.655 Y61.069 E0.68801
G1 X116.152 Y64.587 E0.11995
G1 X115.856 Y65.888 E0.04184
G1 X115.765 Y67.853 E0.06169
G1 X115.960 Y70.808 E0.09286
G1 X116.528 Y75.101 E0.13578
G1 X117.308 Y80.025 E0.15628
G1 X118.143 Y84.869 E0.15414
G1 X119.345 Y91.457 E0.20996
G1 X119.628 Y92.875 E0.04533
G1 X119.802 Y93.582 E0.02283
G1 X120.070 Y94.181 E0.02060
G1 X120.247 Y94.485 E0.01101
G1 X120.451 Y94.774 E0.01108
G1 X120.688 Y95.053 E0.01149
G1 X120.966 Y95.320 E0.01207
G1 X121.549 Y95.765 E0.02302
G1 X122.171 Y96.134 E0.02267
G1 X122.782 Y96.426 E0.02121
G1 X123.593 Y96.733 E0.02719
G1 X124.289 Y96.928 E0.02268
G1 X124.801 Y97.009 E0.01624
G1 X125.504 Y97.036 E0.02205
G1 X126.430 Y97.003 E0.02906
G1 X126.962 Y96.956 E0.01674
G1 X128.725 Y96.739 E0.05572
G1 X129.443 Y96.682 E0.02257
G1 X131.232 Y96.642 E0.05612
G1 X144.318 Y96.760 E0.41030
G1 X145.166 Y96.810 E0.02664
G1 X145.289 Y96.839 E0.00396
G1 X145.476 Y96.928 E0.00649
G1 X145.638 Y97.057 E0.00648
G1 X145.697 Y97.128 E0.00290
G1 X145.784 Y97.343 E0.00727
G1 X145.765 Y97.572 E0.00720
G1 X145.513 Y98.292 E0.02392
G1 X145.384 Y98.825 E0.01718
G1 X145.331 Y99.156 E0.01052
G1 X145.244 Y100.243 E0.03421
G1 X145.248 Y101.724 E0.04643
G1 X145.364 Y104.231 E0.07868
G1 X145.470 Y105.620 E0.04369
G1 X145.606 Y106.445 E0.02622
G1 X145.876 Y107.783 E0.04278
G1 X146.017 Y108.365 E0.01880
G1 X146.143 Y108.732 E0.01217
G1 X146.323 Y109.146 E0.01413
G1 X146.571 Y109.628 E0.01702
G1 X146.894 Y110.171 E0.01980
G1 X147.295 Y110.766 E0.02250
G1 X147.779 Y111.404 E0.02510
G1 X148.349 Y112.074 E0.02756
G1 X148.985 Y112.746 E0.02903
G1 X149.669 Y113.397 E0.02959
G1 X150.384 Y113.997 E0.02930
G1 X151.114 Y114.519 E0.02811
G1 X151.894 Y114.978 E0.02838
G1 X152.759 Y115.390 E0.03005
G1 X153.744 Y115.776 E0.03318
G1 X154.923 Y116.166 E0.03892
G1 X156.973 Y116.516 E0.06521
G1 X160.539 Y116.790 E0.11215
G1 X166.319 Y116.959 E0.18132
G1 X175.011 Y116.991 E0.27252
G1 X185.888 Y116.922 E0.34104
G1 X210.692 Y116.621 E0.77780
G1 X210.692 Y117.754 E0.03552
G1 X103.528 Y117.746 E3.36005
G1 X103.528 Y125.744 E0.25076
G1 X103.905 Y126.181 F10800.000
G1 F1200
G1 X83.543 Y126.179 E0.63843
G1 X82.859 Y122.263 E0.12462
G1 X74.860 Y125.042 E0.26551
G1 X74.612 Y125.059 E0.00780
G1 X74.249 Y125.025 E0.01144
G1 X74.019 Y124.933 E0.00776
G1 X73.820 Y124.796 E0.00758
G1 X73.559 Y124.527 E0.01174
G1 X73.014 Y123.315 E0.04167
G1 X72.703 Y122.686 E0.02200
G1 X72.355 Y122.056 E0.02256
G1 X71.961 Y121.426 E0.02330
G1 X71.547 Y120.826 E0.02286
G1 X71.137 Y120.284 E0.02130
G1 X70.755 Y119.828 E0.01866
G1 X70.425 Y119.487 E0.01489
G1 X70.133 Y119.231 E0.01217
G1 X69.688 Y118.919 E0.01702
G1 X69.555 Y118.605 E0.01068
G1 X69.441 Y118.259 E0.01144
G1 X69.380 Y117.937 E0.01028
G1 X69.370 Y117.641 E0.00928
G1 X69.409 Y117.373 E0.00850
G1 X69.465 Y117.204 E0.00557
G1 X69.574 Y117.003 E0.00716
G1 X69.734 Y116.817 E0.00770
G1 X70.007 Y116.626 E0.01044
G1 X70.376 Y116.487 E0.01238
G1 X70.815 Y116.417 E0.01393
G1 X71.429 Y116.422 E0.01924
G1 X72.719 Y116.940 E0.04359
G1 X73.420 Y117.194 E0.02337
G1 X74.161 Y117.431 E0.02438
G1 X74.953 Y117.644 E0.02572
G1 X75.795 Y117.834 E0.02708
G1 X76.688 Y118.000 E0.02848
G1 X77.459 Y118.117 E0.02445
G1 X78.625 Y118.263 E0.03684
G1 X81.611 Y118.529 E0.09398
G1 X81.698 Y118.067 E0.01473
G1 X80.686 Y117.778 E0.03300
G1 X80.139 Y117.660 E0.01756
G1 X76.391 Y117.082 E0.11891
G1 X75.059 Y116.833 E0.04247
G1 X74.496 Y116.704 E0.01812
G1 X73.565 Y116.426 E0.03044
G1 X73.171 Y116.277 E0.01322
G1 X72.405 Y115.933 E0.02634
G1 X70.334 Y114.862 E0.07307
G1 X70.334 Y114.593 E0.00844
G1 X71.232 Y114.600 E0.02815
G1 X75.665 Y114.495 E0.13902
G1 X77.912 Y114.363 E0.07060
G1 X79.467 Y114.216 E0.04897
G1 X80.148 Y114.129 E0.02152
G1 X80.709 Y114.033 E0.01784
G1 X81.179 Y113.927 E0.01512
G1 X81.586 Y113.805 E0.01330
G1 X81.957 Y113.665 E0.01243
G1 X82.661 Y113.335 E0.02440
G1 X83.684 Y112.781 E0.03648
G1 X84.044 Y112.566 E0.01315
G1 X84.435 Y112.301 E0.01480
G1 X84.866 Y111.960 E0.01723
G1 X85.351 Y111.524 E0.02046
G1 X85.852 Y111.029 E0.02207
G1 X86.335 Y110.515 E0.02213
G1 X86.765 Y110.016 E0.02063
G1 X87.106 Y109.571 E0.01758
G1 X87.596 Y108.805 E0.02851
G1 X88.180 Y107.752 E0.03776
G1 X88.512 Y107.066 E0.02390
G1 X88.640 Y106.728 E0.01133
G1 X88.830 Y106.093 E0.02077
G1 X88.990 Y105.470 E0.02016
G1 X89.130 Y104.758 E0.02277
G1 X89.181 Y104.309 E0.01416
G1 X89.210 Y103.778 E0.01666
G1 X89.214 Y103.191 E0.01843
G1 X89.187 Y102.572 E0.01942
G1 X89.123 Y101.948 E0.01967
G1 X89.017 Y101.349 E0.01907
G1 X88.880 Y100.771 E0.01862
G1 X88.618 Y99.872 E0.02937
G1 X90.909 Y99.284 E0.07418
G1 X87.618 Y87.143 E0.39439
G1 X86.137 Y81.580 E0.18052
G1 X84.719 Y76.010 E0.18019
G1 X83.614 Y71.229 E0.15388
G1 X83.067 Y68.029 E0.10178
G1 X82.939 Y66.022 E0.06305
G1 X83.083 Y64.812 E0.03821
G1 X83.458 Y63.698 E0.03685
G1 X80.215 Y63.698 E0.10169
G1 X80.196 Y63.037 E0.02073
G1 X80.835 Y62.491 E0.02633
G1 X81.243 Y62.192 E0.01586
G1 X81.723 Y61.893 E0.01775
G1 X82.295 Y61.595 E0.02022
