; generated by PrusaSlicer 2.1.1+win64 on 2020-01-17 at 21:24:02 UTC

; 

; external perimeters extrusion width = 0.45mm
; perimeters extrusion width = 0.45mm
; infill extrusion width = 0.45mm
; solid infill extrusion width = 0.45mm
; top infill extrusion width = 0.40mm
; support material extrusion width = 0.35mm
; first layer extrusion width = 0.42mm

M73 P0 R64
M73 Q0 S65
M201 X1000 Y1000 Z1000 E5000 ; sets maximum accelerations, mm/sec^2
M203 X200 Y200 Z12 E120 ; sets maximum feedrates, mm/sec
M204 P1250 R1250 T1250 ; sets acceleration (P, T) and retract acceleration (R), mm/sec^2
M205 X8.00 Y8.00 Z0.40 E1.50 ; sets the jerk limits, mm/sec
M205 S0 T0 ; sets the minimum extruding and travel feed rate, mm/sec
M107
M862.3 P "MK3S" ; printer model check
M862.1 P0.4 ; nozzle diameter check
M115 U3.8.1 ; tell printer latest fw version
G90 ; use absolute coordinates
M83 ; extruder relative mode
M104 S215 ; set extruder temp
M140 S60 ; set bed temp
M190 S60 ; wait for bed temp
M109 S215 ; wait for extruder temp
G28 W ; home all without mesh bed level
G80 ; mesh bed leveling
G1 Y-3.0 F1000.0 ; go outside print area
G92 E0.0
G1 X60.0 E9.0 F1000.0 ; intro line
M73 Q0 S65
M73 P0 R64
G1 X100.0 E12.5 F1000.0 ; intro line
G92 E0.0
M221 S95
G21 ; set units to millimeters
G90 ; use absolute coordinates
M83 ; use relative distances for extrusion
M900 K30 ; Filament gcode
;BEFORE_LAYER_CHANGE
G92 E0.0
;0.2


G1 E-0.80000 F2100.00000
G1 Z0.600 F10800.000
;AFTER_LAYER_CHANGE
;0.2
G1 X87.902 Y82.885
G1 Z0.200
G1 E0.80000 F2100.00000
M204 S1000
G1 F1200
G1 X88.246 Y82.332 E0.02044
G1 X106.096 Y64.507 E0.79094
G1 X106.611 Y64.225 E0.01839
G1 X107.182 Y64.091 E0.01839
G1 X113.401 Y63.798 E0.19522
G1 X117.305 Y64.132 E0.12284
G1 X117.833 Y64.284 E0.01726
G1 X118.311 Y64.566 E0.01737
G1 X132.040 Y78.298 E0.60885
G1 X155.887 Y118.479 E1.46503
G1 X156.353 Y119.503 E0.03528
G1 X156.611 Y120.478 E0.03160
G1 X156.713 Y121.885 E0.04425
G1 X156.608 Y122.851 E0.03046
G1 X156.316 Y123.899 E0.03412
G1 X155.849 Y124.886 E0.03424
G1 X155.297 Y125.681 E0.03034
G1 X154.310 Y126.670 E0.04379
G1 X153.516 Y127.217 E0.03023
G1 X135.015 Y138.172 E0.67415
G1 X132.911 Y139.123 E0.07242
G1 X130.717 Y139.804 E0.07202
G1 X128.409 Y140.213 E0.07350
G1 X126.284 Y140.338 E0.06675
G1 X124.155 Y140.213 E0.06687
G1 X121.815 Y139.796 E0.07453
G1 X119.585 Y139.095 E0.07327
G1 X117.512 Y138.150 E0.07144
G1 X98.370 Y126.734 E0.69882
G1 X97.384 Y125.822 E0.04210
G1 X96.664 Y124.794 E0.03936
G1 X96.173 Y123.674 E0.03834
G1 X87.802 Y93.811 E0.97243
G1 X87.442 Y89.670 E0.13032
G1 X87.735 Y83.515 E0.19320
G1 X87.886 Y82.943 E0.01855
G1 F8640
G1 X88.246 Y82.332 E-0.16379
G1 X90.073 Y80.507 E-0.59621
G1 E-0.04000 F2100.00000
G1 Z0.800 F10800.000
G1 X126.283 Y129.271
G1 Z0.200
G1 E0.80000 F2100.00000
G1 F1200
G1 X124.959 Y129.155 E0.04165
G1 X123.690 Y128.815 E0.04119
G1 X122.473 Y128.250 E0.04209
G1 X121.384 Y127.488 E0.04167
G1 X120.445 Y126.548 E0.04165
G1 X119.683 Y125.460 E0.04165
G1 X119.121 Y124.256 E0.04165
G1 X118.777 Y122.973 E0.04165
G1 X118.662 Y121.649 E0.04165
G1 X118.777 Y120.326 E0.04165
G1 X119.121 Y119.043 E0.04165
G1 X119.683 Y117.839 E0.04165
G1 X120.445 Y116.751 E0.04165
G1 X121.384 Y115.811 E0.04165
G1 X122.472 Y115.049 E0.04165
G1 X123.676 Y114.488 E0.04165
G1 X124.959 Y114.144 E0.04165
G1 X126.268 Y114.029 E0.04119
G1 X127.606 Y114.144 E0.04209
G1 X128.890 Y114.488 E0.04167
G1 X130.094 Y115.049 E0.04165
G1 X131.182 Y115.811 E0.04165
G1 X132.121 Y116.751 E0.04165
G1 X132.883 Y117.839 E0.04165
G1 X133.445 Y119.043 E0.04165
G1 X133.789 Y120.326 E0.04165
G1 X133.904 Y121.649 E0.04165
G1 X133.789 Y122.973 E0.04165
G1 X133.445 Y124.256 E0.04165
G1 X132.883 Y125.460 E0.04165
G1 X132.121 Y126.548 E0.04165
G1 X131.182 Y127.488 E0.04165
G1 X130.094 Y128.250 E0.04165
G1 X128.890 Y128.811 E0.04165
G1 X127.606 Y129.155 E0.04165
G1 X126.343 Y129.266 E0.03977
G1 X126.283 Y128.892 F10800.000
G1 F1200
G1 X125.025 Y128.782 E0.03959
G1 X123.820 Y128.459 E0.03914
G1 X122.662 Y127.922 E0.04002
G1 X121.627 Y127.198 E0.03959
G1 X120.735 Y126.305 E0.03959
G1 X120.010 Y125.271 E0.03959
G1 X119.477 Y124.127 E0.03959
G1 X119.150 Y122.907 E0.03959
G1 X119.040 Y121.649 E0.03959
G1 X119.150 Y120.392 E0.03959
G1 X119.477 Y119.172 E0.03959
G1 X120.010 Y118.028 E0.03959
G1 X120.735 Y116.994 E0.03959
G1 X121.627 Y116.101 E0.03959
G1 X122.661 Y115.377 E0.03959
G1 X123.806 Y114.843 E0.03959
G1 X125.025 Y114.517 E0.03959
G1 X126.269 Y114.408 E0.03914
G1 X127.540 Y114.517 E0.04002
G1 X128.760 Y114.843 E0.03959
G1 X129.904 Y115.377 E0.03959
G1 X130.939 Y116.101 E0.03959
G1 X131.831 Y116.994 E0.03959
G1 X132.555 Y118.028 E0.03959
G1 X133.089 Y119.172 E0.03959
G1 X133.416 Y120.392 E0.03959
G1 X133.526 Y121.649 E0.03959
G1 X133.416 Y122.907 E0.03959
G1 X133.089 Y124.127 E0.03959
G1 X132.555 Y125.271 E0.03959
G1 X131.831 Y126.305 E0.03959
G1 X130.939 Y127.198 E0.03959
G1 X129.904 Y127.922 E0.03959
G1 X128.760 Y128.456 E0.03959
G1 X127.541 Y128.782 E0.03959
G1 X126.343 Y128.887 E0.03770
G1 X126.083 Y129.239 F10800.000
G1 F8640
G1 X125.025 Y128.782 E-0.30517
G1 X123.820 Y128.459 E-0.28822
G1 X123.165 Y128.156 E-0.16661
G1 E-0.04000 F2100.00000
G1 Z0.800 F10800.000
G1 X102.776 Y124.446
G1 Z0.200
G1 E0.80000 F2100.00000
G1 F1200
G1 X102.283 Y124.489 E0.01552
G1 X101.790 Y124.446 E0.01552
G1 X101.312 Y124.318 E0.01552
G1 X100.863 Y124.108 E0.01552
G1 X100.458 Y123.824 E0.01552
G1 X100.108 Y123.475 E0.01552
G1 X99.824 Y123.069 E0.01552
G1 X99.615 Y122.621 E0.01552
G1 X99.487 Y122.142 E0.01552
G1 X99.444 Y121.649 E0.01552
G1 X99.487 Y121.156 E0.01552
G1 X99.615 Y120.678 E0.01552
G1 X99.824 Y120.230 E0.01552
G1 X100.108 Y119.824 E0.01552
G1 X100.458 Y119.474 E0.01552
G1 X100.863 Y119.191 E0.01552
G1 X101.312 Y118.981 E0.01552
G1 X101.790 Y118.853 E0.01552
G1 X102.261 Y118.812 E0.01483
G1 X102.774 Y118.853 E0.01612
G1 X103.254 Y118.981 E0.01559
G1 X103.703 Y119.191 E0.01552
G1 X104.108 Y119.474 E0.01552
G1 X104.458 Y119.824 E0.01552
G1 X104.742 Y120.230 E0.01552
G1 X104.951 Y120.678 E0.01552
G1 X105.079 Y121.156 E0.01552
G1 X105.122 Y121.649 E0.01552
G1 X105.079 Y122.142 E0.01552
G1 X104.951 Y122.621 E0.01552
G1 X104.742 Y123.069 E0.01552
G1 X104.458 Y123.475 E0.01552
G1 X104.108 Y123.824 E0.01552
G1 X103.703 Y124.108 E0.01552
G1 X103.254 Y124.318 E0.01552
G1 X102.834 Y124.430 E0.01364
G1 X102.710 Y124.073 F10800.000
G1 F1200
G1 X102.283 Y124.110 E0.01345
G1 X101.856 Y124.073 E0.01345
G1 X101.441 Y123.962 E0.01345
G1 X101.053 Y123.781 E0.01345
G1 X100.701 Y123.535 E0.01345
G1 X100.398 Y123.231 E0.01345
G1 X100.152 Y122.880 E0.01345
G1 X99.971 Y122.491 E0.01345
G1 X99.859 Y122.077 E0.01345
G1 X99.822 Y121.649 E0.01345
G1 X99.859 Y121.222 E0.01345
G1 X99.971 Y120.808 E0.01345
G1 X100.152 Y120.419 E0.01345
G1 X100.398 Y120.068 E0.01345
G1 X100.701 Y119.764 E0.01345
G1 X101.053 Y119.518 E0.01345
G1 X101.441 Y119.337 E0.01345
G1 X101.856 Y119.226 E0.01345
G1 X102.262 Y119.190 E0.01281
G1 X102.709 Y119.226 E0.01406
G1 X103.125 Y119.337 E0.01348
G1 X103.513 Y119.518 E0.01345
G1 X103.865 Y119.764 E0.01345
G1 X104.168 Y120.068 E0.01345
G1 X104.414 Y120.419 E0.01345
G1 X104.595 Y120.808 E0.01345
G1 X104.706 Y121.222 E0.01345
G1 X104.744 Y121.649 E0.01345
G1 X104.706 Y122.077 E0.01345
G1 X104.595 Y122.491 E0.01345
G1 X104.414 Y122.880 E0.01345
G1 X104.168 Y123.231 E0.01345
G1 X103.865 Y123.535 E0.01345
G1 X103.513 Y123.781 E0.01345
G1 X103.125 Y123.962 E0.01345
G1 X102.768 Y124.057 E0.01157
G1 X102.573 Y124.449 F10800.000
G1 F8640
G1 X102.283 Y124.110 E-0.11271
G1 X101.856 Y124.073 E-0.09904
G1 X101.441 Y123.962 E-0.09905
G1 X101.053 Y123.781 E-0.09905
G1 X100.701 Y123.535 E-0.09904
G1 X100.398 Y123.231 E-0.09904
G1 X100.152 Y122.880 E-0.09905
G1 X100.055 Y122.672 E-0.05302
G1 E-0.04000 F2100.00000
G1 Z0.800 F10800.000
G1 X149.790 Y124.446
G1 Z0.200
G1 E0.80000 F2100.00000
G1 F1200
G1 X149.312 Y124.318 E0.01552
G1 X148.863 Y124.108 E0.01552
G1 X148.458 Y123.824 E0.01552
G1 X148.108 Y123.475 E0.01552
G1 X147.824 Y123.069 E0.01552
G1 X147.615 Y122.621 E0.01552
G1 X147.487 Y122.142 E0.01552
G1 X147.444 Y121.649 E0.01552
G1 X147.487 Y121.156 E0.01552
G1 X147.615 Y120.678 E0.01552
G1 X147.824 Y120.230 E0.01552
G1 X148.108 Y119.824 E0.01552
G1 X148.458 Y119.474 E0.01552
G1 X148.863 Y119.191 E0.01552
G1 X149.312 Y118.981 E0.01552
G1 X149.790 Y118.853 E0.01552
G1 X150.261 Y118.812 E0.01483
G1 X150.774 Y118.853 E0.01612
G1 X151.254 Y118.981 E0.01559
G1 X151.703 Y119.191 E0.01552
G1 X152.108 Y119.474 E0.01552
G1 X152.458 Y119.824 E0.01552
G1 X152.742 Y120.230 E0.01552
G1 X152.951 Y120.678 E0.01552
G1 X153.079 Y121.156 E0.01552
G1 X153.122 Y121.649 E0.01552
G1 X153.079 Y122.142 E0.01552
G1 X152.951 Y122.621 E0.01552
G1 X152.742 Y123.069 E0.01552
G1 X152.458 Y123.475 E0.01552
G1 X152.108 Y123.824 E0.01552
G1 X151.703 Y124.108 E0.01552
G1 X151.254 Y124.318 E0.01552
G1 X150.776 Y124.446 E0.01552
G1 X150.283 Y124.489 E0.01552
G1 X149.850 Y124.451 E0.01364
G1 X149.856 Y124.073 F10800.000
G1 F1200
G1 X149.441 Y123.962 E0.01345
G1 X149.052 Y123.781 E0.01345
G1 X148.701 Y123.535 E0.01345
G1 X148.398 Y123.231 E0.01345
G1 X148.152 Y122.880 E0.01345
G1 X147.971 Y122.491 E0.01345
G1 X147.859 Y122.077 E0.01345
G1 X147.822 Y121.649 E0.01345
G1 X147.859 Y121.222 E0.01345
G1 X147.970 Y120.808 E0.01345
G1 X148.152 Y120.419 E0.01345
G1 X148.398 Y120.068 E0.01345
G1 X148.701 Y119.764 E0.01345
G1 X149.053 Y119.518 E0.01345
G1 X149.441 Y119.337 E0.01345
G1 X149.856 Y119.226 E0.01345
G1 X150.262 Y119.190 E0.01281
G1 X150.709 Y119.226 E0.01406
G1 X151.125 Y119.337 E0.01348
G1 X151.513 Y119.518 E0.01345
G1 X151.865 Y119.764 E0.01345
G1 X152.168 Y120.068 E0.01345
G1 X152.414 Y120.419 E0.01345
G1 X152.595 Y120.808 E0.01345
G1 X152.706 Y121.222 E0.01345
G1 X152.744 Y121.649 E0.01345
G1 X152.706 Y122.077 E0.01345
G1 X152.595 Y122.491 E0.01345
G1 X152.414 Y122.880 E0.01345
G1 X152.168 Y123.231 E0.01345
G1 X151.865 Y123.535 E0.01345
G1 X151.513 Y123.781 E0.01345
G1 X151.125 Y123.962 E0.01345
G1 X150.710 Y124.073 E0.01345
G1 X150.283 Y124.110 E0.01345
G1 X149.915 Y124.078 E0.01157
G1 X149.598 Y124.379 F10800.000
G1 F8640
G1 X149.441 Y123.962 E-0.11272
G1 X149.052 Y123.781 E-0.09904
G1 X148.701 Y123.535 E-0.09904
G1 X148.398 Y123.231 E-0.09904
G1 X148.152 Y122.880 E-0.09905
G1 X147.971 Y122.491 E-0.09904
G1 X147.859 Y122.077 E-0.09905
G1 X147.839 Y121.848 E-0.05302
G1 E-0.04000 F2100.00000
G1 Z0.800 F10800.000
G1 X126.283 Y137.561
G1 Z0.200
G1 E0.80000 F2100.00000
G1 F1200
G1 X124.365 Y137.445 E0.06025
G1 X122.475 Y137.099 E0.06025
G1 X120.640 Y136.527 E0.06025
G1 X118.888 Y135.739 E0.06025
G1 X117.243 Y134.744 E0.06029
G1 X115.783 Y133.611 E0.05792
G1 X99.859 Y124.389 E0.57698
G1 X99.440 Y123.956 E0.01888
G1 X99.085 Y123.432 E0.01985
G1 X98.826 Y122.854 E0.01986
G1 X98.670 Y122.240 E0.01986
G1 X98.622 Y121.609 E0.01985
G1 X98.684 Y120.979 E0.01986
G1 X98.854 Y120.369 E0.01985
G1 X99.126 Y119.797 E0.01986
G1 X99.492 Y119.280 E0.01986
G1 X99.918 Y118.859 E0.01878
G1 X100.485 Y118.458 E0.02179
G1 X115.782 Y109.688 E0.55285
G1 X117.243 Y108.555 E0.05796
G1 X118.888 Y107.560 E0.06029
G1 X120.640 Y106.772 E0.06025
G1 X122.475 Y106.200 E0.06025
G1 X124.365 Y105.854 E0.06025
G1 X126.283 Y105.738 E0.06025
G1 X128.152 Y105.851 E0.05871
G1 X130.092 Y106.200 E0.06180
G1 X131.925 Y106.772 E0.06022
G1 X133.678 Y107.560 E0.06025
G1 X135.323 Y108.555 E0.06029
G1 X136.782 Y109.688 E0.05792
G1 X152.707 Y118.910 E0.57698
G1 X153.125 Y119.343 E0.01888
G1 X153.480 Y119.867 E0.01986
G1 X153.740 Y120.445 E0.01986
G1 X153.896 Y121.058 E0.01985
G1 X153.943 Y121.690 E0.01986
G1 X153.882 Y122.320 E0.01986
G1 X153.721 Y122.897 E0.01878
G1 X153.439 Y123.504 E0.02099
G1 X153.074 Y124.019 E0.01978
G1 X152.624 Y124.464 E0.01986
G1 X152.083 Y124.840 E0.02066
G1 X136.783 Y133.610 E0.55293
G1 X135.323 Y134.744 E0.05796
G1 X133.678 Y135.739 E0.06029
G1 X131.925 Y136.527 E0.06025
G1 X130.091 Y137.099 E0.06025
G1 X128.201 Y137.445 E0.06025
G1 X126.343 Y137.558 E0.05836
G1 X126.283 Y137.939 F10800.000
G1 F1200
G1 X124.319 Y137.820 E0.06168
G1 X122.385 Y137.466 E0.06168
G1 X120.507 Y136.881 E0.06168
G1 X118.713 Y136.073 E0.06168
G1 X117.029 Y135.055 E0.06169
G1 X115.572 Y133.925 E0.05781
G1 X99.624 Y124.689 E0.57783
G1 X99.147 Y124.195 E0.02156
G1 X98.755 Y123.616 E0.02191
G1 X98.469 Y122.979 E0.02191
G1 X98.297 Y122.302 E0.02191
G1 X98.244 Y121.605 E0.02191
G1 X98.312 Y120.909 E0.02191
G1 X98.499 Y120.236 E0.02191
G1 X98.799 Y119.605 E0.02191
G1 X99.204 Y119.035 E0.02191
G1 X99.675 Y118.569 E0.02078
G1 X100.282 Y118.140 E0.02333
G1 X115.572 Y109.374 E0.55259
G1 X117.029 Y108.244 E0.05783
G1 X118.713 Y107.226 E0.06169
G1 X120.507 Y106.418 E0.06168
G1 X122.385 Y105.833 E0.06168
G1 X124.319 Y105.479 E0.06168
G1 X126.283 Y105.360 E0.06168
G1 X128.197 Y105.476 E0.06012
G1 X130.182 Y105.833 E0.06323
G1 X132.059 Y106.418 E0.06167
G1 X133.853 Y107.226 E0.06168
G1 X135.537 Y108.244 E0.06169
G1 X136.993 Y109.374 E0.05781
G1 X152.941 Y118.610 E0.57783
G1 X153.419 Y119.104 E0.02156
G1 X153.811 Y119.683 E0.02191
G1 X154.097 Y120.320 E0.02191
G1 X154.269 Y120.997 E0.02191
G1 X154.322 Y121.694 E0.02191
G1 X154.254 Y122.389 E0.02191
G1 X154.076 Y123.028 E0.02078
G1 X153.766 Y123.694 E0.02304
G1 X153.362 Y124.263 E0.02188
G1 X152.866 Y124.755 E0.02191
G1 X152.284 Y125.159 E0.02219
G1 X136.994 Y133.925 E0.55261
G1 X135.537 Y135.055 E0.05783
G1 X133.853 Y136.073 E0.06169
G1 X132.059 Y136.881 E0.06168
G1 X130.181 Y137.466 E0.06168
G1 X128.246 Y137.820 E0.06168
G1 X126.343 Y137.935 E0.05980
G1 X126.083 Y137.593 F10800.000
G1 F8640
G1 X124.319 Y137.820 E-0.46796
G1 X123.075 Y137.592 E-0.29204
G1 E-0.04000 F2100.00000
G1 Z0.800 F10800.000
G1 X130.097 Y136.979
G1 Z0.200
G1 E0.80000 F2100.00000
G1 F1200
G1 X107.742 Y114.624 E0.99555
G1 X107.402 Y114.819 E0.01236
G1 X129.502 Y136.919 E0.98422
G1 X129.049 Y137.002 E0.01449
G1 X107.061 Y115.014 E0.97922
G1 X106.721 Y115.209 E0.01236
G1 X128.597 Y137.085 E0.97422
G1 X128.142 Y137.166 E0.01456
G1 X106.380 Y115.404 E0.96911
G1 X106.040 Y115.599 E0.01236
G1 X127.637 Y137.196 E0.96178
G1 X127.132 Y137.227 E0.01593
G1 X105.699 Y115.795 E0.95445
G1 X105.359 Y115.990 E0.01236
G1 X126.626 Y137.257 E0.94712
G1 X126.283 Y137.278 E0.01084
G1 X126.101 Y137.267 E0.00575
G1 X105.019 Y116.185 E0.93886
G1 X104.678 Y116.380 E0.01236
G1 X125.531 Y137.232 E0.92864
G1 X124.961 Y137.198 E0.01798
G1 X104.338 Y116.575 E0.91841
G1 X103.997 Y116.770 E0.01236
G1 X124.389 Y137.162 E0.90812
G1 X123.733 Y137.042 E0.02099
G1 X103.657 Y116.966 E0.89408
G1 X103.317 Y117.161 E0.01236
G1 X123.078 Y136.922 E0.88004
M73 Q1 S64
M73 P1 R63
G1 X122.543 Y136.824 E0.01713
G1 X122.399 Y136.779 E0.00473
G1 X102.976 Y117.356 E0.86499
G1 X102.636 Y117.551 E0.01236
G1 X121.621 Y136.537 E0.84550
G1 X120.843 Y136.294 E0.02566
G1 X105.250 Y120.701 E0.69444
G1 X105.359 Y121.107 E0.01325
G1 X105.381 Y121.368 E0.00825
G1 X119.895 Y135.882 E0.64635
G1 X119.020 Y135.488 E0.03023
G1 X118.883 Y135.405 E0.00505
G1 X105.384 Y121.906 E0.60117
G1 X105.359 Y122.192 E0.00904
G1 X105.311 Y122.369 E0.00577
G1 X118.030 Y135.088 E0.56641
G1 F8640
G1 X115.703 Y132.760 E-0.76000
G1 E-0.04000 F2100.00000
G1 Z0.800 F10800.000
G1 X116.192 Y133.785
G1 Z0.200
G1 E0.80000 F2100.00000
G1 F1200
G1 X105.188 Y122.781 E0.49005
G1 X105.018 Y123.147 E0.01269
G1 X114.758 Y132.887 E0.43376
G1 F8640
G1 X112.430 Y130.559 E-0.76000
G1 E-0.04000 F2100.00000
G1 Z0.800 F10800.000
G1 X113.485 Y132.150
G1 Z0.200
G1 E0.80000 F2100.00000
G1 F1200
G1 X104.806 Y123.470 E0.38652
G1 X104.675 Y123.657 E0.00717
G1 X104.566 Y123.766 E0.00486
G1 X112.213 Y131.413 E0.34053
G1 F8640
G1 X109.885 Y129.085 E-0.76000
G1 E-0.04000 F2100.00000
G1 Z0.800 F10800.000
G1 X110.940 Y130.676
G1 Z0.200
G1 E0.80000 F2100.00000
G1 F1200
G1 X104.298 Y124.034 E0.29579
G1 X103.985 Y124.256 E0.01210
G1 X109.668 Y129.939 E0.25309
G1 F8640
G1 X107.340 Y127.612 E-0.76000
G1 E-0.04000 F2100.00000
G1 Z0.800 F10800.000
G1 X108.395 Y129.202
G1 Z0.200
G1 E0.80000 F2100.00000
G1 F1200
G1 X103.642 Y124.449 E0.21169
G1 X103.265 Y124.607 E0.01288
G1 X107.123 Y128.465 E0.17180
