; generated by PrusaSlicer 2.3.1+win64 on 2021-06-09 at 20:18:44 UTC

; 

; external perimeters extrusion width = 0.45mm
; perimeters extrusion width = 0.45mm
; infill extrusion width = 0.45mm
; solid infill extrusion width = 0.45mm
; top infill extrusion width = 0.40mm
; support material extrusion width = 0.35mm
; first layer extrusion width = 0.42mm

M73 P0 R21
M73 Q0 S21
M201 X1000 Y1000 Z1000 E5000 ; sets maximum accelerations, mm/sec^2
M203 X200 Y200 Z12 E120 ; sets maximum feedrates, mm/sec
M204 P1250 R1250 T1250 ; sets acceleration (P, T) and retract acceleration (R), mm/sec^2
M205 X8.00 Y8.00 Z0.40 E1.50 ; sets the jerk limits, mm/sec
M205 S0 T0 ; sets the minimum extruding and travel feed rate, mm/sec
M107
;TYPE:Custom
M862.3 P "MK3S" ; printer model check
M862.1 P0.4 ; nozzle diameter check
M115 U3.8.0 ; tell printer latest fw version
G90 ; use absolute coordinates
M83 ; extruder relative mode
M104 S215 ; set extruder temp
M140 S60 ; set bed temp
M190 S60 ; wait for bed temp
M109 S215 ; wait for extruder temp
G28 W ; home all without mesh bed level
G80 ; mesh bed leveling
G1 Y-3.0 F1000.0 ; go outside print area
G92 E0.0
G1 X60.0 E9.0 F1000.0 ; intro line
G1 X100.0 E12.5 F1000.0 ; intro line
G92 E0.0
M221 S95
G21 ; set units to millimeters
G90 ; use absolute coordinates
M83 ; use relative distances for extrusion
M900 K0.05 ; Filament gcode LA 1.5
M900 K30 ; Filament gcode LA 1.0
;LAYER_CHANGE
;Z:0.2
;HEIGHT:0.2
;BEFORE_LAYER_CHANGE
G92 E0.0
;0.2


G1 E-0.80000 F2100.000
G1 Z0.600 F10800.000
;AFTER_LAYER_CHANGE
;0.2
G1 X154.159 Y102.663
G1 Z0.200
G1 E0.80000 F2100.000
M204 S1000
;TYPE:Perimeter
;WIDTH:0.42
G1 F1200.000
G1 X154.151 Y104.673 E0.06303
G1 X154.126 Y104.816 E0.00454
G1 X154.060 Y104.918 E0.00380
G1 X153.899 Y105.036 E0.00628
G1 X152.907 Y105.606 E0.03586
G1 X149.479 Y107.487 E0.12259
G1 X149.346 Y107.532 E0.00441
G1 X149.216 Y107.628 E0.00507
G1 X149.144 Y107.651 E0.00237
G1 X149.037 Y107.723 E0.00404
G1 X148.916 Y107.755 E0.00393
G1 X148.742 Y107.890 E0.00689
G1 X147.110 Y108.770 E0.05815
G1 X146.970 Y108.866 E0.00533
G1 X146.547 Y109.081 E0.01487
G1 X145.481 Y109.687 E0.03845
G1 X145.305 Y109.750 E0.00585
G1 X145.205 Y109.831 E0.00405
G1 X145.024 Y109.931 E0.00646
G1 X144.844 Y109.982 E0.00587
G1 X144.755 Y110.079 E0.00412
G1 X143.529 Y110.737 E0.04362
G1 X142.977 Y110.966 E0.01873
G1 X142.166 Y111.147 E0.02607
G1 X141.198 Y111.307 E0.03077
G1 X140.949 Y111.372 E0.00807
G1 X140.685 Y111.402 E0.00832
G1 X139.982 Y111.547 E0.02251
G1 X139.478 Y111.622 E0.01597
G1 X139.337 Y111.673 E0.00471
G1 X139.000 Y111.744 E0.01081
G1 X138.005 Y111.906 E0.03161
G1 X137.745 Y111.974 E0.00840
G1 X137.486 Y112.003 E0.00818
G1 X136.788 Y112.148 E0.02235
G1 X136.302 Y112.220 E0.01540
G1 X135.759 Y112.353 E0.01752
G1 X135.215 Y112.423 E0.01719
G1 X134.732 Y112.546 E0.01564
G1 X134.192 Y112.616 E0.01707
G1 X133.587 Y112.760 E0.01951
G1 X133.326 Y112.786 E0.00822
G1 X131.649 Y113.102 E0.05350
G1 X131.527 Y113.148 E0.00409
G1 X131.023 Y113.211 E0.01592
G1 X130.404 Y113.357 E0.01996
G1 X130.115 Y113.388 E0.00909
G1 X129.362 Y113.554 E0.02419
G1 X128.810 Y113.630 E0.01747
G1 X127.972 Y113.799 E0.02682
G1 X127.725 Y113.822 E0.00777
G1 X127.567 Y113.875 E0.00524
G1 X126.716 Y114.027 E0.02710
G1 X126.120 Y114.159 E0.01913
G1 X125.161 Y114.296 E0.03038
G1 X125.005 Y114.294 E0.00490
G1 X123.998 Y114.146 E0.03190
G1 X123.177 Y113.982 E0.02625
G1 X121.757 Y113.745 E0.04516
G1 X121.243 Y113.632 E0.01649
G1 X120.521 Y113.519 E0.02292
G1 X119.042 Y113.241 E0.04719
G1 X118.416 Y113.146 E0.01984
G1 X116.572 Y112.799 E0.05883
G1 X116.178 Y112.746 E0.01247
G1 X114.774 Y112.473 E0.04484
G1 X114.034 Y112.359 E0.02349
G1 X113.462 Y112.239 E0.01832
G1 X112.822 Y112.143 E0.02030
G1 X111.234 Y111.842 E0.05067
G1 X110.588 Y111.746 E0.02046
G1 X110.062 Y111.631 E0.01689
G1 X108.405 Y111.354 E0.05268
G1 X107.400 Y111.159 E0.03209
G1 X107.022 Y111.043 E0.01241
G1 X106.264 Y110.686 E0.02628
G1 X96.383 Y105.337 E0.35229
G1 X95.944 Y105.034 E0.01672
G1 X95.854 Y104.872 E0.00580
G1 X95.838 Y104.653 E0.00688
G1 X95.832 Y96.993 E0.24018
G1 X96.685 Y97.525 E0.03150
G1 X97.371 Y97.914 E0.02474
G1 X97.703 Y98.131 E0.01245
G1 X99.916 Y99.341 E0.07908
G1 X101.706 Y100.216 E0.06246
G1 X103.249 Y100.917 E0.05313
G1 X104.537 Y101.452 E0.04373
G1 X105.476 Y101.818 E0.03161
G1 X106.905 Y102.339 E0.04768
G1 X108.729 Y102.936 E0.06016
G1 X109.918 Y103.269 E0.03874
G1 X110.127 Y103.343 E0.00694
G1 X112.551 Y103.952 E0.07837
G1 X114.017 Y104.256 E0.04694
G1 X115.857 Y104.586 E0.05861
G1 X117.040 Y104.766 E0.03752
G1 X118.557 Y104.954 E0.04794
G1 X120.924 Y105.158 E0.07448
G1 X122.286 Y105.223 E0.04274
G1 X123.874 Y105.260 E0.04982
G1 X125.563 Y105.257 E0.05297
G1 X127.718 Y105.165 E0.06761
G1 X130.254 Y104.945 E0.07984
M73 Q1 S21
G1 X130.418 Y104.901 E0.00530
G1 X131.775 Y104.753 E0.04282
G1 X131.993 Y104.698 E0.00703
G1 X133.109 Y104.543 E0.03533
G1 X133.277 Y104.496 E0.00548
G1 X134.295 Y104.331 E0.03232
M73 P1 R21
G1 X134.386 Y104.298 E0.00305
G1 X134.652 Y104.260 E0.00843
G1 X135.442 Y104.082 E0.02539
G1 X135.634 Y104.058 E0.00606
G1 X137.481 Y103.620 E0.05953
G1 X137.908 Y103.495 E0.01395
G1 X138.603 Y103.330 E0.02240
G1 X138.695 Y103.285 E0.00322
G1 X138.929 Y103.238 E0.00748
G1 X139.114 Y103.167 E0.00620
G1 X139.400 Y103.116 E0.00911
G1 X139.485 Y103.060 E0.00320
G1 X139.989 Y102.929 E0.01631
G1 X140.081 Y102.878 E0.00330
G1 X140.303 Y102.824 E0.00717
G1 X140.719 Y102.674 E0.01385
G1 X140.995 Y102.609 E0.00892
G1 X141.073 Y102.559 E0.00288
G1 X142.491 Y102.090 E0.04685
G1 X142.542 Y102.045 E0.00212
G1 X142.955 Y101.911 E0.01360
G1 X143.099 Y101.844 E0.00500
G1 X143.334 Y101.794 E0.00751
G1 X143.398 Y101.725 E0.00297
G1 X144.072 Y101.486 E0.02241
G1 X144.151 Y101.426 E0.00313
G1 X144.465 Y101.299 E0.01060
G1 X145.110 Y101.071 E0.02144
G1 X145.146 Y101.032 E0.00166
G1 X145.261 Y100.995 E0.00381
G1 X145.368 Y100.922 E0.00405
G1 X146.173 Y100.585 E0.02737
G1 X146.471 Y100.441 E0.01038
G1 X146.635 Y100.411 E0.00522
G1 X146.711 Y100.341 E0.00324
G1 X146.834 Y100.302 E0.00403
G1 X146.942 Y100.229 E0.00410
G1 X147.067 Y100.200 E0.00403
G1 X147.135 Y100.137 E0.00289
G1 X147.269 Y100.089 E0.00447
G1 X147.537 Y99.938 E0.00966
G1 X147.686 Y99.899 E0.00481
G1 X147.787 Y99.805 E0.00433
G1 X148.456 Y99.470 E0.02343
G1 X148.654 Y99.410 E0.00652
G1 X148.732 Y99.342 E0.00322
G1 X148.873 Y99.287 E0.00475
G1 X149.146 Y99.128 E0.00993
G1 X149.308 Y99.085 E0.00524
G1 X149.372 Y99.011 E0.00305
G1 X149.517 Y98.973 E0.00469
G1 X149.580 Y98.901 E0.00300
G1 X151.293 Y97.930 E0.06174
G1 X153.143 Y96.792 E0.06812
G1 X153.335 Y96.646 E0.00755
G1 X153.725 Y96.411 E0.01428
G1 X154.132 Y96.108 E0.01591
G1 X154.159 Y102.603 E0.20366
G1 X154.537 Y102.605 F10800.000
;TYPE:External perimeter
G1 F1200.000
G1 X154.528 Y104.707 E0.06594
G1 X154.484 Y104.952 E0.00779
G1 X154.329 Y105.188 E0.00886
G1 X154.104 Y105.353 E0.00873
G1 X153.092 Y105.935 E0.03663
G1 X149.631 Y107.833 E0.12376
G1 X149.523 Y107.870 E0.00358
G1 X149.391 Y107.968 E0.00517
G1 X149.310 Y107.994 E0.00267
G1 X149.195 Y108.072 E0.00436
G1 X149.086 Y108.100 E0.00352
G1 X148.948 Y108.207 E0.00546
G1 X147.306 Y109.092 E0.05849
G1 X147.163 Y109.191 E0.00546
G1 X146.726 Y109.414 E0.01537
G1 X145.639 Y110.030 E0.03920
G1 X145.493 Y110.083 E0.00486
G1 X145.387 Y110.169 E0.00427
G1 X145.309 Y110.194 E0.00255
G1 X145.185 Y110.277 E0.00470
G1 X145.050 Y110.315 E0.00438
G1 X144.993 Y110.378 E0.00266
G1 X144.776 Y110.501 E0.00782
G1 X143.690 Y111.079 E0.03855
G1 X143.092 Y111.326 E0.02032
G1 X142.232 Y111.519 E0.02762
G1 X141.925 Y111.559 E0.00971
G1 X141.279 Y111.675 E0.02057
G1 X141.018 Y111.744 E0.00847
G1 X140.744 Y111.775 E0.00865
G1 X140.047 Y111.918 E0.02230
G1 X139.572 Y111.989 E0.01508
G1 X139.441 Y112.037 E0.00436
G1 X139.069 Y112.115 E0.01193
G1 X138.083 Y112.276 E0.03132
G1 X137.814 Y112.346 E0.00870
G1 X137.545 Y112.376 E0.00849
G1 X136.854 Y112.519 E0.02213
G1 X136.375 Y112.591 E0.01519
G1 X135.828 Y112.724 E0.01764
G1 X135.305 Y112.791 E0.01653
G1 X134.821 Y112.915 E0.01569
G1 X134.260 Y112.988 E0.01772
G1 X133.649 Y113.132 E0.01968
G1 X133.380 Y113.160 E0.00849
G1 X131.751 Y113.466 E0.05197
G1 X131.618 Y113.517 E0.00446
G1 X131.090 Y113.583 E0.01668
G1 X130.467 Y113.729 E0.02006
G1 X130.176 Y113.760 E0.00917
G1 X129.429 Y113.926 E0.02402
G1 X128.873 Y114.001 E0.01758
G1 X128.027 Y114.172 E0.02706
G1 X127.803 Y114.194 E0.00706
G1 X127.660 Y114.241 E0.00474
G1 X126.790 Y114.397 E0.02770
G1 X126.188 Y114.530 E0.01934
G1 X125.186 Y114.673 E0.03173
G1 X124.975 Y114.671 E0.00660
G1 X123.934 Y114.518 E0.03301
G1 X123.109 Y114.353 E0.02636
G1 X121.685 Y114.116 E0.04527
G1 X121.173 Y114.003 E0.01643
G1 X120.457 Y113.891 E0.02274
G1 X118.979 Y113.613 E0.04716
G1 X118.353 Y113.518 E0.01984
G1 X116.512 Y113.171 E0.05874
G1 X116.117 Y113.118 E0.01251
G1 X114.710 Y112.844 E0.04494
G1 X113.966 Y112.730 E0.02358
G1 X113.395 Y112.610 E0.01830
G1 X112.759 Y112.515 E0.02018
G1 X111.171 Y112.214 E0.05066
G1 X110.520 Y112.117 E0.02063
G1 X109.991 Y112.001 E0.01700
G1 X108.338 Y111.725 E0.05253
G1 X107.309 Y111.526 E0.03288
G1 X106.886 Y111.396 E0.01388
G1 X106.093 Y111.023 E0.02746
G1 X96.186 Y105.659 E0.35326
G1 X95.658 Y105.294 E0.02010
G1 X95.493 Y105.001 E0.01056
G1 X95.481 Y104.946 E0.00174
G1 X95.461 Y104.668 E0.00874
G1 X95.455 Y103.802 E0.02715
G1 X95.464 Y96.310 E0.23492
G1 X95.763 Y96.481 E0.01079
G1 X96.036 Y96.676 E0.01052
G1 X96.878 Y97.200 E0.03110
G1 X97.568 Y97.592 E0.02488
G1 X97.897 Y97.808 E0.01236
G1 X100.090 Y99.006 E0.07834
G1 X101.867 Y99.874 E0.06203
G1 X103.399 Y100.571 E0.05277
G1 X104.678 Y101.102 E0.04341
G1 X105.610 Y101.465 E0.03135
G1 X107.028 Y101.983 E0.04735
G1 X108.840 Y102.575 E0.05976
G1 X109.882 Y102.879 E0.03403
G1 X110.016 Y102.903 E0.00428
G1 X110.237 Y102.982 E0.00733
G1 X112.636 Y103.584 E0.07756
G1 X114.089 Y103.886 E0.04653
G1 X115.919 Y104.214 E0.05829
G1 X117.092 Y104.392 E0.03721
G1 X118.597 Y104.578 E0.04755
G1 X120.949 Y104.781 E0.07403
G1 X122.299 Y104.846 E0.04237
G1 X123.878 Y104.883 E0.04953
G1 X125.555 Y104.880 E0.05258
G1 X127.691 Y104.789 E0.06704
G1 X128.562 Y104.704 E0.02742
G1 X129.248 Y104.661 E0.02156
G1 X130.187 Y104.572 E0.02957
G1 X130.348 Y104.529 E0.00522
G1 X131.708 Y104.381 E0.04291
G1 X131.920 Y104.327 E0.00686
G1 X133.032 Y104.173 E0.03518
G1 X133.196 Y104.127 E0.00534
G1 X134.200 Y103.964 E0.03191
G1 X134.295 Y103.930 E0.00317
G1 X134.584 Y103.889 E0.00915
G1 X135.377 Y103.710 E0.02549
G1 X135.567 Y103.686 E0.00600
G1 X137.384 Y103.256 E0.05855
G1 X137.811 Y103.130 E0.01395
G1 X138.475 Y102.973 E0.02138
G1 X138.573 Y102.925 E0.00344
G1 X138.824 Y102.875 E0.00802
G1 X139.012 Y102.803 E0.00631
G1 X139.257 Y102.758 E0.00781
G1 X139.330 Y102.711 E0.00273
G1 X139.848 Y102.576 E0.01680
G1 X139.943 Y102.523 E0.00340
G1 X140.194 Y102.462 E0.00811
G1 X140.611 Y102.312 E0.01387
G1 X140.846 Y102.256 E0.00758
G1 X140.913 Y102.213 E0.00251
G1 X141.412 Y102.063 E0.01633
G1 X141.749 Y101.927 E0.01138
G1 X142.303 Y101.754 E0.01821
G1 X142.352 Y101.710 E0.00206
G1 X142.816 Y101.560 E0.01527
G1 X142.979 Y101.483 E0.00565
G1 X143.139 Y101.450 E0.00513
G1 X143.185 Y101.401 E0.00211
G1 X143.891 Y101.150 E0.02350
G1 X143.964 Y101.096 E0.00285
G1 X144.331 Y100.946 E0.01242
G1 X144.896 Y100.747 E0.01878
G1 X144.935 Y100.704 E0.00183
G1 X145.093 Y100.653 E0.00520
G1 X145.186 Y100.589 E0.00354
G1 X146.018 Y100.241 E0.02827
G1 X146.353 Y100.079 E0.01166
G1 X146.460 Y100.060 E0.00340
G1 X146.518 Y100.007 E0.00246
G1 X146.668 Y99.959 E0.00493
G1 X146.789 Y99.877 E0.00460
G1 X146.884 Y99.855 E0.00306
G1 X146.934 Y99.808 E0.00216
G1 X147.091 Y99.753 E0.00520
G1 X147.183 Y99.685 E0.00360
G1 X147.253 Y99.669 E0.00224
G1 X147.388 Y99.587 E0.00496
G1 X147.499 Y99.558 E0.00360
G1 X147.571 Y99.492 E0.00306
G1 X148.315 Y99.119 E0.02609
G1 X148.467 Y99.073 E0.00497
G1 X148.532 Y99.015 E0.00274
G1 X148.691 Y98.953 E0.00535
G1 X148.796 Y98.878 E0.00404
G1 X148.870 Y98.858 E0.00240
G1 X148.990 Y98.779 E0.00452
G1 X149.099 Y98.750 E0.00354
G1 X149.192 Y98.669 E0.00385
G1 X149.309 Y98.638 E0.00380
G1 X149.351 Y98.590 E0.00200
G1 X151.100 Y97.606 E0.06294
G1 X152.930 Y96.480 E0.06734
G1 X153.123 Y96.333 E0.00760
G1 X153.515 Y96.098 E0.01434
G1 X153.823 Y95.867 E0.01208
G1 X154.121 Y95.688 E0.01089
G1 X154.498 Y95.404 E0.01480
G1 X154.537 Y102.545 E0.22390
G1 X154.194 Y102.811 F10800.000
G1 E-0.80000 F2100.000
G1 Z0.800 F10800.000
G1 X95.951 Y104.103
G1 Z0.200
G1 E0.80000 F2100.000
;TYPE:Solid infill
;WIDTH:0.42021
G1 F1200.000
G1 X97.429 Y105.581 E0.06559
G1 X98.592 Y106.211 E0.04151
G1 X96.120 Y103.739 E0.10969
G1 X96.120 Y103.205 E0.01675
G1 X99.756 Y106.841 E0.16134
G1 X100.920 Y107.471 E0.04151
G1 X96.119 Y102.671 E0.21298
G1 X96.119 Y102.137 E0.01675
G1 X102.083 Y108.101 E0.26462
G1 X103.247 Y108.731 E0.04151
G1 X96.118 Y101.603 E0.31626
G1 X96.118 Y101.069 E0.01675
G1 X104.410 Y109.361 E0.36790
G1 X105.574 Y109.991 E0.04151
G1 X96.118 Y100.535 E0.41955
M73 P2 R21
M73 Q2 S21
G1 X96.117 Y100.001 E0.01675
G1 X106.691 Y110.575 E0.46913
G1 X107.124 Y110.779 E0.01501
G1 X107.550 Y110.900 E0.01389
G1 X96.117 Y99.467 E0.50725
G1 X96.116 Y98.933 E0.01675
G1 X108.211 Y111.028 E0.53662
G1 X108.860 Y111.143 E0.02065
G1 X96.116 Y98.399 E0.56540
G1 X96.115 Y97.865 E0.01675
G1 X109.500 Y111.250 E0.59384
G1 X110.143 Y111.359 E0.02043
G1 X96.567 Y97.783 E0.60231
G1 X97.853 Y98.535 E0.04675
G1 X110.811 Y111.493 E0.57490
G1 X111.445 Y111.594 E0.02016
G1 X99.030 Y99.179 E0.55082
G1 X99.786 Y99.592 E0.02704
G1 X100.159 Y99.775 E0.01302
G1 X112.104 Y111.719 E0.52992
G1 X112.762 Y111.844 E0.02102
G1 X101.202 Y100.284 E0.51285
G1 X102.204 Y100.752 E0.03469
G1 X113.394 Y111.943 E0.49647
G1 X114.061 Y112.076 E0.02133
G1 X103.179 Y101.194 E0.48280
G1 X104.092 Y101.573 E0.03100
G1 X114.693 Y112.174 E0.47035
G1 X115.349 Y112.296 E0.02093
G1 X104.981 Y101.928 E0.46001
G1 X105.836 Y102.250 E0.02869
M73 Q3 S21
G1 X116.011 Y112.425 E0.45143
M73 P3 R21
G1 X116.645 Y112.525 E0.02011
G1 X106.677 Y102.557 E0.44224
G1 X107.477 Y102.824 E0.02647
G1 X117.302 Y112.649 E0.43589
G1 X117.959 Y112.772 E0.02098
G1 X108.270 Y103.083 E0.42988
G1 X109.036 Y103.315 E0.02510
G1 X118.610 Y112.889 E0.42477
G1 X119.245 Y112.991 E0.02019
G1 X109.777 Y103.523 E0.42008
G1 X110.045 Y103.614 E0.00889
G1 X110.521 Y103.734 E0.01541
G1 X119.903 Y113.115 E0.41621
G1 X120.560 Y113.239 E0.02098
G1 X111.234 Y103.913 E0.41377
G1 X111.946 Y104.091 E0.02304
G1 X121.193 Y113.338 E0.41025
G1 X121.865 Y113.477 E0.02152
G1 X112.649 Y104.261 E0.40886
G1 X113.323 Y104.401 E0.02158
G1 X122.505 Y113.583 E0.40739
G1 X123.145 Y113.690 E0.02036
G1 X113.995 Y104.540 E0.40596
G1 X114.645 Y104.656 E0.02071
G1 X123.809 Y113.820 E0.40657
G1 X124.449 Y113.927 E0.02037
G1 X115.295 Y104.772 E0.40615
G1 X115.940 Y104.884 E0.02056
G1 X125.068 Y114.012 E0.40497
G1 X125.142 Y114.013 E0.00232
G1 X125.545 Y113.955 E0.01276
G1 X116.570 Y104.980 E0.39820
G1 X117.193 Y105.069 E0.01974
G1 X126.012 Y113.888 E0.39127
G1 X126.452 Y113.796 E0.01413
G1 X117.802 Y105.145 E0.38380
G1 X118.411 Y105.220 E0.01925
G1 X126.897 Y113.707 E0.37653
M73 P4 R21
M73 Q4 S21
G1 X127.350 Y113.626 E0.01442
G1 X118.999 Y105.276 E0.37048
G1 X119.583 Y105.326 E0.01839
G1 X127.790 Y113.532 E0.36408
G1 X128.246 Y113.455 E0.01452
G1 X120.167 Y105.376 E0.35842
G1 X120.751 Y105.427 E0.01839
G1 X128.690 Y113.365 E0.35221
G1 X129.155 Y113.297 E0.01476
G1 X121.318 Y105.460 E0.34771
G1 X121.879 Y105.487 E0.01760
G1 X129.603 Y113.211 E0.34271
M73 P4 R20
G1 X130.040 Y113.115 E0.01404
G1 X122.435 Y105.510 E0.33741
G1 X122.981 Y105.522 E0.01714
G1 X130.502 Y113.043 E0.33367
G1 X130.934 Y112.941 E0.01392
G1 X123.527 Y105.535 E0.32859
G1 X124.069 Y105.543 E0.01698
G1 X131.404 Y112.878 E0.32546
G1 X131.838 Y112.779 E0.01397
G1 X124.601 Y105.542 E0.32108
G1 X125.134 Y105.541 E0.01671
G1 X132.287 Y112.694 E0.31737
G1 X132.736 Y112.609 E0.01433
G1 X125.662 Y105.536 E0.31383
G1 X126.174 Y105.514 E0.01607
G1 X133.185 Y112.525 E0.31104
M73 Q4 S20
G1 X133.648 Y112.454 E0.01470
G1 X126.686 Y105.492 E0.30889
