; generated by PrusaSlicer 2.3.1+win64 on 2021-06-17 at 16:58:34 UTC

; 

; external perimeters extrusion width = 0.45mm
; perimeters extrusion width = 0.45mm
; infill extrusion width = 0.45mm
; solid infill extrusion width = 0.45mm
; top infill extrusion width = 0.40mm
; support material extrusion width = 0.35mm
; first layer extrusion width = 0.42mm

M73 P0 R19
M73 Q0 S19
M201 X1000 Y1000 Z1000 E5000 ; sets maximum accelerations, mm/sec^2
M203 X200 Y200 Z12 E120 ; sets maximum feedrates, mm/sec
M204 P1250 R1250 T1250 ; sets acceleration (P, T) and retract acceleration (R), mm/sec^2
M205 X8.00 Y8.00 Z0.40 E1.50 ; sets the jerk limits, mm/sec
M205 S0 T0 ; sets the minimum extruding and travel feed rate, mm/sec
M107
;TYPE:Custom
M862.3 P "MK3S" ; printer model check
M862.1 P0.4 ; nozzle diameter check
M115 U3.8.0 ; tell printer latest fw version
G90 ; use absolute coordinates
M83 ; extruder relative mode
M104 S215 ; set extruder temp
M140 S60 ; set bed temp
M190 S60 ; wait for bed temp
M109 S215 ; wait for extruder temp
G28 W ; home all without mesh bed level
G80 ; mesh bed leveling
G1 Y-3.0 F1000.0 ; go outside print area
G92 E0.0
G1 X60.0 E9.0 F1000.0 ; intro line
G1 X100.0 E12.5 F1000.0 ; intro line
G92 E0.0
M221 S95
G21 ; set units to millimeters
G90 ; use absolute coordinates
M83 ; use relative distances for extrusion
M900 K0.05 ; Filament gcode LA 1.5
M900 K30 ; Filament gcode LA 1.0
;LAYER_CHANGE
;Z:0.2
;HEIGHT:0.2
;BEFORE_LAYER_CHANGE
G92 E0.0
;0.2


G1 E-0.80000 F2100.000
G1 Z0.600 F10800.000
;AFTER_LAYER_CHANGE
;0.2
G1 X153.047 Y96.548
G1 Z0.200
G1 E0.80000 F2100.000
M204 S1000
;TYPE:Perimeter
;WIDTH:0.42
G1 F1200.000
G1 X153.216 Y96.717 E0.00752
G1 X153.203 Y104.767 E0.25238
G1 X151.615 Y105.622 E0.05655
G1 X151.182 Y105.880 E0.01582
G1 X149.804 Y106.636 E0.04929
G1 X149.537 Y106.665 E0.00841
G1 X149.470 Y106.817 E0.00521
G1 X148.052 Y107.599 E0.05079
G1 X147.615 Y107.575 E0.01371
G1 X147.602 Y107.652 E0.00245
G1 X147.351 Y107.606 E0.00800
G1 X147.339 Y107.987 E0.01193
G1 X146.039 Y108.704 E0.04654
G1 X145.660 Y108.726 E0.01190
G1 X145.635 Y108.833 E0.00345
G1 X145.475 Y108.834 E0.00499
G1 X145.417 Y109.045 E0.00685
G1 X144.042 Y109.803 E0.04925
G1 X143.695 Y109.818 E0.01089
G1 X143.666 Y109.908 E0.00294
G1 X143.527 Y109.903 E0.00437
G1 X143.513 Y109.941 E0.00128
G1 X143.282 Y109.880 E0.00747
G1 X143.216 Y110.202 E0.01030
G1 X142.933 Y110.201 E0.00886
G1 X142.862 Y110.374 E0.00588
G1 X142.746 Y110.404 E0.00375
G1 X142.562 Y110.390 E0.00579
G1 X142.419 Y110.489 E0.00544
G1 X141.815 Y110.609 E0.01931
G1 X141.570 Y110.614 E0.00768
G1 X141.445 Y110.679 E0.00442
G1 X140.801 Y110.800 E0.02056
G1 X140.619 Y110.816 E0.00572
G1 X140.212 Y110.908 E0.01308
G1 X139.965 Y110.909 E0.00775
G1 X139.840 Y110.981 E0.00452
G1 X139.225 Y111.095 E0.01961
G1 X138.985 Y111.108 E0.00752
G1 X138.837 Y111.167 E0.00501
G1 X138.571 Y111.218 E0.00849
G1 X138.403 Y111.216 E0.00527
G1 X138.301 Y111.270 E0.00361
G1 X137.624 Y111.399 E0.02160
G1 X137.408 Y111.408 E0.00679
G1 X137.249 Y111.464 E0.00528
G1 X136.260 Y111.651 E0.03157
G1 X136.040 Y111.689 E0.00702
G1 X135.725 Y111.701 E0.00986
G1 X135.599 Y111.772 E0.00453
G1 X134.451 Y111.995 E0.03668
G1 X134.169 Y111.990 E0.00884
G1 X134.010 Y112.074 E0.00563
G1 X132.832 Y112.292 E0.03758
G1 X132.507 Y112.307 E0.01019
G1 X132.388 Y112.380 E0.00438
G1 X131.229 Y112.601 E0.03698
G1 X131.005 Y112.604 E0.00704
G1 X130.851 Y112.668 E0.00522
G1 X129.619 Y112.896 E0.03927
G1 X129.337 Y112.907 E0.00885
G1 X129.213 Y112.972 E0.00439
G1 X128.757 Y113.045 E0.01449
G1 X128.708 Y113.070 E0.00175
G1 X128.037 Y113.197 E0.02140
G1 X127.769 Y113.195 E0.00840
G1 X127.615 Y113.272 E0.00542
G1 X126.416 Y113.496 E0.03824
G1 X126.174 Y113.508 E0.00758
G1 X126.030 Y113.567 E0.00488
G1 X125.807 Y113.611 E0.00713
G1 X125.579 Y113.618 E0.00715
G1 X125.466 Y113.669 E0.00388
G1 X124.975 Y113.723 E0.01550
G1 X124.529 Y113.668 E0.01408
G1 X122.837 Y113.368 E0.05388
G1 X122.712 Y113.328 E0.00414
G1 X120.779 Y113.002 E0.06146
G1 X118.691 Y112.609 E0.06659
G1 X118.277 Y112.550 E0.01311
G1 X116.497 Y112.217 E0.05681
G1 X115.157 Y111.992 E0.04258
G1 X114.234 Y111.807 E0.02954
G1 X113.822 Y111.750 E0.01303
G1 X109.582 Y110.996 E0.13504
G1 X109.296 Y110.926 E0.00921
G1 X107.999 Y110.710 E0.04123
G1 X107.276 Y110.561 E0.02315
G1 X106.996 Y110.470 E0.00923
G1 X106.271 Y110.119 E0.02528
G1 X101.120 Y107.335 E0.18358
G1 X100.554 Y107.002 E0.02058
G1 X100.210 Y106.837 E0.01195
G1 X96.796 Y104.995 E0.12165
G1 X96.790 Y97.679 E0.22937
M73 Q1 S19
G1 X97.242 Y97.221 E0.02018
G1 X97.938 Y97.634 E0.02536
G1 X99.849 Y98.659 E0.06801
M73 P1 R19
G1 X101.192 Y99.324 E0.04698
G1 X102.574 Y99.958 E0.04768
G1 X103.962 Y100.552 E0.04733
G1 X105.064 Y100.984 E0.03711
G1 X106.651 Y101.556 E0.05289
G1 X106.789 Y101.635 E0.00499
G1 X106.987 Y101.673 E0.00631
G1 X107.402 Y101.826 E0.01388
G1 X108.877 Y102.270 E0.04830
G1 X109.012 Y102.338 E0.00476
G1 X109.200 Y102.367 E0.00597
G1 X109.506 Y102.467 E0.01007
G1 X110.669 Y102.771 E0.03769
G1 X110.840 Y102.862 E0.00607
G1 X111.033 Y102.863 E0.00606
G1 X112.683 Y103.268 E0.05326
G1 X114.854 Y103.698 E0.06940
G1 X116.094 Y103.905 E0.03943
M73 P1 R18
G1 X116.325 Y103.922 E0.00727
G1 X117.400 Y104.085 E0.03408
G1 X118.233 Y104.182 E0.02629
G1 X119.279 Y104.292 E0.03298
G1 X120.125 Y104.343 E0.02656
G1 X120.747 Y104.408 E0.01961
G1 X121.638 Y104.438 E0.02796
G1 X122.883 Y104.512 E0.03912
G1 X125.458 Y104.512 E0.08073
G1 X127.647 Y104.411 E0.06869
G1 X128.523 Y104.332 E0.02758
G1 X129.039 Y104.310 E0.01620
G1 X129.354 Y104.268 E0.00996
G1 X129.605 Y104.264 E0.00788
G1 X129.751 Y104.223 E0.00476
G1 X130.074 Y104.206 E0.01015
G1 X131.151 Y104.064 E0.03405
G1 X131.403 Y104.065 E0.00790
G1 X131.546 Y104.012 E0.00478
G1 X131.721 Y104.003 E0.00550
G1 X132.183 Y103.915 E0.01472
G1 X132.541 Y103.864 E0.01134
G1 X132.798 Y103.868 E0.00808
G1 X132.955 Y103.800 E0.00535
G1 X133.156 Y103.764 E0.00639
G1 X133.399 Y103.772 E0.00762
G1 X133.555 Y103.702 E0.00538
G1 X133.952 Y103.639 E0.01260
G1 X134.794 Y103.463 E0.02697
G1 X135.005 Y103.454 E0.00663
G1 X135.138 Y103.400 E0.00451
G1 X135.953 Y103.231 E0.02608
G1 X136.190 Y103.164 E0.00774
G1 X136.460 Y103.162 E0.00847
G1 X136.576 Y103.071 E0.00461
G1 X136.867 Y103.050 E0.00916
G1 X136.974 Y102.975 E0.00409
G1 X137.257 Y102.959 E0.00888
G1 X137.375 Y102.873 E0.00459
G1 X137.714 Y102.851 E0.01066
G1 X137.805 Y102.770 E0.00380
G1 X138.088 Y102.756 E0.00889
G1 X138.195 Y102.661 E0.00451
G1 X138.527 Y102.646 E0.01043
G1 X138.617 Y102.548 E0.00416
G1 X139.971 Y102.180 E0.04399
G1 X139.998 Y102.149 E0.00129
G1 X140.255 Y102.071 E0.00843
G1 X140.519 Y102.085 E0.00827
G1 X140.651 Y101.945 E0.00605
G1 X142.060 Y101.473 E0.04661
G1 X142.309 Y101.483 E0.00779
G1 X142.435 Y101.335 E0.00608
G1 X143.147 Y101.088 E0.02364
G1 X143.662 Y100.881 E0.01743
G1 X143.896 Y100.898 E0.00733
G1 X144.041 Y100.726 E0.00706
G1 X144.674 Y100.472 E0.02138
G1 X145.016 Y100.514 E0.01080
G1 X145.114 Y100.299 E0.00742
G1 X146.029 Y99.886 E0.03147
G1 X146.373 Y99.763 E0.01147
G1 X146.602 Y99.773 E0.00718
G1 X146.705 Y99.587 E0.00668
G1 X148.071 Y98.937 E0.04744
G1 X149.569 Y98.156 E0.05297
G1 X149.971 Y98.141 E0.01260
G1 X149.993 Y98.030 E0.00355
G1 X150.132 Y98.027 E0.00437
G1 X150.188 Y97.810 E0.00705
G1 X151.088 Y97.315 E0.03221
G1 X151.596 Y96.994 E0.01884
G1 X152.382 Y96.536 E0.02852
G1 X152.662 Y96.423 E0.00947
G1 X152.874 Y96.422 E0.00664
G1 X153.004 Y96.505 E0.00484
G1 X153.271 Y96.239 F10800.000
;TYPE:External perimeter
G1 F1200.000
G1 X153.530 Y96.498 E0.01148
G1 X153.593 Y96.628 E0.00453
G1 X153.580 Y104.911 E0.25972
G1 X153.513 Y105.010 E0.00375
G1 X153.426 Y105.075 E0.00341
G1 X151.801 Y105.950 E0.05787
G1 X151.369 Y106.207 E0.01577
G1 X149.919 Y107.003 E0.05186
G1 X149.795 Y107.017 E0.00392
G1 X149.764 Y107.086 E0.00237
G1 X148.139 Y107.982 E0.05820
G1 X147.930 Y107.970 E0.00655
G1 X147.910 Y108.091 E0.00383
G1 X147.714 Y108.055 E0.00623
G1 X147.709 Y108.213 E0.00495
G1 X146.147 Y109.076 E0.05597
G1 X145.961 Y109.086 E0.00582
G1 X145.932 Y109.207 E0.00388
G1 X145.764 Y109.208 E0.00528
G1 X145.739 Y109.299 E0.00293
G1 X144.146 Y110.176 E0.05701
G1 X143.974 Y110.183 E0.00542
G1 X143.938 Y110.294 E0.00363
G1 X143.786 Y110.289 E0.00480
G1 X143.746 Y110.393 E0.00351
G1 X143.571 Y110.347 E0.00570
G1 X143.540 Y110.496 E0.00476
G1 X143.368 Y110.580 E0.00602
G1 X143.185 Y110.579 E0.00572
G1 X143.146 Y110.674 E0.00322
G1 X142.973 Y110.735 E0.00574
G1 X142.779 Y110.784 E0.00627
G1 X142.667 Y110.776 E0.00354
G1 X142.572 Y110.842 E0.00363
G1 X141.856 Y110.985 E0.02288
G1 X141.667 Y110.989 E0.00593
G1 X141.571 Y111.039 E0.00340
G1 X140.852 Y111.174 E0.02292
G1 X140.677 Y111.190 E0.00551
G1 X140.255 Y111.285 E0.01356
G1 X140.066 Y111.286 E0.00593
G1 X139.971 Y111.340 E0.00343
G1 X139.270 Y111.470 E0.02237
G1 X139.067 Y111.481 E0.00637
G1 X138.943 Y111.530 E0.00419
G1 X138.605 Y111.596 E0.01078
G1 X138.494 Y111.594 E0.00348
G1 X138.427 Y111.630 E0.00238
G1 X137.668 Y111.774 E0.02423
G1 X137.481 Y111.782 E0.00587
G1 X137.348 Y111.829 E0.00441
G1 X136.327 Y112.022 E0.03257
G1 X136.079 Y112.065 E0.00789
G1 X135.831 Y112.075 E0.00779
G1 X135.727 Y112.133 E0.00375
G1 X134.483 Y112.372 E0.03970
G1 X134.260 Y112.369 E0.00701
G1 X134.135 Y112.434 E0.00440
G1 X132.875 Y112.668 E0.04020
G1 X132.621 Y112.679 E0.00797
G1 X132.526 Y112.737 E0.00348
G1 X132.074 Y112.824 E0.01443
G1 X131.268 Y112.977 E0.02573
G1 X131.083 Y112.980 E0.00581
G1 X130.958 Y113.032 E0.00422
G1 X129.661 Y113.272 E0.04137
G1 X129.437 Y113.280 E0.00702
G1 X129.334 Y113.335 E0.00365
G1 X128.877 Y113.407 E0.01451
G1 X128.833 Y113.430 E0.00157
G1 X128.071 Y113.575 E0.02430
G1 X127.857 Y113.573 E0.00673
G1 X127.735 Y113.633 E0.00425
G1 X126.460 Y113.871 E0.04068
G1 X126.258 Y113.881 E0.00632
G1 X126.140 Y113.930 E0.00402
G1 X125.849 Y113.987 E0.00928
G1 X125.665 Y113.992 E0.00577
G1 X125.567 Y114.037 E0.00340
G1 X124.972 Y114.103 E0.01875
G1 X124.473 Y114.041 E0.01577
G1 X122.747 Y113.735 E0.05497
G1 X122.623 Y113.695 E0.00409
G1 X120.712 Y113.374 E0.06074
G1 X118.630 Y112.981 E0.06643
M73 Q1 S18
G1 X118.216 Y112.923 E0.01310
G1 X116.431 Y112.588 E0.05697
G1 X115.089 Y112.363 E0.04265
G1 X114.171 Y112.179 E0.02937
G1 X113.763 Y112.123 E0.01290
G1 X109.504 Y111.365 E0.13565
G1 X109.221 Y111.296 E0.00914
G1 X107.930 Y111.081 E0.04101
G1 X107.180 Y110.926 E0.02403
G1 X106.855 Y110.821 E0.01070
G1 X106.099 Y110.454 E0.02636
G1 X100.934 Y107.663 E0.18406
G1 X100.376 Y107.335 E0.02030
G1 X100.040 Y107.173 E0.01172
G1 X96.566 Y105.299 E0.12376
G1 X96.419 Y105.171 E0.00610
G1 X96.413 Y97.654 E0.23568
G1 X96.447 Y97.504 E0.00483
G1 X96.513 Y97.423 E0.00328
G1 X97.117 Y96.812 E0.02694
G1 X97.200 Y96.758 E0.00312
G1 X98.123 Y97.305 E0.03364
G1 X100.022 Y98.324 E0.06757
G1 X101.354 Y98.984 E0.04661
G1 X102.727 Y99.613 E0.04735
G1 X104.105 Y100.203 E0.04701
G1 X105.197 Y100.631 E0.03676
G1 X106.809 Y101.212 E0.05372
G1 X106.921 Y101.276 E0.00406
G1 X107.088 Y101.308 E0.00534
G1 X107.522 Y101.468 E0.01448
G1 X109.017 Y101.918 E0.04897
G1 X109.129 Y101.975 E0.00391
G1 X109.288 Y101.999 E0.00505
G1 X109.612 Y102.105 E0.01069
G1 X110.807 Y102.417 E0.03873
G1 X110.935 Y102.486 E0.00456
G1 X111.080 Y102.487 E0.00452
G1 X112.764 Y102.900 E0.05438
G1 X114.921 Y103.327 E0.06895
G1 X116.139 Y103.530 E0.03871
G1 X116.368 Y103.547 E0.00718
G1 X117.450 Y103.711 E0.03433
G1 X118.275 Y103.807 E0.02602
G1 X119.310 Y103.916 E0.03265
G1 X120.156 Y103.967 E0.02656
G1 X120.772 Y104.032 E0.01944
G1 X121.655 Y104.061 E0.02770
G1 X122.895 Y104.135 E0.03892
G1 X125.449 Y104.135 E0.08010
G1 X127.621 Y104.035 E0.06817
G1 X128.497 Y103.956 E0.02759
G1 X129.006 Y103.934 E0.01595
G1 X129.326 Y103.891 E0.01013
G1 X129.551 Y103.888 E0.00704
G1 X129.690 Y103.849 E0.00454
G1 X130.040 Y103.831 E0.01099
G1 X131.127 Y103.687 E0.03437
G1 X131.336 Y103.688 E0.00656
G1 X131.469 Y103.639 E0.00445
G1 X131.676 Y103.627 E0.00649
G1 X132.517 Y103.487 E0.02673
G1 X132.723 Y103.489 E0.00647
G1 X132.846 Y103.437 E0.00419
G1 X133.128 Y103.386 E0.00899
G1 X133.323 Y103.393 E0.00611
G1 X133.446 Y103.337 E0.00421
G1 X133.884 Y103.268 E0.01391
G1 X134.747 Y103.087 E0.02766
G1 X134.923 Y103.080 E0.00552
G1 X135.028 Y103.037 E0.00353
G1 X135.863 Y102.865 E0.02674
G1 X136.136 Y102.787 E0.00891
G1 X136.328 Y102.786 E0.00603
G1 X136.404 Y102.726 E0.00300
G1 X136.535 Y102.696 E0.00424
G1 X136.735 Y102.681 E0.00628
G1 X136.811 Y102.628 E0.00290
G1 X136.925 Y102.600 E0.00369
G1 X137.125 Y102.589 E0.00628
G1 X137.209 Y102.528 E0.00325
G1 X137.328 Y102.498 E0.00385
G1 X137.560 Y102.483 E0.00728
G1 X137.625 Y102.424 E0.00277
G1 X137.733 Y102.396 E0.00348
G1 X137.936 Y102.386 E0.00639
G1 X138.004 Y102.325 E0.00288
G1 X138.156 Y102.285 E0.00491
G1 X138.355 Y102.276 E0.00626
G1 X138.414 Y102.213 E0.00269
G1 X139.760 Y101.847 E0.04374
G1 X139.781 Y101.822 E0.00103
G1 X140.097 Y101.723 E0.01036
G1 X140.216 Y101.691 E0.00387
G1 X140.364 Y101.699 E0.00465
G1 X140.445 Y101.613 E0.00372
G1 X140.873 Y101.485 E0.01401
G1 X142.004 Y101.094 E0.03752
G1 X142.141 Y101.099 E0.00428
G1 X142.214 Y101.013 E0.00355
G1 X143.014 Y100.734 E0.02657
G1 X143.603 Y100.498 E0.01989
G1 X143.732 Y100.508 E0.00404
G1 X143.813 Y100.411 E0.00398
G1 X144.624 Y100.085 E0.02738
G1 X144.788 Y100.106 E0.00518
G1 X144.836 Y99.999 E0.00368
G1 X145.027 Y99.929 E0.00637
G1 X145.887 Y99.536 E0.02964
G1 X146.204 Y99.423 E0.01054
G1 X146.220 Y99.379 E0.00149
G1 X146.385 Y99.386 E0.00517
G1 X146.437 Y99.291 E0.00341
G1 X146.812 Y99.132 E0.01275
G1 X147.903 Y98.600 E0.03807
G1 X149.118 Y97.980 E0.04277
G1 X149.463 Y97.783 E0.01244
G1 X149.658 Y97.775 E0.00614
G1 X149.681 Y97.658 E0.00376
G1 X149.838 Y97.655 E0.00492
G1 X149.862 Y97.562 E0.00300
G1 X150.897 Y96.990 E0.03708
G1 X151.401 Y96.671 E0.01868
G1 X152.363 Y96.124 E0.03472
G1 X152.601 Y96.046 E0.00785
G1 X152.945 Y96.045 E0.01078
G1 X153.093 Y96.103 E0.00498
G1 X153.229 Y96.196 E0.00519
G1 X153.206 Y96.599 F10800.000
G1 E-0.80000 F2100.000
G1 Z0.800 F10800.000
G1 X98.592 Y105.835
G1 Z0.200
G1 E0.80000 F2100.000
;TYPE:Solid infill
;WIDTH:0.422468
G1 F1200.000
G1 X97.078 Y104.321 E0.06758
M73 Q2 S18
G1 X97.078 Y103.784 E0.01695
G1 X99.339 Y106.046 E0.10094
G1 X100.486 Y106.656 E0.04101
G1 X97.077 Y103.247 E0.15215
M73 P2 R18
G1 X97.077 Y102.710 E0.01695
G1 X101.687 Y107.320 E0.20576
G1 X102.855 Y107.951 E0.04191
G1 X97.076 Y102.172 E0.25792
G1 X97.076 Y101.635 E0.01695
G1 X104.024 Y108.583 E0.31008
G1 X105.192 Y109.214 E0.04191
G1 X97.076 Y101.098 E0.36225
G1 X97.075 Y100.561 E0.01695
G1 X106.360 Y109.846 E0.41441
G1 X107.102 Y110.207 E0.02605
G1 X107.334 Y110.282 E0.00769
G1 X97.075 Y100.023 E0.45788
G1 X97.074 Y99.486 E0.01695
G1 X108.012 Y110.424 E0.48818
G1 X108.658 Y110.533 E0.02066
G1 X97.074 Y98.949 E0.51702
G1 X97.073 Y98.412 E0.01695
G1 X109.302 Y110.640 E0.54577
G1 X109.977 Y110.779 E0.02177
G1 X97.073 Y97.875 E0.57595
G1 X97.073 Y97.795 E0.00251
G1 X97.288 Y97.577 E0.00967
G1 X97.347 Y97.612 E0.00217
G1 X110.630 Y110.895 E0.59284
G1 X111.283 Y111.011 E0.02093
G1 X98.560 Y98.289 E0.56784
G1 X99.718 Y98.910 E0.04148
G1 X111.936 Y111.127 E0.54530
G1 X112.589 Y111.244 E0.02093
G1 X100.782 Y99.437 E0.52694
M73 Q3 S18
G1 X101.793 Y99.911 E0.03521
G1 X113.242 Y111.360 E0.51099
M73 P3 R18
G1 X113.893 Y111.475 E0.02088
G1 X102.766 Y100.347 E0.49663
G1 X103.704 Y100.749 E0.03221
G1 X114.535 Y111.579 E0.48337
G1 X115.206 Y111.713 E0.02160
G1 X104.597 Y101.105 E0.47349
G1 X105.455 Y101.426 E0.02890
G1 X115.851 Y111.822 E0.46399
G1 X116.496 Y111.930 E0.02064
G1 X106.294 Y101.728 E0.45533
G1 X106.532 Y101.814 E0.00800
G1 X106.690 Y101.903 E0.00573
G1 X106.910 Y101.946 E0.00708
G1 X107.130 Y102.027 E0.00737
G1 X117.155 Y112.052 E0.44746
G1 X117.816 Y112.176 E0.02121
G1 X107.915 Y102.276 E0.44187
G1 X108.683 Y102.507 E0.02530
G1 X118.468 Y112.292 E0.43671
G1 X119.113 Y112.401 E0.02066
G1 X109.460 Y102.748 E0.43084
G1 X110.187 Y102.937 E0.02369
G1 X119.775 Y112.525 E0.42794
G1 X120.437 Y112.650 E0.02124
G1 X110.932 Y103.146 E0.42421
G1 X110.998 Y103.146 E0.00207
G1 X111.622 Y103.299 E0.02030
