; generated by PrusaSlicer 2.5.0-rc2+win64 on 2022-11-07 at 18:12:19 UTC

; 

; external perimeters extrusion width = 0.45mm
; perimeters extrusion width = 0.45mm
; infill extrusion width = 0.45mm
; solid infill extrusion width = 0.45mm
; top infill extrusion width = 0.40mm
; first layer extrusion width = 0.42mm

M73 P0 R61
M73 Q0 S61
M107
;TYPE:Custom
M862.3 P "MK3S" ; printer model check
M862.1 P0.4 ; nozzle diameter check
G90 ; use absolute coordinates
M83 ; extruder relative mode
M104 S215 ; set extruder temp
M140 S60 ; set bed temp
M190 S60 ; wait for bed temp
M109 S215 ; wait for extruder temp
G28 W ; home all without mesh bed level
G80 ; mesh bed leveling
G1 Y-3.0 F1000.0 ; go outside print area
G92 E0.0
G1 X60.0 E9.0 F1000.0 ; intro line
G1 X100.0 E12.5 F1000.0 ; intro line
G92 E0.0
M221 S95

; Don't change E values below. Excessive value can damage the printer.

M907 E538 ; set extruder motor current
G21 ; set units to millimeters
G90 ; use absolute coordinates
M83 ; use relative distances for extrusion
M900 K0.05 ; Filament gcode LA 1.5
M900 K30 ; Filament gcode LA 1.0
M107
;LAYER_CHANGE
;Z:0.2
;HEIGHT:0.2
;BEFORE_LAYER_CHANGE
G92 E0.0
;0.2


G1 E-.8 F2100
G1 Z.4 F720
;AFTER_LAYER_CHANGE
;0.2
G1 X94.551 Y87.043 F10800
G1 Z.2 F720
G1 E.8 F2100
M204 S800
;TYPE:Skirt/Brim
;WIDTH:0.42
G1 F1200
G1 X95.791 Y85.803 E.05497
G1 X96.284 Y85.425 E.01946
G1 X97.446 Y84.754 E.0421
G1 X98.02 Y84.516 E.01946
G1 X99.414 Y84.143 E.04526
G1 X100.692 Y83.975 E.04042
G1 X149.618 Y83.995 E1.53404
G1 X150.586 Y84.143 E.0307
G1 X151.98 Y84.516 E.04526
G1 X152.554 Y84.754 E.01946
G1 X153.716 Y85.425 E.0421
G1 X154.209 Y85.803 E.01946
G1 X155.449 Y87.043 E.05497
G1 X155.826 Y87.535 E.01946
G1 X156.498 Y88.698 E.0421
G1 X156.735 Y89.271 E.01946
G1 X157.109 Y90.666 E.04526
G1 X157.257 Y91.633 E.0307
G1 X157.277 Y120.034 E.89047
G1 X156.581 Y121.714 E.05704
G1 X153.593 Y124.702 E.13247
G1 X151.912 Y125.398 E.05704
G1 X98.088 Y125.398 E1.68764
G1 X96.407 Y124.702 E.05704
G1 X93.419 Y121.714 E.13247
G1 X92.723 Y120.034 E.05704
G1 X92.743 Y91.633 E.89047
G1 X92.891 Y90.666 E.0307
G1 X93.265 Y89.271 E.04526
G1 X93.502 Y88.698 E.01946
G1 X94.174 Y87.535 E.0421
G1 X94.515 Y87.09 E.01758
M204 S1000
;WIPE_START
G1 F8640
G1 X95.791 Y85.803 E-.41859
G1 X96.284 Y85.425 E-.14328
G1 X97.027 Y84.996 E-.19813
;WIPE_END
G1 E-.04 F2100
G1 Z.6 F720
G1 X96.596 Y88.889 F10800
G1 Z.2 F720
G1 E.8 F2100
M204 S800
G1 F1200
G1 X97.343 Y88.024 E.03584
G1 X98.3 Y87.325 E.03715
G1 X100.726 Y86.638 E.07906
G1 X149.29 Y86.64 E1.52268
G1 X151.684 Y87.316 E.078
M73 P0 R60
G1 X152.542 Y87.919 E.03288
G1 X153.288 Y88.643 E.03262
G1 X154.202 Y90.185 E.05619
G1 X154.613 Y92.005 E.05849
G1 X154.613 Y118.339 E.8257
G1 X154.299 Y119.651 E.04231
G1 X153.841 Y120.571 E.03223
G1 X152.904 Y121.602 E.04366
G1 X152.218 Y122.111 E.0268
G1 X150.192 Y122.739 E.06649
G1 X146.5 Y122.607 E.11582
G1 X145.746 Y122.335 E.02514
G1 X145.09 Y121.987 E.02329
G1 X144.127 Y121.161 E.03977
G1 X143.403 Y120.122 E.03971
G1 X142.969 Y118.894 E.04085
G1 X142.891 Y98.365 E.64367
G1 X107.108 Y98.365 E1.12195
G1 X107.048 Y118.781 E.64014
G1 X106.691 Y119.93 E.03774
G1 X106.083 Y120.918 E.03635
G1 X105.12 Y121.835 E.0417
G1 X104.065 Y122.41 E.03767
G1 X102.666 Y122.738 E.04507
G1 X98.993 Y122.604 E.11524
G1 X98.134 Y122.283 E.02875
G1 X97.333 Y121.806 E.02922
G1 X96.505 Y121.01 E.03601
G1 X96.011 Y120.339 E.02614
G1 X95.387 Y118.368 E.06482
G1 X95.387 Y92.005 E.82659
G1 X95.717 Y90.423 E.05067
G1 X96.184 Y89.365 E.03627
G1 X96.556 Y88.934 E.01785
M204 S1000
G1 X96.836 Y89.179 F10800
M204 S800
G1 F1200
G1 X97.613 Y88.289 E.03703
G1 X98.494 Y87.65 E.03411
G1 X100.752 Y87.015 E.07354
G1 X149.264 Y87.017 E1.52107
G1 X151.494 Y87.643 E.07263
G1 X152.29 Y88.2 E.03046
G1 X153.007 Y88.896 E.03133
G1 X153.862 Y90.35 E.05289
G1 X154.236 Y92.025 E.05381
G1 X154.236 Y118.316 E.82433
G1 X153.938 Y119.54 E.03951
G1 X153.516 Y120.378 E.0294
G1 X152.639 Y121.333 E.04065
G1 X152.02 Y121.788 E.02411
G1 X150.173 Y122.361 E.06063
G1 X146.6 Y122.242 E.1121
G1 X145.908 Y121.995 E.02302
G1 X145.317 Y121.686 E.02091
G1 X144.421 Y120.924 E.03688
G1 X143.748 Y119.969 E.03662
G1 X143.346 Y118.859 E.03702
G1 X143.267 Y97.988 E.65441
G1 X106.732 Y97.988 E1.14552
G1 X106.671 Y118.751 E.65102
G1 X106.357 Y119.754 E.03295
M73 P1 R60
M73 Q1 S61
G1 X105.803 Y120.664 E.03338
G1 X104.916 Y121.518 E.03862
G1 X103.952 Y122.05 E.03452
G1 X102.653 Y122.361 E.04189
G1 X99.095 Y122.24 E.11161
G1 X98.31 Y121.949 E.02625
G1 X97.578 Y121.518 E.02662
G1 X96.778 Y120.75 E.03478
G1 X96.333 Y120.142 E.02364
G1 X95.764 Y118.339 E.05926
G1 X95.764 Y92.025 E.82506
G1 X96.082 Y90.521 E.0482
G1 X96.517 Y89.545 E.03351
G1 X96.797 Y89.224 E.01336
M204 S1000
G1 X97.075 Y89.469 F10800
M204 S800
G1 F1200
G1 X97.881 Y88.555 E.03821
G1 X98.686 Y87.976 E.03109
G1 X100.777 Y87.392 E.06807
G1 X149.238 Y87.394 E1.51947
G1 X151.305 Y87.971 E.06728
G1 X152.039 Y88.481 E.02802
G1 X152.726 Y89.148 E.03002
G1 X153.521 Y90.514 E.04955
G1 X153.859 Y92.045 E.04917
G1 X153.859 Y118.293 E.82297
G1 X153.577 Y119.428 E.03667
G1 X153.193 Y120.182 E.02656
G1 X152.376 Y121.062 E.03764
G1 X151.823 Y121.465 E.02145
G1 X150.153 Y121.983 E.05483
G1 X146.699 Y121.877 E.10835
G1 X146.047 Y121.644 E.0217
G1 X145.543 Y121.383 E.01778
G1 X144.714 Y120.685 E.034
G1 X144.092 Y119.813 E.03358
G1 X143.723 Y118.823 E.03311
G1 X143.642 Y97.611 E.66511
G1 X106.356 Y97.611 E1.16908
G1 X106.294 Y118.721 E.6619
G1 X106.022 Y119.579 E.02822
G1 X105.522 Y120.411 E.03043
G1 X104.709 Y121.201 E.03555
G1 X103.836 Y121.69 E.03136
G1 X102.638 Y121.983 E.03869
G1 X99.197 Y121.876 E.10793
G1 X98.458 Y121.601 E.02474
G1 X97.79 Y121.206 E.02433
G1 X97.053 Y120.491 E.03219
G1 X96.656 Y119.945 E.02117
G1 X96.141 Y118.311 E.05373
G1 X96.141 Y92.045 E.82352
G1 X96.446 Y90.62 E.04569
G1 X96.848 Y89.726 E.03075
G1 X97.035 Y89.514 E.00887
M204 S1000
G1 X97.312 Y89.76 F10800
M204 S800
G1 F1200
G1 X98.148 Y88.822 E.0394
G1 X98.877 Y88.303 E.02808
G1 X100.802 Y87.769 E.06263
G1 X149.213 Y87.771 E1.51788
G1 X151.117 Y88.299 E.06196
G1 X151.788 Y88.763 E.02556
G1 X152.445 Y89.401 E.02873
G1 X153.159 Y90.625 E.04445
G1 X153.482 Y92.066 E.0463
G1 X153.482 Y118.269 E.82156
G1 X153.217 Y119.313 E.03378
M73 Q1 S60
G1 X152.87 Y119.985 E.02372
G1 X152.114 Y120.79 E.03463
G1 X151.628 Y121.142 E.01881
G1 X150.132 Y121.606 E.0491
G1 X146.797 Y121.512 E.1046
G1 X146.187 Y121.293 E.02035
G1 X145.737 Y121.059 E.0159
G1 X144.976 Y120.413 E.0313
G1 X144.437 Y119.658 E.02909
G1 X144.088 Y118.723 E.03128
G1 X144.018 Y97.234 E.67378
G1 X105.98 Y97.234 E1.19266
G1 X105.917 Y118.69 E.67273
G1 X105.671 Y119.441 E.0248
G1 X105.241 Y120.159 E.02625
G1 X104.501 Y120.886 E.03252
G1 X103.719 Y121.331 E.0282
G1 X102.622 Y121.605 E.03546
G1 X99.298 Y121.511 E.10426
G1 X98.633 Y121.267 E.02223
G1 X98.036 Y120.919 E.02166
G1 X97.328 Y120.232 E.03092
G1 X96.98 Y119.749 E.01866
G1 X96.518 Y118.282 E.04825
G1 X96.518 Y92.066 E.82198
G1 X96.81 Y90.721 E.04316
G1 X97.179 Y89.909 E.02796
G1 X97.272 Y89.805 E.00437
M204 S1000
G1 X97.547 Y90.052 F10800
M204 S800
G1 F1200
G1 X98.413 Y89.091 E.04059
G1 X99.067 Y88.63 E.02509
G1 X100.827 Y88.146 E.05724
G1 X149.188 Y88.148 E1.5163
G1 X150.93 Y88.628 E.05666
G1 X151.536 Y89.045 E.02307
G1 X152.163 Y89.653 E.02738
G1 X152.818 Y90.788 E.04109
G1 X153.105 Y92.087 E.0417
G1 X153.105 Y118.244 E.82015
G1 X152.858 Y119.196 E.03084
G1 X152.549 Y119.786 E.02087
G1 X151.854 Y120.517 E.03162
G1 X151.434 Y120.817 E.0162
G1 X150.11 Y121.228 E.04344
G1 X146.896 Y121.147 E.10082
G1 X146.326 Y120.943 E.01897
G1 X145.931 Y120.735 E.01398
G1 X145.24 Y120.142 E.02857
G1 X144.76 Y119.462 E.02612
G1 X144.453 Y118.625 E.02794
G1 X144.394 Y96.857 E.68252
G1 X105.604 Y96.857 E1.21624
G1 X105.54 Y118.657 E.68352
G1 X105.321 Y119.3 E.02131
G1 X104.958 Y119.909 E.02225
G1 X104.29 Y120.573 E.02951
G1 X103.599 Y120.972 E.02503
G1 X102.605 Y121.228 E.03219
G1 X99.397 Y121.146 E.10059
G1 X98.805 Y120.931 E.01977
G1 X98.281 Y120.631 E.01894
G1 X97.603 Y119.974 E.02961
G1 X97.304 Y119.555 E.01612
G1 X96.895 Y118.253 E.0428
G1 X96.895 Y92.087 E.82043
G1 X97.174 Y90.822 E.04059
G1 X97.508 Y90.098 E.02502
M204 S1000
G1 X97.838 Y90.28 F10800
M204 S800
G1 F1200
G1 X98.676 Y89.361 E.039
G1 X99.255 Y88.958 E.02211
G1 X100.852 Y88.524 E.05189
G1 X149.163 Y88.525 E1.51474
G1 X150.744 Y88.958 E.0514
M73 P2 R60
M73 Q2 S60
G1 X151.286 Y89.327 E.02056
G1 X151.882 Y89.906 E.02605
G1 X152.457 Y90.899 E.03599
G1 X152.728 Y92.108 E.03884
G1 X152.728 Y118.219 E.8187
G1 X152.5 Y119.077 E.02785
G1 X152.229 Y119.584 E.01801
G1 X151.596 Y120.241 E.02862
G1 X151.241 Y120.492 E.01362
G1 X150.088 Y120.85 E.03786
G1 X146.994 Y120.781 E.09702
G1 X146.467 Y120.592 E.01757
G1 X146.128 Y120.413 E.01203
G1 X145.505 Y119.874 E.02582
G1 X145.084 Y119.268 E.02313
G1 X144.819 Y118.529 E.02462
G1 X144.771 Y96.48 E.69133
G1 X105.228 Y96.48 E1.23983
M73 P2 R59
G1 X105.163 Y118.622 E.69425
G1 X104.972 Y119.155 E.01775
G1 X104.673 Y119.661 E.01844
G1 X104.077 Y120.261 E.02653
G1 X103.476 Y120.615 E.02185
G1 X102.586 Y120.85 E.02889
G1 X99.497 Y120.781 E.09687
G1 X98.95 Y120.583 E.01825
G1 X98.491 Y120.317 E.01661
G1 X97.88 Y119.717 E.02685
G1 X97.63 Y119.362 E.01362
G1 X97.272 Y118.224 E.03741
G1 X97.272 Y92.108 E.81886
G1 X97.537 Y90.926 E.03799
G1 X97.813 Y90.334 E.02046
M204 S1000
G1 X98.153 Y90.496 F10800
M204 S800
G1 F1200
G1 X98.938 Y89.633 E.03657
G1 X99.442 Y89.287 E.01915
G1 X100.877 Y88.901 E.04661
G1 X149.138 Y88.902 E1.51319
G1 X150.559 Y89.288 E.04617
G1 X151.035 Y89.609 E.01801
G1 X151.601 Y90.158 E.02471
G1 X152.096 Y91.011 E.03092
G1 X152.351 Y92.129 E.03596
G1 X152.351 Y118.193 E.81721
G1 X152.142 Y118.955 E.02478
G1 X151.912 Y119.38 E.01515
G1 X151.34 Y119.964 E.02562
G1 X151.05 Y120.165 E.01107
G1 X150.064 Y120.473 E.03237
G1 X147.092 Y120.416 E.09321
G1 X146.607 Y120.242 E.01615
G1 X146.326 Y120.091 E.01003
G1 X145.772 Y119.606 E.02306
G1 X145.41 Y119.077 E.02012
G1 X145.185 Y118.435 E.02132
G1 X145.147 Y96.103 E.70021
G1 X104.852 Y96.103 E1.26344
G1 X104.798 Y118.525 E.70304
G1 X104.624 Y119.01 E.01614
G1 X104.362 Y119.446 E.01595
G1 X103.828 Y119.977 E.02362
G1 X103.352 Y120.258 E.01734
G1 X102.565 Y120.473 E.02558
G1 X99.594 Y120.416 E.09315
G1 X99.12 Y120.246 E.01582
G1 X98.737 Y120.03 E.01378
G1 X98.157 Y119.461 E.02547
G1 X97.956 Y119.171 E.01106
G1 X97.649 Y118.195 E.03208
G1 X97.649 Y92.129 E.81729
G1 X97.9 Y91.03 E.03534
G1 X98.128 Y90.55 E.01668
M204 S1000
G1 X98.466 Y90.714 F10800
M204 S800
G1 F1200
G1 X98.493 Y90.659 E.00189
G1 X99.198 Y89.907 E.03233
G1 X99.626 Y89.618 E.01621
G1 X100.901 Y89.278 E.04138
G1 X149.113 Y89.279 E1.51166
G1 X150.376 Y89.619 E.04099
G1 X150.785 Y89.892 E.01543
G1 X151.32 Y90.411 E.02335
G1 X151.735 Y91.125 E.02589
G1 X151.974 Y92.151 E.03305
G1 X151.974 Y118.166 E.81568
G1 X151.786 Y118.83 E.02163
G1 X151.596 Y119.173 E.01229
G1 X151.086 Y119.684 E.02264
G1 X150.861 Y119.838 E.00855
G1 X150.04 Y120.095 E.02699
G1 X147.19 Y120.05 E.08937
G1 X146.749 Y119.892 E.01469
G1 X146.526 Y119.771 E.00797
G1 X146.041 Y119.341 E.0203
G1 X145.738 Y118.889 E.01709
G1 X145.552 Y118.344 E.01805
G1 X145.524 Y95.726 E.70917
G1 X104.475 Y95.726 E1.28705
G1 X104.432 Y118.428 E.71183
G1 X104.276 Y118.864 E.01451
G1 X104.053 Y119.229 E.01339
G1 X103.581 Y119.691 E.02073
G1 X103.225 Y119.902 E.01298
G1 X102.542 Y120.095 E.02225
G1 X99.692 Y120.05 E.08937
G1 X99.263 Y119.897 E.0143
G1 X98.947 Y119.716 E.01142
G1 X98.437 Y119.208 E.02257
G1 X98.283 Y118.983 E.00855
G1 X98.026 Y118.167 E.02682
G1 X98.026 Y92.151 E.81569
G1 X98.262 Y91.137 E.03264
G1 X98.44 Y90.768 E.01287
M204 S1000
G1 X98.777 Y90.934 F10800
M204 S800
G1 F1200
G1 X98.817 Y90.853 E.00282
G1 X99.455 Y90.184 E.02899
G1 X99.808 Y89.949 E.01328
G1 X100.925 Y89.655 E.03623
G1 X149.089 Y89.657 E1.51014
G1 X150.195 Y89.95 E.03587
G1 X150.536 Y90.175 E.01281
G1 X151.039 Y90.664 E.02198
G1 X151.375 Y91.239 E.02091
G1 X151.597 Y92.174 E.03011
G1 X151.597 Y118.138 E.8141
G1 X151.431 Y118.701 E.01838
G1 X151.282 Y118.962 E.00942
G1 X150.836 Y119.402 E.01967
G1 X150.675 Y119.509 E.00605
G1 X150.014 Y119.718 E.02175
G1 X147.287 Y119.685 E.0855
G1 X146.891 Y119.543 E.01319
G1 X146.729 Y119.452 E.00583
G1 X146.313 Y119.078 E.01754
G1 X146.067 Y118.704 E.01402
G1 X145.92 Y118.255 E.01482
G1 X145.901 Y95.348 E.71823
G1 X104.099 Y95.348 E1.31067
M73 P3 R59
G1 X104.066 Y118.332 E.72062
M73 Q3 S60
G1 X103.928 Y118.717 E.01284
G1 X103.747 Y119.008 E.01076
G1 X103.336 Y119.404 E.01789
G1 X103.094 Y119.548 E.0088
G1 X102.517 Y119.718 E.01887
G1 X99.789 Y119.685 E.08553
G1 X99.407 Y119.548 E.01274
G1 X99.159 Y119.403 E.00899
G1 X98.719 Y118.957 E.01966
G1 X98.612 Y118.796 E.00606
G1 X98.403 Y118.137 E.02167
G1 X98.403 Y92.174 E.81407
G1 X98.623 Y91.246 E.02989
M73 Q3 S59
G1 X98.751 Y90.988 E.00904
M204 S1000
G1 X99.086 Y91.157 F10800
M204 S800
G1 F1200
G1 X99.14 Y91.05 E.00375
G1 X99.71 Y90.463 E.02566
G1 X99.987 Y90.282 E.01036
G1 X100.949 Y90.032 E.03118
G1 X149.065 Y90.034 E1.50864
G1 X150.016 Y90.284 E.03082
G1 X150.287 Y90.459 E.01013
G1 X150.758 Y90.916 E.02058
G1 X151.015 Y91.356 E.01597
G1 X151.22 Y92.197 E.02714
G1 X151.22 Y118.109 E.81245
G1 X151.079 Y118.566 E.015
G1 X150.972 Y118.746 E.00656
G1 X150.589 Y119.117 E.01672
G1 X150.493 Y119.179 E.00358
G1 X149.986 Y119.341 E.01668
G1 X147.384 Y119.319 E.08159
G1 X147.035 Y119.194 E.01162
G1 X146.936 Y119.137 E.0036
G1 X146.585 Y118.816 E.01491
G1 X146.418 Y118.563 E.00951
G1 X146.287 Y118.166 E.01309
G1 X146.278 Y94.971 E.72726
G1 X103.722 Y94.971 E1.33431
G1 X103.7 Y118.235 E.72942
G1 X103.58 Y118.569 E.01112
G1 X103.443 Y118.784 E.00802
G1 X103.092 Y119.116 E.01513
G1 X102.96 Y119.195 E.00483
G1 X102.489 Y119.341 E.01544
G1 X99.886 Y119.319 E.08162
G1 X99.552 Y119.199 E.01113
G1 X99.375 Y119.094 E.00646
G1 X99.004 Y118.71 E.01673
G1 X98.943 Y118.614 E.00358
G1 X98.78 Y118.108 E.01667
G1 X98.78 Y92.197 E.81242
G1 X98.984 Y91.358 E.02708
G1 X99.059 Y91.21 E.00517
M204 S1000
G1 X99.39 Y91.384 F10800
M204 S800
G1 F1200
G1 X99.46 Y91.251 E.00468
G1 X99.961 Y90.744 E.02236
G1 X100.162 Y90.617 E.00745
G1 X100.972 Y90.409 E.02624
G1 X149.041 Y90.411 E1.50716
G1 X149.84 Y90.618 E.02588
G1 X150.039 Y90.744 E.00737
G1 X150.477 Y91.169 E.01915
G1 X150.656 Y91.474 E.01108
G1 X150.843 Y92.22 E.02412
G1 X150.843 Y118.077 E.81071
G1 X150.729 Y118.424 E.01143
G1 X150.666 Y118.524 E.00372
G1 X150.347 Y118.827 E.0138
G1 X149.956 Y118.964 E.01298
G1 X147.481 Y118.953 E.07762
G1 X147.15 Y118.826 E.01111
G1 X146.857 Y118.555 E.01251
G1 X146.768 Y118.421 E.00506
G1 X146.655 Y118.077 E.01134
G1 X146.655 Y94.594 E.73629
G1 X103.345 Y94.594 E1.35796
G1 X103.334 Y118.139 E.73821
G1 X103.234 Y118.419 E.00933
G1 X103.143 Y118.555 E.00514
G1 X102.82 Y118.845 E.01361
G1 X102.458 Y118.964 E.01192
G1 X99.983 Y118.953 E.07762
G1 X99.7 Y118.851 E.00943
G1 X99.597 Y118.788 E.0038
G1 X99.294 Y118.468 E.0138
G1 X99.157 Y118.077 E.01299
G1 X99.157 Y92.22 E.81071
G1 X99.363 Y91.437 E.0254
M204 S1000
G1 X99.703 Y91.592 F10800
M204 S800
G1 F1200
G1 X99.775 Y91.459 E.00475
G1 X100.209 Y91.03 E.01912
G1 X100.332 Y90.955 E.00452
G1 X100.996 Y90.786 E.02147
G1 X149.018 Y90.788 E1.5057
G1 X149.669 Y90.955 E.0211
M73 P3 R58
G1 X149.792 Y91.03 E.00452
G1 X150.196 Y91.423 E.01766
G1 X150.298 Y91.595 E.00627
G1 X150.466 Y92.245 E.02105
G1 X150.466 Y118.042 E.80885
G1 X150.384 Y118.269 E.00757
G1 X150.134 Y118.511 E.0109
G1 X149.921 Y118.587 E.00709
G1 X147.577 Y118.587 E.07349
G1 X147.364 Y118.511 E.00709
G1 X147.13 Y118.293 E.01002
G1 X147.032 Y118.042 E.00845
G1 X147.032 Y94.217 E.74701
G1 X102.968 Y94.217 E1.3816
G1 X102.968 Y118.042 E.74701
G1 X102.87 Y118.293 E.00845
G1 X102.636 Y118.511 E.01002
G1 X102.423 Y118.587 E.00709
G1 X100.079 Y118.587 E.07349
G1 X99.852 Y118.505 E.00757
G1 X99.611 Y118.255 E.0109
G1 X99.534 Y118.042 E.00709
G1 X99.534 Y92.245 E.80885
G1 X99.688 Y91.65 E.01927
M204 S1000
G1 X100.051 Y91.747 F10800
M204 S800
G1 F1200
G1 X100.084 Y91.676 E.00245
G1 X100.451 Y91.32 E.01604
G1 X101.019 Y91.163 E.01847
G1 X148.994 Y91.165 E1.50423
