; generated by PrusaSlicer 2.2.0+win64 on 2021-12-13 at 18:59:17 UTC

; 

; external perimeters extrusion width = 0.45mm
; perimeters extrusion width = 0.45mm
; infill extrusion width = 0.45mm
; solid infill extrusion width = 0.45mm
; top infill extrusion width = 0.40mm
; first layer extrusion width = 0.42mm

M73 P0 R57
M73 Q0 S57
M201 X1000 Y1000 Z200 E5000 ; sets maximum accelerations, mm/sec^2
M203 X200 Y200 Z12 E120 ; sets maximum feedrates, mm/sec
M204 P1250 R1250 T1250 ; sets acceleration (P, T) and retract acceleration (R), mm/sec^2
M205 X8.00 Y8.00 Z0.40 E4.50 ; sets the jerk limits, mm/sec
M205 S0 T0 ; sets the minimum extruding and travel feed rate, mm/sec
M107
M862.3 P "MK3S" ; printer model check
M862.1 P0.4 ; nozzle diameter check
G90 ; use absolute coordinates
M83 ; extruder relative mode
M104 S215 ; set extruder temp
M140 S60 ; set bed temp
M190 S60 ; wait for bed temp
M109 S215 ; wait for extruder temp
G28 W ; home all without mesh bed level
G80 ; mesh bed leveling
G1 Y-3.0 F1000.0 ; go outside print area
G92 E0.0
G1 X60.0 E9.0 F1000.0 ; intro line
M73 Q0 S57
M73 P0 R57
G1 X100.0 E12.5 F1000.0 ; intro line
G92 E0.0
M221 S95

; Don't change E values below. Excessive value can damage the printer.
M907 E430 ; set extruder motor current
G21 ; set units to millimeters
G90 ; use absolute coordinates
M83 ; use relative distances for extrusion
M900 K0.05 ; Filament gcode LA 1.5
M900 K30 ; Filament gcode LA 1.0
;BEFORE_LAYER_CHANGE
G92 E0.0
;0.2


G1 E-0.80000 F2100.00000
G1 Z0.400 F10800.000
;AFTER_LAYER_CHANGE
;0.2
G1 X77.283 Y66.769
G1 Z0.200
G1 E0.80000 F2100.00000
M204 S1000
G1 F1200.000
G1 X78.059 Y66.634 E0.02473
G1 X171.932 Y66.634 E2.94330
G1 X172.830 Y66.812 E0.02872
G1 X173.592 Y67.314 E0.02860
G1 X174.110 Y68.069 E0.02872
G1 X174.305 Y68.964 E0.02872
G1 X174.305 Y141.019 E2.25924
G1 X174.239 Y141.544 E0.01657
G1 X174.061 Y142.037 E0.01645
G1 X173.780 Y142.480 E0.01645
G1 X173.405 Y142.852 E0.01657
G1 X172.717 Y143.231 E0.02461
G1 X171.941 Y143.366 E0.02473
G1 X78.061 Y143.366 E2.94354
G1 X77.536 Y143.305 E0.01657
G1 X77.034 Y143.127 E0.01668
G1 X76.584 Y142.843 E0.01668
G1 X76.209 Y142.466 E0.01668
G1 X75.830 Y141.778 E0.02461
G1 X75.695 Y141.005 E0.02461
G1 X75.695 Y69.000 E2.25769
G1 X75.756 Y68.475 E0.01657
G1 X75.934 Y67.973 E0.01668
G1 X76.218 Y67.523 E0.01668
G1 X76.595 Y67.148 E0.01668
G1 X77.230 Y66.798 E0.02273
; printing object GOZLockSignFrame-BLK+GLD.stl id:0 copy 1
G1 F8640.000
G1 X78.059 Y66.634 E-0.19524
G1 X80.505 Y66.634 E-0.56476
G1 E-0.04000 F2100.00000
G1 Z0.600 F10800.000
G1 X82.810 Y73.749
G1 Z0.200
G1 E0.80000 F2100.00000
G1 F1200.000
G1 X117.262 Y73.749 E1.08022
G1 X117.262 Y136.251 E1.95971
G1 X82.810 Y136.251 E1.08022
G1 X82.810 Y73.809 E1.95783
G1 F8640.000
G1 X86.101 Y73.803 E-0.76000
G1 E-0.04000 F2100.00000
G1 Z0.600 F10800.000
G1 X83.187 Y100.793
G1 Z0.200
G1 E0.80000 F2100.00000
G1 F1200.000
G1 X116.885 Y100.793 E1.05658
G1 X116.885 Y109.216 E0.26411
G1 X83.187 Y109.216 E1.05658
G1 X83.187 Y100.853 E0.26222
G1 X83.016 Y100.431 F10800.000
G1 X83.187 Y100.338
G1 F1200.000
G1 X83.187 Y95.079 E0.16490
G1 X116.885 Y95.079 E1.05658
G1 X116.885 Y100.338 E0.16490
G1 X83.247 Y100.338 E1.05470
G1 X82.788 Y100.358 F10800.000
G1 F8640.000
G1 X83.209 Y97.046 E-0.76000
G1 E-0.04000 F2100.00000
G1 Z0.600 F10800.000
G1 X83.247 Y94.624
G1 Z0.200
G1 E0.80000 F2100.00000
G1 F1200.000
G1 X83.187 Y94.624 E0.00188
G1 X83.187 Y89.364 E0.16490
G1 X116.885 Y89.364 E1.05658
G1 X116.885 Y94.624 E0.16490
G1 X83.307 Y94.624 E1.05281
G1 X83.220 Y94.677 F10800.000
G1 F8640.000
G1 X83.187 Y94.624 E-0.02771
G1 X83.187 Y91.452 E-0.73229
G1 E-0.04000 F2100.00000
G1 Z0.600 F10800.000
G1 X83.307 Y88.909
G1 Z0.200
G1 E0.80000 F2100.00000
G1 F1200.000
G1 X83.187 Y88.909 E0.00376
G1 X83.187 Y80.486 E0.26411
G1 X116.885 Y80.486 E1.05658
G1 X116.885 Y88.909 E0.26411
G1 X83.367 Y88.909 E1.05093
G1 X83.256 Y89.018 F10800.000
G1 F8640.000
G1 X83.187 Y88.909 E-0.04156
G1 X83.187 Y85.798 E-0.71844
G1 E-0.04000 F2100.00000
G1 Z0.600 F10800.000
G1 X83.367 Y80.031
G1 Z0.200
G1 E0.80000 F2100.00000
G1 F1200.000
G1 X83.187 Y80.031 E0.00564
G1 X83.187 Y74.126 E0.18515
G1 X116.885 Y74.126 E1.05658
G1 X116.885 Y80.031 E0.18515
G1 X83.427 Y80.031 E1.04905
G1 X83.286 Y80.192 F10800.000
G1 F8640.000
G1 X83.187 Y80.031 E-0.05542
G1 X83.187 Y76.980 E-0.70458
G1 E-0.04000 F2100.00000
G1 Z0.600 F10800.000
G1 X83.187 Y109.671
G1 Z0.200
G1 E0.80000 F2100.00000
G1 F1200.000
G1 X116.885 Y109.671 E1.05658
G1 X116.885 Y114.930 E0.16490
G1 X83.187 Y114.930 E1.05658
G1 X83.187 Y109.731 E0.16301
G1 X83.005 Y109.315 F10800.000
G1 F8640.000
G1 X86.478 Y109.725 E-0.76000
G1 E-0.04000 F2100.00000
G1 Z0.600 F10800.000
G1 X83.187 Y115.385
G1 Z0.200
G1 E0.80000 F2100.00000
G1 F1200.000
G1 X116.885 Y115.385 E1.05658
M73 Q1 S56
G1 X116.885 Y120.644 E0.16490
G1 X83.187 Y120.644 E1.05658
M73 P1 R56
G1 X83.187 Y115.445 E0.16301
G1 X83.005 Y115.029 F10800.000
G1 F8640.000
G1 X86.478 Y115.439 E-0.76000
G1 E-0.04000 F2100.00000
G1 Z0.600 F10800.000
G1 X83.187 Y121.099
G1 Z0.200
G1 E0.80000 F2100.00000
G1 F1200.000
G1 X116.885 Y121.099 E1.05658
G1 X116.885 Y129.522 E0.26411
G1 X83.187 Y129.522 E1.05658
G1 X83.187 Y121.159 E0.26222
G1 X83.016 Y120.738 F10800.000
G1 F8640.000
G1 X86.478 Y121.153 E-0.76000
G1 E-0.04000 F2100.00000
G1 Z0.600 F10800.000
G1 X83.187 Y129.977
G1 Z0.200
G1 E0.80000 F2100.00000
G1 F1200.000
G1 X116.885 Y129.977 E1.05658
G1 X116.885 Y135.874 E0.18488
G1 X83.187 Y135.874 E1.05658
G1 X83.187 Y130.037 E0.18300
G1 X83.007 Y129.620 F10800.000
G1 F8640.000
G1 X86.478 Y130.032 E-0.76000
G1 E-0.04000 F2100.00000
G1 Z0.600 F10800.000
G1 X117.600 Y73.411
G1 Z0.200
G1 E0.80000 F2100.00000
G1 F1200.000
G1 X121.213 Y73.411 E0.11327
G1 X121.213 Y136.589 E1.98093
G1 X117.600 Y136.589 E0.11327
G1 X117.600 Y140.202 E0.11327
G1 X82.472 Y140.202 E1.10144
G1 X82.472 Y136.589 E0.11327
G1 X78.859 Y136.589 E0.11327
G1 X78.859 Y73.411 E1.98093
G1 X82.472 Y73.411 E0.11327
G1 X82.472 Y69.798 E0.11327
G1 X117.600 Y69.798 E1.10144
G1 X117.600 Y73.351 E0.11139
G1 X117.977 Y73.034 F10800.000
G1 F1200.000
G1 X117.977 Y70.089 E0.09234
G1 X120.923 Y70.089 E0.09234
G1 X120.923 Y73.034 E0.09234
G1 X118.037 Y73.034 E0.09046
G1 X117.591 Y73.137 F10800.000
G1 F8640.000
G1 X117.977 Y70.089 E-0.68015
G1 X118.323 Y70.089 E-0.07985
G1 E-0.04000 F2100.00000
G1 Z0.600 F10800.000
G1 X82.094 Y73.034
G1 Z0.200
G1 E0.80000 F2100.00000
G1 F1200.000
G1 X79.149 Y73.034 E0.09234
G1 X79.149 Y70.089 E0.09234
G1 X82.094 Y70.089 E0.09234
G1 X82.094 Y72.974 E0.09046
G1 X82.198 Y73.420 F10800.000
G1 F8640.000
G1 X79.149 Y73.034 E-0.68015
G1 X79.149 Y72.688 E-0.07985
G1 E-0.04000 F2100.00000
G1 Z0.600 F10800.000
G1 X82.094 Y136.967
G1 Z0.200
G1 E0.80000 F2100.00000
G1 F1200.000
G1 X82.094 Y139.912 E0.09234
G1 X79.149 Y139.912 E0.09234
G1 X79.149 Y136.967 E0.09234
G1 X82.034 Y136.967 E0.09046
G1 X82.481 Y136.863 F10800.000
G1 F8640.000
G1 X82.094 Y139.912 E-0.68015
G1 X81.749 Y139.912 E-0.07985
G1 E-0.04000 F2100.00000
G1 Z0.600 F10800.000
G1 X117.977 Y136.967
G1 Z0.200
G1 E0.80000 F2100.00000
G1 F1200.000
G1 X120.923 Y136.967 E0.09234
G1 X120.923 Y139.912 E0.09234
G1 X117.977 Y139.912 E0.09234
G1 X117.977 Y137.027 E0.09046
G1 X117.874 Y136.580 F10800.000
G1 F8640.000
G1 X120.923 Y136.967 E-0.68015
G1 X120.923 Y137.312 E-0.07985
G1 E-0.04000 F2100.00000
G1 Z0.600 F10800.000
G1 X121.590 Y140.579
G1 Z0.200
G1 E0.80000 F2100.00000
G1 F1200.000
G1 X78.482 Y140.579 E1.35162
G1 X78.482 Y69.421 E2.23111
G1 X121.590 Y69.421 E1.35162
G1 X121.590 Y140.519 E2.22923
G1 X121.213 Y140.445 F10800.000
G1 F8640.000
G1 X118.299 Y140.524 E-0.76000
G1 E-0.04000 F2100.00000
G1 Z0.600 F10800.000
G1 X121.256 Y136.778
G1 Z0.200
G1 E0.80000 F2100.00000
G1 F1200.000
G1 X121.256 Y140.100 E0.08022
G1 X121.231 Y140.220 E0.00297
G1 X121.111 Y140.245 E0.00297
G1 X117.789 Y140.245 E0.08022
G1 F8640.000
G1 X121.080 Y140.245 E-0.76000
G1 E-0.04000 F2100.00000
G1 Z0.600 F10800.000
G1 X82.998 Y129.750
G1 Z0.200
G1 E0.80000 F2100.00000
G1 F1200.000
G1 X117.074 Y129.750 E0.22078
G1 F8640.000
G1 X113.782 Y129.750 E-0.76000
G1 E-0.04000 F2100.00000
G1 Z0.600 F10800.000
G1 X117.074 Y120.872
G1 Z0.200
G1 E0.80000 F2100.00000
G1 F1200.000
G1 X82.998 Y120.872 E0.22078
G1 F8640.000
G1 X86.290 Y120.872 E-0.76000
G1 E-0.04000 F2100.00000
G1 Z0.600 F10800.000
G1 X82.998 Y115.157
G1 Z0.200
G1 E0.80000 F2100.00000
G1 F1200.000
G1 X117.074 Y115.157 E0.22079
G1 F8640.000
G1 X113.782 Y115.157 E-0.76000
G1 E-0.04000 F2100.00000
G1 Z0.600 F10800.000
G1 X117.074 Y109.443
G1 Z0.200
G1 E0.80000 F2100.00000
G1 F1200.000
G1 X82.998 Y109.443 E0.22078
G1 F8640.000
G1 X86.290 Y109.443 E-0.76000
G1 E-0.04000 F2100.00000
G1 Z0.600 F10800.000
G1 X82.998 Y100.565
G1 Z0.200
G1 E0.80000 F2100.00000
G1 F1200.000
G1 X117.074 Y100.565 E0.22078
G1 F8640.000
G1 X113.782 Y100.565 E-0.76000
G1 E-0.04000 F2100.00000
G1 Z0.600 F10800.000
G1 X117.074 Y94.851
G1 Z0.200
G1 E0.80000 F2100.00000
G1 F1200.000
G1 X82.998 Y94.851 E0.22078
G1 F8640.000
G1 X86.290 Y94.851 E-0.76000
G1 E-0.04000 F2100.00000
G1 Z0.600 F10800.000
G1 X82.998 Y89.137
G1 Z0.200
G1 E0.80000 F2100.00000
G1 F1200.000
G1 X117.074 Y89.137 E0.22078
G1 F8640.000
G1 X113.782 Y89.137 E-0.76000
G1 E-0.04000 F2100.00000
G1 Z0.600 F10800.000
G1 X117.074 Y80.259
G1 Z0.200
G1 E0.80000 F2100.00000
G1 F1200.000
G1 X82.998 Y80.259 E0.22078
G1 F8640.000
G1 X86.290 Y80.259 E-0.76000
G1 E-0.04000 F2100.00000
G1 Z0.600 F10800.000
G1 X82.697 Y74.316
G1 Z0.200
G1 E0.80000 F2100.00000
G1 F1200.000
G1 X82.074 Y73.693 E0.02765
G1 X81.540 Y73.693 E0.01675
M73 Q3 S55
G1 X82.527 Y74.680 E0.04381
G1 X82.527 Y75.214 E0.01675
G1 X81.006 Y73.693 E0.06750
G1 X80.473 Y73.693 E0.01675
G1 X82.527 Y75.748 E0.09119
G1 X82.527 Y76.282 E0.01675
G1 X79.939 Y73.693 E0.11488
G1 X79.405 Y73.693 E0.01675
G1 X82.527 Y76.815 E0.13857
G1 X82.527 Y77.349 E0.01675
G1 X79.142 Y73.964 E0.15025
G1 X79.142 Y74.498 E0.01675
G1 X82.527 Y77.883 E0.15025
G1 X82.527 Y78.417 E0.01675
G1 X79.142 Y75.032 E0.15025
G1 X79.142 Y75.565 E0.01675
G1 X82.527 Y78.951 E0.15025
G1 X82.527 Y79.484 E0.01675
G1 X79.142 Y76.099 E0.15025
G1 X79.142 Y76.633 E0.01675
G1 X82.527 Y80.018 E0.15025
G1 X82.527 Y80.552 E0.01675
G1 X79.142 Y77.167 E0.15025
M73 P3 R55
G1 X79.142 Y77.701 E0.01675
G1 X82.527 Y81.086 E0.15025
G1 X82.527 Y81.620 E0.01675
G1 X79.142 Y78.234 E0.15025
G1 X79.142 Y78.768 E0.01675
G1 X82.527 Y82.153 E0.15025
G1 X82.527 Y82.687 E0.01675
G1 X79.142 Y79.302 E0.15025
G1 X79.142 Y79.836 E0.01675
G1 X82.527 Y83.221 E0.15025
G1 X82.527 Y83.755 E0.01675
G1 X79.142 Y80.369 E0.15025
G1 X79.142 Y80.903 E0.01675
G1 X82.527 Y84.288 E0.15025
G1 X82.527 Y84.822 E0.01675
G1 X79.142 Y81.437 E0.15025
G1 X79.142 Y81.971 E0.01675
G1 X82.527 Y85.356 E0.15025
G1 X82.527 Y85.890 E0.01675
G1 X79.142 Y82.505 E0.15025
G1 X79.142 Y83.038 E0.01675
G1 X82.527 Y86.424 E0.15025
G1 X82.527 Y86.957 E0.01675
G1 X79.142 Y83.572 E0.15025
G1 X79.142 Y84.106 E0.01675
G1 X82.527 Y87.491 E0.15025
G1 X82.527 Y88.025 E0.01675
G1 X79.142 Y84.640 E0.15025
G1 X79.142 Y85.174 E0.01675
G1 X82.527 Y88.559 E0.15025
G1 X82.527 Y89.093 E0.01675
G1 X79.142 Y85.707 E0.15025
G1 X79.142 Y86.241 E0.01675
G1 X82.527 Y89.626 E0.15025
G1 X82.527 Y90.160 E0.01675
G1 X79.142 Y86.775 E0.15025
G1 X79.142 Y87.309 E0.01675
G1 X82.527 Y90.694 E0.15025
G1 X82.527 Y91.228 E0.01675
G1 X79.142 Y87.842 E0.15025
G1 X79.142 Y88.376 E0.01675
G1 X82.527 Y91.761 E0.15025
G1 X82.527 Y92.295 E0.01675
G1 X79.142 Y88.910 E0.15025
G1 X79.142 Y89.444 E0.01675
G1 X82.527 Y92.829 E0.15025
G1 X82.527 Y93.363 E0.01675
G1 X79.142 Y89.978 E0.15025
G1 X79.142 Y90.511 E0.01675
G1 X82.527 Y93.897 E0.15025
G1 X82.527 Y94.430 E0.01675
G1 X79.142 Y91.045 E0.15025
G1 X79.142 Y91.579 E0.01675
G1 X82.527 Y94.964 E0.15025
G1 X82.527 Y95.498 E0.01675
G1 X79.142 Y92.113 E0.15025
G1 X79.142 Y92.647 E0.01675
G1 X82.527 Y96.032 E0.15025
G1 X82.527 Y96.566 E0.01675
G1 X79.142 Y93.180 E0.15025
G1 X79.142 Y93.714 E0.01675
G1 X82.527 Y97.099 E0.15025
G1 X82.527 Y97.633 E0.01675
G1 X79.142 Y94.248 E0.15025
G1 X79.142 Y94.782 E0.01675
G1 X82.527 Y98.167 E0.15025
G1 X82.527 Y98.701 E0.01675
G1 X79.142 Y95.315 E0.15025
G1 X79.142 Y95.849 E0.01675
G1 X82.527 Y99.234 E0.15025
G1 X82.527 Y99.768 E0.01675
G1 X79.142 Y96.383 E0.15025
G1 X79.142 Y96.917 E0.01675
G1 X82.527 Y100.302 E0.15025
G1 X82.527 Y100.836 E0.01675
G1 X79.142 Y97.451 E0.15025
G1 X79.142 Y97.984 E0.01675
G1 X82.527 Y101.370 E0.15025
G1 X82.527 Y101.903 E0.01675
G1 X79.142 Y98.518 E0.15025
G1 X79.142 Y99.052 E0.01675
G1 X82.527 Y102.437 E0.15025
G1 X82.527 Y102.971 E0.01675
G1 X79.142 Y99.586 E0.15025
G1 X79.142 Y100.119 E0.01675
G1 X82.527 Y103.505 E0.15025
G1 X82.527 Y104.039 E0.01675
G1 X79.142 Y100.653 E0.15025
G1 X79.142 Y101.187 E0.01675
G1 X82.527 Y104.572 E0.15025
G1 X82.527 Y105.106 E0.01675
G1 X79.142 Y101.721 E0.15025
G1 X79.142 Y102.255 E0.01675
G1 X82.527 Y105.640 E0.15025
G1 X82.527 Y106.174 E0.01675
G1 X79.142 Y102.788 E0.15025
G1 X79.142 Y103.322 E0.01675
G1 X82.527 Y106.707 E0.15025
G1 X82.527 Y107.241 E0.01675
G1 X79.142 Y103.856 E0.15025
G1 X79.142 Y104.390 E0.01675
G1 X82.527 Y107.775 E0.15025
G1 X82.527 Y108.309 E0.01675
G1 X79.142 Y104.924 E0.15025
G1 X79.142 Y105.457 E0.01675
G1 X82.527 Y108.843 E0.15025
G1 X82.527 Y109.376 E0.01675
G1 X79.142 Y105.991 E0.15025
G1 X79.142 Y106.525 E0.01675
G1 X82.527 Y109.910 E0.15025
G1 X82.527 Y110.444 E0.01675
G1 X79.142 Y107.059 E0.15025
G1 X79.142 Y107.592 E0.01675
G1 X82.527 Y110.978 E0.15025
G1 X82.527 Y111.512 E0.01675
G1 X79.142 Y108.126 E0.15025
G1 X79.142 Y108.660 E0.01675
G1 X82.527 Y112.045 E0.15025
G1 X82.527 Y112.579 E0.01675
G1 X79.142 Y109.194 E0.15025
G1 X79.142 Y109.728 E0.01675
G1 X82.527 Y113.113 E0.15025
G1 X82.527 Y113.647 E0.01675
G1 X79.142 Y110.261 E0.15025
G1 X79.142 Y110.795 E0.01675
G1 X82.527 Y114.180 E0.15025
G1 X82.527 Y114.714 E0.01675
G1 X79.142 Y111.329 E0.15025
G1 X79.142 Y111.863 E0.01675
G1 X82.527 Y115.248 E0.15025
G1 X82.527 Y115.782 E0.01675
G1 X79.142 Y112.397 E0.15025
G1 X79.142 Y112.930 E0.01675
G1 X82.527 Y116.316 E0.15025
G1 X82.527 Y116.849 E0.01675
G1 X79.142 Y113.464 E0.15025
G1 X79.142 Y113.998 E0.01675
G1 X82.527 Y117.383 E0.15025
G1 X82.527 Y117.917 E0.01675
G1 X79.142 Y114.532 E0.15025
G1 X79.142 Y115.065 E0.01675
G1 X82.527 Y118.451 E0.15025
G1 X82.527 Y118.985 E0.01675
G1 X79.142 Y115.599 E0.15025
G1 X79.142 Y116.133 E0.01675
G1 X82.527 Y119.518 E0.15025
G1 X82.527 Y120.052 E0.01675
G1 X79.142 Y116.667 E0.15025
G1 X79.142 Y117.201 E0.01675
G1 X82.527 Y120.586 E0.15025
G1 X82.527 Y121.120 E0.01675
G1 X79.142 Y117.734 E0.15025
G1 X79.142 Y118.268 E0.01675
G1 X82.527 Y121.653 E0.15025
G1 X82.527 Y122.187 E0.01675
G1 X79.142 Y118.802 E0.15025
G1 X79.142 Y119.336 E0.01675
G1 X82.527 Y122.721 E0.15025
G1 X82.527 Y123.255 E0.01675
G1 X79.142 Y119.870 E0.15025
G1 X79.142 Y120.403 E0.01675
G1 X82.527 Y123.789 E0.15025
G1 X82.527 Y124.322 E0.01675
G1 X79.142 Y120.937 E0.15025
G1 X79.142 Y121.471 E0.01675
G1 X82.527 Y124.856 E0.15025
G1 X82.527 Y125.390 E0.01675
G1 X79.142 Y122.005 E0.15025
G1 X79.142 Y122.538 E0.01675
G1 X82.527 Y125.924 E0.15025
G1 X82.527 Y126.457 E0.01675
G1 X79.142 Y123.072 E0.15025
G1 X79.142 Y123.606 E0.01675
G1 X82.527 Y126.991 E0.15025
G1 X82.527 Y127.525 E0.01675
G1 X79.142 Y124.140 E0.15025
G1 X79.142 Y124.674 E0.01675
G1 X82.527 Y128.059 E0.15025
G1 X82.527 Y128.593 E0.01675
G1 X79.142 Y125.207 E0.15025
G1 X79.142 Y125.741 E0.01675
G1 X82.527 Y129.126 E0.15025
G1 X82.527 Y129.660 E0.01675
G1 X79.142 Y126.275 E0.15025
G1 X79.142 Y126.809 E0.01675
G1 X82.527 Y130.194 E0.15025
G1 X82.527 Y130.728 E0.01675
G1 X79.142 Y127.343 E0.15025
G1 X79.142 Y127.876 E0.01675
G1 X82.527 Y131.262 E0.15025
G1 X82.527 Y131.795 E0.01675
G1 X79.142 Y128.410 E0.15025
G1 X79.142 Y128.944 E0.01675
G1 X82.527 Y132.329 E0.15025
G1 X82.527 Y132.863 E0.01675
G1 X79.142 Y129.478 E0.15025
G1 X79.142 Y130.011 E0.01675
G1 X82.527 Y133.397 E0.15025
G1 X82.527 Y133.930 E0.01675
G1 X79.142 Y130.545 E0.15025
G1 X79.142 Y131.079 E0.01675
G1 X82.527 Y134.464 E0.15025
