; generated by PrusaSlicer 2.2.0+win64 on 2021-12-13 at 19:08:50 UTC

; 

; external perimeters extrusion width = 0.45mm
; perimeters extrusion width = 0.45mm
; infill extrusion width = 0.45mm
; solid infill extrusion width = 0.45mm
; top infill extrusion width = 0.40mm
; first layer extrusion width = 0.42mm

M73 P0 R155
M73 Q0 S156
M201 X1000 Y1000 Z200 E5000 ; sets maximum accelerations, mm/sec^2
M203 X200 Y200 Z12 E120 ; sets maximum feedrates, mm/sec
M204 P1250 R1250 T1250 ; sets acceleration (P, T) and retract acceleration (R), mm/sec^2
M205 X8.00 Y8.00 Z0.40 E4.50 ; sets the jerk limits, mm/sec
M205 S0 T0 ; sets the minimum extruding and travel feed rate, mm/sec
M107
M862.3 P "MK3S" ; printer model check
M862.1 P0.4 ; nozzle diameter check
G90 ; use absolute coordinates
M83 ; extruder relative mode
M104 S215 ; set extruder temp
M140 S60 ; set bed temp
M190 S60 ; wait for bed temp
M109 S215 ; wait for extruder temp
G28 W ; home all without mesh bed level
G80 ; mesh bed leveling
G1 Y-3.0 F1000.0 ; go outside print area
G92 E0.0
G1 X60.0 E9.0 F1000.0 ; intro line
M73 Q0 S155
M73 P0 R155
G1 X100.0 E12.5 F1000.0 ; intro line
G92 E0.0
M221 S95

; Don't change E values below. Excessive value can damage the printer.
M907 E430 ; set extruder motor current
G21 ; set units to millimeters
G90 ; use absolute coordinates
M83 ; use relative distances for extrusion
M900 K0.05 ; Filament gcode LA 1.5
M900 K30 ; Filament gcode LA 1.0
;BEFORE_LAYER_CHANGE
G92 E0.0
;0.2


G1 E-0.80000 F2100.00000
G1 Z0.400 F10800.000
;AFTER_LAYER_CHANGE
;0.2
G1 X50.255 Y39.274
G1 Z0.200
G1 E0.80000 F2100.00000
M204 S1000
G1 F1200.000
G1 X51.086 Y39.121 E0.02649
G1 X198.912 Y39.121 E4.63499
G1 X199.814 Y39.300 E0.02884
G1 X200.580 Y39.809 E0.02884
G1 X201.096 Y40.570 E0.02884
G1 X201.285 Y41.470 E0.02884
G1 X201.285 Y168.517 E3.98347
G1 X201.229 Y169.016 E0.01574
G1 X201.069 Y169.492 E0.01574
G1 X200.813 Y169.923 E0.01574
G1 X200.472 Y170.292 E0.01574
G1 X199.748 Y170.726 E0.02649
G1 X198.917 Y170.879 E0.02649
G1 X51.090 Y170.879 E4.63500
G1 X50.588 Y170.824 E0.01585
G1 X50.108 Y170.665 E0.01585
G1 X49.673 Y170.407 E0.01585
G1 X49.304 Y170.066 E0.01574
G1 X48.871 Y169.345 E0.02637
G1 X48.717 Y168.515 E0.02649
G1 X48.717 Y41.494 E3.98264
G1 X48.772 Y40.991 E0.01585
G1 X48.930 Y40.515 E0.01574
G1 X49.187 Y40.079 E0.01585
G1 X49.530 Y39.708 E0.01585
G1 X50.203 Y39.305 E0.02461
; printing object GOZLockSignMarquee-TB+BLK.stl id:0 copy 1
G1 F8640.000
G1 X51.086 Y39.121 E-0.20812
G1 X53.476 Y39.121 E-0.55188
G1 E-0.04000 F2100.00000
G1 Z0.600 F10800.000
G1 X51.881 Y108.787
G1 Z0.200
G1 E0.80000 F2100.00000
G1 F1200.000
G1 X82.759 Y108.787 E0.96815
G1 X82.759 Y167.715 E1.84764
G1 X51.881 Y167.715 E0.96815
G1 X51.881 Y108.847 E1.84576
G1 X51.504 Y108.410 F10800.000
G1 F1200.000
G1 X83.136 Y108.410 E0.99180
G1 X83.136 Y168.092 E1.87129
G1 X51.504 Y168.092 E0.99180
G1 X51.504 Y108.470 E1.86941
G1 X51.878 Y108.551 F10800.000
G1 F8640.000
G1 X54.795 Y108.464 E-0.76000
G1 E-0.04000 F2100.00000
G1 Z0.600 F10800.000
G1 X51.994 Y166.836
G1 Z0.200
G1 E0.80000 F2100.00000
G1 F1200.000
G1 X52.590 Y167.432 E0.02653
G1 X53.126 Y167.432 E0.01686
G1 X52.164 Y166.470 E0.04282
G1 X52.164 Y165.935 E0.01686
G1 X53.661 Y167.432 E0.06666
G1 X54.197 Y167.432 E0.01686
G1 X52.164 Y165.399 E0.09051
G1 X52.164 Y164.864 E0.01686
G1 X54.732 Y167.432 E0.11435
G1 X55.268 Y167.432 E0.01686
G1 X52.164 Y164.328 E0.13820
G1 X52.164 Y163.793 E0.01686
G1 X55.803 Y167.432 E0.16204
G1 X56.339 Y167.432 E0.01686
G1 X52.164 Y163.257 E0.18589
G1 X52.164 Y162.722 E0.01686
G1 X56.874 Y167.432 E0.20973
G1 X57.410 Y167.432 E0.01686
G1 X52.164 Y162.186 E0.23357
G1 X52.164 Y161.651 E0.01686
G1 X57.945 Y167.432 E0.25742
G1 X58.481 Y167.432 E0.01686
G1 X52.164 Y161.115 E0.28126
G1 X52.164 Y160.580 E0.01686
G1 X59.016 Y167.432 E0.30511
G1 X59.552 Y167.432 E0.01686
G1 X52.164 Y160.044 E0.32895
G1 X52.164 Y159.509 E0.01686
G1 X60.087 Y167.432 E0.35280
G1 X60.623 Y167.432 E0.01686
G1 X52.164 Y158.973 E0.37664
G1 X52.164 Y158.438 E0.01686
G1 X61.158 Y167.432 E0.40048
G1 X61.694 Y167.432 E0.01686
G1 X52.164 Y157.902 E0.42433
G1 X52.164 Y157.367 E0.01686
G1 X62.229 Y167.432 E0.44817
G1 X62.765 Y167.432 E0.01686
G1 X52.164 Y156.831 E0.47202
M73 Q0 S154
G1 X52.164 Y156.296 E0.01686
G1 X63.300 Y167.432 E0.49586
M73 P0 R154
G1 X63.836 Y167.432 E0.01686
G1 X52.164 Y155.760 E0.51971
G1 X52.164 Y155.225 E0.01686
G1 X64.371 Y167.432 E0.54355
G1 X64.907 Y167.432 E0.01686
G1 X52.164 Y154.689 E0.56739
G1 X52.164 Y154.154 E0.01686
G1 X65.442 Y167.432 E0.59124
G1 X65.978 Y167.432 E0.01686
G1 X52.164 Y153.618 E0.61508
G1 X52.164 Y153.083 E0.01686
G1 X66.513 Y167.432 E0.63893
G1 X67.049 Y167.432 E0.01686
G1 X52.164 Y152.547 E0.66277
G1 X52.164 Y152.012 E0.01686
G1 X67.584 Y167.432 E0.68662
G1 X68.120 Y167.432 E0.01686
G1 X52.164 Y151.476 E0.71046
G1 X52.164 Y150.941 E0.01686
G1 X68.655 Y167.432 E0.73430
G1 X69.191 Y167.432 E0.01686
G1 X52.164 Y150.405 E0.75815
G1 X52.164 Y149.870 E0.01686
G1 X69.726 Y167.432 E0.78199
G1 X70.262 Y167.432 E0.01686
G1 X52.164 Y149.334 E0.80584
G1 X52.164 Y148.799 E0.01686
G1 X70.797 Y167.432 E0.82968
G1 X71.333 Y167.432 E0.01686
G1 X52.164 Y148.263 E0.85353
G1 X52.164 Y147.728 E0.01686
G1 X71.868 Y167.432 E0.87737
G1 X72.404 Y167.432 E0.01686
G1 X52.164 Y147.192 E0.90121
G1 X52.164 Y146.657 E0.01686
G1 X72.939 Y167.432 E0.92506
G1 X73.475 Y167.432 E0.01686
G1 X52.164 Y146.121 E0.94890
G1 X52.164 Y145.586 E0.01686
G1 X74.010 Y167.432 E0.97275
G1 X74.546 Y167.432 E0.01686
G1 X52.164 Y145.050 E0.99659
G1 X52.164 Y144.515 E0.01686
G1 X75.081 Y167.432 E1.02043
G1 X75.617 Y167.432 E0.01686
G1 X52.164 Y143.979 E1.04428
G1 X52.164 Y143.444 E0.01686
G1 X76.152 Y167.432 E1.06812
G1 X76.688 Y167.432 E0.01686
G1 X52.164 Y142.908 E1.09197
G1 X52.164 Y142.373 E0.01686
G1 X77.223 Y167.432 E1.11581
G1 X77.759 Y167.432 E0.01686
G1 X52.164 Y141.837 E1.13966
G1 X52.164 Y141.302 E0.01686
G1 X78.294 Y167.432 E1.16350
G1 X78.830 Y167.432 E0.01686
G1 X52.164 Y140.766 E1.18734
G1 X52.164 Y140.231 E0.01686
G1 X79.365 Y167.432 E1.21119
G1 X79.901 Y167.432 E0.01686
G1 X52.164 Y139.695 E1.23503
G1 X52.164 Y139.160 E0.01686
G1 X80.436 Y167.432 E1.25888
G1 X80.972 Y167.432 E0.01686
G1 X52.164 Y138.624 E1.28272
G1 X52.164 Y138.089 E0.01686
G1 X81.507 Y167.432 E1.30657
G1 X82.043 Y167.432 E0.01686
G1 X52.164 Y137.553 E1.33041
G1 X52.164 Y137.018 E0.01686
G1 X82.476 Y167.330 E1.34971
G1 X82.476 Y166.795 E0.01686
G1 X52.164 Y136.482 E1.34971
G1 X52.164 Y135.947 E0.01686
G1 X82.476 Y166.259 E1.34971
M73 Q1 S153
G1 X82.476 Y165.724 E0.01686
G1 X52.164 Y135.411 E1.34971
M73 P1 R153
G1 X52.164 Y134.876 E0.01686
G1 X82.476 Y165.188 E1.34971
G1 X82.476 Y164.653 E0.01686
G1 X52.164 Y134.340 E1.34971
G1 X52.164 Y133.805 E0.01686
G1 X82.476 Y164.117 E1.34971
G1 X82.476 Y163.582 E0.01686
G1 X52.164 Y133.269 E1.34971
G1 X52.164 Y132.734 E0.01686
G1 X82.476 Y163.046 E1.34971
G1 X82.476 Y162.511 E0.01686
G1 X52.164 Y132.198 E1.34971
G1 X52.164 Y131.663 E0.01686
G1 X82.476 Y161.975 E1.34971
G1 X82.476 Y161.440 E0.01686
G1 X52.164 Y131.127 E1.34971
G1 X52.164 Y130.592 E0.01686
G1 X82.476 Y160.904 E1.34971
G1 X82.476 Y160.369 E0.01686
G1 X52.164 Y130.056 E1.34971
G1 X52.164 Y129.521 E0.01686
G1 X82.476 Y159.833 E1.34971
G1 X82.476 Y159.298 E0.01686
G1 X52.164 Y128.985 E1.34971
G1 X52.164 Y128.450 E0.01686
G1 X82.476 Y158.762 E1.34971
G1 X82.476 Y158.227 E0.01686
G1 X52.164 Y127.914 E1.34971
G1 X52.164 Y127.379 E0.01686
G1 X82.476 Y157.691 E1.34971
G1 X82.476 Y157.156 E0.01686
G1 X52.164 Y126.843 E1.34971
G1 X52.164 Y126.308 E0.01686
G1 X82.476 Y156.620 E1.34971
G1 X82.476 Y156.085 E0.01686
G1 X52.164 Y125.772 E1.34971
G1 X52.164 Y125.237 E0.01686
G1 X82.476 Y155.549 E1.34971
G1 X82.476 Y155.014 E0.01686
G1 X52.164 Y124.701 E1.34971
G1 X52.164 Y124.166 E0.01686
G1 X82.476 Y154.478 E1.34971
G1 X82.476 Y153.943 E0.01686
G1 X52.164 Y123.630 E1.34971
G1 X52.164 Y123.095 E0.01686
G1 X82.476 Y153.407 E1.34971
G1 X82.476 Y152.872 E0.01686
G1 X52.164 Y122.559 E1.34971
G1 X52.164 Y122.024 E0.01686
G1 X82.476 Y152.336 E1.34971
G1 X82.476 Y151.801 E0.01686
G1 X52.164 Y121.488 E1.34971
G1 X52.164 Y120.953 E0.01686
G1 X82.476 Y151.265 E1.34971
M73 Q1 S152
G1 X82.476 Y150.730 E0.01686
G1 X52.164 Y120.417 E1.34971
M73 P2 R152
G1 X52.164 Y119.882 E0.01686
G1 X82.476 Y150.194 E1.34971
G1 X82.476 Y149.659 E0.01686
G1 X52.164 Y119.346 E1.34971
G1 X52.164 Y118.811 E0.01686
G1 X82.476 Y149.123 E1.34971
G1 X82.476 Y148.588 E0.01686
G1 X52.164 Y118.275 E1.34971
G1 X52.164 Y117.740 E0.01686
G1 X82.476 Y148.052 E1.34971
G1 X82.476 Y147.517 E0.01686
G1 X52.164 Y117.204 E1.34971
G1 X52.164 Y116.669 E0.01686
G1 X82.476 Y146.981 E1.34971
G1 X82.476 Y146.446 E0.01686
G1 X52.164 Y116.133 E1.34971
G1 X52.164 Y115.598 E0.01686
G1 X82.476 Y145.910 E1.34971
G1 X82.476 Y145.375 E0.01686
G1 X52.164 Y115.062 E1.34971
G1 X52.164 Y114.527 E0.01686
G1 X82.476 Y144.839 E1.34971
G1 X82.476 Y144.304 E0.01686
G1 X52.164 Y113.991 E1.34971
G1 X52.164 Y113.456 E0.01686
G1 X82.476 Y143.768 E1.34971
G1 X82.476 Y143.233 E0.01686
G1 X52.164 Y112.920 E1.34971
G1 X52.164 Y112.385 E0.01686
G1 X82.476 Y142.697 E1.34971
G1 X82.476 Y142.162 E0.01686
G1 X52.164 Y111.849 E1.34971
G1 X52.164 Y111.314 E0.01686
G1 X82.476 Y141.626 E1.34971
G1 X82.476 Y141.091 E0.01686
G1 X52.164 Y110.778 E1.34971
G1 X52.164 Y110.243 E0.01686
G1 X82.476 Y140.555 E1.34971
G1 X82.476 Y140.020 E0.01686
G1 X52.164 Y109.707 E1.34971
G1 X52.164 Y109.172 E0.01686
G1 X82.476 Y139.484 E1.34971
G1 X82.476 Y138.949 E0.01686
G1 X52.597 Y109.070 E1.33041
G1 X53.133 Y109.070 E0.01686
G1 X82.476 Y138.413 E1.30657
G1 X82.476 Y137.878 E0.01686
G1 X53.668 Y109.070 E1.28272
G1 X54.204 Y109.070 E0.01686
G1 X82.476 Y137.342 E1.25888
G1 X82.476 Y136.807 E0.01686
G1 X54.739 Y109.070 E1.23504
G1 X55.275 Y109.070 E0.01686
G1 X82.476 Y136.271 E1.21119
M73 Q2 S151
G1 X82.476 Y135.736 E0.01686
G1 X55.810 Y109.070 E1.18735
M73 P2 R151
G1 X56.346 Y109.070 E0.01686
G1 X82.476 Y135.200 E1.16350
G1 X82.476 Y134.665 E0.01686
G1 X56.881 Y109.070 E1.13966
G1 X57.417 Y109.070 E0.01686
G1 X82.476 Y134.129 E1.11581
G1 X82.476 Y133.594 E0.01686
G1 X57.952 Y109.070 E1.09197
G1 X58.488 Y109.070 E0.01686
G1 X82.476 Y133.058 E1.06813
G1 X82.476 Y132.523 E0.01686
G1 X59.023 Y109.070 E1.04428
G1 X59.559 Y109.070 E0.01686
G1 X82.476 Y131.987 E1.02044
G1 X82.476 Y131.452 E0.01686
G1 X60.094 Y109.070 E0.99659
G1 X60.630 Y109.070 E0.01686
G1 X82.476 Y130.916 E0.97275
G1 X82.476 Y130.381 E0.01686
G1 X61.165 Y109.070 E0.94891
G1 X61.701 Y109.070 E0.01686
G1 X82.476 Y129.845 E0.92506
G1 X82.476 Y129.310 E0.01686
G1 X62.236 Y109.070 E0.90122
G1 X62.772 Y109.070 E0.01686
G1 X82.476 Y128.774 E0.87737
G1 X82.476 Y128.239 E0.01686
G1 X63.307 Y109.070 E0.85353
G1 X63.843 Y109.070 E0.01686
G1 X82.476 Y127.703 E0.82968
G1 X82.476 Y127.168 E0.01686
G1 X64.378 Y109.070 E0.80584
G1 X64.914 Y109.070 E0.01686
G1 X82.476 Y126.632 E0.78200
G1 X82.476 Y126.097 E0.01686
G1 X65.449 Y109.070 E0.75815
G1 X65.985 Y109.070 E0.01686
G1 X82.476 Y125.561 E0.73431
G1 X82.476 Y125.026 E0.01686
G1 X66.520 Y109.070 E0.71046
G1 X67.056 Y109.070 E0.01686
G1 X82.476 Y124.490 E0.68662
G1 X82.476 Y123.955 E0.01686
G1 X67.591 Y109.070 E0.66277
G1 X68.127 Y109.070 E0.01686
G1 X82.476 Y123.419 E0.63893
G1 X82.476 Y122.884 E0.01686
G1 X68.662 Y109.070 E0.61509
G1 X69.198 Y109.070 E0.01686
G1 X82.476 Y122.348 E0.59124
G1 X82.476 Y121.813 E0.01686
G1 X69.733 Y109.070 E0.56740
G1 X70.269 Y109.070 E0.01686
G1 X82.476 Y121.277 E0.54355
G1 X82.476 Y120.742 E0.01686
G1 X70.804 Y109.070 E0.51971
G1 X71.340 Y109.070 E0.01686
G1 X82.476 Y120.206 E0.49586
G1 X82.476 Y119.671 E0.01686
G1 X71.875 Y109.070 E0.47202
G1 X72.411 Y109.070 E0.01686
G1 X82.476 Y119.135 E0.44818
G1 X82.476 Y118.600 E0.01686
G1 X72.946 Y109.070 E0.42433
G1 X73.482 Y109.070 E0.01686
G1 X82.476 Y118.064 E0.40049
G1 X82.476 Y117.529 E0.01686
G1 X74.017 Y109.070 E0.37664
G1 X74.553 Y109.070 E0.01686
G1 X82.476 Y116.993 E0.35280
G1 X82.476 Y116.458 E0.01686
G1 X75.088 Y109.070 E0.32895
G1 X75.624 Y109.070 E0.01686
G1 X82.476 Y115.922 E0.30511
G1 X82.476 Y115.387 E0.01686
G1 X76.159 Y109.070 E0.28127
G1 X76.695 Y109.070 E0.01686
G1 X82.476 Y114.851 E0.25742
G1 X82.476 Y114.316 E0.01686
G1 X77.230 Y109.070 E0.23358
G1 X77.766 Y109.070 E0.01686
G1 X82.476 Y113.780 E0.20973
G1 X82.476 Y113.245 E0.01686
G1 X78.301 Y109.070 E0.18589
G1 X78.837 Y109.070 E0.01686
G1 X82.476 Y112.709 E0.16204
G1 X82.476 Y112.174 E0.01686
G1 X79.372 Y109.070 E0.13820
G1 X79.908 Y109.070 E0.01686
G1 X82.476 Y111.638 E0.11436
G1 X82.476 Y111.103 E0.01686
G1 X80.443 Y109.070 E0.09051
G1 X80.979 Y109.070 E0.01686
G1 X82.476 Y110.567 E0.06667
G1 X82.476 Y110.032 E0.01686
G1 X81.514 Y109.070 E0.04282
G1 X82.050 Y109.070 E0.01686
G1 X82.646 Y109.666 E0.02654
; stop printing object GOZLockSignMarquee-TB+BLK.stl id:0 copy 1
; printing object GOZLockSignMarquee-TB+BLK.stl id:0 copy 0
G1 F8640.000
G1 X82.050 Y109.070 E-0.19460
G1 X81.514 Y109.070 E-0.12365
G1 X82.476 Y110.032 E-0.31405
G1 X82.476 Y110.567 E-0.12365
G1 X82.464 Y110.555 E-0.00405
G1 E-0.04000 F2100.00000
G1 Z0.600 F10800.000
G1 X90.335 Y108.787
G1 Z0.200
G1 E0.80000 F2100.00000
G1 F1200.000
G1 X121.213 Y108.787 E0.96815
G1 X121.213 Y167.715 E1.84764
G1 X90.335 Y167.715 E0.96815
G1 X90.335 Y108.847 E1.84576
G1 X89.958 Y108.410 F10800.000
G1 F1200.000
G1 X121.590 Y108.410 E0.99180
M73 Q3 S150
G1 X121.590 Y168.092 E1.87129
M73 P3 R150
G1 X89.958 Y168.092 E0.99180
G1 X89.958 Y108.470 E1.86941
G1 X90.332 Y108.551 F10800.000
G1 F8640.000
G1 X93.249 Y108.464 E-0.76000
G1 E-0.04000 F2100.00000
G1 Z0.600 F10800.000
G1 X90.448 Y166.836
G1 Z0.200
G1 E0.80000 F2100.00000
G1 F1200.000
G1 X91.044 Y167.432 E0.02653
G1 X91.580 Y167.432 E0.01686
G1 X90.618 Y166.470 E0.04282
G1 X90.618 Y165.935 E0.01686
G1 X92.115 Y167.432 E0.06666
G1 X92.651 Y167.432 E0.01686
G1 X90.618 Y165.399 E0.09051
G1 X90.618 Y164.864 E0.01686
G1 X93.186 Y167.432 E0.11435
G1 X93.722 Y167.432 E0.01686
G1 X90.618 Y164.328 E0.13820
G1 X90.618 Y163.793 E0.01686
G1 X94.257 Y167.432 E0.16204
G1 X94.793 Y167.432 E0.01686
G1 X90.618 Y163.257 E0.18589
G1 X90.618 Y162.722 E0.01686
G1 X95.328 Y167.432 E0.20973
G1 X95.864 Y167.432 E0.01686
G1 X90.618 Y162.186 E0.23357
G1 X90.618 Y161.651 E0.01686
G1 X96.399 Y167.432 E0.25742
G1 X96.935 Y167.432 E0.01686
G1 X90.618 Y161.115 E0.28126
G1 X90.618 Y160.580 E0.01686
G1 X97.470 Y167.432 E0.30511
G1 X98.006 Y167.432 E0.01686
G1 X90.618 Y160.044 E0.32895
G1 X90.618 Y159.509 E0.01686
G1 X98.541 Y167.432 E0.35280
G1 X99.077 Y167.432 E0.01686
G1 X90.618 Y158.973 E0.37664
G1 X90.618 Y158.438 E0.01686
G1 X99.612 Y167.432 E0.40048
G1 X100.148 Y167.432 E0.01686
G1 X90.618 Y157.902 E0.42433
G1 X90.618 Y157.367 E0.01686
G1 X100.683 Y167.432 E0.44817
G1 X101.219 Y167.432 E0.01686
G1 X90.618 Y156.831 E0.47202
G1 X90.618 Y156.296 E0.01686
G1 X101.754 Y167.432 E0.49586
G1 X102.290 Y167.432 E0.01686
G1 X90.618 Y155.760 E0.51971
G1 X90.618 Y155.225 E0.01686
G1 X102.825 Y167.432 E0.54355
G1 X103.361 Y167.432 E0.01686
G1 X90.618 Y154.689 E0.56739
G1 X90.618 Y154.154 E0.01686
G1 X103.896 Y167.432 E0.59124
G1 X104.432 Y167.432 E0.01686
G1 X90.618 Y153.618 E0.61508
G1 X90.618 Y153.083 E0.01686
G1 X104.967 Y167.432 E0.63893
G1 X105.503 Y167.432 E0.01686
G1 X90.618 Y152.547 E0.66277
G1 X90.618 Y152.012 E0.01686
G1 X106.038 Y167.432 E0.68662
G1 X106.574 Y167.432 E0.01686
G1 X90.618 Y151.476 E0.71046
G1 X90.618 Y150.941 E0.01686
G1 X107.109 Y167.432 E0.73430
G1 X107.645 Y167.432 E0.01686
G1 X90.618 Y150.405 E0.75815
G1 X90.618 Y149.870 E0.01686
G1 X108.180 Y167.432 E0.78199
G1 X108.716 Y167.432 E0.01686
G1 X90.618 Y149.334 E0.80584
G1 X90.618 Y148.799 E0.01686
G1 X109.251 Y167.432 E0.82968
G1 X109.787 Y167.432 E0.01686
G1 X90.618 Y148.263 E0.85353
G1 X90.618 Y147.728 E0.01686
G1 X110.322 Y167.432 E0.87737
G1 X110.858 Y167.432 E0.01686
G1 X90.618 Y147.192 E0.90121
G1 X90.618 Y146.657 E0.01686
G1 X111.393 Y167.432 E0.92506
G1 X111.929 Y167.432 E0.01686
G1 X90.618 Y146.121 E0.94890
G1 X90.618 Y145.586 E0.01686
G1 X112.464 Y167.432 E0.97275
