; generated by PrusaSlicer 2.1.1+win64 on 2020-04-28 at 16:49:57 UTC

; 

; external perimeters extrusion width = 0.45mm
; perimeters extrusion width = 0.45mm
; infill extrusion width = 0.45mm
; solid infill extrusion width = 0.45mm
; top infill extrusion width = 0.40mm
; support material extrusion width = 0.35mm
; first layer extrusion width = 0.42mm

M73 P0 R300
M73 Q0 S305
M201 X1000 Y1000 Z1000 E5000 ; sets maximum accelerations, mm/sec^2
M203 X200 Y200 Z12 E120 ; sets maximum feedrates, mm/sec
M204 P1250 R1250 T1250 ; sets acceleration (P, T) and retract acceleration (R), mm/sec^2
M205 X8.00 Y8.00 Z0.40 E1.50 ; sets the jerk limits, mm/sec
M205 S0 T0 ; sets the minimum extruding and travel feed rate, mm/sec
M107
M862.3 P "MK3S" ; printer model check
M862.1 P0.4 ; nozzle diameter check
M115 U3.8.0 ; tell printer latest fw version
G90 ; use absolute coordinates
M83 ; extruder relative mode
M104 S215 ; set extruder temp
M140 S60 ; set bed temp
M190 S60 ; wait for bed temp
M109 S215 ; wait for extruder temp
G28 W ; home all without mesh bed level
G80 ; mesh bed leveling
G1 Y-3.0 F1000.0 ; go outside print area
G92 E0.0
G1 X60.0 E9.0 F1000.0 ; intro line
M73 Q0 S305
M73 P0 R300
G1 X100.0 E12.5 F1000.0 ; intro line
G92 E0.0
M221 S95
G21 ; set units to millimeters
G90 ; use absolute coordinates
M83 ; use relative distances for extrusion
M900 K30 ; Filament gcode
;BEFORE_LAYER_CHANGE
G92 E0.0
;0.2


G1 E-0.80000 F2100.00000
G1 Z0.600 F10800.000
;AFTER_LAYER_CHANGE
;0.2
G1 X129.945 Y75.238
G1 Z0.200
G1 E0.80000 F2100.00000
M204 S1000
G1 F1200
G1 X128.778 Y76.404 E0.05174
G1 X128.778 Y76.426 E0.00067
G1 X129.823 Y76.426 E0.03277
G1 X130.842 Y75.407 E0.04517
G1 X131.908 Y75.407 E0.03344
G1 X130.890 Y76.426 E0.04517
G1 X131.956 Y76.426 E0.03344
G1 X132.975 Y75.407 E0.04517
G1 X134.041 Y75.407 E0.03344
G1 X133.023 Y76.426 E0.04517
G1 X134.089 Y76.426 E0.03344
G1 X135.108 Y75.407 E0.04517
G1 X136.174 Y75.407 E0.03344
G1 X135.156 Y76.426 E0.04517
G1 X136.222 Y76.426 E0.03344
G1 X137.241 Y75.407 E0.04517
G1 X138.307 Y75.407 E0.03344
G1 X137.289 Y76.426 E0.04517
G1 X138.355 Y76.426 E0.03344
G1 X139.357 Y75.425 E0.04439
G1 X139.890 Y75.958 E0.02365
G1 X139.252 Y76.596 E0.02827
G1 E-0.80000 F2100.00000
G1 Z0.800 F10800.000
G1 X142.452 Y76.596
G1 Z0.200
G1 E0.80000 F2100.00000
G1 F1200
G1 X143.241 Y75.807 E0.03499
G1 E-0.80000 F2100.00000
G1 Z0.800 F10800.000
G1 X145.652 Y76.596
G1 Z0.200
G1 E0.80000 F2100.00000
G1 F1200
G1 X146.472 Y75.775 E0.03639
G1 E-0.80000 F2100.00000
G1 Z0.800 F10800.000
G1 X148.851 Y76.596
G1 Z0.200
G1 E0.80000 F2100.00000
G1 F1200
G1 X149.583 Y75.863 E0.03246
G1 X150.117 Y76.397 E0.02365
G1 X149.918 Y76.596 E0.00882
G1 E-0.80000 F2100.00000
G1 Z0.800 F10800.000
G1 X152.051 Y76.596
G1 Z0.200
G1 E0.80000 F2100.00000
G1 F1200
G1 X152.814 Y75.832 E0.03386
G1 X153.348 Y76.365 E0.02365
G1 X153.117 Y76.596 E0.01022
G1 E-0.80000 F2100.00000
G1 Z0.800 F10800.000
G1 X155.250 Y76.596
G1 Z0.200
G1 E0.80000 F2100.00000
G1 F1200
G1 X156.046 Y75.800 E0.03526
G1 X156.579 Y76.334 E0.02365
G1 X156.317 Y76.596 E0.01162
G1 E-0.80000 F2100.00000
G1 Z0.800 F10800.000
G1 X158.450 Y76.596
G1 Z0.200
G1 E0.80000 F2100.00000
G1 F1200
G1 X159.277 Y75.769 E0.03666
G1 X159.810 Y76.302 E0.02365
G1 X159.517 Y76.596 E0.01301
G1 E-0.80000 F2100.00000
G1 Z0.800 F10800.000
G1 X161.650 Y76.596
G1 Z0.200
G1 E0.80000 F2100.00000
G1 F1200
G1 X162.508 Y75.737 E0.03806
G1 X163.041 Y76.271 E0.02365
G1 X162.716 Y76.596 E0.01441
G1 E-0.80000 F2100.00000
G1 Z0.800 F10800.000
G1 X164.849 Y76.596
G1 Z0.200
G1 E0.80000 F2100.00000
G1 F1200
G1 X165.739 Y75.706 E0.03946
G1 X166.272 Y76.239 E0.02365
G1 X165.916 Y76.596 E0.01581
G1 E-0.80000 F2100.00000
G1 Z0.800 F10800.000
G1 X168.049 Y76.596
G1 Z0.200
G1 E0.80000 F2100.00000
G1 F1200
G1 X168.970 Y75.674 E0.04086
G1 X169.504 Y76.207 E0.02365
G1 X169.115 Y76.596 E0.01721
G1 E-0.80000 F2100.00000
G1 Z0.800 F10800.000
G1 X171.249 Y76.596
G1 Z0.200
G1 E0.80000 F2100.00000
G1 F1200
G1 X172.201 Y75.643 E0.04225
G1 X172.735 Y76.176 E0.02365
G1 X172.315 Y76.596 E0.01861
G1 E-0.80000 F2100.00000
G1 Z0.800 F10800.000
G1 X175.515 Y76.596
G1 Z0.200
G1 E0.80000 F2100.00000
G1 F1200
G1 X176.086 Y76.024 E0.02533
G1 E-0.80000 F2100.00000
G1 Z0.800 F10800.000
G1 X178.714 Y76.596
G1 Z0.200
G1 E0.80000 F2100.00000
G1 F1200
G1 X179.317 Y75.993 E0.02673
G1 E-0.80000 F2100.00000
G1 Z0.800 F10800.000
G1 X181.914 Y76.596
G1 Z0.200
G1 E0.80000 F2100.00000
G1 F1200
G1 X182.548 Y75.961 E0.02812
G1 E-0.80000 F2100.00000
G1 Z0.800 F10800.000
G1 X185.114 Y76.596
G1 Z0.200
G1 E0.80000 F2100.00000
G1 F1200
G1 X185.779 Y75.930 E0.02952
G1 E-0.80000 F2100.00000
G1 Z0.800 F10800.000
G1 X185.290 Y84.951
G1 Z0.200
G1 E0.80000 F2100.00000
G1 F1200
G1 X186.222 Y84.019 E0.04132
G1 X186.222 Y82.953 E0.03344
G1 X184.393 Y84.782 E0.08109
G1 X183.327 Y84.782 E0.03344
G1 X186.222 Y81.886 E0.12838
G1 X186.222 Y80.820 E0.03344
G1 X182.260 Y84.782 E0.17567
G1 X181.194 Y84.782 E0.03344
G1 X186.222 Y79.753 E0.22297
G1 X186.222 Y78.687 E0.03344
G1 X180.127 Y84.782 E0.27026
G1 X179.061 Y84.782 E0.03344
G1 X185.436 Y78.407 E0.28268
G1 X184.369 Y78.407 E0.03344
G1 X177.994 Y84.782 E0.28268
G1 X176.928 Y84.782 E0.03344
G1 X183.303 Y78.407 E0.28268
G1 X182.236 Y78.407 E0.03344
G1 X175.861 Y84.782 E0.28268
G1 X174.794 Y84.782 E0.03344
G1 X181.169 Y78.407 E0.28268
G1 X180.103 Y78.407 E0.03344
G1 X173.728 Y84.782 E0.28268
G1 X172.661 Y84.782 E0.03344
G1 X179.036 Y78.407 E0.28268
G1 X177.970 Y78.407 E0.03344
G1 X171.595 Y84.782 E0.28268
G1 X170.528 Y84.782 E0.03344
G1 X176.903 Y78.407 E0.28268
G1 X175.837 Y78.407 E0.03344
G1 X169.462 Y84.782 E0.28268
G1 X168.395 Y84.782 E0.03344
G1 X174.770 Y78.407 E0.28268
G1 X173.704 Y78.407 E0.03344
G1 X167.329 Y84.782 E0.28268
G1 X166.262 Y84.782 E0.03344
G1 X172.637 Y78.407 E0.28268
G1 X171.571 Y78.407 E0.03344
G1 X165.196 Y84.782 E0.28268
G1 X164.129 Y84.782 E0.03344
G1 X170.504 Y78.407 E0.28268
G1 X169.438 Y78.407 E0.03344
G1 X163.063 Y84.782 E0.28268
G1 X161.996 Y84.782 E0.03344
G1 X168.371 Y78.407 E0.28268
G1 X167.304 Y78.407 E0.03344
G1 X160.929 Y84.782 E0.28268
G1 X159.863 Y84.782 E0.03344
G1 X166.238 Y78.407 E0.28268
G1 X165.171 Y78.407 E0.03344
G1 X158.796 Y84.782 E0.28268
G1 X157.730 Y84.782 E0.03344
G1 X164.105 Y78.407 E0.28268
G1 X163.038 Y78.407 E0.03344
G1 X156.663 Y84.782 E0.28268
G1 X155.597 Y84.782 E0.03344
G1 X161.972 Y78.407 E0.28268
G1 X160.905 Y78.407 E0.03344
G1 X154.530 Y84.782 E0.28268
G1 X153.464 Y84.782 E0.03344
G1 X159.839 Y78.407 E0.28268
G1 X158.772 Y78.407 E0.03344
G1 X152.397 Y84.782 E0.28268
G1 X151.331 Y84.782 E0.03344
G1 X157.706 Y78.407 E0.28268
G1 X156.639 Y78.407 E0.03344
G1 X150.264 Y84.782 E0.28268
G1 X149.197 Y84.782 E0.03344
G1 X155.572 Y78.407 E0.28268
G1 X154.506 Y78.407 E0.03344
G1 X148.131 Y84.782 E0.28268
G1 X147.064 Y84.782 E0.03344
G1 X153.439 Y78.407 E0.28268
G1 X152.373 Y78.407 E0.03344
G1 X145.998 Y84.782 E0.28268
G1 X144.931 Y84.782 E0.03344
G1 X151.306 Y78.407 E0.28268
G1 X150.240 Y78.407 E0.03344
G1 X143.865 Y84.782 E0.28268
G1 X142.798 Y84.782 E0.03344
G1 X149.173 Y78.407 E0.28268
G1 X148.107 Y78.407 E0.03344
G1 X141.732 Y84.782 E0.28268
G1 X140.665 Y84.782 E0.03344
G1 X147.040 Y78.407 E0.28268
G1 X145.974 Y78.407 E0.03344
G1 X139.599 Y84.782 E0.28268
G1 X138.532 Y84.782 E0.03344
G1 X144.907 Y78.407 E0.28268
G1 X143.840 Y78.407 E0.03344
G1 X137.466 Y84.782 E0.28268
G1 X136.399 Y84.782 E0.03344
G1 X142.774 Y78.407 E0.28268
G1 X141.707 Y78.407 E0.03344
G1 X135.332 Y84.782 E0.28268
G1 X134.266 Y84.782 E0.03344
G1 X140.641 Y78.407 E0.28268
G1 X139.574 Y78.407 E0.03344
G1 X133.199 Y84.782 E0.28268
G1 X132.133 Y84.782 E0.03344
G1 X138.508 Y78.407 E0.28268
G1 X137.441 Y78.407 E0.03344
G1 X131.778 Y84.070 E0.25112
G1 X131.778 Y83.003 E0.03344
G1 X136.375 Y78.407 E0.20383
G1 X135.308 Y78.407 E0.03344
G1 X131.778 Y81.937 E0.15654
G1 X131.778 Y80.870 E0.03344
G1 X134.242 Y78.407 E0.10925
G1 X133.175 Y78.407 E0.03344
G1 X131.778 Y79.804 E0.06196
G1 X131.778 Y78.737 E0.03344
G1 X132.278 Y78.237 E0.02219
G1 E-0.80000 F2100.00000
G1 Z0.800 F10800.000
G1 X159.000 Y102.003
G1 Z0.200
G1 E0.80000 F2100.00000
G1 F1200
G1 X127.140 Y102.003 E0.99896
G1 X127.227 Y77.162 E0.77889
G1 X190.773 Y77.162 E1.99247
G1 X190.860 Y102.003 E0.77889
G1 X159.060 Y102.003 E0.99708
G1 X158.729 Y101.709 F10800.000
G1 X159.000 Y101.626
G1 F1200
G1 X127.518 Y101.626 E0.98709
G1 X127.602 Y77.539 E0.75524
G1 X130.665 Y77.539 E0.09602
G1 X130.665 Y85.895 E0.26199
G1 X187.335 Y85.895 E1.77686
G1 X187.335 Y77.539 E0.26199
G1 X190.398 Y77.539 E0.09602
G1 X190.482 Y101.626 E0.75524
G1 X159.060 Y101.626 E0.98521
G1 E-0.80000 F2100.00000
G1 Z0.800 F10800.000
G1 X159.000 Y85.518
G1 Z0.200
G1 E0.80000 F2100.00000
G1 F1200
G1 X131.042 Y85.518 E0.87661
G1 X131.042 Y77.671 E0.24604
G1 X186.958 Y77.671 E1.75322
M73 Q0 S304
M73 P0 R299
G1 X186.958 Y85.518 E0.24604
G1 X159.060 Y85.518 E0.87473
G1 X158.832 Y85.881 F10800.000
G1 E-0.80000 F2100.00000
G1 Z0.800 F10800.000
G1 X145.500 Y101.513
G1 Z0.200
G1 E0.80000 F2100.00000
G1 F1200
G1 X127.863 Y83.876 E0.78386
G1 X127.861 Y84.409 E0.01674
G1 X144.796 Y101.343 E0.75264
G1 X144.261 Y101.343 E0.01680
G1 X127.859 Y84.942 E0.72897
G1 X127.857 Y85.474 E0.01674
G1 X143.727 Y101.343 E0.70530
G1 X143.192 Y101.343 E0.01680
G1 X127.856 Y86.007 E0.68162
G1 X127.854 Y86.539 E0.01674
G1 X142.658 Y101.343 E0.65795
G1 X142.123 Y101.343 E0.01680
G1 X127.852 Y87.072 E0.63428
G1 X127.850 Y87.605 E0.01674
G1 X141.589 Y101.343 E0.61060
G1 X141.054 Y101.343 E0.01680
G1 X127.848 Y88.137 E0.58693
G1 X127.846 Y88.670 E0.01674
G1 X140.520 Y101.343 E0.56326
G1 X139.985 Y101.343 E0.01680
G1 X127.844 Y89.203 E0.53959
G1 X127.842 Y89.735 E0.01674
G1 X139.451 Y101.343 E0.51591
G1 X138.916 Y101.343 E0.01680
G1 X127.841 Y90.268 E0.49224
G1 X127.839 Y90.801 E0.01674
G1 X138.382 Y101.343 E0.46857
G1 X137.847 Y101.343 E0.01680
G1 X127.837 Y91.333 E0.44490
G1 X127.835 Y91.866 E0.01674
G1 X137.313 Y101.343 E0.42122
G1 X136.778 Y101.343 E0.01680
G1 X127.833 Y92.399 E0.39755
G1 X127.831 Y92.931 E0.01674
G1 X136.244 Y101.343 E0.37388
G1 X135.709 Y101.343 E0.01680
G1 X127.829 Y93.464 E0.35020
G1 X127.828 Y93.996 E0.01674
G1 X135.175 Y101.343 E0.32653
G1 X134.640 Y101.343 E0.01680
G1 X127.826 Y94.529 E0.30286
G1 X127.824 Y95.062 E0.01674
G1 X134.106 Y101.343 E0.27919
G1 X133.571 Y101.343 E0.01680
G1 X127.822 Y95.594 E0.25551
G1 X127.820 Y96.127 E0.01674
G1 X133.037 Y101.343 E0.23184
G1 X132.502 Y101.343 E0.01680
G1 X127.818 Y96.660 E0.20817
G1 X127.816 Y97.192 E0.01674
G1 X131.968 Y101.343 E0.18449
G1 X131.433 Y101.343 E0.01680
G1 X127.815 Y97.725 E0.16082
G1 X127.813 Y98.258 E0.01674
G1 X130.899 Y101.343 E0.13715
G1 X130.364 Y101.343 E0.01680
G1 X127.811 Y98.790 E0.11348
G1 X127.809 Y99.323 E0.01674
G1 X129.830 Y101.343 E0.08980
G1 X129.295 Y101.343 E0.01680
G1 X127.807 Y99.855 E0.06613
G1 X127.805 Y100.388 E0.01674
G1 X128.761 Y101.343 E0.04246
G1 X128.226 Y101.343 E0.01680
G1 X127.634 Y100.752 E0.02630
G1 E-0.80000 F2100.00000
G1 Z0.800 F10800.000
G1 X130.552 Y78.013
G1 Z0.200
G1 E0.80000 F2100.00000
G1 F1200
G1 X130.361 Y77.822 E0.00849
G1 X129.826 Y77.822 E0.01680
G1 X130.382 Y78.378 E0.02471
G1 X130.382 Y78.912 E0.01680
G1 X129.292 Y77.822 E0.04846
G1 X128.757 Y77.822 E0.01680
G1 X130.382 Y79.447 E0.07222
G1 X130.382 Y79.981 E0.01680
G1 X128.223 Y77.822 E0.09597
G1 X127.884 Y77.822 E0.01064
G1 X127.883 Y78.017 E0.00614
G1 X130.382 Y80.516 E0.11104
G1 X130.382 Y81.050 E0.01680
G1 X127.882 Y78.550 E0.11113
G1 X127.880 Y79.082 E0.01674
G1 X130.382 Y81.585 E0.11121
G1 X130.382 Y82.119 E0.01680
G1 X127.878 Y79.615 E0.11129
G1 X127.876 Y80.148 E0.01674
G1 X130.382 Y82.654 E0.11137
G1 X130.382 Y83.188 E0.01680
G1 X127.874 Y80.680 E0.11146
G1 X127.872 Y81.213 E0.01674
G1 X130.382 Y83.723 E0.11154
G1 X130.382 Y84.257 E0.01680
G1 X127.870 Y81.746 E0.11162
G1 X127.869 Y82.278 E0.01674
G1 X130.382 Y84.792 E0.11171
G1 X130.382 Y85.326 E0.01680
G1 X127.867 Y82.811 E0.11179
G1 X127.865 Y83.344 E0.01674
G1 X145.865 Y101.343 E0.79999
G1 X146.399 Y101.343 E0.01680
G1 X131.233 Y86.177 E0.67404
G1 X131.768 Y86.177 E0.01680
G1 X146.934 Y101.343 E0.67404
G1 X147.468 Y101.343 E0.01680
G1 X132.302 Y86.177 E0.67404
G1 X132.837 Y86.177 E0.01680
G1 X148.003 Y101.343 E0.67404
G1 X148.537 Y101.343 E0.01680
G1 X133.371 Y86.177 E0.67404
G1 X133.906 Y86.177 E0.01680
G1 X149.072 Y101.343 E0.67404
G1 X149.606 Y101.343 E0.01680
G1 X134.440 Y86.177 E0.67404
G1 X134.975 Y86.177 E0.01680
G1 X150.141 Y101.343 E0.67404
G1 X150.675 Y101.343 E0.01680
G1 X135.509 Y86.177 E0.67404
G1 X136.044 Y86.177 E0.01680
G1 X151.210 Y101.343 E0.67404
G1 X151.744 Y101.343 E0.01680
G1 X136.578 Y86.177 E0.67404
G1 X137.113 Y86.177 E0.01680
G1 X152.279 Y101.343 E0.67404
G1 X152.813 Y101.343 E0.01680
G1 X137.647 Y86.177 E0.67404
G1 X138.182 Y86.177 E0.01680
G1 X153.348 Y101.343 E0.67404
G1 X153.882 Y101.343 E0.01680
G1 X138.716 Y86.177 E0.67404
G1 X139.251 Y86.177 E0.01680
G1 X154.417 Y101.343 E0.67404
G1 X154.951 Y101.343 E0.01680
G1 X139.785 Y86.177 E0.67404
G1 X140.320 Y86.177 E0.01680
G1 X155.486 Y101.343 E0.67404
G1 X156.020 Y101.343 E0.01680
G1 X140.854 Y86.177 E0.67404
G1 X141.389 Y86.177 E0.01680
G1 X156.555 Y101.343 E0.67404
G1 X157.089 Y101.343 E0.01680
G1 X141.923 Y86.177 E0.67404
G1 X142.458 Y86.177 E0.01680
G1 X157.624 Y101.343 E0.67404
G1 X158.158 Y101.343 E0.01680
G1 X142.992 Y86.177 E0.67404
G1 X143.527 Y86.177 E0.01680
G1 X158.693 Y101.343 E0.67404
G1 X159.227 Y101.343 E0.01680
G1 X144.061 Y86.177 E0.67404
G1 X144.596 Y86.177 E0.01680
G1 X159.762 Y101.343 E0.67404
G1 X160.296 Y101.343 E0.01680
G1 X145.130 Y86.177 E0.67404
G1 X145.665 Y86.177 E0.01680
G1 X160.831 Y101.343 E0.67404
M73 Q0 S303
M73 P0 R298
G1 X161.365 Y101.343 E0.01680
G1 X146.199 Y86.177 E0.67404
G1 X146.734 Y86.177 E0.01680
G1 X161.900 Y101.343 E0.67404
G1 X162.434 Y101.343 E0.01680
G1 X147.268 Y86.177 E0.67404
G1 X147.803 Y86.177 E0.01680
G1 X162.969 Y101.343 E0.67404
G1 X163.503 Y101.343 E0.01680
G1 X148.337 Y86.177 E0.67404
G1 X148.872 Y86.177 E0.01680
G1 X164.038 Y101.343 E0.67404
G1 X164.572 Y101.343 E0.01680
G1 X149.406 Y86.177 E0.67404
G1 X149.941 Y86.177 E0.01680
G1 X165.107 Y101.343 E0.67404
G1 X165.641 Y101.343 E0.01680
G1 X150.475 Y86.177 E0.67404
G1 X151.010 Y86.177 E0.01680
G1 X166.176 Y101.343 E0.67404
G1 X166.710 Y101.343 E0.01680
G1 X151.544 Y86.177 E0.67404
G1 X152.079 Y86.177 E0.01680
G1 X167.245 Y101.343 E0.67404
G1 X167.779 Y101.343 E0.01680
G1 X152.613 Y86.177 E0.67404
G1 X153.148 Y86.177 E0.01680
G1 X168.314 Y101.343 E0.67404
G1 X168.848 Y101.343 E0.01680
G1 X153.682 Y86.177 E0.67404
G1 X154.217 Y86.177 E0.01680
G1 X169.383 Y101.343 E0.67404
G1 X169.917 Y101.343 E0.01680
G1 X154.751 Y86.177 E0.67404
G1 X155.286 Y86.177 E0.01680
G1 X170.452 Y101.343 E0.67404
G1 X170.986 Y101.343 E0.01680
G1 X155.820 Y86.177 E0.67404
G1 X156.355 Y86.177 E0.01680
G1 X171.521 Y101.343 E0.67404
G1 X172.055 Y101.343 E0.01680
G1 X156.889 Y86.177 E0.67404
G1 X157.424 Y86.177 E0.01680
G1 X172.590 Y101.343 E0.67404
G1 X173.124 Y101.343 E0.01680
G1 X157.958 Y86.177 E0.67404
G1 X158.493 Y86.177 E0.01680
G1 X173.659 Y101.343 E0.67404
G1 X174.193 Y101.343 E0.01680
G1 X159.027 Y86.178 E0.67404
G1 X159.562 Y86.178 E0.01680
G1 X174.728 Y101.343 E0.67404
G1 X175.262 Y101.343 E0.01680
G1 X160.096 Y86.178 E0.67404
G1 X160.631 Y86.178 E0.01680
G1 X175.797 Y101.343 E0.67404
G1 X176.331 Y101.343 E0.01680
G1 X161.165 Y86.178 E0.67404
G1 X161.700 Y86.178 E0.01680
G1 X176.866 Y101.343 E0.67404
G1 X177.400 Y101.343 E0.01680
G1 X162.234 Y86.178 E0.67404
G1 X162.769 Y86.178 E0.01680
G1 X177.935 Y101.343 E0.67404
G1 X178.469 Y101.343 E0.01680
G1 X163.303 Y86.178 E0.67404
G1 X163.838 Y86.178 E0.01680
G1 X179.004 Y101.343 E0.67404
G1 X179.538 Y101.343 E0.01680
G1 X164.372 Y86.178 E0.67404
G1 X164.907 Y86.178 E0.01680
G1 X180.073 Y101.343 E0.67404
G1 X180.607 Y101.343 E0.01680
G1 X165.441 Y86.178 E0.67404
G1 X165.976 Y86.178 E0.01680
G1 X181.142 Y101.343 E0.67404
G1 X181.676 Y101.343 E0.01680
G1 X166.510 Y86.178 E0.67404
G1 X167.045 Y86.178 E0.01680
G1 X182.211 Y101.343 E0.67404
