; generated by PrusaSlicer 2.2.0+win64 on 2021-01-15 at 21:17:28 UTC

; 

; external perimeters extrusion width = 0.45mm
; perimeters extrusion width = 0.45mm
; infill extrusion width = 0.45mm
; solid infill extrusion width = 0.45mm
; top infill extrusion width = 0.40mm
; first layer extrusion width = 0.42mm

M73 P0 R265
M73 Q0 S270
M201 X1000 Y1000 Z1000 E5000 ; sets maximum accelerations, mm/sec^2
M203 X200 Y200 Z12 E120 ; sets maximum feedrates, mm/sec
M204 P1250 R1250 T1250 ; sets acceleration (P, T) and retract acceleration (R), mm/sec^2
M205 X8.00 Y8.00 Z0.40 E1.50 ; sets the jerk limits, mm/sec
M205 S0 T0 ; sets the minimum extruding and travel feed rate, mm/sec
M107
M862.3 P "MK3S" ; printer model check
M862.1 P0.4 ; nozzle diameter check
M115 U3.8.0 ; tell printer latest fw version
G90 ; use absolute coordinates
M83 ; extruder relative mode
M104 S215 ; set extruder temp
M140 S60 ; set bed temp
M190 S60 ; wait for bed temp
M109 S215 ; wait for extruder temp
G28 W ; home all without mesh bed level
G80 ; mesh bed leveling
G1 Y-3.0 F1000.0 ; go outside print area
G92 E0.0
G1 X60.0 E9.0 F1000.0 ; intro line
M73 Q0 S270
M73 P0 R265
G1 X100.0 E12.5 F1000.0 ; intro line
G92 E0.0
M221 S95
G21 ; set units to millimeters
G90 ; use absolute coordinates
M83 ; use relative distances for extrusion
M900 K0.05 ; Filament gcode LA 1.5
M900 K30 ; Filament gcode LA 1.0
;BEFORE_LAYER_CHANGE
G92 E0.0
;0.2


G1 E-0.80000 F2100.00000
G1 Z0.600 F10800.000
;AFTER_LAYER_CHANGE
;0.2
G1 X59.087 Y85.615
G1 Z0.200
G1 E0.80000 F2100.00000
M204 S1000
G1 F1200.000
G1 X119.913 Y85.615 E1.90715
G1 X119.913 Y140.441 E1.71903
G1 X59.087 Y140.441 E1.90715
G1 X59.087 Y85.675 E1.71714
G1 X58.710 Y85.238 F10800.000
G1 F1200.000
G1 X120.290 Y85.238 E1.93080
G1 X120.290 Y140.818 E1.74267
G1 X58.710 Y140.818 E1.93080
G1 X58.710 Y85.298 E1.74079
G1 X59.098 Y85.335 F10800.000
G1 E-0.80000 F2100.00000
G1 Z0.800 F10800.000
G1 X119.800 Y86.491
G1 Z0.200
G1 E0.80000 F2100.00000
G1 F1200.000
G1 X119.207 Y85.898 E0.02632
G1 X118.673 Y85.898 E0.01675
G1 X119.630 Y86.855 E0.04248
G1 X119.630 Y87.389 E0.01675
G1 X118.139 Y85.898 E0.06616
G1 X117.606 Y85.898 E0.01675
G1 X119.630 Y87.922 E0.08984
G1 X119.630 Y88.456 E0.01675
G1 X117.072 Y85.898 E0.11352
G1 X116.538 Y85.898 E0.01675
G1 X119.630 Y88.990 E0.13720
G1 X119.630 Y89.523 E0.01675
G1 X116.005 Y85.898 E0.16089
G1 X115.471 Y85.898 E0.01675
G1 X119.630 Y90.057 E0.18457
G1 X119.630 Y90.591 E0.01675
G1 X114.937 Y85.898 E0.20825
G1 X114.404 Y85.898 E0.01675
G1 X119.630 Y91.124 E0.23193
G1 X119.630 Y91.658 E0.01675
G1 X113.870 Y85.898 E0.25562
G1 X113.336 Y85.898 E0.01675
G1 X119.630 Y92.192 E0.27930
G1 X119.630 Y92.725 E0.01675
G1 X112.802 Y85.898 E0.30298
G1 X112.269 Y85.898 E0.01675
G1 X119.630 Y93.259 E0.32666
G1 X119.630 Y93.793 E0.01675
G1 X111.735 Y85.898 E0.35034
G1 X111.201 Y85.898 E0.01675
G1 X119.630 Y94.326 E0.37403
G1 X119.630 Y94.860 E0.01675
G1 X110.668 Y85.898 E0.39771
G1 X110.134 Y85.898 E0.01675
G1 X119.630 Y95.394 E0.42139
G1 X119.630 Y95.928 E0.01675
G1 X109.600 Y85.898 E0.44507
G1 X109.067 Y85.898 E0.01675
G1 X119.630 Y96.461 E0.46876
G1 X119.630 Y96.995 E0.01675
G1 X108.533 Y85.898 E0.49244
G1 X107.999 Y85.898 E0.01675
G1 X119.630 Y97.529 E0.51612
G1 X119.630 Y98.062 E0.01675
G1 X107.466 Y85.898 E0.53980
G1 X106.932 Y85.898 E0.01675
G1 X119.630 Y98.596 E0.56348
G1 X119.630 Y99.130 E0.01675
G1 X106.398 Y85.898 E0.58717
G1 X105.865 Y85.898 E0.01675
G1 X119.630 Y99.663 E0.61085
G1 X119.630 Y100.197 E0.01675
G1 X105.331 Y85.898 E0.63453
G1 X104.797 Y85.898 E0.01675
G1 X119.630 Y100.731 E0.65821
G1 X119.630 Y101.264 E0.01675
G1 X104.264 Y85.898 E0.68189
G1 X103.730 Y85.898 E0.01675
G1 X119.630 Y101.798 E0.70558
G1 X119.630 Y102.332 E0.01675
G1 X103.196 Y85.898 E0.72926
G1 X102.663 Y85.898 E0.01675
G1 X119.630 Y102.865 E0.75294
G1 X119.630 Y103.399 E0.01675
G1 X102.129 Y85.898 E0.77662
G1 X101.595 Y85.898 E0.01675
G1 X119.630 Y103.933 E0.80031
G1 X119.630 Y104.466 E0.01675
G1 X101.062 Y85.898 E0.82399
G1 X100.528 Y85.898 E0.01675
G1 X119.630 Y105.000 E0.84767
G1 X119.630 Y105.534 E0.01675
G1 X99.994 Y85.898 E0.87135
G1 X99.461 Y85.898 E0.01675
G1 X119.630 Y106.067 E0.89503
G1 X119.630 Y106.601 E0.01675
G1 X98.927 Y85.898 E0.91872
G1 X98.393 Y85.898 E0.01675
G1 X119.630 Y107.135 E0.94240
M73 Q0 S269
G1 X119.630 Y107.668 E0.01675
G1 X97.860 Y85.898 E0.96608
M73 P0 R264
G1 X97.326 Y85.898 E0.01675
G1 X119.630 Y108.202 E0.98976
G1 X119.630 Y108.736 E0.01675
G1 X96.792 Y85.898 E1.01345
G1 X96.258 Y85.898 E0.01675
G1 X119.630 Y109.269 E1.03713
G1 X119.630 Y109.803 E0.01675
G1 X95.725 Y85.898 E1.06081
G1 X95.191 Y85.898 E0.01675
G1 X119.630 Y110.337 E1.08449
G1 X119.630 Y110.870 E0.01675
G1 X94.657 Y85.898 E1.10817
G1 X94.124 Y85.898 E0.01675
G1 X119.630 Y111.404 E1.13186
G1 X119.630 Y111.938 E0.01675
G1 X93.590 Y85.898 E1.15554
G1 X93.056 Y85.898 E0.01675
G1 X119.630 Y112.472 E1.17922
G1 X119.630 Y113.005 E0.01675
G1 X92.523 Y85.898 E1.20290
G1 X91.989 Y85.898 E0.01675
G1 X119.630 Y113.539 E1.22659
G1 X119.630 Y114.073 E0.01675
G1 X91.455 Y85.898 E1.25027
G1 X90.922 Y85.898 E0.01675
G1 X119.630 Y114.606 E1.27395
G1 X119.630 Y115.140 E0.01675
G1 X90.388 Y85.898 E1.29763
G1 X89.854 Y85.898 E0.01675
G1 X119.630 Y115.674 E1.32131
G1 X119.630 Y116.207 E0.01675
G1 X89.321 Y85.898 E1.34500
G1 X88.787 Y85.898 E0.01675
G1 X119.630 Y116.741 E1.36868
G1 X119.630 Y117.275 E0.01675
G1 X88.253 Y85.898 E1.39236
G1 X87.720 Y85.898 E0.01675
G1 X119.630 Y117.808 E1.41604
G1 X119.630 Y118.342 E0.01675
G1 X87.186 Y85.898 E1.43972
G1 X86.652 Y85.898 E0.01675
G1 X119.630 Y118.876 E1.46341
G1 X119.630 Y119.409 E0.01675
G1 X86.119 Y85.898 E1.48709
G1 X85.585 Y85.898 E0.01675
G1 X119.630 Y119.943 E1.51077
G1 X119.630 Y120.477 E0.01675
G1 X85.051 Y85.898 E1.53445
G1 X84.518 Y85.898 E0.01675
G1 X119.630 Y121.010 E1.55814
G1 X119.630 Y121.544 E0.01675
G1 X83.984 Y85.898 E1.58182
G1 X83.450 Y85.898 E0.01675
G1 X119.630 Y122.078 E1.60550
G1 X119.630 Y122.611 E0.01675
G1 X82.917 Y85.898 E1.62918
M73 Q0 S268
G1 X82.383 Y85.898 E0.01675
G1 X119.630 Y123.145 E1.65286
M73 P0 R263
G1 X119.630 Y123.679 E0.01675
G1 X81.849 Y85.898 E1.67655
G1 X81.316 Y85.898 E0.01675
G1 X119.630 Y124.212 E1.70023
G1 X119.630 Y124.746 E0.01675
G1 X80.782 Y85.898 E1.72391
G1 X80.248 Y85.898 E0.01675
G1 X119.630 Y125.280 E1.74759
G1 X119.630 Y125.813 E0.01675
G1 X79.714 Y85.898 E1.77128
G1 X79.181 Y85.898 E0.01675
G1 X119.630 Y126.347 E1.79496
G1 X119.630 Y126.881 E0.01675
G1 X78.647 Y85.898 E1.81864
G1 X78.113 Y85.898 E0.01675
G1 X119.630 Y127.414 E1.84232
G1 X119.630 Y127.948 E0.01675
G1 X77.580 Y85.898 E1.86600
G1 X77.046 Y85.898 E0.01675
G1 X119.630 Y128.482 E1.88969
G1 X119.630 Y129.016 E0.01675
G1 X76.512 Y85.898 E1.91337
G1 X75.979 Y85.898 E0.01675
G1 X119.630 Y129.549 E1.93705
G1 X119.630 Y130.083 E0.01675
G1 X75.445 Y85.898 E1.96073
G1 X74.911 Y85.898 E0.01675
G1 X119.630 Y130.617 E1.98442
G1 X119.630 Y131.150 E0.01675
G1 X74.378 Y85.898 E2.00810
G1 X73.844 Y85.898 E0.01675
G1 X119.630 Y131.684 E2.03178
G1 X119.630 Y132.218 E0.01675
G1 X73.310 Y85.898 E2.05546
G1 X72.777 Y85.898 E0.01675
G1 X119.630 Y132.751 E2.07914
G1 X119.630 Y133.285 E0.01675
G1 X72.243 Y85.898 E2.10283
M73 Q1 S267
G1 X71.709 Y85.898 E0.01675
G1 X119.630 Y133.819 E2.12651
M73 P1 R262
G1 X119.630 Y134.352 E0.01675
G1 X71.176 Y85.898 E2.15019
G1 X70.642 Y85.898 E0.01675
G1 X119.630 Y134.886 E2.17387
G1 X119.630 Y135.420 E0.01675
G1 X70.108 Y85.898 E2.19755
G1 X69.575 Y85.898 E0.01675
G1 X119.630 Y135.953 E2.22124
G1 X119.630 Y136.487 E0.01675
G1 X69.041 Y85.898 E2.24492
G1 X68.507 Y85.898 E0.01675
G1 X119.630 Y137.021 E2.26860
G1 X119.630 Y137.554 E0.01675
G1 X67.974 Y85.898 E2.29228
G1 X67.440 Y85.898 E0.01675
G1 X119.630 Y138.088 E2.31597
G1 X119.630 Y138.622 E0.01675
G1 X66.906 Y85.898 E2.33965
G1 X66.373 Y85.898 E0.01675
G1 X119.630 Y139.155 E2.36333
G1 X119.630 Y139.689 E0.01675
G1 X65.839 Y85.898 E2.38701
G1 X65.305 Y85.898 E0.01675
G1 X119.565 Y140.158 E2.40782
G1 X119.032 Y140.158 E0.01675
G1 X64.771 Y85.898 E2.40782
G1 X64.238 Y85.898 E0.01675
G1 X118.498 Y140.158 E2.40782
G1 X117.964 Y140.158 E0.01675
G1 X63.704 Y85.898 E2.40782
G1 X63.170 Y85.898 E0.01675
G1 X117.431 Y140.158 E2.40782
M73 Q1 S266
G1 X116.897 Y140.158 E0.01675
G1 X62.637 Y85.898 E2.40782
M73 P1 R261
G1 X62.103 Y85.898 E0.01675
G1 X116.363 Y140.158 E2.40782
G1 X115.830 Y140.158 E0.01675
G1 X61.569 Y85.898 E2.40782
G1 X61.036 Y85.898 E0.01675
G1 X115.296 Y140.158 E2.40782
G1 X114.762 Y140.158 E0.01675
G1 X60.502 Y85.898 E2.40782
G1 X59.968 Y85.898 E0.01675
G1 X114.229 Y140.158 E2.40782
G1 X113.695 Y140.158 E0.01675
G1 X59.435 Y85.898 E2.40782
G1 X59.370 Y85.898 E0.00203
G1 X59.370 Y86.367 E0.01471
G1 X113.161 Y140.158 E2.38702
G1 X112.628 Y140.158 E0.01675
G1 X59.370 Y86.900 E2.36334
G1 X59.370 Y87.434 E0.01675
G1 X112.094 Y140.158 E2.33965
G1 X111.560 Y140.158 E0.01675
G1 X59.370 Y87.968 E2.31597
G1 X59.370 Y88.501 E0.01675
G1 X111.027 Y140.158 E2.29229
G1 X110.493 Y140.158 E0.01675
G1 X59.370 Y89.035 E2.26861
G1 X59.370 Y89.569 E0.01675
G1 X109.959 Y140.158 E2.24493
G1 X109.426 Y140.158 E0.01675
G1 X59.370 Y90.102 E2.22124
G1 X59.370 Y90.636 E0.01675
G1 X108.892 Y140.158 E2.19756
M73 Q1 S265
G1 X108.358 Y140.158 E0.01675
G1 X59.370 Y91.170 E2.17388
G1 X59.370 Y91.703 E0.01675
G1 X107.825 Y140.158 E2.15020
M73 P1 R260
G1 X107.291 Y140.158 E0.01675
G1 X59.370 Y92.237 E2.12651
G1 X59.370 Y92.771 E0.01675
G1 X106.757 Y140.158 E2.10283
G1 X106.223 Y140.158 E0.01675
G1 X59.370 Y93.304 E2.07915
G1 X59.370 Y93.838 E0.01675
G1 X105.690 Y140.158 E2.05547
G1 X105.156 Y140.158 E0.01675
G1 X59.370 Y94.372 E2.03179
G1 X59.370 Y94.905 E0.01675
G1 X104.622 Y140.158 E2.00810
G1 X104.089 Y140.158 E0.01675
G1 X59.370 Y95.439 E1.98442
G1 X59.370 Y95.973 E0.01675
G1 X103.555 Y140.158 E1.96074
G1 X103.021 Y140.158 E0.01675
G1 X59.370 Y96.507 E1.93706
G1 X59.370 Y97.040 E0.01675
G1 X102.488 Y140.158 E1.91337
G1 X101.954 Y140.158 E0.01675
G1 X59.370 Y97.574 E1.88969
G1 X59.370 Y98.108 E0.01675
G1 X101.420 Y140.158 E1.86601
G1 X100.887 Y140.158 E0.01675
G1 X59.370 Y98.641 E1.84233
G1 X59.370 Y99.175 E0.01675
G1 X100.353 Y140.158 E1.81865
G1 X99.819 Y140.158 E0.01675
G1 X59.370 Y99.709 E1.79496
G1 X59.370 Y100.242 E0.01675
G1 X99.286 Y140.158 E1.77128
G1 X98.752 Y140.158 E0.01675
G1 X59.370 Y100.776 E1.74760
M73 Q2 S264
G1 X59.370 Y101.310 E0.01675
G1 X98.218 Y140.158 E1.72392
G1 X97.685 Y140.158 E0.01675
G1 X59.370 Y101.843 E1.70024
G1 X59.370 Y102.377 E0.01675
G1 X97.151 Y140.158 E1.67655
M73 P2 R258
G1 X96.617 Y140.158 E0.01675
G1 X59.370 Y102.911 E1.65287
G1 X59.370 Y103.444 E0.01675
G1 X96.084 Y140.158 E1.62919
G1 X95.550 Y140.158 E0.01675
G1 X59.370 Y103.978 E1.60551
G1 X59.370 Y104.512 E0.01675
G1 X95.016 Y140.158 E1.58182
G1 X94.483 Y140.158 E0.01675
G1 X59.370 Y105.045 E1.55814
G1 X59.370 Y105.579 E0.01675
G1 X93.949 Y140.158 E1.53446
G1 X93.415 Y140.158 E0.01675
G1 X59.370 Y106.113 E1.51078
G1 X59.370 Y106.646 E0.01675
G1 X92.882 Y140.158 E1.48710
G1 X92.348 Y140.158 E0.01675
G1 X59.370 Y107.180 E1.46341
G1 X59.370 Y107.714 E0.01675
G1 X91.814 Y140.158 E1.43973
G1 X91.281 Y140.158 E0.01675
G1 X59.370 Y108.247 E1.41605
G1 X59.370 Y108.781 E0.01675
G1 X90.747 Y140.158 E1.39237
G1 X90.213 Y140.158 E0.01675
G1 X59.370 Y109.315 E1.36868
G1 X59.370 Y109.848 E0.01675
G1 X89.679 Y140.158 E1.34500
G1 X89.146 Y140.158 E0.01675
G1 X59.370 Y110.382 E1.32132
G1 X59.370 Y110.916 E0.01675
G1 X88.612 Y140.158 E1.29764
G1 X88.078 Y140.158 E0.01675
G1 X59.370 Y111.449 E1.27396
G1 X59.370 Y111.983 E0.01675
G1 X87.545 Y140.158 E1.25027
G1 X87.011 Y140.158 E0.01675
G1 X59.370 Y112.517 E1.22659
G1 X59.370 Y113.051 E0.01675
G1 X86.477 Y140.158 E1.20291
G1 X85.944 Y140.158 E0.01675
G1 X59.370 Y113.584 E1.17923
G1 X59.370 Y114.118 E0.01675
G1 X85.410 Y140.158 E1.15554
G1 X84.876 Y140.158 E0.01675
G1 X59.370 Y114.652 E1.13186
M73 Q2 S263
G1 X59.370 Y115.185 E0.01675
G1 X84.343 Y140.158 E1.10818
G1 X83.809 Y140.158 E0.01675
G1 X59.370 Y115.719 E1.08450
G1 X59.370 Y116.253 E0.01675
G1 X83.275 Y140.158 E1.06082
G1 X82.742 Y140.158 E0.01675
G1 X59.370 Y116.786 E1.03713
G1 X59.370 Y117.320 E0.01675
G1 X82.208 Y140.158 E1.01345
M73 P2 R257
G1 X81.674 Y140.158 E0.01675
G1 X59.370 Y117.854 E0.98977
G1 X59.370 Y118.387 E0.01675
G1 X81.141 Y140.158 E0.96609
G1 X80.607 Y140.158 E0.01675
G1 X59.370 Y118.921 E0.94241
G1 X59.370 Y119.455 E0.01675
G1 X80.073 Y140.158 E0.91872
G1 X79.540 Y140.158 E0.01675
G1 X59.370 Y119.988 E0.89504
G1 X59.370 Y120.522 E0.01675
G1 X79.006 Y140.158 E0.87136
G1 X78.472 Y140.158 E0.01675
G1 X59.370 Y121.056 E0.84768
G1 X59.370 Y121.589 E0.01675
G1 X77.939 Y140.158 E0.82399
G1 X77.405 Y140.158 E0.01675
G1 X59.370 Y122.123 E0.80031
G1 X59.370 Y122.657 E0.01675
G1 X76.871 Y140.158 E0.77663
G1 X76.338 Y140.158 E0.01675
G1 X59.370 Y123.190 E0.75295
G1 X59.370 Y123.724 E0.01675
G1 X75.804 Y140.158 E0.72927
G1 X75.270 Y140.158 E0.01675
G1 X59.370 Y124.258 E0.70558
G1 X59.370 Y124.791 E0.01675
G1 X74.737 Y140.158 E0.68190
G1 X74.203 Y140.158 E0.01675
G1 X59.370 Y125.325 E0.65822
G1 X59.370 Y125.859 E0.01675
G1 X73.669 Y140.158 E0.63454
G1 X73.135 Y140.158 E0.01675
G1 X59.370 Y126.392 E0.61085
G1 X59.370 Y126.926 E0.01675
G1 X72.602 Y140.158 E0.58717
G1 X72.068 Y140.158 E0.01675
G1 X59.370 Y127.460 E0.56349
G1 X59.370 Y127.993 E0.01675
G1 X71.534 Y140.158 E0.53981
G1 X71.001 Y140.158 E0.01675
G1 X59.370 Y128.527 E0.51613
G1 X59.370 Y129.061 E0.01675
G1 X70.467 Y140.158 E0.49244
G1 X69.933 Y140.158 E0.01675
G1 X59.370 Y129.595 E0.46876
G1 X59.370 Y130.128 E0.01675
G1 X69.400 Y140.158 E0.44508
G1 X68.866 Y140.158 E0.01675
G1 X59.370 Y130.662 E0.42140
G1 X59.370 Y131.196 E0.01675
G1 X68.332 Y140.158 E0.39771
G1 X67.799 Y140.158 E0.01675
G1 X59.370 Y131.729 E0.37403
G1 X59.370 Y132.263 E0.01675
G1 X67.265 Y140.158 E0.35035
G1 X66.731 Y140.158 E0.01675
G1 X59.370 Y132.797 E0.32667
G1 X59.370 Y133.330 E0.01675
G1 X66.198 Y140.158 E0.30299
G1 X65.664 Y140.158 E0.01675
G1 X59.370 Y133.864 E0.27930
G1 X59.370 Y134.398 E0.01675
G1 X65.130 Y140.158 E0.25562
G1 X64.597 Y140.158 E0.01675
G1 X59.370 Y134.931 E0.23194
G1 X59.370 Y135.465 E0.01675
G1 X64.063 Y140.158 E0.20826
G1 X63.529 Y140.158 E0.01675
G1 X59.370 Y135.999 E0.18458
G1 X59.370 Y136.532 E0.01675
G1 X62.996 Y140.158 E0.16089
G1 X62.462 Y140.158 E0.01675
G1 X59.370 Y137.066 E0.13721
G1 X59.370 Y137.600 E0.01675
G1 X61.928 Y140.158 E0.11353
G1 X61.395 Y140.158 E0.01675
G1 X59.370 Y138.133 E0.08985
G1 X59.370 Y138.667 E0.01675
G1 X60.861 Y140.158 E0.06616
G1 X60.327 Y140.158 E0.01675
G1 X59.370 Y139.201 E0.04248
G1 X59.370 Y139.734 E0.01675
G1 X59.963 Y140.328 E0.02633
G1 E-0.80000 F2100.00000
G1 Z0.800 F10800.000
G1 X140.232 Y107.056
G1 Z0.200
G1 E0.80000 F2100.00000
G1 F1200.000
G1 X140.071 Y106.523 E0.01746
G1 X140.016 Y105.969 E0.01746
G1 X140.071 Y105.415 E0.01746
G1 X140.232 Y104.882 E0.01746
G1 X140.495 Y104.391 E0.01746
G1 X140.848 Y103.961 E0.01746
G1 X141.278 Y103.608 E0.01746
G1 X141.769 Y103.345 E0.01746
G1 X142.302 Y103.184 E0.01746
G1 X142.841 Y103.130 E0.01699
G1 X143.409 Y103.183 E0.01786
G1 X143.943 Y103.345 E0.01751
G1 X144.434 Y103.608 E0.01746
G1 X144.864 Y103.961 E0.01746
G1 X145.217 Y104.391 E0.01746
G1 X145.480 Y104.882 E0.01746
G1 X145.642 Y105.415 E0.01746
G1 X145.696 Y105.969 E0.01746
G1 X145.642 Y106.523 E0.01746
G1 X145.480 Y107.056 E0.01746
G1 X145.217 Y107.547 E0.01746
G1 X144.864 Y107.977 E0.01746
G1 X144.434 Y108.330 E0.01746
G1 X143.943 Y108.593 E0.01746
G1 X143.410 Y108.754 E0.01746
G1 X142.856 Y108.809 E0.01746
G1 X142.302 Y108.754 E0.01746
G1 X141.769 Y108.593 E0.01746
G1 X141.278 Y108.330 E0.01746
G1 X140.848 Y107.977 E0.01746
G1 X140.495 Y107.547 E0.01746
G1 X140.261 Y107.109 E0.01557
G1 X140.593 Y106.931 F10800.000
G1 F1200.000
G1 X140.442 Y106.449 E0.01583
G1 X140.395 Y105.969 E0.01513
G1 X140.442 Y105.489 E0.01513
G1 X140.582 Y105.027 E0.01513
G1 X140.810 Y104.602 E0.01513
G1 X141.116 Y104.229 E0.01513
G1 X141.489 Y103.923 E0.01513
G1 X141.914 Y103.695 E0.01513
G1 X142.376 Y103.555 E0.01513
G1 X142.843 Y103.509 E0.01470
