; generated by PrusaSlicer 2.3.1+win64 on 2022-02-01 at 22:21:54 UTC

; 

; external perimeters extrusion width = 0.45mm
; perimeters extrusion width = 0.45mm
; infill extrusion width = 0.45mm
; solid infill extrusion width = 0.45mm
; top infill extrusion width = 0.40mm
; first layer extrusion width = 0.42mm

M73 P0 R69
M73 Q0 S70
M201 X1000 Y1000 Z1000 E5000 ; sets maximum accelerations, mm/sec^2
M203 X200 Y200 Z12 E120 ; sets maximum feedrates, mm/sec
M204 P1250 R1250 T1250 ; sets acceleration (P, T) and retract acceleration (R), mm/sec^2
M205 X8.00 Y8.00 Z0.40 E1.50 ; sets the jerk limits, mm/sec
M205 S0 T0 ; sets the minimum extruding and travel feed rate, mm/sec
M107
;TYPE:Custom
M862.3 P "MK3S" ; printer model check
M862.1 P0.4 ; nozzle diameter check
M115 U3.8.0 ; tell printer latest fw version
G90 ; use absolute coordinates
M83 ; extruder relative mode
M104 S215 ; set extruder temp
M140 S60 ; set bed temp
M190 S60 ; wait for bed temp
M109 S215 ; wait for extruder temp
G28 W ; home all without mesh bed level
G80 ; mesh bed leveling
G1 Y-3.0 F1000.0 ; go outside print area
G92 E0.0
G1 X60.0 E9.0 F1000.0 ; intro line
M73 Q0 S69
G1 X100.0 E12.5 F1000.0 ; intro line
G92 E0.0
M221 S95
G21 ; set units to millimeters
G90 ; use absolute coordinates
M83 ; use relative distances for extrusion
M900 K0.05 ; Filament gcode LA 1.5
M900 K30 ; Filament gcode LA 1.0
;LAYER_CHANGE
;Z:0.2
;HEIGHT:0.2
;BEFORE_LAYER_CHANGE
G92 E0.0
;0.2


G1 E-0.80000 F2100.000
G1 Z0.600 F10800.000
;AFTER_LAYER_CHANGE
;0.2
G1 X90.683 Y90.915
G1 Z0.200
G1 E0.80000 F2100.000
M204 S1000
;TYPE:Skirt
;WIDTH:0.42
G1 F1200.000
G1 X91.597 Y90.120 E0.03796
G1 X92.104 Y89.821 E0.01846
G1 X93.041 Y89.626 E0.03001
G1 X156.952 Y89.626 E2.00387
G1 X157.484 Y89.686 E0.01680
G1 X157.990 Y89.864 E0.01680
G1 X159.081 Y90.660 E0.04234
G1 X159.624 Y91.416 E0.02919
G1 X159.834 Y92.323 E0.02919
G1 X159.871 Y117.705 E0.79583
G1 X159.713 Y118.408 E0.02260
G1 X159.349 Y119.035 E0.02272
G1 X158.401 Y119.854 E0.03929
G1 X157.896 Y120.150 E0.01835
G1 X157.387 Y120.305 E0.01668
G1 X156.838 Y120.346 E0.01725
G1 X92.991 Y120.346 E2.00189
G1 X92.310 Y120.229 E0.02166
G1 X91.689 Y119.919 E0.02178
G1 X90.781 Y119.182 E0.03666
G1 X90.318 Y118.484 E0.02626
G1 X90.123 Y117.555 E0.02977
G1 X90.169 Y92.248 E0.79349
G1 X90.325 Y91.540 E0.02272
G1 X90.654 Y90.967 E0.02072
; printing object Amp Top - Black.stl id:0 copy 0
G1 E-0.80000 F2100.000
G1 Z0.800 F10800.000
G1 X97.009 Y93.025
G1 Z0.200
G1 E0.80000 F2100.000
;TYPE:External perimeter
G1 F1200.000
G1 X152.993 Y93.025 E1.75535
G1 X153.112 Y93.771 E0.02370
G1 X153.151 Y94.283 E0.01609
G1 X153.158 Y101.137 E0.21493
G1 X96.842 Y101.137 E1.76577
G1 X96.849 Y94.210 E0.21721
G1 X96.888 Y93.734 E0.01497
G1 X96.999 Y93.084 E0.02068
G1 X97.027 Y92.625 F10800.000
G1 X96.613 Y93.102
;TYPE:Perimeter
G1 F1200.000
G1 X96.513 Y93.687 E0.01859
G1 X96.472 Y94.192 E0.01588
G1 X96.465 Y101.514 E0.22959
G1 X153.536 Y101.514 E1.78943
G1 X153.528 Y94.268 E0.22720
G1 X153.487 Y93.727 E0.01702
G1 X153.388 Y93.109 E0.01963
G1 X153.938 Y93.149 E0.01729
G1 X156.198 Y93.157 E0.07086
G1 X156.281 Y116.846 E0.74276
G1 X93.719 Y116.846 E1.96160
G1 X93.802 Y93.158 E0.74273
G1 X95.866 Y93.154 E0.06472
G1 X96.553 Y93.109 E0.02161
G1 E-0.80000 F2100.000
G1 Z0.800 F10800.000
G1 X93.426 Y92.781
G1 Z0.200
G1 E0.80000 F2100.000
;TYPE:External perimeter
G1 F1200.000
G1 X95.857 Y92.777 E0.07621
G1 X96.336 Y92.755 E0.01504
G1 X97.265 Y92.647 E0.02934
G1 X152.462 Y92.647 E1.73067
G1 X152.945 Y92.659 E0.01513
G1 X153.439 Y92.735 E0.01566
G1 X153.953 Y92.772 E0.01616
G1 X156.574 Y92.781 E0.08219
G1 X156.660 Y117.223 E0.76637
M73 P0 R68
G1 X93.340 Y117.223 E1.98533
G1 X93.426 Y92.841 E0.76448
M73 P1 R68
M73 Q1 S69
G1 X93.823 Y92.830 F10800.000
G1 E-0.80000 F2100.000
G1 Z0.800 F10800.000
G1 X155.316 Y93.267
G1 Z0.200
G1 E0.80000 F2100.000
;TYPE:Solid infill
;WIDTH:0.42207
G1 F1200.000
G1 X155.918 Y93.869 E0.02683
G1 X155.920 Y94.407 E0.01696
G1 X154.949 Y93.435 E0.04331
G1 X154.410 Y93.434 E0.01696
G1 X155.922 Y94.945 E0.06738
G1 X155.924 Y95.483 E0.01696
G1 X153.868 Y93.428 E0.09164
G1 X153.724 Y93.417 E0.00456
G1 X153.782 Y93.878 E0.01464
G1 X155.926 Y96.021 E0.09556
G1 X155.927 Y96.559 E0.01696
G1 X153.811 Y94.443 E0.09436
G1 X153.812 Y94.979 E0.01692
G1 X155.929 Y97.097 E0.09442
G1 X155.931 Y97.635 E0.01696
G1 X153.812 Y95.516 E0.09448
G1 X153.813 Y96.053 E0.01692
G1 X155.933 Y98.173 E0.09454
G1 X155.935 Y98.711 E0.01696
G1 X153.813 Y96.590 E0.09459
G1 X153.814 Y97.127 E0.01692
G1 X155.937 Y99.250 E0.09465
G1 X155.939 Y99.788 E0.01696
G1 X153.814 Y97.663 E0.09471
G1 X153.815 Y98.200 E0.01692
G1 X155.941 Y100.326 E0.09477
G1 X155.943 Y100.864 E0.01696
G1 X153.816 Y98.737 E0.09483
G1 X153.816 Y99.274 E0.01692
G1 X155.944 Y101.402 E0.09488
G1 X155.946 Y101.940 E0.01696
G1 X153.817 Y99.811 E0.09494
G1 X153.817 Y100.347 E0.01692
G1 X155.948 Y102.478 E0.09500
G1 X155.950 Y103.016 E0.01696
G1 X153.818 Y100.884 E0.09506
G1 X153.819 Y101.421 E0.01692
G1 X155.952 Y103.554 E0.09511
G1 X155.954 Y104.092 E0.01696
G1 X153.659 Y101.797 E0.10232
G1 X153.123 Y101.797 E0.01690
G1 X155.956 Y104.630 E0.12631
G1 X155.958 Y105.168 E0.01696
G1 X152.586 Y101.797 E0.15030
G1 X152.050 Y101.797 E0.01690
G1 X155.959 Y105.707 E0.17429
G1 X155.961 Y106.245 E0.01696
G1 X151.514 Y101.797 E0.19828
G1 X150.978 Y101.797 E0.01690
G1 X155.963 Y106.783 E0.22227
G1 X155.965 Y107.321 E0.01696
G1 X150.442 Y101.797 E0.24626
G1 X149.905 Y101.797 E0.01690
G1 X155.967 Y107.859 E0.27025
G1 X155.969 Y108.397 E0.01696
G1 X149.369 Y101.797 E0.29424
G1 X148.833 Y101.797 E0.01690
G1 X155.971 Y108.935 E0.31824
G1 X155.973 Y109.473 E0.01696
G1 X148.297 Y101.797 E0.34223
G1 X147.761 Y101.797 E0.01690
G1 X155.974 Y110.011 E0.36622
G1 X155.976 Y110.549 E0.01696
G1 X147.224 Y101.797 E0.39021
G1 X146.688 Y101.797 E0.01690
G1 X155.978 Y111.087 E0.41420
G1 X155.980 Y111.625 E0.01696
G1 X146.152 Y101.797 E0.43819
G1 X145.616 Y101.797 E0.01690
G1 X155.982 Y112.163 E0.46218
G1 X155.984 Y112.702 E0.01696
G1 X145.080 Y101.797 E0.48617
G1 X144.543 Y101.797 E0.01690
G1 X155.986 Y113.240 E0.51016
G1 X155.988 Y113.778 E0.01696
G1 X144.007 Y101.797 E0.53415
G1 X143.471 Y101.797 E0.01690
G1 X155.990 Y114.316 E0.55814
G1 X155.991 Y114.854 E0.01696
G1 X142.935 Y101.797 E0.58213
G1 X142.399 Y101.797 E0.01690
G1 X155.993 Y115.392 E0.60612
G1 X155.995 Y115.930 E0.01696
G1 X141.862 Y101.797 E0.63011
G1 X141.326 Y101.797 E0.01690
G1 X155.997 Y116.468 E0.65410
G1 X155.997 Y116.563 E0.00300
G1 X155.556 Y116.563 E0.01392
G1 X140.790 Y101.797 E0.65834
M73 Q1 S68
G1 X140.254 Y101.797 E0.01690
G1 X155.020 Y116.563 E0.65834
G1 X154.484 Y116.563 E0.01690
G1 X139.718 Y101.797 E0.65834
G1 X139.181 Y101.797 E0.01690
G1 X153.947 Y116.563 E0.65834
G1 X153.411 Y116.563 E0.01690
G1 X138.645 Y101.797 E0.65834
G1 X138.109 Y101.797 E0.01690
G1 X152.875 Y116.563 E0.65834
G1 X152.339 Y116.563 E0.01690
G1 X137.573 Y101.797 E0.65834
G1 X137.037 Y101.797 E0.01690
G1 X151.803 Y116.563 E0.65834
G1 X151.266 Y116.563 E0.01690
G1 X136.500 Y101.797 E0.65834
G1 X135.964 Y101.797 E0.01690
G1 X150.730 Y116.563 E0.65834
G1 X150.194 Y116.563 E0.01690
G1 X135.428 Y101.797 E0.65834
G1 X134.892 Y101.797 E0.01690
G1 X149.658 Y116.563 E0.65834
G1 X149.122 Y116.563 E0.01690
G1 X134.356 Y101.797 E0.65834
G1 X133.819 Y101.797 E0.01690
G1 X148.585 Y116.563 E0.65834
G1 X148.049 Y116.563 E0.01690
G1 X133.283 Y101.797 E0.65834
G1 X132.747 Y101.797 E0.01690
G1 X147.513 Y116.563 E0.65834
G1 X146.977 Y116.563 E0.01690
G1 X132.211 Y101.797 E0.65834
G1 X131.675 Y101.797 E0.01690
G1 X146.441 Y116.563 E0.65834
G1 X145.904 Y116.563 E0.01690
G1 X131.138 Y101.797 E0.65834
G1 X130.602 Y101.797 E0.01690
G1 X145.368 Y116.563 E0.65834
M73 P2 R68
M73 Q2 S68
G1 X144.832 Y116.563 E0.01690
G1 X130.066 Y101.797 E0.65834
G1 X129.530 Y101.797 E0.01690
G1 X144.296 Y116.563 E0.65834
G1 X143.760 Y116.563 E0.01690
G1 X128.994 Y101.797 E0.65834
G1 X128.457 Y101.797 E0.01690
G1 X143.223 Y116.563 E0.65834
G1 X142.687 Y116.563 E0.01690
G1 X127.921 Y101.797 E0.65834
G1 X127.385 Y101.797 E0.01690
G1 X142.151 Y116.563 E0.65834
G1 X141.615 Y116.563 E0.01690
G1 X126.849 Y101.797 E0.65834
G1 X126.313 Y101.797 E0.01690
G1 X141.079 Y116.563 E0.65834
G1 X140.542 Y116.563 E0.01690
G1 X125.776 Y101.797 E0.65834
G1 X125.240 Y101.797 E0.01690
G1 X140.006 Y116.563 E0.65834
G1 X139.470 Y116.563 E0.01690
G1 X124.704 Y101.797 E0.65834
G1 X124.168 Y101.797 E0.01690
G1 X138.934 Y116.563 E0.65834
G1 X138.398 Y116.563 E0.01690
G1 X123.632 Y101.797 E0.65834
G1 X123.095 Y101.797 E0.01690
G1 X137.861 Y116.563 E0.65834
M73 P2 R67
G1 X137.325 Y116.563 E0.01690
G1 X122.559 Y101.797 E0.65834
G1 X122.023 Y101.797 E0.01690
G1 X136.789 Y116.563 E0.65834
G1 X136.253 Y116.563 E0.01690
G1 X121.487 Y101.797 E0.65834
G1 X120.951 Y101.797 E0.01690
G1 X135.717 Y116.563 E0.65834
G1 X135.180 Y116.563 E0.01690
G1 X120.414 Y101.797 E0.65834
G1 X119.878 Y101.797 E0.01690
G1 X134.644 Y116.563 E0.65834
G1 X134.108 Y116.563 E0.01690
G1 X119.342 Y101.797 E0.65834
G1 X118.806 Y101.797 E0.01690
G1 X133.572 Y116.563 E0.65834
G1 X133.036 Y116.563 E0.01690
G1 X118.270 Y101.797 E0.65834
G1 X117.733 Y101.797 E0.01690
G1 X132.499 Y116.563 E0.65834
G1 X131.963 Y116.563 E0.01690
G1 X117.197 Y101.797 E0.65834
G1 X116.661 Y101.797 E0.01690
G1 X131.427 Y116.563 E0.65834
G1 X130.891 Y116.563 E0.01690
G1 X116.125 Y101.797 E0.65834
G1 X115.589 Y101.797 E0.01690
G1 X130.355 Y116.563 E0.65834
G1 X129.818 Y116.563 E0.01690
G1 X115.052 Y101.797 E0.65834
G1 X114.516 Y101.797 E0.01690
G1 X129.282 Y116.563 E0.65834
G1 X128.746 Y116.563 E0.01690
G1 X113.980 Y101.797 E0.65834
G1 X113.444 Y101.797 E0.01690
G1 X128.210 Y116.563 E0.65834
G1 X127.674 Y116.563 E0.01690
G1 X112.908 Y101.797 E0.65834
G1 X112.371 Y101.797 E0.01690
G1 X127.137 Y116.563 E0.65834
G1 X126.601 Y116.563 E0.01690
G1 X111.835 Y101.797 E0.65834
G1 X111.299 Y101.797 E0.01690
G1 X126.065 Y116.563 E0.65834
G1 X125.529 Y116.563 E0.01690
G1 X110.763 Y101.797 E0.65834
M73 Q2 S67
G1 X110.227 Y101.797 E0.01690
G1 X124.993 Y116.563 E0.65834
M73 P3 R67
G1 X124.456 Y116.563 E0.01690
G1 X109.690 Y101.797 E0.65834
M73 Q3 S67
G1 X109.154 Y101.797 E0.01690
G1 X123.920 Y116.563 E0.65834
G1 X123.384 Y116.563 E0.01690
G1 X108.618 Y101.797 E0.65834
G1 X108.082 Y101.797 E0.01690
G1 X122.848 Y116.563 E0.65834
G1 X122.312 Y116.563 E0.01690
G1 X107.546 Y101.797 E0.65834
G1 X107.009 Y101.797 E0.01690
G1 X121.775 Y116.563 E0.65834
G1 X121.239 Y116.563 E0.01690
G1 X106.473 Y101.797 E0.65834
G1 X105.937 Y101.797 E0.01690
G1 X120.703 Y116.563 E0.65834
G1 X120.167 Y116.563 E0.01690
G1 X105.401 Y101.797 E0.65834
G1 X104.865 Y101.797 E0.01690
G1 X119.631 Y116.563 E0.65834
G1 X119.094 Y116.563 E0.01690
G1 X104.328 Y101.797 E0.65834
G1 X103.792 Y101.797 E0.01690
G1 X118.558 Y116.563 E0.65834
G1 X118.022 Y116.563 E0.01690
G1 X103.256 Y101.797 E0.65834
G1 X102.720 Y101.797 E0.01690
G1 X117.486 Y116.563 E0.65834
G1 X116.950 Y116.563 E0.01690
G1 X102.184 Y101.797 E0.65834
G1 X101.647 Y101.797 E0.01690
G1 X116.413 Y116.563 E0.65834
G1 X115.877 Y116.563 E0.01690
G1 X101.111 Y101.797 E0.65834
G1 X100.575 Y101.797 E0.01690
G1 X115.341 Y116.563 E0.65834
G1 X114.805 Y116.563 E0.01690
G1 X100.039 Y101.797 E0.65834
G1 X99.503 Y101.797 E0.01690
G1 X114.269 Y116.563 E0.65834
G1 X113.732 Y116.563 E0.01690
G1 X98.966 Y101.797 E0.65834
G1 X98.430 Y101.797 E0.01690
G1 X113.196 Y116.563 E0.65834
G1 X112.660 Y116.563 E0.01690
G1 X97.894 Y101.797 E0.65834
G1 X97.358 Y101.797 E0.01690
G1 X112.124 Y116.563 E0.65834
G1 X111.588 Y116.563 E0.01690
G1 X96.652 Y101.628 E0.66591
G1 E-0.80000 F2100.000
G1 Z0.800 F10800.000
G1 X96.386 Y93.855
G1 Z0.200
G1 E0.80000 F2100.000
G1 F1200.000
G1 X95.962 Y93.431 E0.01889
G1 X95.433 Y93.438 E0.01669
G1 X96.189 Y94.194 E0.03373
G1 X96.182 Y94.724 E0.01668
G1 X94.898 Y93.439 E0.05728
G1 X94.362 Y93.440 E0.01688
G1 X96.182 Y95.260 E0.08115
G1 X96.182 Y95.796 E0.01690
G1 X94.083 Y93.696 E0.09362
G1 X94.081 Y94.230 E0.01685
G1 X96.182 Y96.332 E0.09370
G1 X96.182 Y96.868 E0.01690
G1 X94.079 Y94.765 E0.09378
G1 X94.077 Y95.299 E0.01685
G1 X96.182 Y97.404 E0.09386
G1 X96.182 Y97.941 E0.01690
G1 X94.075 Y95.833 E0.09394
G1 X94.073 Y96.368 E0.01685
G1 X96.182 Y98.477 E0.09402
G1 X96.182 Y99.013 E0.01690
G1 X94.071 Y96.902 E0.09411
G1 X94.069 Y97.436 E0.01685
G1 X96.182 Y99.549 E0.09419
G1 X96.182 Y100.085 E0.01690
G1 X94.068 Y97.971 E0.09427
G1 X94.066 Y98.505 E0.01685
G1 X96.182 Y100.621 E0.09435
G1 X96.182 Y101.157 E0.01690
G1 X94.064 Y99.039 E0.09443
G1 X94.062 Y99.574 E0.01685
G1 X111.051 Y116.563 E0.75747
G1 X110.515 Y116.563 E0.01690
G1 X94.060 Y100.108 E0.73365
G1 X94.058 Y100.642 E0.01685
G1 X109.979 Y116.563 E0.70983
M73 P3 R66
G1 X109.443 Y116.563 E0.01690
G1 X94.056 Y101.177 E0.68600
G1 X94.055 Y101.711 E0.01685
G1 X108.907 Y116.563 E0.66218
G1 X108.370 Y116.563 E0.01690
G1 X94.053 Y102.245 E0.63836
G1 X94.051 Y102.780 E0.01685
G1 X107.834 Y116.563 E0.61454
G1 X107.298 Y116.563 E0.01690
G1 X94.049 Y103.314 E0.59071
G1 X94.047 Y103.848 E0.01685
G1 X106.762 Y116.563 E0.56689
G1 X106.226 Y116.563 E0.01690
G1 X94.045 Y104.383 E0.54307
G1 X94.043 Y104.917 E0.01685
G1 X105.689 Y116.563 E0.51924
M73 P4 R66
G1 X105.153 Y116.563 E0.01690
G1 X94.041 Y105.451 E0.49542
M73 Q4 S67
G1 X94.040 Y105.986 E0.01685
G1 X104.617 Y116.563 E0.47160
G1 X104.081 Y116.563 E0.01690
G1 X94.038 Y106.520 E0.44777
G1 X94.036 Y107.054 E0.01685
G1 X103.545 Y116.563 E0.42395
G1 X103.008 Y116.563 E0.01690
G1 X94.034 Y107.589 E0.40013
G1 X94.032 Y108.123 E0.01685
G1 X102.472 Y116.563 E0.37630
G1 X101.936 Y116.563 E0.01690
G1 X94.030 Y108.657 E0.35248
G1 X94.028 Y109.192 E0.01685
G1 X101.400 Y116.563 E0.32866
G1 X100.864 Y116.563 E0.01690
G1 X94.027 Y109.726 E0.30483
G1 X94.025 Y110.260 E0.01685
G1 X100.327 Y116.563 E0.28101
G1 X99.791 Y116.563 E0.01690
G1 X94.023 Y110.795 E0.25719
G1 X94.021 Y111.329 E0.01685
G1 X99.255 Y116.563 E0.23336
G1 X98.719 Y116.563 E0.01690
G1 X94.019 Y111.863 E0.20954
G1 X94.017 Y112.398 E0.01685
G1 X98.183 Y116.563 E0.18572
G1 X97.646 Y116.563 E0.01690
G1 X94.015 Y112.932 E0.16189
G1 X94.013 Y113.466 E0.01685
G1 X97.110 Y116.563 E0.13807
G1 X96.574 Y116.563 E0.01690
G1 X94.012 Y114.001 E0.11425
G1 X94.010 Y114.535 E0.01685
G1 X96.038 Y116.563 E0.09042
G1 X95.502 Y116.563 E0.01690
G1 X94.008 Y115.069 E0.06660
G1 X94.006 Y115.604 E0.01685
G1 X94.965 Y116.563 E0.04278
G1 X94.429 Y116.563 E0.01690
G1 X93.835 Y115.969 E0.02649
; stop printing object Amp Top - Black.stl id:0 copy 0
M106 S84.15
;LAYER_CHANGE
;Z:0.4
;HEIGHT:0.2
;BEFORE_LAYER_CHANGE
G92 E0.0
;0.4


G1 E-0.80000 F2100.000
G1 Z0.800 F10800.000
;AFTER_LAYER_CHANGE
;0.4
M104 S210 ; set temperature
G1 X90.318 Y118.484
G1 Z0.400
G1 E0.80000 F2100.000
;TYPE:Skirt
;WIDTH:0.42
G1 F3000.000
G1 X90.123 Y117.555 E0.02977
G1 X90.169 Y92.248 E0.79349
G1 X90.325 Y91.540 E0.02272
G1 X90.683 Y90.915 E0.02260
G1 X91.597 Y90.120 E0.03796
G1 X92.104 Y89.821 E0.01846
G1 X93.041 Y89.626 E0.03001
G1 X156.952 Y89.626 E2.00387
G1 X157.484 Y89.686 E0.01680
G1 X157.990 Y89.864 E0.01680
G1 X159.081 Y90.660 E0.04234
G1 X159.624 Y91.416 E0.02919
G1 X159.834 Y92.323 E0.02919
G1 X159.871 Y117.705 E0.79583
G1 X159.713 Y118.408 E0.02260
G1 X159.349 Y119.035 E0.02272
G1 X158.401 Y119.854 E0.03929
G1 X157.896 Y120.150 E0.01835
G1 X157.387 Y120.305 E0.01668
G1 X156.838 Y120.346 E0.01725
G1 X92.991 Y120.346 E2.00189
G1 X92.310 Y120.229 E0.02166
G1 X91.689 Y119.919 E0.02178
G1 X90.781 Y119.182 E0.03666
G1 X90.351 Y118.534 E0.02437
; printing object Amp Top - Black.stl id:0 copy 0
G1 E-0.80000 F2100.000
G1 Z1.000 F10800.000
G1 X97.027 Y100.953
G1 Z0.400
G1 E0.80000 F2100.000
M204 S800
;TYPE:External perimeter
;WIDTH:0.45
G1 F1500.000
G1 X97.027 Y93.076 E0.26663
G1 X152.973 Y93.076 E1.89372
M73 Q4 S66
G1 X152.973 Y100.953 E0.26663
G1 X97.087 Y100.953 E1.89169
M204 S1000
G1 X96.627 Y100.972 F10800.000
G1 X96.620 Y101.360
M204 S800
;TYPE:Perimeter
G1 F2700.000
G1 X153.380 Y101.360 E1.92128
G1 X153.380 Y92.819 E0.28910
G1 X156.590 Y92.819 E0.10864
G1 X156.675 Y117.188 E0.82485
G1 X93.325 Y117.188 E2.14433
