; G-Code generated by Simplify3D(R) Version 4.0.0
; Oct 26, 2017 at 10:09:41 AM
; Settings Summary
;   processName,Process1
;   applyToModels,FlameBig,FlameSmall
;   profileName,Prusa Research Original Prusa i3 MK2
;   profileVersion,2017-10-20 17:21:25
;   baseProfile,
;   printMaterial,PLA
;   printQuality,Fast
;   printExtruders,
;   extruderName,Primary Extruder
;   extruderToolheadNumber,0
;   extruderDiameter,0.4
;   extruderAutoWidth,0
;   extruderWidth,0.4
;   extrusionMultiplier,1
;   extruderUseRetract,1
;   extruderRetractionDistance,1.5
;   extruderExtraRestartDistance,0
;   extruderRetractionZLift,0
;   extruderRetractionSpeed,1800
;   extruderUseCoasting,1
;   extruderCoastingDistance,0.2
;   extruderUseWipe,1
;   extruderWipeDistance,2
;   primaryExtruder,0
;   layerHeight,0.3
;   topSolidLayers,3
;   bottomSolidLayers,3
;   perimeterOutlines,3
;   printPerimetersInsideOut,1
;   startPointOption,3
;   startPointOriginX,125
;   startPointOriginY,210
;   sequentialIslands,0
;   spiralVaseMode,0
;   firstLayerHeightPercentage,90
;   firstLayerWidthPercentage,125
;   firstLayerUnderspeed,0.5
;   useRaft,0
;   raftExtruder,0
;   raftTopLayers,2
;   raftBaseLayers,1
;   raftOffset,2
;   raftSeparationDistance,0.14
;   raftTopInfill,100
;   aboveRaftSpeedMultiplier,0.3
;   useSkirt,0
;   skirtExtruder,0
;   skirtLayers,1
;   skirtOutlines,1
;   skirtOffset,4
;   usePrimePillar,0
;   primePillarExtruder,999
;   primePillarWidth,12
;   primePillarLocation,7
;   primePillarSpeedMultiplier,1
;   useOozeShield,0
;   oozeShieldExtruder,999
;   oozeShieldOffset,2
;   oozeShieldOutlines,1
;   oozeShieldSidewallShape,1
;   oozeShieldSidewallAngle,30
;   oozeShieldSpeedMultiplier,1
;   infillExtruder,0
;   internalInfillPattern,Rectilinear
;   externalInfillPattern,Rectilinear
;   infillPercentage,10
;   outlineOverlapPercentage,30
;   infillExtrusionWidthPercentage,125
;   minInfillLength,1
;   infillLayerInterval,1
;   internalInfillAngles,45,-45
;   overlapInternalInfillAngles,0
;   externalInfillAngles,45,-45
;   generateSupport,0
;   supportExtruder,0
;   supportInfillPercentage,25
;   supportExtraInflation,0.3
;   supportBaseLayers,0
;   denseSupportExtruder,0
;   denseSupportLayers,0
;   denseSupportInfillPercentage,70
;   supportLayerInterval,1
;   supportHorizontalPartOffset,0.2
;   supportUpperSeparationLayers,1
;   supportLowerSeparationLayers,1
;   supportType,0
;   supportGridSpacing,4
;   maxOverhangAngle,45
;   supportAngles,0
;   temperatureName,Primary Extruder,Heated Bed
;   temperatureNumber,0,0
;   temperatureSetpointCount,1,1
;   temperatureSetpointLayers,1,1
;   temperatureSetpointTemperatures,220,55
;   temperatureStabilizeAtStartup,1,1
;   temperatureHeatedBed,0,1
;   temperatureRelayBetweenLayers,1,1
;   temperatureRelayBetweenLoops,0,0
;   fanLayers,1,2
;   fanSpeeds,0,100
;   blipFanToFullPower,0
;   adjustSpeedForCooling,1
;   minSpeedLayerTime,15
;   minCoolingSpeedSlowdown,15
;   increaseFanForCooling,1
;   minFanLayerTime,45
;   maxCoolingFanSpeed,100
;   increaseFanForBridging,1
;   bridgingFanSpeed,100
;   use5D,1
;   relativeEdistances,0
;   allowEaxisZeroing,1
;   independentExtruderAxes,0
;   includeM10123,0
;   stickySupport,1
;   applyToolheadOffsets,0
;   gcodeXoffset,0
;   gcodeYoffset,0
;   gcodeZoffset,0
;   overrideMachineDefinition,1
;   machineTypeOverride,0
;   strokeXoverride,250
;   strokeYoverride,210
;   strokeZoverride,200
;   originOffsetXoverride,0
;   originOffsetYoverride,0
;   originOffsetZoverride,0
;   homeXdirOverride,-1
;   homeYdirOverride,-1
;   homeZdirOverride,-1
;   flipXoverride,1
;   flipYoverride,-1
;   flipZoverride,1
;   toolheadOffsets,0,0|0,0|0,0|0,0|0,0|0,0
;   overrideFirmwareConfiguration,1
;   firmwareTypeOverride,RepRap (Marlin/Repetier/Sprinter)
;   GPXconfigOverride,r2
;   baudRateOverride,250000
;   overridePrinterModels,1
;   printerModelsOverride
;   startingGcode,M115 U3.0.7 ; use the latest firmware version,G28 W ; home all axes without mesh bed leveling,G80 ; run mesh bed leveling routine,G1 Y-3.0 F1000.0 ; prepare to prime,G92 E0 ; reset extrusion distance,G1 X60.0 E9.0  F1000.0 ; priming,G1 X100.0 E12.5  F1000.0 ; priming
;   layerChangeGcode,
;   retractionGcode,
;   toolChangeGcode,
;   endingGcode,M106 S0 ; turn off cooling fan,M104 S0 ; turn off extruder,M140 S0 ; turn off bed,G1 X0 Y200 ; part removal,M84 ; disable motors
;   exportFileFormat,gcode
;   celebration,0
;   celebrationSong,Random Song
;   postProcessing,
;   defaultSpeed,2400
;   outlineUnderspeed,0.8
;   solidInfillUnderspeed,0.8
;   supportUnderspeed,0.8
;   rapidXYspeed,4800
;   rapidZspeed,1002
;   minBridgingArea,50
;   bridgingExtraInflation,0
;   bridgingExtrusionMultiplier,1
;   bridgingSpeedMultiplier,1
;   useFixedBridgingAngle,0
;   fixedBridgingAngle,0
;   applyBridgingToPerimeters,0
;   filamentDiameters,1.75|1.75|1.75|1.75|1.75|1.75
;   filamentPricesPerKg,46|46|46|46|46|46
;   filamentDensities,1.25|1.25|1.25|1.25|1.25|1.25
;   useMinPrintHeight,0
;   minPrintHeight,10.34
;   useMaxPrintHeight,0
;   maxPrintHeight,0
;   useDiaphragm,0
;   diaphragmLayerInterval,20
;   robustSlicing,1
;   mergeAllIntoSolid,0
;   onlyRetractWhenCrossingOutline,1
;   retractBetweenLayers,0
;   useRetractionMinTravel,1
;   retractionMinTravel,3
;   retractWhileWiping,1
;   onlyWipeOutlines,1
;   avoidCrossingOutline,1
;   maxMovementDetourFactor,3
;   toolChangeRetractionDistance,12
;   toolChangeExtraRestartDistance,-0.5
;   toolChangeRetractionSpeed,600
;   externalThinWallType,1
;   internalThinWallType,1
;   thinWallAllowedOverlapPercentage,25
;   singleExtrusionMinLength,1
;   singleExtrusionMinPrintingWidthPercentage,50
;   singleExtrusionMaxPrintingWidthPercentage,200
;   singleExtrusionEndpointExtension,0.2
;   horizontalSizeCompensation,0
G90
M82
M106 S0
M140 S55
M190 S55
M104 S220 T0
M109 S220 T0
M115 U3.0.7 ; use the latest firmware version
G28 W ; home all axes without mesh bed leveling
G80 ; run mesh bed leveling routine
G1 Y-3.0 F1000.0 ; prepare to prime
G92 E0 ; reset extrusion distance
G1 X60.0 E9.0  F1000.0 ; priming
G1 X100.0 E12.5  F1000.0 ; priming
G92 E0
G1 E-1.5000 F1800
G1 Z0.270 F1002
; process Process1
; layer 1, Z = 0.270
M105
M105
T0
; tool H0.300 W0.500
; inner perimeter
G1 X119.245 Y101.065 F4800
G1 E0.0000 F540
G92 E0
G1 X118.665 Y99.456 E0.1066 F1080
G1 X118.878 Y99.289 E0.1235
G1 X119.246 Y99.534 E0.1510
G1 X119.582 Y99.712 E0.1748
G1 X119.934 Y99.857 E0.1985
G1 X120.299 Y99.967 E0.2222
G1 X120.672 Y100.040 E0.2460
G1 X121.107 Y100.082 E0.2733
G1 X121.145 Y100.380 E0.2920
G1 X119.433 Y100.997 E0.4055
G1 X119.245 Y101.065 F1080
G1 X123.804 Y99.111 F4800
G92 E0
G1 X124.112 Y98.801 E0.0273 F1080
G1 X124.353 Y98.506 E0.0510
G1 X124.564 Y98.189 E0.0747
G1 X124.743 Y97.853 E0.0985
G1 X124.888 Y97.501 E0.1222
G1 X125.015 Y97.078 E0.1497
G1 X125.286 Y97.071 E0.1667
G1 X125.865 Y98.679 E0.2733
G1 X123.965 Y99.364 E0.3992
G1 X123.911 Y99.279 E0.4055
G1 X123.804 Y99.111 F1080
G1 X123.749 Y97.582 F4800
G1 X123.832 Y97.425 F4800
G1 X123.939 Y97.164 F4800
G1 X124.021 Y96.894 F4800
G1 X124.075 Y96.618 F4800
G1 X124.102 Y96.337 F4800
G1 X124.101 Y96.055 F4800
G1 X124.073 Y95.775 F4800
G1 X124.018 Y95.498 F4800
G1 X123.935 Y95.229 F4800
G1 X123.827 Y94.968 F4800
G1 X123.693 Y94.720 F4800
G1 X123.642 Y94.644 F4800
G1 X123.587 Y93.116 F4800
G92 E0
G1 X123.219 Y92.871 E0.0275 F1080
G1 X122.883 Y92.693 E0.0513
G1 X122.531 Y92.548 E0.0750
G1 X122.167 Y92.438 E0.0987
G1 X121.793 Y92.364 E0.1225
G1 X121.415 Y92.328 E0.1462
G1 X121.034 Y92.329 E0.1700
G1 X120.655 Y92.367 E0.1937
G1 X120.282 Y92.442 E0.2174
G1 X119.918 Y92.553 E0.2412
G1 X119.567 Y92.700 E0.2649
G1 X119.231 Y92.880 E0.2886
G1 X118.915 Y93.092 E0.3124
G1 X118.622 Y93.334 E0.3361
G1 X118.353 Y93.604 E0.3599
G1 X118.112 Y93.899 E0.3836
G1 X117.902 Y94.216 E0.4073
G1 X117.723 Y94.552 E0.4311
G1 X117.578 Y94.904 E0.4548
G1 X117.451 Y95.326 E0.4823
G1 X117.180 Y95.334 E0.4992
G1 X115.719 Y91.280 E0.7680
G1 X113.501 Y92.771 E0.9346
G1 X112.878 Y93.240 E0.9833
G1 X112.311 Y93.704 E1.0290
G1 X111.768 Y94.185 E1.0742
G1 X111.331 Y94.603 E1.1119
G1 X111.144 Y94.803 E1.1290
G1 X109.143 Y93.362 E1.2827
G1 X109.774 Y92.761 E1.3371
G1 X110.399 Y92.207 E1.3891
G1 X111.045 Y91.679 E1.4412
G1 X111.751 Y91.147 E1.4963
G1 X112.479 Y90.645 E1.5514
G1 X113.224 Y90.174 E1.6064
G1 X114.522 Y89.447 E1.6992
G1 X115.857 Y88.813 E1.7913
G1 X118.005 Y88.000 E1.9346
G1 X119.255 Y87.634 E2.0158
G1 X120.540 Y87.335 E2.0981
G1 X121.785 Y87.117 E2.1769
G1 X123.044 Y86.964 E2.2560
G1 X124.118 Y86.888 E2.3232
G1 X125.199 Y86.860 E2.3905
G1 X126.143 Y86.876 E2.4495
G1 X127.085 Y86.930 E2.5083
G1 X128.183 Y87.041 E2.5771
G1 X129.263 Y87.201 E2.6452
G1 X130.729 Y87.503 E2.7385
G1 X131.962 Y87.835 E2.8181
G1 X133.179 Y88.237 E2.8981
G1 X134.363 Y88.705 E2.9775
G1 X135.637 Y89.300 E3.0652
G1 X136.008 Y89.504 E3.0916
G1 X135.588 Y90.015 E3.1328
G1 X134.577 Y91.394 E3.2395
G1 X134.172 Y91.172 E3.2682
G1 X133.065 Y90.655 E3.3444
G1 X132.032 Y90.248 E3.4137
G1 X130.976 Y89.899 E3.4831
G1 X129.902 Y89.610 E3.5524
G1 X128.655 Y89.353 E3.6318
G1 X127.709 Y89.213 E3.6915
G1 X126.765 Y89.118 E3.7507
G1 X125.947 Y89.071 E3.8017
G1 X125.129 Y89.057 E3.8527
G1 X122.426 Y89.133 E4.0214
G1 X123.800 Y92.948 E4.2743
G1 X123.744 Y92.992 E4.2787
G1 X123.587 Y93.116 F1080
G1 X123.097 Y94.021 F4800
G1 X123.157 Y94.070 F4800
G1 X123.357 Y94.269 F4800
G1 X123.536 Y94.486 F4800
G1 X123.693 Y94.720 F4800
G1 X123.827 Y94.968 F4800
G1 X123.935 Y95.229 F4800
G1 X124.018 Y95.498 F4800
G1 X124.073 Y95.775 F4800
G1 X124.101 Y96.055 F4800
G1 X124.102 Y96.337 F4800
G1 X124.075 Y96.618 F4800
G1 X124.021 Y96.894 F4800
G1 X123.939 Y97.164 F4800
G1 X123.832 Y97.425 F4800
G1 X123.700 Y97.674 F4800
G1 X123.544 Y97.908 F4800
G1 X123.365 Y98.127 F4800
G1 X123.167 Y98.326 F4800
G1 X122.949 Y98.506 F4800
G1 X122.715 Y98.663 F4800
G1 X122.467 Y98.796 F4800
G1 X122.206 Y98.905 F4800
G1 X121.937 Y98.987 F4800
G1 X121.660 Y99.043 F4800
G1 X121.380 Y99.071 F4800
G1 X121.098 Y99.072 F4800
G1 X120.818 Y99.045 F4800
G1 X120.541 Y98.990 F4800
G1 X120.429 Y98.957 F4800
G1 X118.944 Y101.705 F4800
G92 E0
G1 X115.466 Y92.052 E0.6398 F1080
G1 X113.791 Y93.178 E0.7656
G1 X113.187 Y93.633 E0.8128
G1 X112.635 Y94.085 E0.8573
G1 X112.107 Y94.553 E0.9013
G1 X111.686 Y94.955 E0.9376
G1 X111.220 Y95.453 E0.9801
G1 X110.932 Y95.267 E1.0015
G1 X108.395 Y93.439 E1.1965
G1 X108.949 Y92.856 E1.2466
G1 X109.436 Y92.392 E1.2886
G1 X110.074 Y91.827 E1.3418
G1 X110.736 Y91.285 E1.3951
G1 X111.459 Y90.742 E1.4515
G1 X112.203 Y90.228 E1.5079
G1 X112.969 Y89.744 E1.5644
G1 X114.293 Y89.003 E1.6590
G1 X115.660 Y88.352 E1.7534
G1 X117.846 Y87.525 E1.8991
G1 X119.128 Y87.150 E1.9825
G1 X120.440 Y86.845 E2.0665
G1 X121.712 Y86.622 E2.1470
G1 X122.996 Y86.466 E2.2277
G1 X124.094 Y86.388 E2.2963
G1 X125.196 Y86.360 E2.3651
G1 X126.162 Y86.377 E2.4253
G1 X127.124 Y86.432 E2.4854
G1 X128.244 Y86.544 E2.5556
G1 X129.350 Y86.709 E2.6254
G1 X130.844 Y87.016 E2.7205
G1 X132.105 Y87.355 E2.8019
G1 X133.349 Y87.767 E2.8836
G1 X134.561 Y88.246 E2.9649
G1 X135.864 Y88.855 E3.0546
G1 X136.776 Y89.357 E3.1195
G1 X135.983 Y90.322 E3.1974
G1 X134.721 Y92.043 E3.3305
G1 X133.946 Y91.618 E3.3856
G1 X132.867 Y91.115 E3.4599
G1 X131.862 Y90.718 E3.5273
G1 X130.833 Y90.378 E3.5949
G1 X129.787 Y90.097 E3.6624
G1 X128.568 Y89.846 E3.7400
G1 X127.647 Y89.709 E3.7981
G1 X126.725 Y89.616 E3.8559
G1 X125.929 Y89.571 E3.9056
G1 X125.132 Y89.557 E3.9553
G1 X123.130 Y89.614 E4.0802
G1 X126.505 Y98.980 E4.7011
G1 X119.132 Y101.637 E5.1899
G1 X118.944 Y101.705 F1080
; outer perimeter
G1 X118.643 Y102.344 F4800
G92 E0
G1 X115.213 Y92.825 E0.6310 F960
G1 X114.082 Y93.586 E0.7160
G1 X113.496 Y94.027 E0.7618
G1 X112.960 Y94.465 E0.8050
G1 X112.445 Y94.921 E0.8478
G1 X112.041 Y95.307 E0.8826
G1 X111.300 Y96.100 E0.9503
G1 X110.650 Y95.680 E0.9986
G1 X107.638 Y93.510 E1.2301
G1 X108.595 Y92.503 E1.3167
G1 X109.098 Y92.024 E1.3600
G1 X109.750 Y91.446 E1.4144
G1 X110.428 Y90.892 E1.4689
G1 X111.166 Y90.336 E1.5266
G1 X111.928 Y89.810 E1.5843
G1 X112.713 Y89.314 E1.6422
G1 X114.063 Y88.559 E1.7387
G1 X115.464 Y87.892 E1.8355
G1 X117.687 Y87.051 E1.9837
G1 X119.001 Y86.666 E2.0690
G1 X120.340 Y86.355 E2.1548
G1 X121.638 Y86.127 E2.2370
G1 X122.949 Y85.969 E2.3193
G1 X124.070 Y85.889 E2.3894
G1 X125.194 Y85.860 E2.4595
G1 X126.180 Y85.877 E2.5210
G1 X127.163 Y85.933 E2.5825
G1 X128.306 Y86.048 E2.6541
G1 X129.438 Y86.216 E2.7254
G1 X130.959 Y86.529 E2.8223
G1 X132.249 Y86.876 E2.9056
G1 X133.520 Y87.297 E2.9891
G1 X134.758 Y87.786 E3.0721
G1 X136.091 Y88.408 E3.1638
G1 X137.359 Y89.106 E3.2541
G1 X137.524 Y89.234 E3.2671
G1 X136.378 Y90.629 E3.3797
G1 X134.865 Y92.692 E3.5393
G1 X133.720 Y92.065 E3.6207
G1 X132.670 Y91.574 E3.6930
G1 X131.692 Y91.188 E3.7586
G1 X130.689 Y90.857 E3.8244
G1 X129.671 Y90.583 E3.8901
G1 X128.481 Y90.338 E3.9659
G1 X127.585 Y90.206 E4.0224
G1 X126.686 Y90.115 E4.0787
G1 X125.910 Y90.071 E4.1272
G1 X125.135 Y90.058 E4.1756
G1 X123.835 Y90.094 E4.2567
G1 X127.145 Y99.281 E4.8657
G1 X118.831 Y102.277 E5.4168
G1 X118.643 Y102.344 F960
G1 X117.965 Y100.463 F2400
; inner perimeter
G1 X121.406 Y99.576 F4800
G92 E0
G1 X121.736 Y99.543 E0.0207 F1080
G1 X122.061 Y99.477 E0.0414
G1 X122.378 Y99.380 E0.0620
G1 X122.684 Y99.253 E0.0827
G1 X122.976 Y99.096 E0.1034
G1 X123.251 Y98.911 E0.1240
G1 X123.507 Y98.700 E0.1447
G1 X123.741 Y98.465 E0.1654
G1 X123.950 Y98.209 E0.1861
G1 X124.134 Y97.933 E0.2067
G1 X124.290 Y97.640 E0.2274
G1 X124.416 Y97.333 E0.2481
G1 X124.511 Y97.016 E0.2688
G1 X124.575 Y96.691 E0.2894
G1 X124.607 Y96.361 E0.3101
G1 X124.606 Y96.029 E0.3308
G1 X124.573 Y95.699 E0.3515
G1 X124.508 Y95.374 E0.3721
G1 X124.411 Y95.057 E0.3928
G1 X124.283 Y94.751 E0.4135
G1 X124.126 Y94.459 E0.4342
G1 X123.942 Y94.184 E0.4548
G1 X123.731 Y93.928 E0.4755
G1 X123.496 Y93.694 E0.4962
G1 X123.239 Y93.485 E0.5168
G1 X122.963 Y93.301 E0.5375
G1 X122.670 Y93.146 E0.5582
G1 X122.364 Y93.019 E0.5789
G1 X122.046 Y92.924 E0.5995
G1 X121.721 Y92.860 E0.6202
G1 X121.391 Y92.828 E0.6409
G1 X121.060 Y92.829 E0.6616
G1 X120.730 Y92.862 E0.6822
G1 X120.405 Y92.927 E0.7029
G1 X120.088 Y93.024 E0.7236
G1 X119.782 Y93.152 E0.7443
G1 X119.490 Y93.309 E0.7649
G1 X119.215 Y93.494 E0.7856
G1 X118.959 Y93.704 E0.8063
G1 X118.725 Y93.939 E0.8269
G1 X118.515 Y94.196 E0.8476
G1 X118.331 Y94.472 E0.8683
G1 X118.176 Y94.765 E0.8890
G1 X118.050 Y95.071 E0.9096
G1 X117.954 Y95.389 E0.9303
G1 X117.890 Y95.714 E0.9510
G1 X117.858 Y96.044 E0.9717
G1 X117.859 Y96.377 E0.9924
G1 X117.894 Y96.715 E1.0136
G1 X117.958 Y97.030 E1.0337
G1 X118.055 Y97.348 E1.0544
G1 X118.182 Y97.653 E1.0750
G1 X118.339 Y97.945 E1.0957
G1 X118.524 Y98.221 E1.1164
G1 X118.735 Y98.477 E1.1371
G1 X118.970 Y98.710 E1.1577
G1 X119.226 Y98.920 E1.1784
G1 X119.502 Y99.104 E1.1991
G1 X119.795 Y99.259 E1.2198
G1 X120.102 Y99.386 E1.2404
G1 X120.419 Y99.481 E1.2611
G1 X120.744 Y99.545 E1.2818
G1 X121.074 Y99.577 E1.3024
G1 X121.206 Y99.576 E1.3106
G1 X121.406 Y99.576 F1080
; outer perimeter
G1 X121.380 Y99.076 F4800
G92 E0
G1 X121.661 Y99.048 E0.0176 F960
G1 X121.938 Y98.992 E0.0352
G1 X122.208 Y98.910 E0.0528
G1 X122.469 Y98.801 E0.0704
G1 X122.718 Y98.667 E0.0881
G1 X122.952 Y98.510 E0.1057
G1 X123.170 Y98.330 E0.1233
G1 X123.369 Y98.130 E0.1409
G1 X123.548 Y97.911 E0.1585
G1 X123.704 Y97.676 E0.1761
G1 X123.837 Y97.427 E0.1937
G1 X123.944 Y97.166 E0.2113
G1 X124.026 Y96.895 E0.2289
G1 X124.080 Y96.618 E0.2465
G1 X124.107 Y96.337 E0.2642
G1 X124.106 Y96.055 E0.2818
G1 X124.078 Y95.774 E0.2994
G1 X124.022 Y95.497 E0.3170
G1 X123.940 Y95.227 E0.3346
G1 X123.831 Y94.966 E0.3522
G1 X123.698 Y94.718 E0.3698
G1 X123.540 Y94.483 E0.3874
G1 X123.361 Y94.265 E0.4050
G1 X123.160 Y94.066 E0.4226
G1 X122.942 Y93.887 E0.4403
G1 X122.707 Y93.731 E0.4579
G1 X122.457 Y93.599 E0.4755
G1 X122.196 Y93.491 E0.4931
G1 X121.926 Y93.410 E0.5107
G1 X121.649 Y93.355 E0.5283
G1 X121.368 Y93.328 E0.5459
G1 X121.085 Y93.329 E0.5635
G1 X120.804 Y93.357 E0.5811
G1 X120.527 Y93.413 E0.5987
