; generated by PrusaSlicer 2.2.0+win64 on 2020-11-03 at 00:00:26 UTC

; 

; external perimeters extrusion width = 0.45mm
; perimeters extrusion width = 0.45mm
; infill extrusion width = 0.45mm
; solid infill extrusion width = 0.45mm
; top infill extrusion width = 0.40mm
; support material extrusion width = 0.35mm
; first layer extrusion width = 0.42mm

; external perimeters extrusion width = 0.45mm
; perimeters extrusion width = 0.45mm
; infill extrusion width = 0.45mm
; solid infill extrusion width = 0.45mm
; top infill extrusion width = 0.40mm
; support material extrusion width = 0.35mm
; first layer extrusion width = 0.42mm

; external perimeters extrusion width = 0.45mm
; perimeters extrusion width = 0.45mm
; infill extrusion width = 0.45mm
; solid infill extrusion width = 0.45mm
; top infill extrusion width = 0.40mm
; support material extrusion width = 0.35mm
; first layer extrusion width = 0.42mm

; external perimeters extrusion width = 0.45mm
; perimeters extrusion width = 0.45mm
; infill extrusion width = 0.45mm
; solid infill extrusion width = 0.45mm
; top infill extrusion width = 0.40mm
; support material extrusion width = 0.35mm
; first layer extrusion width = 0.42mm

M73 P0 R105
M73 Q0 S106
M201 X1000 Y1000 Z1000 E5000 ; sets maximum accelerations, mm/sec^2
M203 X200 Y200 Z12 E120 ; sets maximum feedrates, mm/sec
M204 P1250 R1250 T1250 ; sets acceleration (P, T) and retract acceleration (R), mm/sec^2
M205 X8.00 Y8.00 Z0.40 E1.50 ; sets the jerk limits, mm/sec
M205 S0 T0 ; sets the minimum extruding and travel feed rate, mm/sec
M107
M862.3 P "MK3S" ; printer model check
M862.1 P0.4 ; nozzle diameter check
M115 U3.8.0 ; tell printer latest fw version
G90 ; use absolute coordinates
M83 ; extruder relative mode
M104 S215 ; set extruder temp
M140 S60 ; set bed temp
M190 S60 ; wait for bed temp
M109 S215 ; wait for extruder temp
G28 W ; home all without mesh bed level
G80 ; mesh bed leveling
G1 Y-3.0 F1000.0 ; go outside print area
G92 E0.0
G1 X60.0 E9.0 F1000.0 ; intro line
M73 Q0 S106
M73 P0 R105
G1 X100.0 E12.5 F1000.0 ; intro line
G92 E0.0
M221 S95
G21 ; set units to millimeters
G90 ; use absolute coordinates
M83 ; use relative distances for extrusion
M900 K0.06 ; Filament gcode LA 1.5
M900 K30 ; Filament gcode LA 1.0
;BEFORE_LAYER_CHANGE
G92 E0.0
;0.2


G1 E-0.80000 F2100.00000
G1 Z0.600 F10800.000
;AFTER_LAYER_CHANGE
;0.2
G1 X79.861 Y79.807
G1 Z0.200
G1 E0.80000 F2100.00000
M204 S1000
G1 F1200.000
G1 X70.654 Y89.014 E0.40826
G1 X71.187 Y89.547 E0.02365
G1 X80.274 Y80.460 E0.40294
G1 X80.807 Y80.993 E0.02365
G1 X71.720 Y90.081 E0.40294
G1 X72.253 Y90.614 E0.02365
G1 X81.340 Y81.527 E0.40294
G1 X81.874 Y82.060 E0.02365
G1 X72.787 Y91.147 E0.40294
G1 X73.320 Y91.680 E0.02365
G1 X82.407 Y82.593 E0.40294
G1 X82.661 Y82.848 E0.01128
G1 X84.293 Y81.216 E0.07234
G1 X84.572 Y81.495 E0.01236
G1 X73.853 Y92.214 E0.47527
G1 X74.386 Y92.747 E0.02365
G1 X85.105 Y82.028 E0.47527
G1 X85.638 Y82.562 E0.02365
G1 X74.920 Y93.280 E0.47527
G1 X75.453 Y93.813 E0.02365
G1 X87.803 Y81.464 E0.54761
G1 X88.336 Y81.997 E0.02365
G1 X75.986 Y94.347 E0.54761
G1 X76.520 Y94.880 E0.02365
G1 X88.869 Y82.530 E0.54761
G1 X89.403 Y83.063 E0.02365
G1 X77.053 Y95.413 E0.54761
G1 X77.586 Y95.947 E0.02365
G1 X89.936 Y83.597 E0.54761
G1 X90.469 Y84.130 E0.02365
G1 X78.119 Y96.480 E0.54761
G1 X78.653 Y97.013 E0.02365
G1 X91.002 Y84.663 E0.54761
G1 X91.536 Y85.197 E0.02365
G1 X79.186 Y97.546 E0.54761
G1 X79.719 Y98.080 E0.02365
G1 X92.069 Y85.730 E0.54761
G1 X92.602 Y86.263 E0.02365
G1 X84.375 Y94.490 E0.36479
G1 X85.334 Y93.798 E0.03707
G1 X87.222 Y92.710 E0.06832
G1 X93.135 Y86.796 E0.26221
G1 X93.669 Y87.330 E0.02365
G1 X89.166 Y91.833 E0.19968
G1 X89.466 Y91.703 E0.01026
G1 X90.791 Y91.274 E0.04367
G1 X94.202 Y87.863 E0.15125
G1 X94.735 Y88.396 E0.02365
G1 X92.045 Y91.086 E0.11929
G1 E-0.80000 F2100.00000
G1 Z0.800 F10800.000
G1 X78.256 Y112.341
G1 Z0.200
G1 E0.80000 F2100.00000
G1 F1200.000
G1 X79.384 Y111.214 E0.05000
G1 X79.883 Y111.184 E0.01569
G1 X80.166 Y110.932 E0.01188
G1 X80.257 Y110.340 E0.01877
G1 X80.523 Y110.074 E0.01180
G1 X81.057 Y110.607 E0.02365
G1 X78.634 Y113.030 E0.10743
G1 X78.721 Y113.146 E0.00455
G1 X78.864 Y113.280 E0.00616
G1 X79.028 Y113.389 E0.00616
G1 X79.250 Y113.480 E0.00752
G1 X81.590 Y111.140 E0.10376
G1 X82.123 Y111.674 E0.02365
G1 X80.033 Y113.764 E0.09267
G1 X80.120 Y113.858 E0.00401
G1 X80.120 Y114.744 E0.02778
G1 X82.656 Y112.207 E0.11249
G1 X83.190 Y112.740 E0.02365
G1 X80.120 Y115.810 E0.13613
G1 X80.120 Y116.877 E0.03344
G1 X83.723 Y113.274 E0.15978
G1 X84.256 Y113.807 E0.02365
G1 X80.120 Y117.943 E0.18342
G1 X80.120 Y119.010 E0.03344
G1 X84.789 Y114.340 E0.20707
G1 X85.323 Y114.873 E0.02365
G1 X80.120 Y120.076 E0.23072
G1 X80.120 Y121.143 E0.03344
G1 X85.856 Y115.407 E0.25436
G1 X86.389 Y115.940 E0.02365
G1 X80.120 Y122.210 E0.27801
G1 X80.120 Y123.276 E0.03344
G1 X85.291 Y118.105 E0.22932
G1 X85.824 Y118.638 E0.02365
G1 X76.737 Y127.725 E0.40294
G1 X77.271 Y128.258 E0.02365
G1 X86.358 Y119.171 E0.40294
G1 X86.854 Y119.668 E0.02202
G1 X85.223 Y121.299 E0.07234
G1 X85.260 Y121.336 E0.00162
G1 X77.804 Y128.791 E0.33060
G1 X78.337 Y129.325 E0.02365
G1 X85.793 Y121.869 E0.33060
G1 X86.326 Y122.402 E0.02365
G1 X78.750 Y129.978 E0.33592
G1 X76.084 Y127.312 F10800.000
G1 F1200.000
G1 X78.907 Y124.488 E0.12519
G1 X78.807 Y124.430 E0.00363
G1 X78.477 Y123.852 E0.02087
G1 X75.671 Y126.658 E0.12442
G1 X75.138 Y126.125 E0.02365
G1 X78.089 Y123.174 E0.13085
G1 X77.700 Y122.496 E0.02451
G1 X74.604 Y125.592 E0.13729
G1 X74.071 Y125.059 E0.02365
G1 X77.359 Y121.771 E0.14578
G1 X77.032 Y121.031 E0.02536
G1 X73.538 Y124.525 E0.15496
G1 X73.004 Y123.992 E0.02365
G1 X76.706 Y120.290 E0.16414
G1 X76.440 Y119.490 E0.02644
G1 X72.471 Y123.459 E0.17598
G1 X71.938 Y122.925 E0.02365
G1 X76.181 Y118.683 E0.18813
G1 X75.934 Y117.863 E0.02684
G1 X71.405 Y122.392 E0.20082
G1 X70.871 Y121.859 E0.02365
G1 X75.749 Y116.981 E0.21629
G1 X75.565 Y116.099 E0.02826
G1 X70.338 Y121.326 E0.23175
G1 X70.312 Y121.299 E0.00118
G1 X71.943 Y119.668 E0.07234
G1 X71.436 Y119.161 E0.02247
G1 X75.433 Y115.164 E0.17721
G1 X75.334 Y114.197 E0.03050
G1 X70.903 Y118.628 E0.19649
G1 X70.370 Y118.094 E0.02365
G1 X75.259 Y113.205 E0.21681
G1 X75.262 Y112.135 E0.03354
G1 X69.836 Y117.561 E0.24059
G1 X69.303 Y117.028 E0.02365
G1 X75.275 Y111.056 E0.26478
G1 X75.404 Y109.861 E0.03770
G1 X68.650 Y116.615 E0.29947
G1 E-0.80000 F2100.00000
G1 Z0.800 F10800.000
G1 X114.573 Y110.154
G1 Z0.200
G1 E0.80000 F2100.00000
G1 F1200.000
G1 X108.077 Y116.649 E0.28804
G1 X108.610 Y117.183 E0.02365
G1 X114.701 Y111.092 E0.27007
G1 X114.804 Y111.184 E0.00432
G1 X115.234 Y111.199 E0.01349
G1 X115.426 Y111.239 E0.00616
G1 X115.566 Y111.293 E0.00471
G1 X109.144 Y117.716 E0.28479
G1 X109.464 Y118.036 E0.01421
G1 X107.833 Y119.668 E0.07234
G1 X108.046 Y119.881 E0.00944
G1 X116.121 Y111.806 E0.35806
G1 X116.221 Y112.044 E0.00811
G1 X116.259 Y112.237 E0.00616
G1 X116.264 Y112.433 E0.00616
G1 X116.235 Y112.628 E0.00617
G1 X116.172 Y112.821 E0.00637
G1 X115.558 Y113.434 E0.02720
G1 X115.289 Y113.518 E0.00883
G1 X114.845 Y113.556 E0.01398
G1 X114.568 Y113.858 E0.01286
G1 X114.568 Y114.425 E0.01779
G1 X108.579 Y120.414 E0.26555
G1 X109.112 Y120.947 E0.02365
G1 X114.568 Y115.492 E0.24190
G1 X114.568 Y116.558 E0.03344
G1 X108.014 Y123.112 E0.29059
G1 X108.547 Y123.645 E0.02365
G1 X114.568 Y117.625 E0.26695
G1 X114.568 Y118.691 E0.03344
G1 X109.081 Y124.178 E0.24330
G1 X109.614 Y124.712 E0.02365
G1 X114.568 Y119.758 E0.21965
G1 X114.568 Y120.824 E0.03344
G1 X110.147 Y125.245 E0.19601
G1 X110.680 Y125.778 E0.02365
G1 X114.568 Y121.891 E0.17236
G1 X114.568 Y122.958 E0.03344
G1 X111.214 Y126.311 E0.14872
G1 X111.747 Y126.845 E0.02365
G1 X114.568 Y124.024 E0.12507
G1 X114.568 Y124.264 E0.00752
G1 X114.876 Y124.572 E0.01366
G1 X115.086 Y124.572 E0.00659
G1 X112.160 Y127.498 E0.12973
G1 X114.827 Y130.164 F10800.000
G1 F1200.000
G1 X125.665 Y119.326 E0.48059
G1 X125.132 Y118.793 E0.02365
G1 X114.413 Y129.511 E0.47527
G1 X113.880 Y128.978 E0.02365
G1 X124.598 Y118.259 E0.47527
G1 X124.065 Y117.726 E0.02365
G1 X113.347 Y128.444 E0.47527
G1 X112.813 Y127.911 E0.02365
G1 X123.532 Y117.193 E0.47527
G1 X122.999 Y116.660 E0.02365
G1 X116.752 Y122.907 E0.27700
G1 X117.092 Y122.308 E0.02157
G1 X117.729 Y120.862 E0.04955
G1 X124.097 Y114.495 E0.28234
G1 X123.563 Y113.962 E0.02365
G1 X118.349 Y119.176 E0.23123
G1 X118.713 Y118.042 E0.03736
G1 X118.794 Y117.664 E0.01212
G1 X123.030 Y113.428 E0.18782
G1 X122.497 Y112.895 E0.02365
G1 X119.076 Y116.316 E0.15167
G1 X119.194 Y115.749 E0.01816
G1 X119.265 Y115.061 E0.02168
G1 X121.964 Y112.362 E0.11967
G1 X121.430 Y111.829 E0.02365
G1 X119.386 Y113.873 E0.09066
G1 X119.428 Y113.448 E0.01340
G1 X119.427 Y112.766 E0.02139
G1 X120.897 Y111.295 E0.06520
G1 X120.364 Y110.762 E0.02365
G1 X119.424 Y111.702 E0.04169
G1 X119.421 Y111.145 E0.01748
G1 X119.373 Y110.686 E0.01445
G1 X119.831 Y110.229 E0.02029
G1 X119.297 Y109.695 E0.02365
G1 X119.115 Y109.878 E0.00808
G1 E-0.80000 F2100.00000
G1 Z0.800 F10800.000
G1 X117.472 Y110.476
G1 Z0.200
G1 E0.80000 F2100.00000
G1 F1200.000
G1 X117.260 Y110.222 E0.01037
G1 X116.872 Y109.890 E0.01601
G1 X116.434 Y109.628 E0.01601
G1 X116.195 Y109.535 E0.00803
G1 X116.020 Y108.396 E0.03611
G1 X115.451 Y106.307 E0.06789
G1 X114.649 Y104.296 E0.06789
G1 X113.625 Y102.389 E0.06789
G1 X112.391 Y100.609 E0.06789
G1 X110.963 Y98.981 E0.06789
G1 X109.360 Y97.525 E0.06790
G1 X107.596 Y96.256 E0.06814
G1 X105.715 Y95.202 E0.06763
G1 X103.718 Y94.365 E0.06789
G1 X101.639 Y93.759 E0.06789
G1 X99.505 Y93.392 E0.06789
G1 X97.344 Y93.269 E0.06789
G1 X95.182 Y93.392 E0.06789
G1 X93.048 Y93.759 E0.06789
G1 X90.969 Y94.365 E0.06789
G1 X88.973 Y95.202 E0.06788
G1 X87.084 Y96.260 E0.06789
G1 X85.326 Y97.525 E0.06789
G1 X83.724 Y98.981 E0.06789
G1 X82.296 Y100.609 E0.06789
G1 X81.063 Y102.389 E0.06789
G1 X80.038 Y104.296 E0.06789
G1 X79.236 Y106.307 E0.06789
G1 X78.667 Y108.396 E0.06789
G1 X78.492 Y109.535 E0.03611
G1 X78.253 Y109.628 E0.00803
G1 X77.815 Y109.890 E0.01601
G1 X77.427 Y110.222 E0.01601
G1 X77.216 Y110.474 E0.01030
G1 X77.363 Y109.120 E0.04271
G1 X77.804 Y107.076 E0.06557
G1 X78.453 Y105.092 E0.06543
G1 X79.327 Y103.135 E0.06721
G1 X80.388 Y101.307 E0.06629
G1 X81.629 Y99.605 E0.06603
G1 X83.051 Y98.028 E0.06659
G1 X84.625 Y96.616 E0.06629
G1 X86.347 Y95.369 E0.06667
G1 X88.170 Y94.319 E0.06596
G1 X90.096 Y93.463 E0.06608
G1 X92.115 Y92.808 E0.06656
G1 X94.183 Y92.369 E0.06629
G1 X96.264 Y92.150 E0.06560
G1 X98.402 Y92.148 E0.06702
G1 X100.504 Y92.369 E0.06627
G1 X102.599 Y92.816 E0.06719
G1 X104.585 Y93.460 E0.06544
G1 X106.497 Y94.309 E0.06561
G1 X108.350 Y95.375 E0.06702
G1 X110.062 Y96.615 E0.06627
G1 X111.655 Y98.048 E0.06719
G1 X113.053 Y99.598 E0.06544
G1 X114.284 Y101.284 E0.06544
G1 X115.361 Y103.137 E0.06720
G1 X116.225 Y105.065 E0.06627
G1 X116.890 Y107.103 E0.06719
G1 X117.328 Y109.143 E0.06545
G1 X117.466 Y110.416 E0.04014
G1 E-0.80000 F2100.00000
G1 Z0.800 F10800.000
G1 X116.435 Y119.028
G1 Z0.200
G1 E0.80000 F2100.00000
G1 F1200.000
G1 X116.435 Y115.088 E0.12353
G1 X116.564 Y115.031 E0.00442
G1 X116.989 Y114.748 E0.01601
G1 X117.360 Y114.397 E0.01601
G1 X117.470 Y114.252 E0.00571
G1 X117.347 Y115.464 E0.03820
G1 X116.906 Y117.562 E0.06722
G1 X116.453 Y118.971 E0.04639
G1 E-0.80000 F2100.00000
G1 Z0.800 F10800.000
G1 X78.252 Y119.029
G1 Z0.200
G1 E0.80000 F2100.00000
G1 F1200.000
G1 X77.773 Y117.535 E0.04919
G1 X77.345 Y115.492 E0.06543
G1 X77.218 Y114.254 E0.03904
G1 X77.327 Y114.397 E0.00565
G1 X77.699 Y114.748 E0.01601
G1 X78.124 Y115.031 E0.01601
G1 X78.252 Y115.088 E0.00442
G1 X78.252 Y118.969 E0.12167
G1 E-0.80000 F2100.00000
G1 Z0.800 F10800.000
G1 X116.058 Y120.960
G1 Z0.200
G1 E0.80000 F2100.00000
G1 F1200.000
G1 X116.058 Y114.843 E0.19178
G1 X116.381 Y114.699 E0.01110
G1 X116.753 Y114.451 E0.01402
G1 X117.079 Y114.145 E0.01402
G1 X117.349 Y113.788 E0.01402
G1 X117.555 Y113.391 E0.01403
G1 X117.692 Y112.966 E0.01401
G1 X117.756 Y112.523 E0.01403
G1 X117.746 Y112.076 E0.01402
G1 X117.660 Y111.636 E0.01402
G1 X117.503 Y111.218 E0.01402
G1 X117.278 Y110.831 E0.01402
G1 X116.991 Y110.488 E0.01402
G1 X116.651 Y110.197 E0.01402
G1 X116.268 Y109.967 E0.01402
G1 X115.856 Y109.807 E0.01386
G1 X115.651 Y108.475 E0.04226
G1 X115.093 Y106.427 E0.06654
G1 X114.307 Y104.455 E0.06655
G1 X113.303 Y102.586 E0.06654
G1 X112.093 Y100.842 E0.06654
G1 X110.694 Y99.246 E0.06654
G1 X109.123 Y97.819 E0.06655
G1 X107.393 Y96.575 E0.06680
M73 Q1 S105
G1 X105.549 Y95.542 E0.06629
G1 X103.592 Y94.721 E0.06655
G1 X101.554 Y94.127 E0.06654
G1 X99.463 Y93.767 E0.06654
G1 X97.344 Y93.647 E0.06654
G1 X95.224 Y93.767 E0.06655
M73 P1 R104
G1 X93.133 Y94.127 E0.06655
G1 X91.095 Y94.721 E0.06654
G1 X89.138 Y95.542 E0.06653
G1 X87.287 Y96.579 E0.06655
G1 X85.564 Y97.819 E0.06654
G1 X83.993 Y99.246 E0.06654
G1 X82.594 Y100.842 E0.06654
G1 X81.385 Y102.586 E0.06654
G1 X80.380 Y104.456 E0.06654
G1 X79.594 Y106.427 E0.06654
G1 X79.036 Y108.475 E0.06654
G1 X78.831 Y109.807 E0.04226
G1 X78.420 Y109.967 E0.01386
G1 X78.036 Y110.197 E0.01402
G1 X77.696 Y110.488 E0.01402
G1 X77.409 Y110.831 E0.01402
G1 X77.184 Y111.218 E0.01402
G1 X77.027 Y111.636 E0.01402
G1 X76.942 Y112.076 E0.01402
G1 X76.931 Y112.523 E0.01402
G1 X76.995 Y112.965 E0.01402
G1 X77.132 Y113.391 E0.01402
G1 X77.339 Y113.788 E0.01402
G1 X77.608 Y114.145 E0.01402
G1 X77.934 Y114.451 E0.01402
G1 X78.306 Y114.699 E0.01402
G1 X78.629 Y114.843 E0.01110
G1 X78.629 Y120.957 E0.19170
G1 X78.058 Y119.659 E0.04447
G1 X77.408 Y117.631 E0.06676
G1 X76.972 Y115.550 E0.06666
G1 X76.749 Y113.379 E0.06844
G1 X76.755 Y111.226 E0.06752
G1 X76.991 Y109.060 E0.06830
G1 X77.440 Y106.977 E0.06680
G1 X78.101 Y104.957 E0.06666
G1 X78.991 Y102.963 E0.06844
G1 X80.071 Y101.100 E0.06753
G1 X81.335 Y99.367 E0.06727
G1 X82.785 Y97.761 E0.06783
G1 X84.387 Y96.322 E0.06753
G1 X86.142 Y95.052 E0.06790
G1 X87.999 Y93.982 E0.06719
G1 X89.961 Y93.110 E0.06732
G1 X92.017 Y92.443 E0.06780
G1 X94.124 Y91.996 E0.06752
G1 X96.244 Y91.773 E0.06684
G1 X98.421 Y91.771 E0.06826
G1 X100.563 Y91.996 E0.06752
G1 X102.697 Y92.451 E0.06843
G1 X104.720 Y93.108 E0.06667
G1 X106.668 Y93.973 E0.06684
G1 X108.556 Y95.058 E0.06826
G1 X110.299 Y96.321 E0.06752
G1 X111.922 Y97.781 E0.06843
G1 X113.346 Y99.360 E0.06667
G1 X114.600 Y101.077 E0.06667
G1 X115.697 Y102.964 E0.06844
G1 X116.577 Y104.930 E0.06752
G1 X117.254 Y107.004 E0.06843
G1 X117.701 Y109.083 E0.06668
G1 X117.930 Y111.197 E0.06667
G1 X117.938 Y113.380 E0.06843
G1 X117.720 Y115.522 E0.06751
G1 X117.271 Y117.659 E0.06845
G1 X116.620 Y119.682 E0.06665
G1 X116.082 Y120.905 E0.04189
G1 E-0.80000 F2100.00000
G1 Z0.800 F10800.000
G1 X79.006 Y122.537
G1 Z0.200
G1 E0.80000 F2100.00000
G1 F1200.000
G1 X78.599 Y121.824 E0.02575
G1 X77.705 Y119.793 E0.06958
G1 X77.043 Y117.728 E0.06799
G1 X76.599 Y115.608 E0.06789
G1 X76.372 Y113.398 E0.06968
G1 X76.378 Y111.205 E0.06877
G1 X76.618 Y109.000 E0.06954
G1 X77.075 Y106.879 E0.06803
G1 X77.748 Y104.821 E0.06789
G1 X78.655 Y102.791 E0.06968
G1 X79.755 Y100.894 E0.06877
G1 X81.042 Y99.129 E0.06850
G1 X82.518 Y97.494 E0.06906
G1 X84.150 Y96.028 E0.06878
G1 X85.936 Y94.735 E0.06914
G1 X87.827 Y93.646 E0.06843
G1 X89.825 Y92.758 E0.06855
G1 X91.920 Y92.078 E0.06904
G1 X94.065 Y91.623 E0.06876
G1 X96.224 Y91.396 E0.06807
G1 X98.441 Y91.394 E0.06950
G1 X100.622 Y91.623 E0.06877
G1 X102.795 Y92.086 E0.06967
G1 X104.855 Y92.755 E0.06790
G1 X106.839 Y93.636 E0.06807
G1 X108.761 Y94.741 E0.06950
G1 X110.537 Y96.028 E0.06877
G1 X112.188 Y97.514 E0.06967
G1 X113.640 Y99.122 E0.06790
G1 X114.916 Y100.871 E0.06790
G1 X116.033 Y102.792 E0.06967
G1 X116.929 Y104.794 E0.06876
G1 X117.619 Y106.906 E0.06967
G1 X118.074 Y109.023 E0.06790
G1 X118.307 Y111.176 E0.06790
G1 X118.315 Y113.398 E0.06967
G1 X118.093 Y115.580 E0.06876
G1 X117.636 Y117.755 E0.06969
G1 X116.973 Y119.816 E0.06788
G1 X116.101 Y121.798 E0.06789
G1 X115.681 Y122.534 E0.02657
G1 X115.681 Y114.567 E0.24979
G1 X115.848 Y114.524 E0.00541
G1 X116.198 Y114.368 E0.01203
