; generated by PrusaSlicer 2.1.1+win64 on 2020-06-25 at 17:53:10 UTC

; 

; external perimeters extrusion width = 0.45mm
; perimeters extrusion width = 0.45mm
; infill extrusion width = 0.45mm
; solid infill extrusion width = 0.45mm
; top infill extrusion width = 0.40mm
; support material extrusion width = 0.35mm
; first layer extrusion width = 0.42mm

M73 P0 R156
M73 Q0 S157
M201 X1000 Y1000 Z1000 E5000 ; sets maximum accelerations, mm/sec^2
M203 X200 Y200 Z12 E120 ; sets maximum feedrates, mm/sec
M204 P1250 R1250 T1250 ; sets acceleration (P, T) and retract acceleration (R), mm/sec^2
M205 X8.00 Y8.00 Z0.40 E4.50 ; sets the jerk limits, mm/sec
M205 S0 T0 ; sets the minimum extruding and travel feed rate, mm/sec
M107
M862.3 P "MK3S" ; printer model check
M862.1 P0.4 ; nozzle diameter check
M115 U3.8.1 ; tell printer latest fw version
G90 ; use absolute coordinates
M83 ; extruder relative mode
M104 S215 ; set extruder temp
M140 S60 ; set bed temp
M190 S60 ; wait for bed temp
M109 S215 ; wait for extruder temp
G28 W ; home all without mesh bed level
G80 ; mesh bed leveling
G1 Y-3.0 F1000.0 ; go outside print area
G92 E0.0
G1 X60.0 E9.0 F1000.0 ; intro line
M73 Q0 S157
M73 P0 R156
G1 X100.0 E12.5 F1000.0 ; intro line
G92 E0.0
M221 S95
G21 ; set units to millimeters
G90 ; use absolute coordinates
M83 ; use relative distances for extrusion
M900 K30 ; Filament gcode
;BEFORE_LAYER_CHANGE
G92 E0.0
;0.2


G1 E-0.80000 F2100.00000
G1 Z0.600 F10800.000
;AFTER_LAYER_CHANGE
;0.2
G1 X98.925 Y79.601
G1 Z0.200
G1 E0.80000 F2100.00000
M204 S1000
G1 F1200
G1 X99.674 Y78.936 E0.03141
G1 X100.544 Y78.429 E0.03158
G1 X101.497 Y78.103 E0.03158
G1 X102.490 Y77.971 E0.03141
G1 X147.162 Y77.968 E1.40066
G1 X148.469 Y78.140 E0.04130
G1 X149.687 Y78.641 E0.04130
G1 X150.736 Y79.438 E0.04130
G1 X151.542 Y80.473 E0.04113
G1 X154.196 Y86.693 E0.21205
G1 X156.501 Y92.955 E0.20922
G1 X156.759 Y94.224 E0.04061
G1 X156.772 Y117.024 E0.71485
G1 X156.704 Y117.845 E0.02584
G1 X156.530 Y118.565 E0.02322
G1 X156.252 Y119.254 E0.02328
G1 X151.685 Y128.567 E0.32523
G1 X150.895 Y129.696 E0.04321
G1 X150.110 Y130.387 E0.03280
G1 X149.205 Y130.901 E0.03263
G1 X148.209 Y131.221 E0.03280
G1 X147.169 Y131.331 E0.03280
G1 X102.500 Y131.159 E1.40058
G1 X101.599 Y131.050 E0.02845
G1 X100.727 Y130.780 E0.02862
G1 X99.922 Y130.362 E0.02845
G1 X99.204 Y129.807 E0.02845
G1 X98.674 Y129.235 E0.02444
G1 X98.235 Y128.585 E0.02462
G1 X95.738 Y123.699 E0.17203
G1 X95.367 Y122.638 E0.03523
G1 X95.238 Y121.528 E0.03506
G1 X95.258 Y88.055 E1.04952
G1 X95.372 Y87.340 E0.02270
G1 X95.585 Y86.653 E0.02253
G1 X97.991 Y81.032 E0.19173
G1 X98.398 Y80.277 E0.02688
G1 X98.888 Y79.648 E0.02500
G1 F8640
G1 X99.674 Y78.936 E-0.24493
G1 X100.544 Y78.429 E-0.23258
G1 X101.497 Y78.103 E-0.23258
G1 X101.712 Y78.074 E-0.04991
G1 E-0.04000 F2100.00000
G1 Z0.800 F10800.000
G1 X153.983 Y90.332
G1 Z0.200
G1 E0.80000 F2100.00000
G1 F1200
G1 X154.783 Y90.860 E0.03003
G1 X155.704 Y91.805 E0.04137
G1 X156.344 Y93.009 E0.04277
G1 X156.558 Y93.909 E0.02901
G1 X156.584 Y117.522 E0.74036
G1 X156.280 Y118.766 E0.04017
G1 X155.712 Y119.788 E0.03663
G1 X154.694 Y120.819 E0.04544
G1 X153.947 Y121.248 E0.02700
G1 X153.915 Y122.458 E0.03796
G1 X153.570 Y123.514 E0.03482
G1 X153.007 Y124.409 E0.03315
G1 X152.049 Y125.355 E0.04222
G1 X152.033 Y126.946 E0.04988
G1 X151.665 Y128.210 E0.04131
G1 X151.110 Y129.116 E0.03330
G1 X150.323 Y129.931 E0.03554
G1 X148.779 Y130.771 E0.05510
G1 X147.941 Y130.938 E0.02678
G1 X147.009 Y130.946 E0.02922
G1 X146.750 Y130.973 E0.00819
G1 X142.315 Y130.973 E0.13905
G1 X141.710 Y130.948 E0.01898
G1 X141.470 Y130.973 E0.00755
G1 X102.207 Y130.973 E1.23109
G1 X100.877 Y130.653 E0.04288
G1 X99.880 Y130.135 E0.03523
G1 X98.670 Y128.940 E0.05334
G1 X98.103 Y127.924 E0.03647
G1 X97.824 Y126.994 E0.03045
G1 X97.781 Y125.400 E0.04998
G1 X96.581 Y124.168 E0.05394
G1 X96.022 Y123.072 E0.03856
G1 X95.788 Y121.918 E0.03691
G1 X95.788 Y117.725 E0.13148
G1 X95.497 Y116.545 E0.03810
G1 X95.497 Y93.229 E0.73105
G1 X95.788 Y92.074 E0.03737
G1 X95.788 Y87.990 E0.12803
G1 X96.089 Y86.757 E0.03980
G1 X96.579 Y85.833 E0.03277
G1 X97.550 Y84.799 E0.04449
G1 X97.763 Y84.645 E0.00824
G1 X97.795 Y82.285 E0.07401
G1 X98.159 Y81.077 E0.03955
G1 X98.818 Y80.049 E0.03830
G1 X99.834 Y79.119 E0.04318
G1 X101.076 Y78.519 E0.04324
G1 X102.082 Y78.342 E0.03203
G1 X102.816 Y78.353 E0.02302
G1 X103.069 Y78.326 E0.00797
G1 X146.750 Y78.326 E1.36958
G1 X147.002 Y78.353 E0.00797
G1 X147.747 Y78.342 E0.02336
G1 X148.897 Y78.571 E0.03676
G1 X149.997 Y79.125 E0.03861
G1 X151.095 Y80.164 E0.04739
G1 X151.667 Y81.096 E0.03430
G1 X152.012 Y82.213 E0.03664
G1 X152.051 Y84.649 E0.07638
G1 X153.086 Y85.689 E0.04600
G1 X153.888 Y87.365 E0.05828
G1 X153.983 Y88.102 E0.02328
G1 X153.983 Y90.272 E0.06806
G1 F8640
G1 X154.783 Y90.860 E-0.22910
G1 X155.704 Y91.805 E-0.30468
G1 X156.164 Y92.670 E-0.22623
G1 E-0.04000 F2100.00000
G1 Z0.800 F10800.000
G1 X151.676 Y84.869
G1 Z0.200
G1 E0.80000 F2100.00000
G1 F1200
G1 X151.851 Y84.982 E0.00654
G1 X152.761 Y85.883 E0.04014
G1 X153.519 Y87.445 E0.05443
G1 X153.606 Y88.114 E0.02116
G1 X153.606 Y90.596 E0.07782
G1 X153.841 Y90.691 E0.00794
G1 X154.529 Y91.140 E0.02576
G1 X155.384 Y92.006 E0.03816
G1 X155.999 Y93.164 E0.04109
G1 X156.186 Y93.973 E0.02603
G1 X156.207 Y117.499 E0.73764
G1 X155.920 Y118.650 E0.03719
G1 X155.397 Y119.580 E0.03345
G1 X154.446 Y120.534 E0.04223
G1 X153.574 Y121.024 E0.03138
G1 X153.547 Y122.370 E0.04221
G1 X153.237 Y123.335 E0.03179
G1 X152.726 Y124.157 E0.03033
G1 X151.865 Y125.007 E0.03795
G1 X151.674 Y125.130 E0.00712
G1 X151.656 Y126.915 E0.05596
G1 X151.311 Y128.078 E0.03804
G1 X150.801 Y128.899 E0.03031
G1 X150.072 Y129.648 E0.03276
G1 X148.677 Y130.407 E0.04980
G1 X147.886 Y130.565 E0.02530
G1 X146.988 Y130.569 E0.02815
G1 X146.739 Y130.596 E0.00785
G1 X142.319 Y130.596 E0.13858
G1 X141.697 Y130.570 E0.01952
G1 X141.460 Y130.596 E0.00748
G1 X102.230 Y130.596 E1.23003
G1 X100.990 Y130.293 E0.04002
G1 X100.082 Y129.815 E0.03218
G1 X98.955 Y128.692 E0.04985
G1 X98.444 Y127.761 E0.03332
G1 X98.193 Y126.912 E0.02777
G1 X98.153 Y125.162 E0.05487
G1 X97.911 Y125.010 E0.00897
G1 X96.904 Y123.971 E0.04535
G1 X96.370 Y122.924 E0.03686
G1 X96.165 Y121.900 E0.03275
G1 X96.165 Y117.678 E0.13238
G1 X95.874 Y116.521 E0.03739
G1 X95.874 Y93.254 E0.72955
G1 X96.165 Y92.122 E0.03664
G1 X96.165 Y88.014 E0.12881
G1 X96.449 Y86.872 E0.03689
G1 X96.898 Y86.035 E0.02979
G1 X97.809 Y85.075 E0.04148
G1 X98.138 Y84.847 E0.01257
G1 X98.165 Y82.366 E0.07778
G1 X98.492 Y81.256 E0.03629
G1 X99.093 Y80.308 E0.03519
G1 X100.025 Y79.445 E0.03984
G1 X101.169 Y78.885 E0.03991
G1 X102.095 Y78.719 E0.02950
G1 X102.834 Y78.730 E0.02319
G1 X103.080 Y78.703 E0.00773
G1 X146.739 Y78.703 E1.36891
G1 X146.984 Y78.730 E0.00773
G1 X147.732 Y78.719 E0.02346
G1 X148.796 Y78.936 E0.03404
G1 X149.801 Y79.448 E0.03535
G1 X150.816 Y80.418 E0.04404
G1 X151.332 Y81.270 E0.03123
G1 X151.643 Y82.296 E0.03360
G1 X151.676 Y84.809 E0.07879
G1 X151.301 Y85.090 F10800.000
G1 F1200
G1 X151.608 Y85.271 E0.01117
G1 X152.438 Y86.079 E0.03632
G1 X153.149 Y87.526 E0.05054
G1 X153.229 Y88.127 E0.01901
G1 X153.229 Y90.866 E0.08587
G1 X153.656 Y91.020 E0.01424
G1 X154.305 Y91.444 E0.02432
G1 X155.095 Y92.250 E0.03536
G1 X155.653 Y93.315 E0.03772
G1 X155.813 Y94.034 E0.02308
G1 X155.830 Y117.475 E0.73498
G1 X155.561 Y118.531 E0.03417
G1 X155.083 Y119.370 E0.03027
G1 X154.200 Y120.247 E0.03901
G1 X153.201 Y120.798 E0.03578
G1 X153.171 Y122.334 E0.04820
G1 X152.904 Y123.157 E0.02712
G1 X152.445 Y123.905 E0.02750
G1 X151.619 Y124.720 E0.03639
G1 X151.299 Y124.910 E0.01166
G1 X151.280 Y126.884 E0.06188
G1 X150.958 Y127.943 E0.03471
G1 X150.493 Y128.680 E0.02732
G1 X149.823 Y129.364 E0.03001
G1 X148.575 Y130.043 E0.04454
G1 X147.830 Y130.191 E0.02382
G1 X146.966 Y130.191 E0.02711
G1 X146.727 Y130.219 E0.00753
G1 X142.323 Y130.219 E0.13810
G1 X141.683 Y130.192 E0.02009
G1 X141.448 Y130.219 E0.00740
G1 X102.253 Y130.219 E1.22894
G1 X101.104 Y129.933 E0.03712
G1 X100.285 Y129.496 E0.02912
G1 X99.243 Y128.447 E0.04636
G1 X98.786 Y127.600 E0.03016
G1 X98.563 Y126.831 E0.02511
G1 X98.527 Y124.940 E0.05931
G1 X98.160 Y124.725 E0.01331
G1 X97.227 Y123.774 E0.04179
G1 X96.718 Y122.776 E0.03511
G1 X96.543 Y121.882 E0.02858
G1 X96.543 Y117.629 E0.13333
G1 X96.251 Y116.497 E0.03666
G1 X96.251 Y93.278 E0.72801
G1 X96.543 Y92.171 E0.03589
G1 X96.543 Y88.038 E0.12961
G1 X96.809 Y86.988 E0.03394
G1 X97.217 Y86.238 E0.02680
G1 X98.066 Y85.351 E0.03848
G1 X98.514 Y85.050 E0.01694
G1 X98.534 Y82.445 E0.08168
G1 X98.826 Y81.433 E0.03303
G1 X99.369 Y80.566 E0.03209
G1 X100.219 Y79.769 E0.03650
G1 X101.263 Y79.251 E0.03657
G1 X102.108 Y79.097 E0.02693
G1 X102.854 Y79.107 E0.02339
G1 X103.091 Y79.080 E0.00748
G1 X146.727 Y79.080 E1.36819
G1 X146.964 Y79.107 E0.00748
G1 X147.717 Y79.097 E0.02359
G1 X148.694 Y79.299 E0.03128
G1 X149.602 Y79.770 E0.03207
G1 X150.535 Y80.671 E0.04069
G1 X150.996 Y81.443 E0.02816
G1 X151.274 Y82.378 E0.03059
G1 X151.301 Y85.030 E0.08315
G1 X150.926 Y85.314 F10800.000
G1 F1200
G1 X151.364 Y85.560 E0.01577
G1 X152.151 Y86.327 E0.03446
G1 X152.780 Y87.607 E0.04470
G1 X152.852 Y88.140 E0.01687
G1 X152.852 Y91.138 E0.09399
G1 X153.471 Y91.350 E0.02051
G1 X154.081 Y91.749 E0.02287
G1 X154.805 Y92.492 E0.03252
G1 X155.306 Y93.465 E0.03431
G1 X155.440 Y94.093 E0.02014
G1 X155.453 Y105.611 E0.36115
G1 X155.429 Y105.803 E0.00606
G1 X155.453 Y105.995 E0.00606
G1 X155.453 Y117.450 E0.35918
G1 X155.203 Y118.412 E0.03115
G1 X154.799 Y119.120 E0.02557
G1 X153.954 Y119.960 E0.03735
G1 X153.160 Y120.391 E0.02831
G1 X152.830 Y120.487 E0.01080
G1 X152.794 Y122.297 E0.05677
G1 X152.553 Y123.016 E0.02377
G1 X152.164 Y123.652 E0.02339
G1 X151.373 Y124.432 E0.03482
G1 X150.924 Y124.686 E0.01616
G1 X150.903 Y126.852 E0.06791
G1 X150.606 Y127.806 E0.03132
G1 X150.187 Y128.459 E0.02434
G1 X149.575 Y129.079 E0.02732
G1 X148.473 Y129.679 E0.03931
G1 X147.776 Y129.818 E0.02231
G1 X146.944 Y129.814 E0.02608
G1 X146.715 Y129.842 E0.00721
G1 X142.327 Y129.842 E0.13760
G1 X141.667 Y129.814 E0.02070
G1 X141.436 Y129.842 E0.00729
G1 X102.277 Y129.842 E1.22781
G1 X101.221 Y129.574 E0.03418
G1 X100.490 Y129.178 E0.02605
G1 X99.532 Y128.203 E0.04286
G1 X99.129 Y127.442 E0.02699
G1 X98.932 Y126.753 E0.02249
G1 X98.901 Y124.714 E0.06392
G1 X98.407 Y124.439 E0.01772
G1 X97.549 Y123.576 E0.03816
G1 X97.066 Y122.629 E0.03332
G1 X96.920 Y121.864 E0.02442
G1 X96.920 Y117.580 E0.13433
G1 X96.628 Y116.472 E0.03591
G1 X96.628 Y93.304 E0.72643
G1 X96.920 Y92.222 E0.03513
G1 X96.920 Y88.062 E0.13042
G1 X97.167 Y87.107 E0.03094
G1 X97.534 Y86.443 E0.02380
G1 X98.321 Y85.629 E0.03548
G1 X98.891 Y85.255 E0.02137
G1 X98.904 Y82.522 E0.08569
G1 X99.162 Y81.608 E0.02978
G1 X99.647 Y80.821 E0.02899
G1 X100.414 Y80.093 E0.03315
G1 X101.360 Y79.617 E0.03321
G1 X102.122 Y79.474 E0.02431
G1 X102.875 Y79.485 E0.02361
G1 X103.103 Y79.457 E0.00721
G1 X146.715 Y79.457 E1.36744
G1 X146.944 Y79.485 E0.00721
G1 X147.701 Y79.474 E0.02373
G1 X148.589 Y79.662 E0.02847
G1 X149.401 Y80.090 E0.02878
G1 X150.253 Y80.922 E0.03735
G1 X150.658 Y81.612 E0.02509
G1 X150.905 Y82.457 E0.02760
G1 X150.925 Y85.254 E0.08768
G1 X150.549 Y85.541 F10800.000
G1 F1200
G1 X151.121 Y85.850 E0.02036
G1 X151.865 Y86.574 E0.03257
G1 X152.410 Y87.689 E0.03889
G1 X152.475 Y88.153 E0.01471
G1 X152.475 Y91.412 E0.10218
G1 X153.286 Y91.679 E0.02678
G1 X153.857 Y92.052 E0.02139
G1 X154.513 Y92.732 E0.02962
G1 X154.957 Y93.611 E0.03087
G1 X155.067 Y94.149 E0.01721
G1 X155.076 Y105.598 E0.35898
G1 X155.048 Y105.803 E0.00649
G1 X155.076 Y106.008 E0.00649
G1 X155.076 Y117.425 E0.35798
G1 X154.845 Y118.291 E0.02809
G1 X154.513 Y118.873 E0.02100
G1 X153.749 Y119.642 E0.03400
G1 X153.002 Y120.048 E0.02666
G1 X152.458 Y120.193 E0.01764
G1 X152.418 Y122.259 E0.06481
G1 X152.205 Y122.873 E0.02036
G1 X151.882 Y123.400 E0.01939
G1 X151.128 Y124.144 E0.03321
G1 X150.550 Y124.458 E0.02065
G1 X150.526 Y126.819 E0.07403
G1 X150.255 Y127.666 E0.02788
G1 X149.905 Y128.208 E0.02022
G1 X149.326 Y128.794 E0.02585
G1 X148.372 Y129.314 E0.03407
G1 X147.721 Y129.444 E0.02079
G1 X146.921 Y129.437 E0.02509
G1 X146.703 Y129.465 E0.00690
G1 X142.343 Y129.465 E0.13669
G1 X142.153 Y129.444 E0.00602
G1 X141.643 Y129.437 E0.01599
G1 X141.424 Y129.465 E0.00692
G1 X102.302 Y129.465 E1.22665
M73 Q0 S156
M73 P0 R155
G1 X101.339 Y129.215 E0.03118
G1 X100.697 Y128.862 E0.02298
G1 X99.822 Y127.961 E0.03936
G1 X99.473 Y127.287 E0.02381
G1 X99.302 Y126.676 E0.01991
G1 X99.275 Y124.485 E0.06868
G1 X98.651 Y124.151 E0.02220
G1 X97.871 Y123.377 E0.03445
G1 X97.415 Y122.483 E0.03149
G1 X97.297 Y121.848 E0.02025
G1 X97.297 Y117.530 E0.13539
G1 X97.005 Y116.447 E0.03515
G1 X97.005 Y93.329 E0.72486
G1 X97.248 Y92.427 E0.02926
G1 X97.297 Y92.321 E0.00366
G1 X97.297 Y88.087 E0.13275
G1 X97.525 Y87.228 E0.02787
G1 X97.850 Y86.650 E0.02079
G1 X98.575 Y85.909 E0.03251
G1 X99.044 Y85.606 E0.01749
G1 X99.267 Y85.516 E0.00756
G1 X99.274 Y82.596 E0.09155
G1 X99.498 Y81.780 E0.02654
G1 X99.927 Y81.075 E0.02589
G1 X100.612 Y80.415 E0.02980
G1 X101.458 Y79.981 E0.02982
G1 X102.136 Y79.851 E0.02164
G1 X102.897 Y79.862 E0.02385
G1 X103.116 Y79.834 E0.00692
G1 X146.703 Y79.834 E1.36665
G1 X146.922 Y79.862 E0.00692
G1 X147.684 Y79.851 E0.02390
G1 X148.482 Y80.025 E0.02561
G1 X149.198 Y80.409 E0.02548
G1 X149.969 Y81.172 E0.03401
G1 X150.320 Y81.779 E0.02200
G1 X150.535 Y82.535 E0.02463
G1 X150.549 Y85.481 E0.09238
G1 X150.172 Y85.772 F10800.000
G1 F1200
G1 X150.878 Y86.140 E0.02496
G1 X151.578 Y86.822 E0.03063
G1 X152.041 Y87.771 E0.03312
G1 X152.098 Y88.167 E0.01253
G1 X152.098 Y91.768 E0.11290
G1 X152.417 Y91.790 E0.01004
G1 X153.143 Y92.029 E0.02396
G1 X153.630 Y92.354 E0.01834
G1 X154.220 Y92.971 E0.02678
G1 X154.607 Y93.754 E0.02737
G1 X154.693 Y94.201 E0.01429
G1 X154.699 Y105.584 E0.35689
G1 X154.667 Y105.803 E0.00695
G1 X154.699 Y106.023 E0.00695
G1 X154.699 Y117.399 E0.35671
G1 X154.488 Y118.168 E0.02499
G1 X154.226 Y118.627 E0.01657
G1 X153.544 Y119.324 E0.03060
G1 X152.844 Y119.704 E0.02497
G1 X152.371 Y119.824 E0.01529
G1 X152.088 Y119.838 E0.00888
G1 X152.042 Y122.219 E0.07469
G1 X151.857 Y122.725 E0.01688
G1 X151.601 Y123.148 E0.01552
G1 X150.885 Y123.855 E0.03155
G1 X150.173 Y124.228 E0.02517
G1 X150.158 Y126.734 E0.07859
G1 X149.923 Y127.486 E0.02468
G1 X149.623 Y127.957 E0.01753
G1 X149.077 Y128.510 E0.02434
G1 X148.270 Y128.950 E0.02883
G1 X147.668 Y129.070 E0.01925
G1 X146.898 Y129.059 E0.02413
G1 X146.689 Y129.088 E0.00661
G1 X142.355 Y129.088 E0.13590
G1 X142.178 Y129.067 E0.00560
G1 X141.619 Y129.059 E0.01752
G1 X141.410 Y129.088 E0.00661
G1 X102.327 Y129.088 E1.22543
G1 X101.460 Y128.857 E0.02812
G1 X100.906 Y128.547 E0.01990
G1 X100.115 Y127.722 E0.03586
G1 X99.818 Y127.136 E0.02060
G1 X99.672 Y126.601 E0.01739
G1 X99.651 Y124.254 E0.07358
G1 X98.893 Y123.860 E0.02677
G1 X98.193 Y123.178 E0.03066
G1 X97.764 Y122.337 E0.02960
G1 X97.674 Y121.832 E0.01609
G1 X97.674 Y117.431 E0.13798
G1 X97.627 Y117.329 E0.00352
G1 X97.382 Y116.422 E0.02945
G1 X97.382 Y93.355 E0.72326
G1 X97.604 Y92.551 E0.02613
G1 X97.674 Y92.417 E0.00473
G1 X97.674 Y88.113 E0.13496
G1 X97.882 Y87.352 E0.02474
G1 X98.164 Y86.860 E0.01779
G1 X98.827 Y86.190 E0.02955
G1 X99.225 Y85.937 E0.01477
G1 X99.645 Y85.785 E0.01400
G1 X99.645 Y82.671 E0.09763
G1 X99.854 Y81.906 E0.02490
G1 X100.206 Y81.330 E0.02116
G1 X100.853 Y80.706 E0.02818
G1 X101.557 Y80.346 E0.02479
G1 X102.151 Y80.229 E0.01897
G1 X102.920 Y80.240 E0.02413
G1 X103.129 Y80.211 E0.00661
G1 X146.689 Y80.211 E1.36580
G1 X146.898 Y80.240 E0.00661
G1 X147.667 Y80.229 E0.02410
G1 X148.372 Y80.387 E0.02268
G1 X148.992 Y80.726 E0.02215
G1 X149.684 Y81.420 E0.03072
G1 X149.963 Y81.905 E0.01755
G1 X150.165 Y82.613 E0.02309
G1 X150.172 Y85.712 E0.09716
G1 X149.796 Y86.081 F10800.000
G1 F1200
G1 X150.083 Y86.151 E0.00927
G1 X150.637 Y86.431 E0.01945
G1 X151.292 Y87.069 E0.02866
G1 X151.673 Y87.855 E0.02739
G1 X151.721 Y88.181 E0.01034
G1 X151.721 Y92.147 E0.12433
G1 X152.331 Y92.159 E0.01913
G1 X153.000 Y92.379 E0.02210
