; generated by PrusaSlicer 2.1.1+win64 on 2020-03-23 at 21:15:44 UTC

; 

; external perimeters extrusion width = 0.45mm
; perimeters extrusion width = 0.45mm
; infill extrusion width = 0.45mm
; solid infill extrusion width = 0.45mm
; top infill extrusion width = 0.40mm
; first layer extrusion width = 0.42mm

M73 P0 R21
M73 Q0 S21
M201 X1000 Y1000 Z1000 E5000 ; sets maximum accelerations, mm/sec^2
M203 X200 Y200 Z12 E120 ; sets maximum feedrates, mm/sec
M204 P1250 R1250 T1250 ; sets acceleration (P, T) and retract acceleration (R), mm/sec^2
M205 X8.00 Y8.00 Z0.40 E1.50 ; sets the jerk limits, mm/sec
M205 S0 T0 ; sets the minimum extruding and travel feed rate, mm/sec
M107
M862.3 P "MK3S" ; printer model check
M862.1 P0.4 ; nozzle diameter check
M115 U3.8.0 ; tell printer latest fw version
G90 ; use absolute coordinates
M83 ; extruder relative mode
M104 S215 ; set extruder temp
M140 S60 ; set bed temp
M190 S60 ; wait for bed temp
M109 S215 ; wait for extruder temp
G28 W ; home all without mesh bed level
G80 ; mesh bed leveling
G1 Y-3.0 F1000.0 ; go outside print area
G92 E0.0
G1 X60.0 E9.0 F1000.0 ; intro line
M73 Q0 S21
M73 P0 R21
G1 X100.0 E12.5 F1000.0 ; intro line
G92 E0.0
M221 S95
G21 ; set units to millimeters
G90 ; use absolute coordinates
M83 ; use relative distances for extrusion
M900 K30 ; Filament gcode
;BEFORE_LAYER_CHANGE
G92 E0.0
;0.2


G1 E-0.80000 F2100.00000
G1 Z0.600 F10800.000
;AFTER_LAYER_CHANGE
;0.2
G1 X124.899 Y108.230
G1 Z0.200
G1 E0.80000 F2100.00000
M204 S1000
G1 F1200
G1 X124.557 Y108.202 E0.01077
G1 X124.219 Y108.139 E0.01077
G1 X123.890 Y108.040 E0.01077
G1 X123.580 Y107.909 E0.01054
G1 X123.272 Y107.739 E0.01102
G1 X122.992 Y107.542 E0.01075
G1 X122.733 Y107.316 E0.01077
G1 X122.500 Y107.063 E0.01077
G1 X122.295 Y106.788 E0.01077
G1 X122.121 Y106.492 E0.01077
G1 X121.979 Y106.179 E0.01077
G1 X121.871 Y105.852 E0.01077
G1 X121.798 Y105.517 E0.01077
G1 X121.762 Y105.175 E0.01077
G1 X121.762 Y104.831 E0.01077
G1 X121.798 Y104.490 E0.01077
G1 X121.871 Y104.154 E0.01077
G1 X121.979 Y103.828 E0.01077
G1 X122.118 Y103.522 E0.01054
G1 X122.296 Y103.218 E0.01102
G1 X122.500 Y102.943 E0.01075
G1 X122.733 Y102.691 E0.01077
G1 X122.992 Y102.464 E0.01077
G1 X123.273 Y102.267 E0.01077
G1 X123.573 Y102.100 E0.01077
G1 X123.890 Y101.967 E0.01077
G1 X124.219 Y101.868 E0.01077
G1 X124.557 Y101.804 E0.01077
G1 X124.899 Y101.777 E0.01077
G1 X125.235 Y101.786 E0.01054
G1 X125.584 Y101.832 E0.01102
G1 X125.917 Y101.913 E0.01075
G1 X126.240 Y102.029 E0.01077
G1 X126.549 Y102.180 E0.01077
G1 X126.840 Y102.362 E0.01077
G1 X127.111 Y102.574 E0.01077
G1 X127.357 Y102.814 E0.01077
G1 X127.576 Y103.078 E0.01077
G1 X127.766 Y103.365 E0.01077
G1 X127.924 Y103.669 E0.01077
G1 X128.049 Y103.989 E0.01077
G1 X128.140 Y104.321 E0.01077
G1 X128.194 Y104.660 E0.01077
G1 X128.213 Y105.003 E0.01077
G1 X128.194 Y105.346 E0.01077
G1 X128.140 Y105.686 E0.01077
G1 X128.049 Y106.017 E0.01077
G1 X127.924 Y106.337 E0.01077
G1 X127.766 Y106.642 E0.01077
G1 X127.576 Y106.928 E0.01077
G1 X127.357 Y107.193 E0.01077
G1 X127.111 Y107.432 E0.01077
G1 X126.840 Y107.645 E0.01077
G1 X126.549 Y107.827 E0.01077
G1 X126.240 Y107.977 E0.01077
G1 X125.917 Y108.094 E0.01077
G1 X125.583 Y108.175 E0.01077
G1 X125.243 Y108.221 E0.01077
G1 X124.959 Y108.228 E0.00889
G1 X124.889 Y108.607 F10800.000
G1 F1200
G1 X124.507 Y108.577 E0.01203
G1 X124.129 Y108.506 E0.01203
G1 X123.762 Y108.395 E0.01203
G1 X123.415 Y108.249 E0.01179
G1 X123.072 Y108.060 E0.01228
G1 X122.759 Y107.839 E0.01203
G1 X122.470 Y107.586 E0.01203
G1 X122.209 Y107.304 E0.01203
G1 X121.981 Y106.996 E0.01203
G1 X121.786 Y106.666 E0.01203
G1 X121.627 Y106.316 E0.01203
G1 X121.507 Y105.952 E0.01203
G1 X121.426 Y105.577 E0.01203
G1 X121.385 Y105.195 E0.01203
G1 X121.385 Y104.811 E0.01203
G1 X121.426 Y104.430 E0.01203
G1 X121.507 Y104.055 E0.01203
G1 X121.627 Y103.690 E0.01203
G1 X121.783 Y103.348 E0.01179
G1 X121.981 Y103.010 E0.01228
G1 X122.209 Y102.702 E0.01203
G1 X122.470 Y102.420 E0.01203
G1 X122.759 Y102.167 E0.01203
G1 X123.073 Y101.947 E0.01203
G1 X123.408 Y101.761 E0.01203
G1 X123.762 Y101.612 E0.01203
G1 X124.129 Y101.501 E0.01203
G1 X124.507 Y101.430 E0.01203
G1 X124.889 Y101.399 E0.01203
G1 X125.265 Y101.409 E0.01179
G1 X125.653 Y101.460 E0.01228
G1 X126.026 Y101.551 E0.01203
G1 X126.387 Y101.682 E0.01203
G1 X126.732 Y101.849 E0.01203
G1 X127.057 Y102.053 E0.01203
G1 X127.359 Y102.290 E0.01203
G1 X127.634 Y102.558 E0.01203
G1 X127.879 Y102.853 E0.01203
G1 X128.091 Y103.173 E0.01203
G1 X128.268 Y103.513 E0.01203
G1 X128.408 Y103.871 E0.01203
G1 X128.509 Y104.241 E0.01203
G1 X128.570 Y104.620 E0.01203
G1 X128.590 Y105.003 E0.01203
G1 X128.570 Y105.386 E0.01203
G1 X128.509 Y105.765 E0.01203
G1 X128.408 Y106.136 E0.01203
G1 X128.268 Y106.493 E0.01203
G1 X128.091 Y106.834 E0.01203
G1 X127.879 Y107.153 E0.01203
G1 X127.634 Y107.449 E0.01203
G1 X127.359 Y107.717 E0.01203
G1 X127.057 Y107.954 E0.01203
G1 X126.732 Y108.157 E0.01203
G1 X126.387 Y108.325 E0.01203
G1 X126.026 Y108.455 E0.01203
G1 X125.653 Y108.546 E0.01203
G1 X125.273 Y108.597 E0.01203
G1 X124.949 Y108.606 E0.01015
G1 X124.706 Y108.270 F10800.000
G1 X124.448 Y108.067
G1 F1200
G1 X122.140 Y105.759 E0.10626
G1 X122.078 Y105.472 E0.00956
G1 X122.045 Y105.110 E0.01183
G1 X124.880 Y107.945 E0.13051
G1 X125.220 Y107.938 E0.01108
G1 X125.403 Y107.914 E0.00600
G1 X122.073 Y104.584 E0.15330
G1 X122.176 Y104.133 E0.01505
G1 X125.857 Y107.815 E0.16947
G1 X126.252 Y107.656 E0.01387
G1 X122.331 Y103.735 E0.18052
G1 X122.529 Y103.379 E0.01325
G1 X126.607 Y107.457 E0.18772
G1 X126.923 Y107.220 E0.01287
G1 X122.771 Y103.067 E0.19118
G1 X122.931 Y102.894 E0.00769
G1 X123.048 Y102.791 E0.00507
G1 X127.198 Y106.941 E0.19105
G1 X127.437 Y106.626 E0.01286
G1 X123.361 Y102.551 E0.18763
G1 X123.713 Y102.349 E0.01320
G1 X127.638 Y106.274 E0.18071
G1 X127.795 Y105.877 E0.01390
G1 X124.113 Y102.195 E0.16949
G1 X124.562 Y102.091 E0.01502
G1 X127.896 Y105.424 E0.15345
G1 X127.924 Y104.899 E0.01712
G1 X125.090 Y102.065 E0.13047
G1 X125.531 Y102.110 E0.01445
G1 X125.740 Y102.161 E0.00698
G1 X128.049 Y104.470 E0.10633
G1 X127.791 Y103.659 F10800.000
G1 F1200
G1 X126.333 Y102.200 E0.06713
G1 E-0.80000 F2100.00000
G1 Z0.800 F10800.000
G1 X122.183 Y106.356
G1 Z0.200
G1 E0.80000 F2100.00000
G1 F1200
G1 X123.638 Y107.811 E0.06697
G1 E-0.80000 F2100.00000
G1 Z0.800 F10800.000
G1 X142.782 Y108.230
G1 Z0.200
G1 E0.80000 F2100.00000
G1 F1200
G1 X142.439 Y108.202 E0.01077
G1 X142.102 Y108.139 E0.01077
G1 X141.773 Y108.040 E0.01077
G1 X141.463 Y107.909 E0.01054
G1 X141.155 Y107.739 E0.01102
G1 X140.874 Y107.542 E0.01075
G1 X140.616 Y107.316 E0.01077
G1 X140.383 Y107.063 E0.01077
G1 X140.178 Y106.788 E0.01077
G1 X140.004 Y106.492 E0.01077
G1 X139.862 Y106.179 E0.01077
G1 X139.754 Y105.852 E0.01077
G1 X139.681 Y105.517 E0.01077
G1 X139.644 Y105.175 E0.01077
G1 X139.644 Y104.831 E0.01077
G1 X139.681 Y104.490 E0.01077
G1 X139.754 Y104.154 E0.01077
G1 X139.862 Y103.828 E0.01077
G1 X140.001 Y103.522 E0.01054
G1 X140.178 Y103.218 E0.01102
G1 X140.383 Y102.943 E0.01075
G1 X140.616 Y102.691 E0.01077
G1 X140.874 Y102.464 E0.01077
G1 X141.156 Y102.267 E0.01077
G1 X141.456 Y102.100 E0.01077
G1 X141.773 Y101.967 E0.01077
G1 X142.102 Y101.868 E0.01077
G1 X142.439 Y101.804 E0.01077
G1 X142.782 Y101.777 E0.01077
G1 X143.118 Y101.786 E0.01054
G1 X143.466 Y101.832 E0.01102
G1 X143.799 Y101.913 E0.01075
G1 X144.123 Y102.029 E0.01077
G1 X144.432 Y102.180 E0.01077
G1 X144.723 Y102.362 E0.01077
G1 X144.993 Y102.574 E0.01077
G1 X145.239 Y102.814 E0.01077
G1 X145.459 Y103.078 E0.01077
G1 X145.649 Y103.365 E0.01077
G1 X145.807 Y103.669 E0.01077
G1 X145.932 Y103.989 E0.01077
G1 X146.022 Y104.321 E0.01077
G1 X146.077 Y104.660 E0.01077
G1 X146.095 Y105.003 E0.01077
G1 X146.077 Y105.346 E0.01077
G1 X146.022 Y105.686 E0.01077
G1 X145.932 Y106.017 E0.01077
G1 X145.807 Y106.337 E0.01077
G1 X145.649 Y106.642 E0.01077
G1 X145.459 Y106.928 E0.01077
G1 X145.239 Y107.193 E0.01077
G1 X144.993 Y107.432 E0.01077
G1 X144.723 Y107.645 E0.01077
G1 X144.432 Y107.827 E0.01077
G1 X144.123 Y107.977 E0.01077
G1 X143.799 Y108.094 E0.01077
G1 X143.466 Y108.175 E0.01077
G1 X143.125 Y108.221 E0.01077
G1 X142.842 Y108.228 E0.00889
G1 X142.772 Y108.607 F10800.000
G1 F1200
G1 X142.389 Y108.577 E0.01203
G1 X142.012 Y108.506 E0.01203
G1 X141.645 Y108.395 E0.01203
G1 X141.298 Y108.249 E0.01179
G1 X140.955 Y108.060 E0.01228
G1 X140.641 Y107.839 E0.01203
G1 X140.352 Y107.586 E0.01203
G1 X140.092 Y107.304 E0.01203
G1 X139.863 Y106.996 E0.01203
G1 X139.668 Y106.666 E0.01203
G1 X139.510 Y106.316 E0.01203
G1 X139.389 Y105.952 E0.01203
G1 X139.308 Y105.577 E0.01203
G1 X139.267 Y105.195 E0.01203
G1 X139.267 Y104.811 E0.01203
G1 X139.308 Y104.430 E0.01203
G1 X139.389 Y104.055 E0.01203
G1 X139.510 Y103.690 E0.01203
G1 X139.665 Y103.348 E0.01179
G1 X139.863 Y103.010 E0.01228
G1 X140.092 Y102.702 E0.01203
G1 X140.352 Y102.420 E0.01203
G1 X140.641 Y102.167 E0.01203
G1 X140.955 Y101.947 E0.01203
G1 X141.291 Y101.761 E0.01203
G1 X141.645 Y101.612 E0.01203
G1 X142.012 Y101.501 E0.01203
G1 X142.389 Y101.430 E0.01203
G1 X142.772 Y101.399 E0.01203
G1 X143.148 Y101.409 E0.01179
G1 X143.536 Y101.460 E0.01228
G1 X143.909 Y101.551 E0.01203
G1 X144.270 Y101.682 E0.01203
G1 X144.615 Y101.849 E0.01203
G1 X144.940 Y102.053 E0.01203
G1 X145.242 Y102.290 E0.01203
G1 X145.517 Y102.558 E0.01203
G1 X145.762 Y102.853 E0.01203
G1 X145.974 Y103.173 E0.01203
G1 X146.151 Y103.513 E0.01203
G1 X146.291 Y103.871 E0.01203
G1 X146.392 Y104.241 E0.01203
G1 X146.453 Y104.620 E0.01203
G1 X146.473 Y105.003 E0.01203
G1 X146.453 Y105.386 E0.01203
G1 X146.392 Y105.765 E0.01203
G1 X146.291 Y106.136 E0.01203
G1 X146.151 Y106.493 E0.01203
G1 X145.974 Y106.834 E0.01203
G1 X145.762 Y107.153 E0.01203
G1 X145.517 Y107.449 E0.01203
G1 X145.242 Y107.717 E0.01203
G1 X144.940 Y107.954 E0.01203
G1 X144.615 Y108.157 E0.01203
G1 X144.270 Y108.325 E0.01203
G1 X143.909 Y108.455 E0.01203
G1 X143.536 Y108.546 E0.01203
G1 X143.155 Y108.597 E0.01203
G1 X142.832 Y108.606 E0.01015
G1 X142.589 Y108.270 F10800.000
G1 X142.331 Y108.067
G1 F1200
G1 X140.023 Y105.759 E0.10626
G1 X139.961 Y105.472 E0.00956
G1 X139.927 Y105.110 E0.01183
G1 X142.762 Y107.945 E0.13051
G1 X143.103 Y107.938 E0.01108
G1 X143.285 Y107.914 E0.00600
G1 X139.955 Y104.584 E0.15330
G1 X140.058 Y104.133 E0.01505
G1 X143.740 Y107.815 E0.16947
G1 X144.135 Y107.656 E0.01387
G1 X140.214 Y103.735 E0.18052
G1 X140.412 Y103.379 E0.01325
G1 X144.489 Y107.457 E0.18772
G1 X144.806 Y107.220 E0.01287
G1 X140.653 Y103.067 E0.19118
G1 X140.813 Y102.894 E0.00769
G1 X140.931 Y102.791 E0.00507
G1 X145.081 Y106.941 E0.19105
G1 X145.320 Y106.626 E0.01286
G1 X141.244 Y102.551 E0.18763
G1 X141.596 Y102.349 E0.01320
G1 X145.521 Y106.274 E0.18071
G1 X145.677 Y105.877 E0.01390
G1 X141.996 Y102.195 E0.16949
G1 X142.445 Y102.091 E0.01502
G1 X145.778 Y105.424 E0.15345
G1 X145.807 Y104.899 E0.01712
G1 X142.973 Y102.065 E0.13047
G1 X143.414 Y102.110 E0.01445
G1 X143.622 Y102.161 E0.00698
G1 X145.932 Y104.470 E0.10633
G1 X145.674 Y103.659 F10800.000
G1 F1200
G1 X144.216 Y102.200 E0.06713
G1 E-0.80000 F2100.00000
G1 Z0.800 F10800.000
G1 X140.066 Y106.356
G1 Z0.200
G1 E0.80000 F2100.00000
G1 F1200
G1 X141.521 Y107.811 E0.06697
G1 E-0.80000 F2100.00000
G1 Z0.800 F10800.000
G1 X142.782 Y126.123
G1 Z0.200
G1 E0.80000 F2100.00000
G1 F1200
G1 X142.439 Y126.095 E0.01077
G1 X142.102 Y126.032 E0.01077
G1 X141.773 Y125.932 E0.01077
G1 X141.463 Y125.802 E0.01054
G1 X141.155 Y125.632 E0.01102
G1 X140.874 Y125.435 E0.01075
G1 X140.616 Y125.209 E0.01077
G1 X140.383 Y124.956 E0.01077
G1 X140.178 Y124.680 E0.01077
G1 X140.004 Y124.384 E0.01077
G1 X139.862 Y124.071 E0.01077
G1 X139.754 Y123.745 E0.01077
G1 X139.681 Y123.409 E0.01077
G1 X139.644 Y123.068 E0.01077
G1 X139.644 Y122.724 E0.01077
G1 X139.681 Y122.383 E0.01077
G1 X139.754 Y122.047 E0.01077
G1 X139.862 Y121.721 E0.01077
G1 X140.001 Y121.414 E0.01054
G1 X140.178 Y121.111 E0.01102
G1 X140.383 Y120.836 E0.01075
G1 X140.616 Y120.583 E0.01077
G1 X140.874 Y120.357 E0.01077
G1 X141.156 Y120.160 E0.01077
G1 X141.456 Y119.993 E0.01077
G1 X141.773 Y119.860 E0.01077
G1 X142.102 Y119.760 E0.01077
G1 X142.439 Y119.697 E0.01077
G1 X142.782 Y119.669 E0.01077
G1 X143.118 Y119.678 E0.01054
G1 X143.466 Y119.724 E0.01102
G1 X143.799 Y119.806 E0.01075
G1 X144.123 Y119.922 E0.01077
G1 X144.432 Y120.072 E0.01077
G1 X144.723 Y120.255 E0.01077
G1 X144.993 Y120.467 E0.01077
G1 X145.239 Y120.707 E0.01077
G1 X145.459 Y120.971 E0.01077
G1 X145.649 Y121.257 E0.01077
G1 X145.807 Y121.562 E0.01077
G1 X145.932 Y121.882 E0.01077
G1 X146.022 Y122.214 E0.01077
G1 X146.077 Y122.553 E0.01077
G1 X146.095 Y122.896 E0.01077
G1 X146.077 Y123.239 E0.01077
G1 X146.022 Y123.578 E0.01077
G1 X145.932 Y123.910 E0.01077
G1 X145.807 Y124.230 E0.01077
G1 X145.649 Y124.535 E0.01077
G1 X145.459 Y124.821 E0.01077
G1 X145.239 Y125.085 E0.01077
G1 X144.993 Y125.325 E0.01077
G1 X144.723 Y125.537 E0.01077
G1 X144.432 Y125.719 E0.01077
G1 X144.123 Y125.870 E0.01077
G1 X143.799 Y125.986 E0.01077
G1 X143.466 Y126.068 E0.01077
G1 X143.125 Y126.113 E0.01077
G1 X142.842 Y126.121 E0.00889
G1 X142.772 Y126.500 F10800.000
G1 F1200
G1 X142.389 Y126.469 E0.01203
G1 X142.012 Y126.398 E0.01203
G1 X141.645 Y126.288 E0.01203
G1 X141.298 Y126.141 E0.01179
G1 X140.955 Y125.952 E0.01228
G1 X140.641 Y125.732 E0.01203
G1 X140.352 Y125.479 E0.01203
G1 X140.092 Y125.197 E0.01203
G1 X139.863 Y124.889 E0.01203
G1 X139.668 Y124.558 E0.01203
G1 X139.510 Y124.209 E0.01203
G1 X139.389 Y123.845 E0.01203
G1 X139.308 Y123.469 E0.01203
G1 X139.267 Y123.088 E0.01203
G1 X139.267 Y122.704 E0.01203
G1 X139.308 Y122.323 E0.01203
G1 X139.389 Y121.947 E0.01203
G1 X139.510 Y121.583 E0.01203
G1 X139.665 Y121.241 E0.01179
G1 X139.863 Y120.903 E0.01228
G1 X140.092 Y120.595 E0.01203
G1 X140.352 Y120.313 E0.01203
G1 X140.641 Y120.060 E0.01203
G1 X140.955 Y119.840 E0.01203
G1 X141.291 Y119.654 E0.01203
G1 X141.645 Y119.504 E0.01203
G1 X142.012 Y119.394 E0.01203
G1 X142.389 Y119.323 E0.01203
G1 X142.772 Y119.292 E0.01203
G1 X143.148 Y119.302 E0.01179
G1 X143.536 Y119.353 E0.01228
G1 X143.909 Y119.444 E0.01203
G1 X144.270 Y119.574 E0.01203
G1 X144.615 Y119.742 E0.01203
G1 X144.940 Y119.946 E0.01203
G1 X145.242 Y120.183 E0.01203
G1 X145.517 Y120.450 E0.01203
G1 X145.762 Y120.746 E0.01203
G1 X145.974 Y121.066 E0.01203
G1 X146.151 Y121.406 E0.01203
G1 X146.291 Y121.764 E0.01203
G1 X146.392 Y122.134 E0.01203
G1 X146.453 Y122.513 E0.01203
G1 X146.473 Y122.896 E0.01203
G1 X146.453 Y123.279 E0.01203
G1 X146.392 Y123.658 E0.01203
G1 X146.291 Y124.028 E0.01203
G1 X146.151 Y124.386 E0.01203
G1 X145.974 Y124.726 E0.01203
G1 X145.762 Y125.046 E0.01203
G1 X145.517 Y125.342 E0.01203
G1 X145.242 Y125.609 E0.01203
G1 X144.940 Y125.846 E0.01203
G1 X144.615 Y126.050 E0.01203
G1 X144.270 Y126.218 E0.01203
G1 X143.909 Y126.348 E0.01203
G1 X143.536 Y126.439 E0.01203
G1 X143.155 Y126.490 E0.01203
G1 X142.832 Y126.498 E0.01015
G1 X142.589 Y126.163 F10800.000
G1 X142.331 Y125.960
G1 F1200
G1 X140.023 Y123.651 E0.10626
G1 X139.961 Y123.364 E0.00956
G1 X139.927 Y123.002 E0.01183
G1 X142.762 Y125.837 E0.13051
G1 X143.103 Y125.831 E0.01108
G1 X143.285 Y125.807 E0.00600
G1 X139.955 Y122.477 E0.15330
G1 X140.058 Y122.026 E0.01505
G1 X143.740 Y125.707 E0.16947
G1 X144.135 Y125.549 E0.01387
G1 X140.214 Y121.628 E0.18052
G1 X140.412 Y121.272 E0.01325
G1 X144.489 Y125.350 E0.18772
G1 X144.806 Y125.113 E0.01287
G1 X140.653 Y120.960 E0.19118
G1 X140.813 Y120.786 E0.00769
G1 X140.931 Y120.684 E0.00507
G1 X145.081 Y124.834 E0.19105
G1 X145.320 Y124.519 E0.01286
G1 X141.244 Y120.443 E0.18763
G1 X141.596 Y120.241 E0.01320
G1 X145.521 Y124.167 E0.18071
G1 X145.677 Y123.769 E0.01390
G1 X141.996 Y120.088 E0.16949
G1 X142.445 Y119.983 E0.01502
G1 X145.778 Y123.317 E0.15345
G1 X145.807 Y122.791 E0.01712
G1 X142.973 Y119.957 E0.13047
G1 X143.414 Y120.003 E0.01445
G1 X143.622 Y120.053 E0.00698
G1 X145.932 Y122.363 E0.10633
G1 X145.674 Y121.551 F10800.000
G1 F1200
G1 X144.216 Y120.093 E0.06713
G1 E-0.80000 F2100.00000
G1 Z0.800 F10800.000
