; generated by PrusaSlicer 2.2.0+win64 on 2020-07-16 at 17:43:47 UTC

; 

; external perimeters extrusion width = 0.45mm
; perimeters extrusion width = 0.45mm
; infill extrusion width = 0.45mm
; solid infill extrusion width = 0.45mm
; top infill extrusion width = 0.40mm
; support material extrusion width = 0.35mm
; first layer extrusion width = 0.42mm

M73 P0 R138
M73 Q0 S139
M201 X1000 Y1000 Z1000 E5000 ; sets maximum accelerations, mm/sec^2
M203 X200 Y200 Z12 E120 ; sets maximum feedrates, mm/sec
M204 P1250 R1250 T1250 ; sets acceleration (P, T) and retract acceleration (R), mm/sec^2
M205 X8.00 Y8.00 Z0.40 E1.50 ; sets the jerk limits, mm/sec
M205 S0 T0 ; sets the minimum extruding and travel feed rate, mm/sec
M107
M862.3 P "MK3S" ; printer model check
M862.1 P0.4 ; nozzle diameter check
M115 U3.8.0 ; tell printer latest fw version
G90 ; use absolute coordinates
M83 ; extruder relative mode
M104 S215 ; set extruder temp
M140 S60 ; set bed temp
M190 S60 ; wait for bed temp
M109 S215 ; wait for extruder temp
G28 W ; home all without mesh bed level
G80 ; mesh bed leveling
G1 Y-3.0 F1000.0 ; go outside print area
G92 E0.0
G1 X60.0 E9.0 F1000.0 ; intro line
M73 Q0 S139
M73 P0 R138
G1 X100.0 E12.5 F1000.0 ; intro line
G92 E0.0
M221 S95
G21 ; set units to millimeters
G90 ; use absolute coordinates
M83 ; use relative distances for extrusion
M900 K0.06 ; Filament gcode LA 1.5
M900 K30 ; Filament gcode LA 1.0
;BEFORE_LAYER_CHANGE
G92 E0.0
;0.2


G1 E-0.80000 F2100.00000
G1 Z0.600 F10800.000
;AFTER_LAYER_CHANGE
;0.2
G1 X95.036 Y99.361
G1 Z0.200
G1 E0.80000 F2100.00000
M204 S1000
G1 F1200.000
G1 X102.611 Y91.785 E0.33592
G1 X103.145 Y92.318 E0.02365
G1 X95.689 Y99.774 E0.33060
G1 X96.222 Y100.307 E0.02365
G1 X103.678 Y92.852 E0.33060
G1 X104.211 Y93.385 E0.02365
G1 X96.755 Y100.841 E0.33060
G1 X97.289 Y101.374 E0.02365
G1 X104.744 Y93.918 E0.33060
G1 X105.278 Y94.452 E0.02365
G1 X97.822 Y101.907 E0.33060
G1 X98.140 Y102.225 E0.01408
G1 X94.877 Y105.487 E0.14467
G1 X95.093 Y105.703 E0.00957
G1 X122.125 Y78.671 E1.19864
G1 X122.658 Y79.205 E0.02365
G1 X95.626 Y106.236 E1.19864
G1 X96.159 Y106.770 E0.02365
G1 X123.191 Y79.738 E1.19864
G1 X123.724 Y80.271 E0.02365
G1 X95.061 Y108.934 E1.27098
G1 X95.594 Y109.468 E0.02365
G1 X124.258 Y80.804 E1.27098
G1 X124.791 Y81.338 E0.02365
G1 X96.128 Y110.001 E1.27098
G1 X96.661 Y110.534 E0.02365
G1 X130.218 Y76.977 E1.48799
G1 X130.751 Y77.510 E0.02365
G1 X97.194 Y111.067 E1.48799
G1 X97.727 Y111.601 E0.02365
G1 X131.285 Y78.043 E1.48799
G1 X131.818 Y78.577 E0.02365
G1 X98.141 Y112.254 E1.49331
G1 X99.740 Y113.854 F10800.000
G1 F1200.000
G1 X114.766 Y98.828 E0.66625
G1 X114.233 Y98.295 E0.02365
G1 X99.327 Y113.201 E0.66093
G1 X98.794 Y112.667 E0.02365
G1 X113.819 Y97.642 E0.66625
G1 X114.478 Y98.253 F10800.000
G1 F1200.000
G1 X121.102 Y91.629 E0.23916
G1 X120.743 Y91.271 E0.01295
G1 X114.218 Y97.796 E0.23563
G1 X113.859 Y97.438 E0.01295
G1 X120.482 Y90.815 E0.23916
G1 X121.090 Y94.637 F10800.000
G1 F1200.000
G1 X124.147 Y91.581 E0.13552
G1 X124.621 Y90.956 E0.02460
G1 X124.163 Y90.498 E0.02032
G1 X122.308 Y92.352 E0.08224
G1 X121.775 Y91.819 E0.02365
G1 X123.630 Y89.965 E0.08224
G1 X123.096 Y89.431 E0.02365
G1 X121.242 Y91.286 E0.08224
G1 X120.709 Y90.753 E0.02365
G1 X132.351 Y79.110 E0.51626
G1 X132.885 Y79.643 E0.02365
G1 X125.429 Y87.099 E0.33060
G1 X125.962 Y87.632 E0.02365
G1 X135.049 Y78.545 E0.40294
G1 X135.582 Y79.078 E0.02365
G1 X126.495 Y88.165 E0.40294
G1 X126.636 Y88.306 E0.00623
G1 X126.830 Y88.051 E0.01004
G1 X126.975 Y87.953 E0.00548
G1 X127.306 Y87.865 E0.01073
G1 X127.511 Y87.891 E0.00648
G1 X127.719 Y88.009 E0.00749
G1 X136.116 Y79.612 E0.37233
G1 X136.591 Y80.087 E0.02107
G1 X138.222 Y78.456 E0.07234
G1 X138.280 Y78.514 E0.00257
G1 X128.126 Y88.668 E0.45028
G1 X128.441 Y89.420 E0.02555
G1 X138.814 Y79.047 E0.45995
G1 X139.347 Y79.580 E0.02365
G1 X130.260 Y88.667 E0.40294
G1 X130.767 Y89.174 E0.02247
G1 X129.135 Y90.805 E0.07234
G1 X129.162 Y90.832 E0.00118
G1 X139.880 Y80.113 E0.47527
G1 X140.413 Y80.647 E0.02365
G1 X129.695 Y91.365 E0.47527
G1 X130.228 Y91.898 E0.02365
G1 X140.947 Y81.180 E0.47527
G1 X141.480 Y81.713 E0.02365
G1 X130.762 Y92.432 E0.47527
G1 X131.295 Y92.965 E0.02365
G1 X142.013 Y82.246 E0.47527
G1 X142.547 Y82.780 E0.02365
G1 X131.828 Y93.498 E0.47527
G1 X132.361 Y94.031 E0.02365
G1 X143.080 Y83.313 E0.47527
G1 X143.613 Y83.846 E0.02365
G1 X131.278 Y96.182 E0.54697
G1 X131.593 Y96.933 E0.02555
G1 X144.146 Y84.380 E0.55664
G1 X144.680 Y84.913 E0.02365
G1 X131.908 Y97.684 E0.56630
G1 X132.080 Y98.095 E0.01396
G1 X134.960 Y95.216 E0.12767
G1 X135.202 Y95.457 E0.01073
G1 X145.213 Y85.446 E0.44392
G1 X145.746 Y85.979 E0.02365
G1 X135.735 Y95.991 E0.44392
G1 X136.268 Y96.524 E0.02365
G1 X146.279 Y86.513 E0.44392
G1 X146.813 Y87.046 E0.02365
G1 X136.801 Y97.057 E0.44392
G1 X137.075 Y97.331 E0.01212
G1 X133.331 Y101.075 E0.16601
G1 X133.484 Y101.441 E0.01245
G1 X147.346 Y87.579 E0.61465
G1 X147.879 Y88.112 E0.02365
G1 X133.800 Y102.192 E0.62432
G1 X134.009 Y102.691 E0.01698
G1 X136.591 Y100.110 E0.11448
G1 X136.770 Y100.288 E0.00793
G1 X148.413 Y88.646 E0.51626
G1 X148.941 Y89.174 E0.02342
G1 X137.303 Y100.822 E0.51626
G1 X137.836 Y101.355 E0.02365
G1 X146.216 Y92.975 E0.37158
G1 X146.750 Y93.508 E0.02365
G1 X138.370 Y101.888 E0.37158
G1 X138.706 Y102.225 E0.01492
G1 X136.978 Y103.953 E0.07661
G1 X136.993 Y103.988 E0.00121
G1 X137.120 Y103.902 E0.00482
G1 X137.272 Y104.053 E0.00670
G1 X147.283 Y94.042 E0.44392
G1 X147.309 Y94.068 E0.00118
G1 X145.678 Y95.699 E0.07234
G1 X146.185 Y96.206 E0.02247
G1 X137.805 Y104.586 E0.37158
G1 X138.338 Y105.119 E0.02365
G1 X146.718 Y96.739 E0.37158
M73 Q0 S138
G1 X147.251 Y97.273 E0.02365
M73 P0 R137
G1 X138.871 Y105.653 E0.37158
G1 X139.405 Y106.186 E0.02365
G1 X147.785 Y97.806 E0.37158
G1 X148.318 Y98.339 E0.02365
G1 X139.818 Y106.839 E0.37690
G1 E-0.80000 F2100.00000
G1 Z0.800 F10800.000
G1 X137.856 Y108.579
G1 Z0.200
G1 E0.80000 F2100.00000
G1 F1200.000
G1 X139.585 Y106.850 E0.06244
G1 X139.227 Y106.492 E0.01295
G1 X137.595 Y108.123 E0.05891
G1 X137.237 Y107.765 E0.01295
G1 X138.868 Y106.133 E0.05891
G1 X138.510 Y105.775 E0.01295
G1 X138.113 Y106.171 E0.01430
G1 X137.902 Y105.666 E0.01399
G1 X138.151 Y105.416 E0.00901
G1 X137.792 Y105.058 E0.01295
G1 X137.584 Y105.266 E0.00753
G1 X137.737 Y105.720 F10800.000
G1 F1200.000
G1 X137.110 Y106.348 E0.02783
G1 E-0.80000 F2100.00000
G1 Z0.800 F10800.000
G1 X136.736 Y103.245
G1 Z0.200
G1 E0.80000 F2100.00000
G1 F1200.000
G1 X137.990 Y101.992 E0.04526
G1 X137.631 Y101.633 E0.01295
G1 X136.524 Y102.740 E0.03996
G1 X136.477 Y102.715 F10800.000
G1 F1200.000
G1 X135.825 Y103.367 E0.02891
G1 E-0.80000 F2100.00000
G1 Z0.800 F10800.000
G1 X134.381 Y103.449
G1 Z0.200
G1 E0.80000 F2100.00000
G1 F1200.000
G1 X136.914 Y100.916 E0.09144
G1 X137.272 Y101.275 E0.01295
G1 X136.171 Y102.376 E0.03978
G1 X135.797 Y102.408 E0.00957
G1 X135.694 Y102.853 E0.01166
G1 X134.699 Y103.848 E0.03594
G1 X134.911 Y104.353 E0.01399
G1 X135.643 Y103.622 E0.02643
G1 X135.735 Y104.246 E0.01612
G1 X135.123 Y104.859 E0.02212
G1 X135.335 Y105.364 E0.01399
G1 X135.903 Y104.795 E0.02052
G1 X135.985 Y105.035 E0.00646
G1 X136.112 Y105.304 E0.00760
G1 X135.547 Y105.869 E0.02040
G1 X135.696 Y106.223 E0.00982
G1 X135.802 Y106.330 E0.00386
G1 X136.385 Y105.748 E0.02104
G1 X136.605 Y106.080 E0.01018
G1 X136.684 Y106.166 E0.00298
G1 X136.161 Y106.689 E0.01890
G1 X136.520 Y107.048 E0.01295
G1 X137.043 Y106.524 E0.01889
G1 X137.461 Y106.823 E0.01313
G1 X136.780 Y107.504 E0.02459
G1 X135.877 Y107.581 F10800.000
G1 F1200.000
G1 X136.223 Y107.235 E0.01536
G1 X136.756 Y107.768 E0.02365
G1 X136.321 Y108.203 E0.01928
G1 X136.637 Y108.954 E0.02555
G1 X137.289 Y108.301 E0.02895
G1 X137.823 Y108.834 E0.02365
G1 X136.952 Y109.705 E0.03862
G1 X137.267 Y110.457 E0.02555
G1 X148.851 Y98.872 E0.51366
G1 X149.384 Y99.406 E0.02365
G1 X137.582 Y111.208 E0.52333
G1 X137.898 Y111.959 E0.02555
G1 X149.918 Y99.939 E0.53300
G1 X150.451 Y100.472 E0.02365
G1 X138.213 Y112.711 E0.54266
G1 X138.374 Y113.095 E0.01307
G1 X138.634 Y113.355 E0.01155
G1 X149.353 Y102.637 E0.47527
G1 X149.886 Y103.170 E0.02365
G1 X138.843 Y114.213 E0.48966
G1 X139.158 Y114.964 E0.02555
G1 X150.419 Y103.703 E0.49933
G1 X150.953 Y104.237 E0.02365
G1 X139.245 Y115.944 E0.51913
G1 E-0.80000 F2100.00000
G1 Z0.800 F10800.000
G1 X132.648 Y107.609
G1 Z0.200
G1 E0.80000 F2100.00000
G1 F1200.000
G1 X132.831 Y107.427 E0.00808
G1 X132.515 Y106.676 E0.02555
G1 X132.235 Y106.956 E0.01242
G1 X131.702 Y106.423 E0.02365
G1 X132.330 Y105.795 E0.02784
G1 E-0.80000 F2100.00000
G1 Z0.800 F10800.000
G1 X130.986 Y103.939
G1 Z0.200
G1 E0.80000 F2100.00000
G1 F1200.000
G1 X131.254 Y103.671 E0.01192
G1 X130.939 Y102.919 E0.02555
G1 X130.452 Y103.406 E0.02158
G1 E-0.80000 F2100.00000
G1 Z0.800 F10800.000
G1 X130.014 Y101.712
G1 Z0.200
G1 E0.80000 F2100.00000
G1 F1200.000
G1 X130.309 Y101.417 E0.01309
G1 X129.994 Y100.665 E0.02555
G1 X129.480 Y101.179 E0.02276
G1 E-0.80000 F2100.00000
G1 Z0.800 F10800.000
G1 X129.120 Y99.406
G1 Z0.200
G1 E0.80000 F2100.00000
G1 F1200.000
G1 X129.363 Y99.163 E0.01077
G1 X129.048 Y98.411 E0.02555
G1 X128.587 Y98.872 E0.02044
G1 E-0.80000 F2100.00000
G1 Z0.800 F10800.000
G1 X133.110 Y100.418
G1 Z0.200
G1 E0.80000 F2100.00000
G1 F1200.000
G1 X136.394 Y97.134 E0.11859
G1 X136.035 Y96.775 E0.01295
G1 X133.003 Y99.807 E0.10948
G1 X132.791 Y99.302 E0.01399
G1 X135.677 Y96.416 E0.10419
G1 X135.318 Y96.058 E0.01295
G1 X132.579 Y98.797 E0.09889
G1 X132.368 Y98.291 E0.01399
G1 X135.057 Y95.602 E0.09713
G1 E-0.80000 F2100.00000
G1 Z0.800 F10800.000
G1 X114.182 Y77.015
G1 Z0.200
G1 E0.80000 F2100.00000
G1 F1200.000
G1 X106.607 Y84.590 E0.33592
G1 X107.140 Y85.124 E0.02365
G1 X114.596 Y77.668 E0.33060
G1 X115.129 Y78.201 E0.02365
G1 X107.673 Y85.657 E0.33060
G1 X108.206 Y86.190 E0.02365
G1 X117.294 Y77.103 E0.40294
G1 X117.827 Y77.636 E0.02365
G1 X108.740 Y86.723 E0.40294
G1 X109.273 Y87.257 E0.02365
G1 X118.360 Y78.170 E0.40294
G1 X118.646 Y78.456 E0.01268
G1 X120.277 Y76.824 E0.07234
G1 X120.525 Y77.071 E0.01097
G1 X104.912 Y92.684 E0.69228
G1 X105.445 Y93.217 E0.02365
G1 X121.058 Y77.605 E0.69228
G1 X121.591 Y78.138 E0.02365
G1 X105.859 Y93.870 E0.69760
G1 E-0.80000 F2100.00000
G1 Z0.800 F10800.000
G1 X112.291 Y102.591
G1 Z0.200
G1 E0.80000 F2100.00000
G1 F1200.000
G1 X117.835 Y97.047 E0.20019
G1 X117.482 Y96.688 E0.01286
G1 X117.497 Y96.668 E0.00065
G1 X115.293 Y98.872 E0.07958
G1 X114.935 Y98.513 E0.01295
G1 X121.460 Y91.988 E0.23564
G1 X121.819 Y92.347 E0.01295
G1 X119.417 Y94.748 E0.08671
G1 X119.843 Y94.990 E0.01251
G1 X119.810 Y95.073 E0.00227
G1 X120.546 Y94.336 E0.02658
G1 X120.904 Y94.695 E0.01295
G1 X112.748 Y102.852 E0.29454
G1 X113.106 Y103.210 E0.01295
G1 X121.267 Y95.057 E0.29454
G1 X119.019 Y98.015 E0.09486
G1 X113.367 Y103.667 E0.20408
G1 X114.895 Y104.032 F10800.000
G1 F1200.000
G1 X112.315 Y106.612 E0.11439
G1 X111.782 Y106.079 E0.02365
G1 X113.636 Y104.224 E0.08224
G1 X113.103 Y103.691 E0.02365
G1 X111.248 Y105.546 E0.08224
G1 X110.715 Y105.012 E0.02365
G1 X112.570 Y103.158 E0.08224
G1 X112.036 Y102.624 E0.02365
G1 X100.394 Y114.267 E0.51626
G1 X100.927 Y114.800 E0.02365
G1 X106.751 Y108.976 E0.25826
G1 X107.285 Y109.509 E0.02365
G1 X101.460 Y115.334 E0.25826
G1 X101.994 Y115.867 E0.02365
G1 X107.818 Y110.043 E0.25826
G1 X108.351 Y110.576 E0.02365
G1 X102.527 Y116.400 E0.25826
G1 X103.034 Y116.907 E0.02247
G1 X99.771 Y120.170 E0.14467
G1 X99.797 Y120.196 E0.00118
G1 X108.884 Y111.109 E0.40294
G1 X109.122 Y111.346 E0.01052
G1 X108.813 Y111.752 E0.01598
G1 X108.758 Y111.918 E0.00548
G1 X108.773 Y112.287 E0.01159
G1 X100.331 Y120.729 E0.37433
G1 X100.864 Y121.263 E0.02365
G1 X108.320 Y113.807 E0.33060
G1 X108.853 Y114.340 E0.02365
G1 X101.397 Y121.796 E0.33060
G1 X101.930 Y122.329 E0.02365
G1 X109.386 Y114.873 E0.33060
G1 X109.919 Y115.407 E0.02365
G1 X102.464 Y122.863 E0.33060
G1 X102.997 Y123.396 E0.02365
G1 X110.453 Y115.940 E0.33060
G1 X110.986 Y116.473 E0.02365
G1 X103.530 Y123.929 E0.33060
G1 X104.064 Y124.462 E0.02365
G1 X111.519 Y117.007 E0.33060
G1 X112.053 Y117.540 E0.02365
G1 X104.597 Y124.996 E0.33060
G1 X105.130 Y125.529 E0.02365
G1 X114.217 Y116.442 E0.40294
G1 X114.750 Y116.975 E0.02365
G1 X105.663 Y126.062 E0.40294
G1 X106.197 Y126.595 E0.02365
G1 X115.284 Y117.508 E0.40294
G1 X115.383 Y117.608 E0.00442
G1 X118.984 Y114.008 E0.15964
G1 X119.753 Y114.106 E0.02432
G1 X106.730 Y127.129 E0.57747
G1 X107.263 Y127.662 E0.02365
G1 X120.699 Y114.226 E0.59579
G1 X121.646 Y114.346 E0.02991
G1 X107.796 Y128.195 E0.61410
G1 X108.330 Y128.728 E0.02365
G1 X122.592 Y114.466 E0.63242
G1 X123.538 Y114.586 E0.02991
G1 X108.863 Y129.262 E0.65073
G1 X109.396 Y129.795 E0.02365
G1 X124.485 Y114.707 E0.66905
G1 X125.431 Y114.827 E0.02991
G1 X109.930 Y130.328 E0.68737
G1 X110.463 Y130.862 E0.02365
G1 X126.377 Y114.947 E0.70568
G1 X127.324 Y115.067 E0.02991
G1 X110.996 Y131.395 E0.72400
G1 X111.529 Y131.928 E0.02365
G1 X128.270 Y115.187 E0.74231
G1 X129.216 Y115.308 E0.02991
G1 X112.063 Y132.461 E0.76063
G1 X112.596 Y132.995 E0.02365
G1 X130.163 Y115.428 E0.77895
G1 X131.109 Y115.548 E0.02991
G1 X113.129 Y133.528 E0.79726
G1 X113.662 Y134.061 E0.02365
G1 X132.055 Y115.668 E0.81558
G1 X133.002 Y115.788 E0.02991
G1 X119.090 Y129.700 E0.61688
G1 X119.623 Y130.234 E0.02365
G1 X133.604 Y116.253 E0.61995
G1 X134.137 Y116.786 E0.02365
G1 X120.156 Y130.767 E0.61995
G1 X120.277 Y130.888 E0.00537
G1 X121.909 Y129.257 E0.07234
G1 X122.321 Y129.669 E0.01828
G1 X134.671 Y117.319 E0.54761
G1 X134.960 Y117.608 E0.01281
G1 X136.353 Y116.214 E0.06180
G1 X136.787 Y116.269 E0.01371
G1 X122.854 Y130.202 E0.61781
M73 Q1 S137
M73 P1 R136
G1 X123.387 Y130.735 E0.02365
G1 X137.733 Y116.389 E0.63613
G1 X138.680 Y116.510 E0.02991
G1 X123.921 Y131.269 E0.65444
G1 X124.454 Y131.802 E0.02365
G1 X151.486 Y104.770 E1.19864
G1 X152.019 Y105.303 E0.02365
G1 X124.987 Y132.335 E1.19864
G1 X125.521 Y132.868 E0.02365
G1 X152.553 Y105.837 E1.19864
G1 X153.086 Y106.370 E0.02365
G1 X126.054 Y133.402 E1.19864
G1 X126.587 Y133.935 E0.02365
G1 X153.619 Y106.903 E1.19864
G1 X154.152 Y107.436 E0.02365
G1 X127.120 Y134.468 E1.19864
G1 X127.654 Y135.002 E0.02365
G1 X154.686 Y107.970 E1.19864
G1 X155.219 Y108.503 E0.02365
G1 X128.187 Y135.535 E1.19864
G1 X128.434 Y135.782 E0.01096
G1 X130.066 Y134.151 E0.07234
G1 X130.352 Y134.437 E0.01268
G1 X152.489 Y112.299 E0.98163
G1 X153.023 Y112.832 E0.02365
G1 X130.885 Y134.970 E0.98163
G1 X131.418 Y135.503 E0.02365
G1 X153.556 Y113.365 E0.98163
G1 X153.835 Y113.644 E0.01236
G1 X145.678 Y121.801 E0.36168
G1 X145.932 Y122.055 E0.01128
G1 X135.214 Y132.774 E0.47527
G1 X135.747 Y133.307 E0.02365
G1 X146.466 Y122.589 E0.47527
G1 X146.999 Y123.122 E0.02365
G1 X136.161 Y133.960 E0.48059
G1 E-0.80000 F2100.00000
G1 Z0.800 F10800.000
G1 X136.742 Y104.918
G1 Z0.200
G1 E0.80000 F2100.00000
G1 F1200.000
G1 X136.616 Y104.615 E0.00377
G1 E-0.80000 F2100.00000
G1 Z0.800 F10800.000
G1 X136.995 Y114.475
G1 Z0.200
G1 E0.80000 F2100.00000
G1 F1200.000
G1 X111.476 Y111.234 E0.80657
G1 X127.043 Y90.755 E0.80656
G1 X136.972 Y114.420 E0.80467
G1 X136.394 Y114.019 F10800.000
G1 F1200.000
G1 X112.171 Y110.942 E0.76561
G1 X126.948 Y91.503 E0.76560
G1 X136.371 Y113.964 E0.76371
G1 X136.549 Y114.388 F10800.000
G1 E-0.80000 F2100.00000
G1 Z0.800 F10800.000
G1 X138.098 Y115.314
G1 Z0.200
G1 E0.80000 F2100.00000
G1 F1200.000
G1 X110.198 Y111.770 E0.88180
G1 X127.217 Y89.381 E0.88179
G1 X138.075 Y115.258 E0.87990
G1 X138.698 Y115.770 F10800.000
G1 F1200.000
G1 X109.503 Y112.062 E0.92276
G1 X127.312 Y88.633 E0.92274
G1 X138.675 Y115.715 E0.92085
G1 X138.940 Y115.452 F10800.000
G1 E-0.80000 F2100.00000
G1 Z0.800 F10800.000
G1 X137.275 Y114.860
G1 Z0.200
G1 E0.80000 F2100.00000
G1 F1200.000
G1 X111.108 Y111.536 E0.69196
G1 X110.934 Y111.461 E0.00553
G1 X111.002 Y111.284 E0.00553
G1 X126.965 Y90.285 E0.69214
G1 X127.015 Y90.248 E0.00184
G1 X127.066 Y90.210 E0.00203
G1 X127.117 Y90.172 E0.00221
G1 X127.156 Y90.221 E0.00221
G1 X127.236 Y90.320 E0.00332
G1 X137.441 Y114.643 E0.69228
