; generated by PrusaSlicer 2.1.1+win64 on 2020-05-12 at 21:51:50 UTC

; 

; external perimeters extrusion width = 0.45mm
; perimeters extrusion width = 0.45mm
; infill extrusion width = 0.45mm
; solid infill extrusion width = 0.45mm
; top infill extrusion width = 0.40mm
; support material extrusion width = 0.35mm
; first layer extrusion width = 0.42mm

M73 P0 R143
M73 Q0 S144
M201 X1000 Y1000 Z1000 E5000 ; sets maximum accelerations, mm/sec^2
M203 X200 Y200 Z12 E120 ; sets maximum feedrates, mm/sec
M204 P1250 R1250 T1250 ; sets acceleration (P, T) and retract acceleration (R), mm/sec^2
M205 X8.00 Y8.00 Z0.40 E1.50 ; sets the jerk limits, mm/sec
M205 S0 T0 ; sets the minimum extruding and travel feed rate, mm/sec
M107
M862.3 P "MK3S" ; printer model check
M862.1 P0.4 ; nozzle diameter check
M115 U3.8.0 ; tell printer latest fw version
G90 ; use absolute coordinates
M83 ; extruder relative mode
M104 S215 ; set extruder temp
M140 S60 ; set bed temp
M190 S60 ; wait for bed temp
M109 S215 ; wait for extruder temp
G28 W ; home all without mesh bed level
G80 ; mesh bed leveling
G1 Y-3.0 F1000.0 ; go outside print area
G92 E0.0
G1 X60.0 E9.0 F1000.0 ; intro line
M73 Q0 S144
M73 P0 R143
G1 X100.0 E12.5 F1000.0 ; intro line
G92 E0.0
M221 S95
G21 ; set units to millimeters
G90 ; use absolute coordinates
M83 ; use relative distances for extrusion
M900 K30 ; Filament gcode
;BEFORE_LAYER_CHANGE
G92 E0.0
;0.2


G1 E-0.80000 F2100.00000
G1 Z0.600 F10800.000
;AFTER_LAYER_CHANGE
;0.2
G1 X95.309 Y97.393
G1 Z0.200
G1 E0.80000 F2100.00000
M204 S1000
G1 F1200
G1 X101.254 Y91.449 E0.26358
G1 X101.787 Y91.982 E0.02365
G1 X95.963 Y97.807 E0.25826
G1 X96.496 Y98.340 E0.02365
G1 X102.320 Y92.516 E0.25826
G1 X102.854 Y93.049 E0.02365
G1 X97.029 Y98.873 E0.25826
G1 X97.562 Y99.406 E0.02365
G1 X103.387 Y93.582 E0.25826
G1 X103.920 Y94.115 E0.02365
G1 X98.096 Y99.940 E0.25826
G1 X98.385 Y100.229 E0.01281
G1 X93.491 Y105.123 E0.21701
G1 X93.735 Y105.367 E0.01084
G1 X120.767 Y78.335 E1.19864
G1 X121.300 Y78.868 E0.02365
G1 X94.268 Y105.900 E1.19864
G1 X94.802 Y106.434 E0.02365
G1 X121.833 Y79.402 E1.19864
G1 X122.367 Y79.935 E0.02365
G1 X95.335 Y106.967 E1.19864
G1 X95.868 Y107.500 E0.02365
G1 X122.900 Y80.468 E1.19864
G1 X123.433 Y81.001 E0.02365
G1 X96.401 Y108.033 E1.19864
G1 X96.753 Y108.385 E0.01561
G1 X95.122 Y110.017 E0.07234
G1 X95.303 Y110.198 E0.00804
G1 X130.492 Y75.009 E1.56033
G1 X131.025 Y75.543 E0.02365
G1 X95.837 Y110.731 E1.56033
G1 X96.370 Y111.265 E0.02365
G1 X131.558 Y76.076 E1.56033
G1 X132.092 Y76.609 E0.02365
G1 X96.783 Y111.918 E1.56565
G1 X98.383 Y113.518 F10800.000
G1 F1200
G1 X118.302 Y93.598 E0.88326
G1 X117.769 Y93.065 E0.02365
G1 X97.970 Y112.864 E0.87794
G1 X97.436 Y112.331 E0.02365
G1 X117.356 Y92.412 E0.88326
G1 X117.342 Y92.350 F10800.000
G1 F1200
G1 X119.071 Y90.621 E0.06244
G1 X119.430 Y90.979 E0.01295
G1 X117.799 Y92.611 E0.05891
G1 X118.157 Y92.969 E0.01295
G1 X119.789 Y91.338 E0.05891
G1 X120.147 Y91.696 E0.01295
G1 X118.418 Y93.425 E0.06244
G1 E-0.80000 F2100.00000
G1 Z0.800 F10800.000
G1 X121.320 Y92.674
G1 Z0.200
G1 E0.80000 F2100.00000
G1 F1200
G1 X119.556 Y94.438 E0.06370
G1 X119.099 Y94.178 E0.01343
G1 X120.864 Y92.413 E0.06373
G1 X120.506 Y92.055 E0.01295
G1 X118.874 Y93.686 E0.05891
G1 X118.891 Y93.703 E0.00061
G1 X115.628 Y96.966 E0.11782
G1 X115.970 Y97.308 E0.01234
G1 X117.813 Y95.464 E0.06655
G1 X117.270 Y96.179 E0.02292
G1 X117.541 Y96.454 E0.00985
G1 X116.329 Y97.666 E0.04377
G1 X116.687 Y98.025 E0.01295
G1 X121.581 Y93.131 E0.17673
G1 X121.895 Y93.444 E0.01131
G1 X121.607 Y93.822 E0.01212
G1 X116.948 Y98.481 E0.16825
G1 E-0.80000 F2100.00000
G1 Z0.800 F10800.000
G1 X112.054 Y103.375
G1 Z0.200
G1 E0.80000 F2100.00000
G1 F1200
G1 X115.414 Y100.015 E0.12135
G1 X115.056 Y99.656 E0.01295
G1 X111.793 Y102.919 E0.11782
G1 X111.435 Y102.560 E0.01295
G1 X114.697 Y99.297 E0.11782
G1 X114.339 Y98.939 E0.01295
G1 X110.978 Y102.299 E0.12135
G1 X110.837 Y106.396 F10800.000
G1 F1200
G1 X116.877 Y100.356 E0.26781
G1 X113.497 Y104.803 E0.17513
G1 X111.371 Y106.929 E0.09428
G1 E-0.80000 F2100.00000
G1 Z0.800 F10800.000
G1 X99.983 Y115.117
G1 Z0.200
G1 E0.80000 F2100.00000
G1 F1200
G1 X111.745 Y103.355 E0.52158
G1 X111.212 Y102.821 E0.02365
G1 X99.569 Y114.464 E0.51626
G1 X99.036 Y113.931 E0.02365
G1 X110.679 Y102.288 E0.51626
G1 X110.251 Y101.860 E0.01899
G1 X113.997 Y98.113 E0.16613
G1 X114.425 Y98.542 E0.01899
G1 X115.573 Y97.394 E0.05088
G1 X116.106 Y97.927 E0.02365
G1 X114.959 Y99.075 E0.05088
G1 X115.492 Y99.608 E0.02365
G1 X116.639 Y98.461 E0.05088
G1 X117.173 Y98.994 E0.02365
G1 X100.636 Y115.531 E0.73327
G1 X101.169 Y116.064 E0.02365
G1 X108.625 Y108.608 E0.33060
G1 X109.158 Y109.142 E0.02365
G1 X100.071 Y118.229 E0.40294
G1 X100.604 Y118.762 E0.02365
G1 X109.692 Y109.675 E0.40294
G1 X109.749 Y109.733 E0.00257
G1 X108.601 Y111.243 E0.05948
G1 X108.546 Y111.409 E0.00548
G1 X108.547 Y111.503 E0.00294
G1 X106.771 Y113.279 E0.07877
G1 X106.962 Y113.471 E0.00849
G1 X101.138 Y119.295 E0.25826
G1 X101.647 Y119.805 E0.02260
G1 X100.016 Y121.436 E0.07234
G1 X100.040 Y121.460 E0.00105
G1 X107.495 Y114.004 E0.33060
G1 X108.029 Y114.537 E0.02365
G1 X100.573 Y121.993 E0.33060
G1 X101.106 Y122.526 E0.02365
G1 X108.562 Y115.071 E0.33060
G1 X109.095 Y115.604 E0.02365
G1 X101.639 Y123.060 E0.33060
G1 X102.173 Y123.593 E0.02365
G1 X111.260 Y114.506 E0.40294
G1 X111.793 Y115.039 E0.02365
G1 X102.706 Y124.126 E0.40294
G1 X103.239 Y124.659 E0.02365
G1 X112.326 Y115.572 E0.40294
G1 X112.860 Y116.106 E0.02365
G1 X103.772 Y125.193 E0.40294
G1 X104.306 Y125.726 E0.02365
G1 X113.393 Y116.639 E0.40294
G1 X113.926 Y117.172 E0.02365
G1 X104.839 Y126.259 E0.40294
G1 X105.372 Y126.792 E0.02365
G1 X114.459 Y117.705 E0.40294
G1 X114.993 Y118.239 E0.02365
G1 X105.906 Y127.326 E0.40294
G1 X106.439 Y127.859 E0.02365
G1 X115.526 Y118.772 E0.40294
G1 X115.628 Y118.874 E0.00455
G1 X120.753 Y113.750 E0.22722
G1 X121.517 Y113.847 E0.02416
G1 X106.972 Y128.392 E0.64495
G1 X107.505 Y128.926 E0.02365
G1 X122.463 Y113.968 E0.66326
G1 X123.410 Y114.088 E0.02991
G1 X108.039 Y129.459 E0.68158
G1 X108.572 Y129.992 E0.02365
G1 X124.356 Y114.208 E0.69990
G1 X125.302 Y114.328 E0.02991
G1 X109.105 Y130.525 E0.71821
M73 Q0 S143
M73 P0 R142
G1 X109.638 Y131.059 E0.02365
G1 X126.249 Y114.448 E0.73653
G1 X127.195 Y114.569 E0.02991
G1 X110.172 Y131.592 E0.75484
G1 X110.705 Y132.125 E0.02365
G1 X128.141 Y114.689 E0.77316
G1 X129.088 Y114.809 E0.02991
G1 X112.870 Y131.027 E0.71914
G1 X113.403 Y131.560 E0.02365
G1 X130.034 Y114.929 E0.73746
G1 X130.980 Y115.049 E0.02991
G1 X113.936 Y132.094 E0.75577
G1 X113.997 Y132.155 E0.00270
G1 X117.260 Y128.892 E0.14467
G1 X117.732 Y129.364 E0.02094
G1 X131.713 Y115.383 E0.61995
G1 X132.247 Y115.916 E0.02365
G1 X118.265 Y129.898 E0.61995
G1 X118.799 Y130.431 E0.02365
G1 X132.780 Y116.450 E0.61995
G1 X133.313 Y116.983 E0.02365
G1 X120.963 Y129.333 E0.54761
G1 X121.497 Y129.866 E0.02365
G1 X133.846 Y117.516 E0.54761
G1 X134.380 Y118.049 E0.02365
G1 X122.030 Y130.399 E0.54761
G1 X122.563 Y130.933 E0.02365
G1 X134.913 Y118.583 E0.54761
G1 X135.205 Y118.874 E0.01294
G1 X138.123 Y115.957 E0.12938
G1 X138.551 Y116.011 E0.01355
G1 X122.976 Y131.586 E0.69061
G1 E-0.80000 F2100.00000
G1 Z0.800 F10800.000
G1 X136.434 Y131.993
G1 Z0.200
G1 E0.80000 F2100.00000
G1 F1200
G1 X147.273 Y121.154 E0.48059
G1 X146.740 Y120.621 E0.02365
G1 X136.021 Y131.340 E0.47527
G1 X135.488 Y130.806 E0.02365
G1 X146.206 Y120.088 E0.47527
G1 X145.923 Y119.805 E0.01255
G1 X155.711 Y110.017 E0.43402
G1 X155.461 Y109.767 E0.01109
G1 X128.429 Y136.798 E1.19864
G1 X127.896 Y136.265 E0.02365
G1 X154.928 Y109.233 E1.19864
G1 X154.395 Y108.700 E0.02365
G1 X127.363 Y135.732 E1.19864
G1 X126.829 Y135.199 E0.02365
G1 X155.493 Y106.535 E1.27098
G1 X154.959 Y106.002 E0.02365
G1 X126.296 Y134.665 E1.27098
G1 X125.763 Y134.132 E0.02365
G1 X154.426 Y105.469 E1.27098
G1 X153.893 Y104.936 E0.02365
G1 X125.229 Y133.599 E1.27098
G1 X124.696 Y133.066 E0.02365
G1 X153.360 Y104.402 E1.27098
G1 X152.826 Y103.869 E0.02365
G1 X124.163 Y132.532 E1.27098
G1 X123.630 Y131.999 E0.02365
G1 X152.293 Y103.336 E1.27098
G1 X151.760 Y102.802 E0.02365
G1 X139.239 Y115.323 E0.55519
G1 X139.231 Y115.134 E0.00595
G1 X138.974 Y114.521 E0.02082
G1 X151.226 Y102.269 E0.54328
G1 X150.693 Y101.736 E0.02365
G1 X138.659 Y113.770 E0.53361
G1 X138.344 Y113.019 E0.02555
G1 X150.160 Y101.203 E0.52395
G1 X149.627 Y100.669 E0.02365
G1 X138.908 Y111.388 E0.47527
G1 X138.467 Y110.947 E0.01955
G1 X137.768 Y111.646 E0.03101
G1 X137.713 Y111.516 E0.00443
G1 X149.093 Y100.136 E0.50461
G1 X148.560 Y99.603 E0.02365
G1 X137.398 Y110.765 E0.49494
G1 X137.083 Y110.014 E0.02555
G1 X148.027 Y99.070 E0.48527
G1 X147.494 Y98.536 E0.02365
G1 X136.768 Y109.262 E0.47560
G1 X136.452 Y108.511 E0.02555
G1 X136.465 Y108.498 E0.00056
G1 X136.836 Y108.869 E0.01645
G1 X140.583 Y105.123 E0.16613
G1 X140.212 Y104.752 E0.01645
G1 X146.960 Y98.003 E0.29925
G1 X146.427 Y97.470 E0.02365
G1 X139.678 Y104.218 E0.29925
G1 X139.145 Y103.685 E0.02365
G1 X145.894 Y96.937 E0.29925
G1 X145.360 Y96.403 E0.02365
G1 X138.612 Y103.152 E0.29925
G1 X138.079 Y102.619 E0.02365
G1 X144.827 Y95.870 E0.29925
G1 X144.294 Y95.337 E0.02365
G1 X137.545 Y102.085 E0.29925
G1 X137.012 Y101.552 E0.02365
G1 X148.655 Y89.909 E0.51626
G1 X148.121 Y89.376 E0.02365
G1 X136.479 Y101.019 E0.51626
G1 X135.945 Y100.486 E0.02365
G1 X147.588 Y88.843 E0.51626
G1 X147.055 Y88.310 E0.02365
G1 X137.044 Y98.321 E0.44392
G1 X136.510 Y97.788 E0.02365
G1 X146.522 Y87.776 E0.44392
G1 X145.988 Y87.243 E0.02365
G1 X135.977 Y97.254 E0.44392
G1 X135.444 Y96.721 E0.02365
G1 X145.455 Y86.710 E0.44392
G1 X144.922 Y86.176 E0.02365
G1 X134.910 Y96.188 E0.44392
G1 X134.377 Y95.655 E0.02365
G1 X144.389 Y85.643 E0.44392
G1 X144.292 Y85.546 E0.00429
G1 X145.923 Y83.915 E0.07234
G1 X145.487 Y83.479 E0.01935
G1 X133.844 Y95.121 E0.51626
G1 X133.573 Y94.851 E0.01200
G1 X131.564 Y96.860 E0.08909
G1 X131.409 Y96.490 E0.01258
G1 X144.953 Y82.945 E0.60059
M73 Q1 S142
M73 P1 R141
G1 X144.420 Y82.412 E0.02365
G1 X131.094 Y95.738 E0.59092
G1 X130.778 Y94.987 E0.02555
G1 X143.887 Y81.879 E0.58125
G1 X143.354 Y81.345 E0.02365
G1 X132.635 Y92.064 E0.47527
G1 X132.102 Y91.531 E0.02365
G1 X142.820 Y80.812 E0.47527
G1 X142.287 Y80.279 E0.02365
G1 X131.569 Y90.997 E0.47527
G1 X131.035 Y90.464 E0.02365
G1 X141.754 Y79.746 E0.47527
G1 X141.220 Y79.212 E0.02365
G1 X130.502 Y89.931 E0.47527
G1 X129.969 Y89.398 E0.02365
G1 X140.687 Y78.679 E0.47527
G1 X140.154 Y78.146 E0.02365
G1 X129.435 Y88.864 E0.47527
G1 X128.902 Y88.331 E0.02365
G1 X137.989 Y79.244 E0.40294
G1 X137.456 Y78.711 E0.02365
G1 X128.369 Y87.798 E0.40294
G1 X127.836 Y87.264 E0.02365
G1 X136.923 Y78.177 E0.40294
G1 X136.836 Y78.091 E0.00385
G1 X135.205 Y79.722 E0.07234
G1 X134.758 Y79.275 E0.01980
G1 X127.302 Y86.731 E0.33060
G1 X126.769 Y86.198 E0.02365
G1 X134.225 Y78.742 E0.33060
G1 X133.692 Y78.209 E0.02365
G1 X126.236 Y85.665 E0.33060
G1 X125.703 Y85.131 E0.02365
G1 X133.158 Y77.676 E0.33060
G1 X132.625 Y77.142 E0.02365
G1 X119.351 Y90.416 E0.58859
G1 X119.884 Y90.950 E0.02365
G1 X125.002 Y85.832 E0.22691
G1 X125.535 Y86.366 E0.02365
G1 X120.418 Y91.483 E0.22691
G1 X120.951 Y92.016 E0.02365
G1 X126.068 Y86.899 E0.22691
G1 X126.347 Y87.178 E0.01236
G1 X123.084 Y90.440 E0.14467
G1 X123.339 Y90.695 E0.01128
G1 X121.484 Y92.550 E0.08224
G1 X122.017 Y93.083 E0.02365
G1 X124.062 Y91.038 E0.09065
G1 E-0.80000 F2100.00000
G1 Z0.800 F10800.000
G1 X126.125 Y93.241
G1 Z0.200
G1 E0.80000 F2100.00000
G1 F1200
G1 X124.515 Y94.852 E0.07141
G1 E-0.80000 F2100.00000
G1 Z0.800 F10800.000
G1 X128.154 Y97.611
G1 Z0.200
G1 E0.80000 F2100.00000
G1 F1200
G1 X128.549 Y97.217 E0.01748
G1 X128.864 Y97.968 E0.02555
G1 X128.688 Y98.145 E0.00781
G1 E-0.80000 F2100.00000
G1 Z0.800 F10800.000
G1 X131.594 Y97.371
G1 Z0.200
G1 E0.80000 F2100.00000
G1 F1200
G1 X131.729 Y97.236 E0.00595
G1 X132.262 Y97.770 E0.02365
G1 X132.039 Y97.992 E0.00988
G1 X132.355 Y98.744 E0.02555
G1 X132.795 Y98.303 E0.01954
G1 X133.329 Y98.836 E0.02365
G1 X132.670 Y99.495 E0.02921
G1 X132.985 Y100.246 E0.02555
G1 X133.862 Y99.370 E0.03888
G1 X134.395 Y99.903 E0.02365
G1 X133.171 Y101.127 E0.05430
G1 X134.116 Y103.381 F10800.000
G1 F1200
G1 X134.364 Y103.134 E0.01097
G1 X134.897 Y103.667 E0.02365
G1 X134.561 Y104.003 E0.01489
G1 X134.876 Y104.754 E0.02555
G1 X135.430 Y104.201 E0.02456
G1 X135.860 Y104.630 E0.01906
G1 X135.954 Y104.573 E0.00346
G1 X136.008 Y104.689 E0.00402
G1 X135.062 Y105.635 E0.04197
G1 E-0.80000 F2100.00000
G1 Z0.800 F10800.000
G1 X136.493 Y105.470
G1 Z0.200
G1 E0.80000 F2100.00000
G1 F1200
G1 X135.710 Y106.253 E0.02827
G1 X135.922 Y106.758 E0.01399
G1 X136.748 Y105.932 E0.02983
G1 X136.893 Y106.072 E0.00516
G1 X137.150 Y106.246 E0.00793
G1 X136.133 Y107.263 E0.03672
G1 X136.345 Y107.768 E0.01399
G1 X139.545 Y104.569 E0.11553
G1 X139.903 Y104.927 E0.01295
G1 X136.543 Y108.288 E0.12135
G1 X136.945 Y105.885 F10800.000
G1 F1200
G1 X137.553 Y105.277 E0.02698
G1 X137.747 Y105.650 F10800.000
G1 F1200
G1 X139.186 Y104.210 E0.05198
G1 X138.828 Y103.852 E0.01295
G1 X137.640 Y105.039 E0.04288
G1 X137.428 Y104.534 E0.01399
G1 X138.469 Y103.493 E0.03758
G1 X138.111 Y103.135 E0.01295
G1 X137.217 Y104.029 E0.03229
G1 X137.005 Y103.524 E0.01399
G1 X137.752 Y102.776 E0.02700
G1 X137.394 Y102.417 E0.01295
G1 X136.793 Y103.018 E0.02170
G1 X136.581 Y102.513 E0.01399
G1 X137.035 Y102.059 E0.01641
G1 X136.676 Y101.700 E0.01295
G1 X136.263 Y102.114 E0.01492
G1 X136.292 Y102.272 F10800.000
G1 F1200
G1 X135.608 Y102.956 E0.03035
G1 X135.306 Y103.788 F10800.000
G1 F1200
G1 X135.502 Y103.592 E0.00707
G1 X135.432 Y103.128 E0.01200
G1 X135.436 Y102.941 E0.00477
G1 X135.045 Y103.332 E0.01412
G1 X134.687 Y102.973 E0.01295
G1 X136.318 Y101.342 E0.05891
G1 X135.959 Y100.983 E0.01295
G1 X134.328 Y102.615 E0.05891
G1 X134.078 Y102.365 E0.00901
G1 X134.014 Y102.211 E0.00425
G1 X135.601 Y100.625 E0.05730
G1 X135.242 Y100.266 E0.01295
G1 X133.802 Y101.706 E0.05201
G1 X133.780 Y101.653 E0.00146
G1 X135.205 Y100.229 E0.05145
G1 X134.884 Y99.908 E0.01159
G1 X136.515 Y98.276 E0.05891
G1 X136.156 Y97.918 E0.01295
G1 X134.525 Y99.549 E0.05891
G1 X134.167 Y99.190 E0.01295
G1 X135.798 Y97.559 E0.05891
G1 X135.439 Y97.201 E0.01295
G1 X133.808 Y98.832 E0.05891
G1 X133.449 Y98.473 E0.01295
G1 X135.081 Y96.842 E0.05891
G1 X134.722 Y96.483 E0.01295
G1 X133.091 Y98.115 E0.05891
G1 X132.732 Y97.756 E0.01295
G1 X134.364 Y96.125 E0.05891
G1 X134.005 Y95.766 E0.01295
G1 X132.374 Y97.398 E0.05891
G1 X132.015 Y97.039 E0.01295
G1 X133.744 Y95.310 E0.06244
G1 E-0.80000 F2100.00000
G1 Z0.800 F10800.000
G1 X130.569 Y101.595
G1 Z0.200
G1 E0.80000 F2100.00000
G1 F1200
G1 X130.085 Y102.080 E0.02149
G1 X130.215 Y102.210 E0.00577
G1 X129.973 Y102.452 E0.01074
G1 X130.376 Y102.856 E0.01788
G1 X130.755 Y102.476 E0.01682
G1 X131.070 Y103.228 E0.02555
G1 X130.789 Y103.509 E0.01247
G1 E-0.80000 F2100.00000
G1 Z0.800 F10800.000
G1 X133.091 Y107.606
G1 Z0.200
G1 E0.80000 F2100.00000
G1 F1200
G1 X132.477 Y108.220 E0.02722
G1 X133.011 Y108.753 E0.02365
G1 X133.277 Y108.487 E0.01180
G1 X133.592 Y109.238 E0.02555
G1 X133.424 Y109.406 E0.00746
G1 E-0.80000 F2100.00000
G1 Z0.800 F10800.000
G1 X106.133 Y91.903
G1 Z0.200
G1 E0.80000 F2100.00000
G1 F1200
G1 X120.234 Y77.802 E0.62527
G1 X119.700 Y77.269 E0.02365
G1 X105.719 Y91.250 E0.61995
G1 X105.186 Y90.716 E0.02365
G1 X119.167 Y76.735 E0.61995
G1 X118.891 Y76.459 E0.01224
G1 X117.260 Y78.091 E0.07234
G1 X117.002 Y77.833 E0.01141
G1 X109.547 Y85.289 E0.33060
G1 X109.013 Y84.756 E0.02365
G1 X116.469 Y77.300 E0.33060
G1 X115.936 Y76.767 E0.02365
G1 X108.360 Y84.343 E0.33592
G1 E-0.80000 F2100.00000
G1 Z0.800 F10800.000
G1 X136.783 Y113.966
G1 Z0.200
G1 E0.80000 F2100.00000
G1 F1200
G1 X111.264 Y110.725 E0.80657
G1 X126.831 Y90.246 E0.80656
G1 X136.760 Y113.911 E0.80467
G1 X136.183 Y113.510 F10800.000
G1 F1200
G1 X111.959 Y110.433 E0.76561
G1 X126.736 Y90.994 E0.76560
G1 X136.159 Y113.455 E0.76371
G1 X136.337 Y113.879 F10800.000
G1 E-0.80000 F2100.00000
G1 Z0.800 F10800.000
G1 X137.886 Y114.804
