; generated by PrusaSlicer 2.1.1+win64 on 2020-01-30 at 16:35:27 UTC

; 

; external perimeters extrusion width = 0.60mm
; perimeters extrusion width = 0.50mm
; infill extrusion width = 0.50mm
; solid infill extrusion width = 0.50mm
; top infill extrusion width = 0.45mm
; first layer extrusion width = 0.42mm

M73 P0 R16
M73 Q0 S16
M201 X1000 Y1000 Z1000 E5000 ; sets maximum accelerations, mm/sec^2
M203 X200 Y200 Z12 E120 ; sets maximum feedrates, mm/sec
M204 P1250 R1250 T1250 ; sets acceleration (P, T) and retract acceleration (R), mm/sec^2
M205 X8.00 Y8.00 Z0.40 E1.50 ; sets the jerk limits, mm/sec
M205 S0 T0 ; sets the minimum extruding and travel feed rate, mm/sec
M107
M862.3 P "MK3S" ; printer model check
M862.1 P0.4 ; nozzle diameter check
M115 U3.8.0 ; tell printer latest fw version
G90 ; use absolute coordinates
M83 ; extruder relative mode
M104 S215 ; set extruder temp
M140 S60 ; set bed temp
M190 S60 ; wait for bed temp
M109 S215 ; wait for extruder temp
G28 W ; home all without mesh bed level
G80 ; mesh bed leveling
G1 Y-3.0 F1000.0 ; go outside print area
G92 E0.0
G1 X60.0 E9.0 F1000.0 ; intro line
M73 Q0 S16
M73 P0 R16
G1 X100.0 E12.5 F1000.0 ; intro line
G92 E0.0
M221 S95
G21 ; set units to millimeters
G90 ; use absolute coordinates
M83 ; use relative distances for extrusion
M900 K30 ; Filament gcode
;BEFORE_LAYER_CHANGE
G92 E0.0
;0.2


G1 E-0.80000 F2100.00000
G1 Z0.600 F10800.000
;AFTER_LAYER_CHANGE
;0.2
G1 X130.476 Y33.569
G1 Z0.200
G1 E0.80000 F2100.00000
M204 S1000
G1 F1200
G1 X131.182 Y34.036 E0.02653
G1 X131.657 Y34.732 E0.02642
G1 X131.834 Y35.559 E0.02653
G1 X131.830 Y174.548 E4.35790
G1 X131.664 Y175.253 E0.02270
G1 X131.274 Y175.867 E0.02281
G1 X130.708 Y176.319 E0.02270
G1 X130.026 Y176.561 E0.02270
G1 X120.212 Y176.590 E0.30772
G1 X119.427 Y176.388 E0.02541
G1 X118.769 Y175.915 E0.02541
G1 X118.329 Y175.235 E0.02541
G1 X118.166 Y174.437 E0.02552
G1 X118.170 Y35.452 E4.35778
G1 X118.336 Y34.747 E0.02270
G1 X118.723 Y34.135 E0.02270
G1 X119.288 Y33.683 E0.02270
G1 X119.970 Y33.440 E0.02270
G1 X129.649 Y33.406 E0.30348
G1 X130.417 Y33.558 E0.02454
G1 E-0.80000 F2100.00000
G1 Z0.800 F10800.000
G1 X124.968 Y166.413
G1 Z0.200
G1 E0.80000 F2100.00000
G1 F1200
G1 X125.698 Y166.478 E0.02297
G1 X126.374 Y166.683 E0.02215
G1 X126.994 Y167.015 E0.02207
G1 X127.538 Y167.462 E0.02207
G1 X127.985 Y168.006 E0.02207
G1 X128.317 Y168.626 E0.02207
G1 X128.521 Y169.300 E0.02207
G1 X128.590 Y170.000 E0.02207
G1 X128.521 Y170.700 E0.02207
G1 X128.317 Y171.374 E0.02207
G1 X127.985 Y171.994 E0.02207
G1 X127.538 Y172.538 E0.02207
G1 X126.994 Y172.985 E0.02207
G1 X126.374 Y173.317 E0.02207
G1 X125.700 Y173.521 E0.02207
G1 X125.000 Y173.590 E0.02207
G1 X124.300 Y173.521 E0.02207
G1 X123.626 Y173.317 E0.02207
G1 X123.006 Y172.985 E0.02207
G1 X122.462 Y172.538 E0.02207
G1 X122.015 Y171.994 E0.02207
G1 X121.683 Y171.374 E0.02207
G1 X121.479 Y170.700 E0.02207
G1 X121.410 Y170.000 E0.02207
G1 X121.479 Y169.300 E0.02207
G1 X121.683 Y168.626 E0.02207
G1 X122.015 Y168.006 E0.02207
G1 X122.462 Y167.462 E0.02207
G1 X123.006 Y167.015 E0.02207
G1 X123.626 Y166.683 E0.02206
G1 X124.300 Y166.479 E0.02207
G1 X124.908 Y166.419 E0.01918
G1 X124.945 Y166.794 F10800.000
G1 F1200
G1 X125.625 Y166.850 E0.02140
G1 X126.229 Y167.033 E0.01977
G1 X126.784 Y167.330 E0.01974
G1 X127.271 Y167.729 E0.01974
G1 X127.670 Y168.216 E0.01974
G1 X127.967 Y168.771 E0.01974
G1 X128.149 Y169.374 E0.01974
G1 X128.211 Y170.000 E0.01974
G1 X128.149 Y170.626 E0.01974
G1 X127.967 Y171.229 E0.01974
G1 X127.670 Y171.784 E0.01974
G1 X127.271 Y172.271 E0.01974
G1 X126.784 Y172.670 E0.01974
G1 X126.229 Y172.967 E0.01974
G1 X125.626 Y173.149 E0.01974
G1 X125.000 Y173.211 E0.01974
G1 X124.374 Y173.149 E0.01974
G1 X123.771 Y172.967 E0.01974
G1 X123.216 Y172.670 E0.01974
G1 X122.729 Y172.271 E0.01974
G1 X122.330 Y171.784 E0.01974
G1 X122.033 Y171.229 E0.01974
G1 X121.851 Y170.626 E0.01974
G1 X121.789 Y170.000 E0.01974
G1 X121.851 Y169.374 E0.01974
G1 X122.033 Y168.771 E0.01974
G1 X122.330 Y168.216 E0.01974
G1 X122.729 Y167.729 E0.01974
G1 X123.216 Y167.330 E0.01974
G1 X123.771 Y167.033 E0.01974
G1 X124.374 Y166.851 E0.01974
G1 X124.886 Y166.800 E0.01613
G1 X125.141 Y166.446 F10800.000
G1 E-0.80000 F2100.00000
G1 Z0.800 F10800.000
G1 X125.000 Y43.590
G1 Z0.200
G1 E0.80000 F2100.00000
G1 F1200
G1 X124.300 Y43.521 E0.02207
G1 X123.626 Y43.317 E0.02207
G1 X123.006 Y42.985 E0.02207
G1 X122.462 Y42.538 E0.02207
G1 X122.015 Y41.994 E0.02207
G1 X121.683 Y41.374 E0.02207
G1 X121.479 Y40.700 E0.02207
G1 X121.410 Y40.000 E0.02207
G1 X121.479 Y39.300 E0.02207
G1 X121.683 Y38.626 E0.02207
G1 X122.015 Y38.006 E0.02207
G1 X122.462 Y37.462 E0.02207
G1 X123.006 Y37.015 E0.02207
G1 X123.629 Y36.682 E0.02215
G1 X124.332 Y36.476 E0.02297
G1 X125.000 Y36.410 E0.02106
G1 X125.700 Y36.479 E0.02207
G1 X126.374 Y36.683 E0.02207
G1 X126.994 Y37.015 E0.02207
G1 X127.538 Y37.462 E0.02207
G1 X127.985 Y38.006 E0.02207
G1 X128.317 Y38.626 E0.02207
G1 X128.521 Y39.300 E0.02207
G1 X128.590 Y40.000 E0.02207
G1 X128.521 Y40.700 E0.02207
G1 X128.317 Y41.374 E0.02207
G1 X127.985 Y41.994 E0.02207
G1 X127.538 Y42.538 E0.02207
G1 X126.994 Y42.985 E0.02207
G1 X126.374 Y43.317 E0.02207
G1 X125.700 Y43.521 E0.02207
G1 X125.060 Y43.584 E0.02018
G1 X125.023 Y43.209 F10800.000
G1 F1200
G1 X124.374 Y43.149 E0.02044
G1 X123.771 Y42.967 E0.01974
G1 X123.216 Y42.670 E0.01974
G1 X122.729 Y42.271 E0.01974
G1 X122.330 Y41.784 E0.01974
G1 X122.033 Y41.229 E0.01974
G1 X121.851 Y40.626 E0.01974
G1 X121.789 Y40.000 E0.01974
G1 X121.851 Y39.374 E0.01974
G1 X122.033 Y38.771 E0.01974
G1 X122.330 Y38.216 E0.01974
G1 X122.729 Y37.729 E0.01974
G1 X123.216 Y37.330 E0.01974
G1 X123.772 Y37.033 E0.01977
G1 X124.404 Y36.848 E0.02064
G1 X125.000 Y36.789 E0.01878
G1 X125.626 Y36.851 E0.01974
G1 X126.229 Y37.033 E0.01974
G1 X126.784 Y37.330 E0.01974
G1 X127.271 Y37.729 E0.01974
G1 X127.670 Y38.216 E0.01974
G1 X127.967 Y38.771 E0.01974
G1 X128.149 Y39.374 E0.01974
G1 X128.211 Y40.000 E0.01974
G1 X128.149 Y40.626 E0.01974
G1 X127.967 Y41.229 E0.01974
G1 X127.670 Y41.784 E0.01974
G1 X127.271 Y42.271 E0.01974
G1 X126.784 Y42.670 E0.01974
G1 X126.229 Y42.967 E0.01974
G1 X125.626 Y43.149 E0.01974
G1 X125.082 Y43.203 E0.01714
G1 X124.825 Y43.556 F10800.000
G1 E-0.80000 F2100.00000
G1 Z0.800 F10800.000
G1 X127.437 Y60.825
G1 Z0.200
G1 E0.80000 F2100.00000
G1 F1200
G1 X120.941 Y54.745 E0.27897
G1 X120.941 Y36.181 E0.58206
G1 X129.059 Y36.181 E0.25451
G1 X129.059 Y173.819 E4.31551
G1 X120.941 Y173.819 E0.25451
G1 X120.941 Y155.255 E0.58206
G1 X127.437 Y149.175 E0.27897
G1 X127.437 Y60.885 E2.76826
G1 X127.060 Y60.989 F10800.000
G1 F1200
G1 X120.564 Y54.909 E0.27897
G1 X120.564 Y35.804 E0.59901
G1 X129.436 Y35.804 E0.27816
G1 X129.436 Y174.196 E4.33916
G1 X120.564 Y174.196 E0.27816
G1 X120.564 Y155.091 E0.59901
G1 X127.060 Y149.011 E0.27897
G1 X127.060 Y61.049 E2.75800
G1 X127.261 Y60.643 F10800.000
G1 E-0.80000 F2100.00000
G1 Z0.800 F10800.000
G1 X128.946 Y62.490
G1 Z0.200
G1 E0.80000 F2100.00000
G1 F1200
G1 X127.720 Y61.264 E0.05441
G1 X127.720 Y61.798 E0.01676
G1 X128.776 Y62.854 E0.04687
G1 X128.776 Y63.388 E0.01676
G1 X127.720 Y62.332 E0.04687
G1 X127.720 Y62.866 E0.01676
G1 X128.776 Y63.922 E0.04687
G1 X128.776 Y64.456 E0.01676
G1 X127.720 Y63.400 E0.04687
G1 X127.720 Y63.934 E0.01676
G1 X128.776 Y64.990 E0.04687
G1 X128.776 Y65.524 E0.01676
G1 X127.720 Y64.468 E0.04687
G1 X127.720 Y65.002 E0.01676
G1 X128.776 Y66.058 E0.04687
G1 X128.776 Y66.592 E0.01676
G1 X127.720 Y65.536 E0.04687
G1 X127.720 Y66.070 E0.01676
G1 X128.776 Y67.126 E0.04687
G1 X128.776 Y67.660 E0.01676
G1 X127.720 Y66.604 E0.04687
G1 X127.720 Y67.138 E0.01676
G1 X128.776 Y68.194 E0.04687
G1 X128.776 Y68.728 E0.01676
G1 X127.720 Y67.672 E0.04687
G1 X127.720 Y68.206 E0.01676
G1 X128.776 Y69.262 E0.04687
G1 X128.776 Y69.796 E0.01676
G1 X127.720 Y68.740 E0.04687
G1 X127.720 Y69.274 E0.01676
G1 X128.776 Y70.330 E0.04687
G1 X128.776 Y70.864 E0.01676
G1 X127.720 Y69.808 E0.04687
G1 X127.720 Y70.342 E0.01676
G1 X128.776 Y71.398 E0.04687
G1 X128.776 Y71.932 E0.01676
G1 X127.720 Y70.876 E0.04687
G1 X127.720 Y71.410 E0.01676
G1 X128.776 Y72.465 E0.04687
G1 X128.776 Y72.999 E0.01676
G1 X127.720 Y71.944 E0.04687
G1 X127.720 Y72.478 E0.01676
G1 X128.776 Y73.533 E0.04687
G1 X128.776 Y74.067 E0.01676
G1 X127.720 Y73.012 E0.04687
G1 X127.720 Y73.546 E0.01676
G1 X128.776 Y74.601 E0.04687
G1 X128.776 Y75.135 E0.01676
G1 X127.720 Y74.080 E0.04687
G1 X127.720 Y74.614 E0.01676
G1 X128.776 Y75.669 E0.04687
G1 X128.776 Y76.203 E0.01676
G1 X127.720 Y75.148 E0.04687
M73 Q6 S15
G1 X127.720 Y75.682 E0.01676
G1 X128.776 Y76.737 E0.04687
G1 X128.776 Y77.271 E0.01676
G1 X127.720 Y76.216 E0.04687
G1 X127.720 Y76.750 E0.01676
G1 X128.776 Y77.805 E0.04687
G1 X128.776 Y78.339 E0.01676
G1 X127.720 Y77.284 E0.04687
G1 X127.720 Y77.817 E0.01676
G1 X128.776 Y78.873 E0.04687
G1 X128.776 Y79.407 E0.01676
G1 X127.720 Y78.351 E0.04687
G1 X127.720 Y78.885 E0.01676
G1 X128.776 Y79.941 E0.04687
G1 X128.776 Y80.475 E0.01676
G1 X127.720 Y79.419 E0.04687
G1 X127.720 Y79.953 E0.01676
G1 X128.776 Y81.009 E0.04687
G1 X128.776 Y81.543 E0.01676
G1 X127.720 Y80.487 E0.04687
M73 P6 R15
G1 X127.720 Y81.021 E0.01676
G1 X128.776 Y82.077 E0.04687
G1 X128.776 Y82.611 E0.01676
G1 X127.720 Y81.555 E0.04687
G1 X127.720 Y82.089 E0.01676
G1 X128.776 Y83.145 E0.04687
G1 X128.776 Y83.679 E0.01676
G1 X127.720 Y82.623 E0.04687
G1 X127.720 Y83.157 E0.01676
G1 X128.776 Y84.213 E0.04687
G1 X128.776 Y84.747 E0.01676
G1 X127.720 Y83.691 E0.04687
G1 X127.720 Y84.225 E0.01676
G1 X128.776 Y85.281 E0.04687
G1 X128.776 Y85.815 E0.01676
G1 X127.720 Y84.759 E0.04687
G1 X127.720 Y85.293 E0.01676
G1 X128.776 Y86.349 E0.04687
G1 X128.776 Y86.883 E0.01676
G1 X127.720 Y85.827 E0.04687
G1 X127.720 Y86.361 E0.01676
G1 X128.776 Y87.417 E0.04687
G1 X128.776 Y87.951 E0.01676
G1 X127.720 Y86.895 E0.04687
G1 X127.720 Y87.429 E0.01676
G1 X128.776 Y88.485 E0.04687
G1 X128.776 Y89.019 E0.01676
G1 X127.720 Y87.963 E0.04687
G1 X127.720 Y88.497 E0.01676
G1 X128.776 Y89.553 E0.04687
G1 X128.776 Y90.087 E0.01676
G1 X127.720 Y89.031 E0.04687
G1 X127.720 Y89.565 E0.01676
G1 X128.776 Y90.621 E0.04687
G1 X128.776 Y91.155 E0.01676
G1 X127.720 Y90.099 E0.04687
G1 X127.720 Y90.633 E0.01676
G1 X128.776 Y91.689 E0.04687
G1 X128.776 Y92.223 E0.01676
G1 X127.720 Y91.167 E0.04687
G1 X127.720 Y91.701 E0.01676
G1 X128.776 Y92.757 E0.04687
G1 X128.776 Y93.291 E0.01676
G1 X127.720 Y92.235 E0.04687
G1 X127.720 Y92.769 E0.01676
G1 X128.776 Y93.825 E0.04687
G1 X128.776 Y94.359 E0.01676
G1 X127.720 Y93.303 E0.04687
G1 X127.720 Y93.837 E0.01676
G1 X128.776 Y94.892 E0.04687
G1 X128.776 Y95.426 E0.01676
G1 X127.720 Y94.371 E0.04687
G1 X127.720 Y94.905 E0.01676
G1 X128.776 Y95.960 E0.04687
G1 X128.776 Y96.494 E0.01676
G1 X127.720 Y95.439 E0.04687
G1 X127.720 Y95.973 E0.01676
G1 X128.776 Y97.028 E0.04687
G1 X128.776 Y97.562 E0.01676
G1 X127.720 Y96.507 E0.04687
G1 X127.720 Y97.041 E0.01676
G1 X128.776 Y98.096 E0.04687
G1 X128.776 Y98.630 E0.01676
G1 X127.720 Y97.575 E0.04687
G1 X127.720 Y98.109 E0.01676
G1 X128.776 Y99.164 E0.04687
G1 X128.776 Y99.698 E0.01676
G1 X127.720 Y98.643 E0.04687
G1 X127.720 Y99.177 E0.01676
G1 X128.776 Y100.232 E0.04687
G1 X128.776 Y100.766 E0.01676
G1 X127.720 Y99.711 E0.04687
G1 X127.720 Y100.244 E0.01676
G1 X128.776 Y101.300 E0.04687
G1 X128.776 Y101.834 E0.01676
G1 X127.720 Y100.778 E0.04687
G1 X127.720 Y101.312 E0.01676
G1 X128.776 Y102.368 E0.04687
G1 X128.776 Y102.902 E0.01676
G1 X127.720 Y101.846 E0.04687
G1 X127.720 Y102.380 E0.01676
G1 X128.776 Y103.436 E0.04687
G1 X128.776 Y103.970 E0.01676
G1 X127.720 Y102.914 E0.04687
G1 X127.720 Y103.448 E0.01676
G1 X128.776 Y104.504 E0.04687
G1 X128.776 Y105.038 E0.01676
G1 X127.720 Y103.982 E0.04687
G1 X127.720 Y104.516 E0.01676
G1 X128.776 Y105.572 E0.04687
G1 X128.776 Y106.106 E0.01676
G1 X127.720 Y105.050 E0.04687
G1 X127.720 Y105.584 E0.01676
G1 X128.776 Y106.640 E0.04687
G1 X128.776 Y107.174 E0.01676
G1 X127.720 Y106.118 E0.04687
G1 X127.720 Y106.652 E0.01676
G1 X128.776 Y107.708 E0.04687
G1 X128.776 Y108.242 E0.01676
G1 X127.720 Y107.186 E0.04687
G1 X127.720 Y107.720 E0.01676
G1 X128.776 Y108.776 E0.04687
G1 X128.776 Y109.310 E0.01676
G1 X127.720 Y108.254 E0.04687
G1 X127.720 Y108.788 E0.01676
G1 X128.776 Y109.844 E0.04687
G1 X128.776 Y110.378 E0.01676
G1 X127.720 Y109.322 E0.04687
G1 X127.720 Y109.856 E0.01676
G1 X128.776 Y110.912 E0.04687
G1 X128.776 Y111.446 E0.01676
G1 X127.720 Y110.390 E0.04687
G1 X127.720 Y110.924 E0.01676
G1 X128.776 Y111.980 E0.04687
G1 X128.776 Y112.514 E0.01676
G1 X127.720 Y111.458 E0.04687
G1 X127.720 Y111.992 E0.01676
G1 X128.776 Y113.048 E0.04687
G1 X128.776 Y113.582 E0.01676
G1 X127.720 Y112.526 E0.04687
G1 X127.720 Y113.060 E0.01676
G1 X128.776 Y114.116 E0.04687
G1 X128.776 Y114.650 E0.01676
G1 X127.720 Y113.594 E0.04687
G1 X127.720 Y114.128 E0.01676
G1 X128.776 Y115.184 E0.04687
G1 X128.776 Y115.718 E0.01676
G1 X127.720 Y114.662 E0.04687
G1 X127.720 Y115.196 E0.01676
G1 X128.776 Y116.252 E0.04687
G1 X128.776 Y116.785 E0.01676
G1 X127.720 Y115.730 E0.04687
G1 X127.720 Y116.264 E0.01676
G1 X128.776 Y117.319 E0.04687
G1 X128.776 Y117.853 E0.01676
G1 X127.720 Y116.798 E0.04687
G1 X127.720 Y117.332 E0.01676
G1 X128.776 Y118.387 E0.04687
G1 X128.776 Y118.921 E0.01676
G1 X127.720 Y117.866 E0.04687
G1 X127.720 Y118.400 E0.01676
G1 X128.776 Y119.455 E0.04687
G1 X128.776 Y119.989 E0.01676
G1 X127.720 Y118.934 E0.04687
G1 X127.720 Y119.468 E0.01676
G1 X128.776 Y120.523 E0.04687
G1 X128.776 Y121.057 E0.01676
G1 X127.720 Y120.002 E0.04687
G1 X127.720 Y120.536 E0.01676
G1 X128.776 Y121.591 E0.04687
G1 X128.776 Y122.125 E0.01676
G1 X127.720 Y121.070 E0.04687
G1 X127.720 Y121.604 E0.01676
G1 X128.776 Y122.659 E0.04687
G1 X128.776 Y123.193 E0.01676
G1 X127.720 Y122.137 E0.04687
G1 X127.720 Y122.671 E0.01676
G1 X128.776 Y123.727 E0.04687
G1 X128.776 Y124.261 E0.01676
G1 X127.720 Y123.205 E0.04687
G1 X127.720 Y123.739 E0.01676
G1 X128.776 Y124.795 E0.04687
G1 X128.776 Y125.329 E0.01676
G1 X127.720 Y124.273 E0.04687
G1 X127.720 Y124.807 E0.01676
G1 X128.776 Y125.863 E0.04687
G1 X128.776 Y126.397 E0.01676
G1 X127.720 Y125.341 E0.04687
G1 X127.720 Y125.875 E0.01676
G1 X128.776 Y126.931 E0.04687
G1 X128.776 Y127.465 E0.01676
G1 X127.720 Y126.409 E0.04687
G1 X127.720 Y126.943 E0.01676
G1 X128.776 Y127.999 E0.04687
G1 X128.776 Y128.533 E0.01676
G1 X127.720 Y127.477 E0.04687
G1 X127.720 Y128.011 E0.01676
G1 X128.776 Y129.067 E0.04687
G1 X128.776 Y129.601 E0.01676
G1 X127.720 Y128.545 E0.04687
G1 X127.720 Y129.079 E0.01676
G1 X128.776 Y130.135 E0.04687
G1 X128.776 Y130.669 E0.01676
G1 X127.720 Y129.613 E0.04687
G1 X127.720 Y130.147 E0.01676
G1 X128.776 Y131.203 E0.04687
G1 X128.776 Y131.737 E0.01676
G1 X127.720 Y130.681 E0.04687
G1 X127.720 Y131.215 E0.01676
G1 X128.776 Y132.271 E0.04687
G1 X128.776 Y132.805 E0.01676
G1 X127.720 Y131.749 E0.04687
G1 X127.720 Y132.283 E0.01676
G1 X128.776 Y133.339 E0.04687
G1 X128.776 Y133.873 E0.01676
G1 X127.720 Y132.817 E0.04687
G1 X127.720 Y133.351 E0.01676
G1 X128.776 Y134.407 E0.04687
G1 X128.776 Y134.941 E0.01676
G1 X127.720 Y133.885 E0.04687
G1 X127.720 Y134.419 E0.01676
G1 X128.776 Y135.475 E0.04687
G1 X128.776 Y136.009 E0.01676
G1 X127.720 Y134.953 E0.04687
G1 X127.720 Y135.487 E0.01676
G1 X128.776 Y136.543 E0.04687
G1 X128.776 Y137.077 E0.01676
G1 X127.720 Y136.021 E0.04687
G1 X127.720 Y136.555 E0.01676
G1 X128.776 Y137.611 E0.04687
G1 X128.776 Y138.145 E0.01676
G1 X127.720 Y137.089 E0.04687
G1 X127.720 Y137.623 E0.01676
G1 X128.776 Y138.679 E0.04687
G1 X128.776 Y139.212 E0.01676
G1 X127.720 Y138.157 E0.04687
G1 X127.720 Y138.691 E0.01676
G1 X128.776 Y139.746 E0.04687
G1 X128.776 Y140.280 E0.01676
G1 X127.720 Y139.225 E0.04687
G1 X127.720 Y139.759 E0.01676
G1 X128.776 Y140.814 E0.04687
G1 X128.776 Y141.348 E0.01676
G1 X127.720 Y140.293 E0.04687
G1 X127.720 Y140.827 E0.01676
G1 X128.776 Y141.882 E0.04687
G1 X128.776 Y142.416 E0.01676
G1 X127.720 Y141.361 E0.04687
G1 X127.720 Y141.895 E0.01676
G1 X128.776 Y142.950 E0.04687
