; generated by PrusaSlicer 2.3.1+win64 on 2021-07-22 at 19:45:03 UTC

; 

; external perimeters extrusion width = 0.45mm
; perimeters extrusion width = 0.45mm
; infill extrusion width = 0.45mm
; solid infill extrusion width = 0.45mm
; top infill extrusion width = 0.40mm
; support material extrusion width = 0.35mm
; first layer extrusion width = 0.42mm

M73 P0 R232
M73 Q0 S235
M201 X1000 Y1000 Z1000 E5000 ; sets maximum accelerations, mm/sec^2
M203 X200 Y200 Z12 E120 ; sets maximum feedrates, mm/sec
M204 P1250 R1250 T1250 ; sets acceleration (P, T) and retract acceleration (R), mm/sec^2
M205 X8.00 Y8.00 Z0.40 E1.50 ; sets the jerk limits, mm/sec
M205 S0 T0 ; sets the minimum extruding and travel feed rate, mm/sec
M107
;TYPE:Custom
M862.3 P "MK3S" ; printer model check
M862.1 P0.4 ; nozzle diameter check
M115 U3.8.0 ; tell printer latest fw version
G90 ; use absolute coordinates
M83 ; extruder relative mode
M104 S215 ; set extruder temp
M140 S60 ; set bed temp
M190 S60 ; wait for bed temp
M109 S215 ; wait for extruder temp
G28 W ; home all without mesh bed level
G80 ; mesh bed leveling
G1 Y-3.0 F1000.0 ; go outside print area
G92 E0.0
G1 X60.0 E9.0 F1000.0 ; intro line
G1 X100.0 E12.5 F1000.0 ; intro line
G92 E0.0
M221 S95
G21 ; set units to millimeters
G90 ; use absolute coordinates
M83 ; use relative distances for extrusion
M900 K0.05 ; Filament gcode LA 1.5
M900 K30 ; Filament gcode LA 1.0
;LAYER_CHANGE
;Z:0.2
;HEIGHT:0.2
;BEFORE_LAYER_CHANGE
G92 E0.0
;0.2


G1 E-0.80000 F2100.000
G1 Z0.600 F10800.000
;AFTER_LAYER_CHANGE
;0.2
G1 X47.248 Y68.775
G1 Z0.200
G1 E0.80000 F2100.000
M204 S1000
;TYPE:Perimeter
;WIDTH:0.42
G1 F1200.000
G1 X47.808 Y68.405 E0.02104
G1 X48.429 Y68.151 E0.02104
G1 X49.088 Y68.025 E0.02104
G1 X49.760 Y68.029 E0.02106
G1 X50.422 Y68.168 E0.02123
G1 X51.034 Y68.428 E0.02083
G1 X51.588 Y68.806 E0.02104
G1 X52.058 Y69.285 E0.02104
G1 X52.219 Y69.532 E0.00925
G1 X54.514 Y69.532 E0.07195
G1 X54.675 Y69.285 E0.00925
G1 X55.144 Y68.806 E0.02104
G1 X55.698 Y68.428 E0.02104
G1 X56.316 Y68.166 E0.02104
G1 X56.973 Y68.029 E0.02104
G1 X57.638 Y68.025 E0.02083
G1 X58.303 Y68.151 E0.02122
G1 X58.925 Y68.405 E0.02106
G1 X59.471 Y68.767 E0.02056
G1 X59.716 Y68.986 E0.01031
G1 X59.968 Y69.259 E0.01164
G1 X60.335 Y69.805 E0.02062
G1 X60.593 Y70.424 E0.02104
G1 X60.725 Y71.082 E0.02104
G1 X60.725 Y71.753 E0.02104
G1 X60.593 Y72.412 E0.02106
G1 X60.332 Y73.037 E0.02124
G1 X59.969 Y73.577 E0.02041
G1 X59.712 Y73.857 E0.01191
G1 X59.472 Y74.070 E0.01005
G1 X58.926 Y74.432 E0.02054
G1 X58.305 Y74.686 E0.02104
G1 X57.646 Y74.813 E0.02104
G1 X56.975 Y74.808 E0.02104
G1 X56.318 Y74.673 E0.02104
G1 X55.700 Y74.411 E0.02104
G1 X55.146 Y74.033 E0.02104
G1 X54.676 Y73.554 E0.02104
G1 X54.515 Y73.307 E0.00925
G1 X52.218 Y73.307 E0.07201
G1 X52.057 Y73.554 E0.00925
G1 X51.587 Y74.033 E0.02104
G1 X51.032 Y74.411 E0.02104
G1 X50.414 Y74.673 E0.02104
G1 X49.757 Y74.809 E0.02104
G1 X49.086 Y74.813 E0.02104
G1 X48.427 Y74.685 E0.02104
G1 X47.813 Y74.434 E0.02082
G1 X47.247 Y74.062 E0.02124
G1 X46.771 Y73.588 E0.02106
G1 X46.397 Y73.031 E0.02104
G1 X46.139 Y72.411 E0.02104
G1 X46.007 Y71.753 E0.02104
G1 X46.008 Y71.082 E0.02104
G1 X46.139 Y70.424 E0.02104
G1 X46.397 Y69.805 E0.02104
G1 X46.772 Y69.248 E0.02104
G1 X47.206 Y68.818 E0.01916
G1 E-0.80000 F2100.000
G1 Z0.800 F10800.000
G1 X51.723 Y73.356
G1 Z0.200
G1 E0.80000 F2100.000
;TYPE:External perimeter
G1 F1200.000
G1 X51.344 Y73.742 E0.01698
G1 X50.851 Y74.078 E0.01870
G1 X50.302 Y74.311 E0.01870
G1 X49.717 Y74.432 E0.01870
G1 X49.121 Y74.435 E0.01870
G1 X48.535 Y74.322 E0.01870
G1 X47.989 Y74.099 E0.01849
G1 X47.486 Y73.768 E0.01890
G1 X47.063 Y73.347 E0.01871
G1 X46.730 Y72.852 E0.01870
G1 X46.501 Y72.301 E0.01870
G1 X46.385 Y71.716 E0.01870
G1 X46.385 Y71.120 E0.01870
G1 X46.502 Y70.535 E0.01870
G1 X46.731 Y69.984 E0.01870
G1 X47.064 Y69.489 E0.01870
G1 X47.487 Y69.069 E0.01870
G1 X47.985 Y68.740 E0.01870
G1 X48.537 Y68.515 E0.01870
G1 X49.123 Y68.402 E0.01870
G1 X49.719 Y68.406 E0.01871
G1 X50.309 Y68.530 E0.01889
G1 X50.852 Y68.760 E0.01850
G1 X51.345 Y69.096 E0.01870
G1 X51.762 Y69.523 E0.01870
G1 X52.015 Y69.910 E0.01448
G1 X54.718 Y69.910 E0.08476
G1 X54.970 Y69.523 E0.01448
G1 X55.387 Y69.096 E0.01870
G1 X55.880 Y68.760 E0.01870
G1 X56.429 Y68.527 E0.01870
G1 X57.013 Y68.406 E0.01870
G1 X57.603 Y68.402 E0.01850
G1 X58.195 Y68.515 E0.01889
G1 X58.748 Y68.740 E0.01871
G1 X59.240 Y69.066 E0.01853
G1 X59.451 Y69.255 E0.00887
G1 X59.671 Y69.493 E0.01017
G1 X60.001 Y69.984 E0.01855
G1 X60.231 Y70.535 E0.01870
G1 X60.348 Y71.120 E0.01870
G1 X60.348 Y71.716 E0.01870
G1 X60.231 Y72.301 E0.01871
G1 X59.998 Y72.857 E0.01890
G1 X59.672 Y73.343 E0.01835
G1 X59.447 Y73.588 E0.01042
G1 X59.242 Y73.770 E0.00862
G1 X58.749 Y74.097 E0.01852
G1 X58.197 Y74.322 E0.01870
G1 X57.611 Y74.435 E0.01870
G1 X57.015 Y74.432 E0.01870
G1 X56.431 Y74.311 E0.01870
G1 X55.882 Y74.078 E0.01870
G1 X55.389 Y73.742 E0.01870
G1 X54.971 Y73.316 E0.01870
G1 X54.719 Y72.930 E0.01449
G1 X52.014 Y72.930 E0.08481
G1 X51.764 Y73.312 E0.01433
G1 X51.744 Y73.755 F10800.000
G1 E-0.80000 F2100.000
G1 Z0.800 F10800.000
G1 X54.515 Y66.945
G1 Z0.200
G1 E0.80000 F2100.000
;TYPE:Perimeter
G1 F1200.000
G1 X54.515 Y63.869 E0.09645
G1 X64.089 Y63.869 E0.30019
G1 X64.089 Y66.945 E0.09645
G1 X54.575 Y66.945 E0.29831
M73 P0 R231
G1 E-0.80000 F2100.000
G1 Z0.800 F10800.000
G1 X63.374 Y64.246
G1 Z0.200
G1 E0.80000 F2100.000
;TYPE:External perimeter
G1 F1200.000
G1 X63.712 Y64.246 E0.01060
G1 X63.712 Y66.568 E0.07281
G1 X54.892 Y66.568 E0.27654
G1 X54.892 Y64.246 E0.07281
G1 X63.314 Y64.246 E0.26406
G1 X63.516 Y63.939 F10800.000
G1 E-0.80000 F2100.000
G1 Z0.800 F10800.000
G1 X57.313 Y75.463
G1 Z0.200
G1 E0.80000 F2100.000
;TYPE:Perimeter
G1 F1200.000
G1 X57.885 Y75.886 E0.02230
G1 X58.377 Y76.407 E0.02248
G1 X58.770 Y77.002 E0.02235
G1 X59.060 Y77.680 E0.02313
G1 X59.223 Y78.392 E0.02289
G1 X59.258 Y83.140 E0.14889
G1 X59.258 Y87.829 E0.14702
G1 X59.224 Y92.579 E0.14894
G1 X59.054 Y93.310 E0.02354
G1 X58.770 Y93.967 E0.02242
G1 X58.378 Y94.562 E0.02237
G1 X57.882 Y95.085 E0.02258
G1 X57.313 Y95.506 E0.02222
G1 X56.675 Y95.825 E0.02236
G1 X55.991 Y96.029 E0.02238
G1 X55.299 Y96.109 E0.02183
G1 X36.486 Y96.109 E0.58988
G1 X35.827 Y96.035 E0.02079
G1 X35.664 Y95.993 E0.00527
G1 X35.109 Y95.826 E0.01818
G1 X34.480 Y95.512 E0.02205
G1 X33.899 Y95.083 E0.02265
G1 X33.405 Y94.562 E0.02250
G1 X33.013 Y93.968 E0.02233
G1 X32.786 Y93.444 E0.01789
G1 X32.723 Y93.288 E0.00528
G1 X32.561 Y92.578 E0.02285
G1 X32.525 Y87.829 E0.14889
G1 X32.525 Y83.140 E0.14702
G1 X32.559 Y78.390 E0.14894
G1 X32.729 Y77.659 E0.02354
G1 X33.013 Y77.003 E0.02241
G1 X33.405 Y76.408 E0.02233
G1 X33.898 Y75.887 E0.02250
G1 X34.471 Y75.463 E0.02236
G1 X35.126 Y75.137 E0.02292
G1 X35.793 Y74.940 E0.02182
G1 X36.484 Y74.860 E0.02180
G1 X55.299 Y74.860 E0.58991
G1 X55.989 Y74.940 E0.02180
G1 X56.652 Y75.135 E0.02166
G1 X57.259 Y75.436 E0.02126
G1 E-0.80000 F2100.000
G1 Z0.800 F10800.000
G1 X32.902 Y83.214
G1 Z0.200
G1 E0.80000 F2100.000
;TYPE:External perimeter
G1 F1200.000
G1 X32.936 Y78.435 E0.14984
G1 X33.089 Y77.778 E0.02116
G1 X33.346 Y77.183 E0.02032
G1 X33.702 Y76.643 E0.02026
G1 X34.149 Y76.170 E0.02042
G1 X34.669 Y75.786 E0.02027
G1 X35.264 Y75.490 E0.02084
G1 X35.869 Y75.311 E0.01977
G1 X36.506 Y75.237 E0.02010
G1 X41.207 Y75.235 E0.14740
G1 X55.277 Y75.237 E0.44115
G1 X55.914 Y75.311 E0.02010
G1 X56.517 Y75.488 E0.01972
G1 X57.115 Y75.785 E0.02092
G1 X57.633 Y76.169 E0.02024
G1 X58.081 Y76.642 E0.02041
G1 X58.437 Y77.182 E0.02028
G1 X58.649 Y77.670 E0.01667
G1 X58.699 Y77.794 E0.00421
G1 X58.846 Y78.436 E0.02063
G1 X58.881 Y83.142 E0.14756
G1 X58.881 Y87.828 E0.14693
G1 X58.848 Y92.534 E0.14758
G1 X58.694 Y93.192 E0.02116
G1 X58.437 Y93.787 E0.02032
G1 X58.081 Y94.327 E0.02029
G1 X57.631 Y94.801 E0.02050
G1 X57.115 Y95.184 E0.02015
G1 X56.535 Y95.473 E0.02030
G1 X55.915 Y95.658 E0.02031
G1 X55.277 Y95.732 E0.02011
G1 X36.507 Y95.732 E0.58854
G1 X35.896 Y95.664 E0.01927
G1 X35.248 Y95.474 E0.02116
G1 X34.677 Y95.190 E0.02000
G1 X34.150 Y94.800 E0.02057
G1 X33.702 Y94.327 E0.02041
G1 X33.346 Y93.787 E0.02026
G1 X33.134 Y93.298 E0.01672
G1 X33.084 Y93.174 E0.00419
G1 X32.937 Y92.534 E0.02060
G1 X32.902 Y87.828 E0.14756
G1 X32.902 Y83.274 E0.14279
G1 X32.557 Y83.013 F10800.000
G1 E-0.80000 F2100.000
G1 Z0.800 F10800.000
G1 X32.902 Y66.945
G1 Z0.200
G1 E0.80000 F2100.000
;TYPE:Perimeter
G1 F1200.000
G1 X27.695 Y66.945 E0.16328
G1 X27.695 Y63.869 E0.09645
G1 X37.269 Y63.869 E0.30019
G1 X37.269 Y66.945 E0.09645
G1 X32.962 Y66.945 E0.13503
G1 E-0.80000 F2100.000
G1 Z0.800 F10800.000
G1 X30.801 Y66.568
G1 Z0.200
G1 E0.80000 F2100.000
;TYPE:External perimeter
G1 F1200.000
G1 X28.072 Y66.568 E0.08556
G1 X28.072 Y64.246 E0.07281
G1 X36.892 Y64.246 E0.27654
G1 X36.892 Y66.568 E0.07281
G1 X30.861 Y66.568 E0.18910
G1 X30.644 Y66.936 F10800.000
G1 E-0.80000 F2100.000
G1 Z0.800 F10800.000
G1 X35.113 Y61.425
G1 Z0.200
G1 E0.80000 F2100.000
;TYPE:Perimeter
G1 F1200.000
G1 X34.634 Y60.841 E0.02369
G1 X34.278 Y60.174 E0.02369
G1 X34.059 Y59.451 E0.02369
G1 X33.984 Y58.700 E0.02369
G1 X34.059 Y57.948 E0.02369
G1 X34.278 Y57.225 E0.02369
G1 X34.634 Y56.559 E0.02369
G1 X35.113 Y55.975 E0.02369
G1 X35.697 Y55.496 E0.02369
G1 X36.364 Y55.139 E0.02371
G1 X37.094 Y54.919 E0.02392
G1 X37.838 Y54.846 E0.02343
G1 X38.590 Y54.920 E0.02369
G1 X39.313 Y55.139 E0.02369
G1 X39.979 Y55.496 E0.02369
G1 X40.563 Y55.975 E0.02369
G1 X41.042 Y56.559 E0.02369
G1 X41.398 Y57.225 E0.02369
G1 X41.618 Y57.948 E0.02369
G1 X41.692 Y58.700 E0.02369
G1 X41.618 Y59.451 E0.02369
G1 X41.398 Y60.174 E0.02369
G1 X41.042 Y60.841 E0.02369
G1 X40.563 Y61.425 E0.02369
G1 X39.979 Y61.904 E0.02369
G1 X39.313 Y62.260 E0.02369
G1 X38.590 Y62.479 E0.02369
G1 X37.838 Y62.553 E0.02369
M73 Q0 S234
G1 X37.086 Y62.479 E0.02369
G1 X36.363 Y62.260 E0.02369
G1 X35.697 Y61.904 E0.02369
G1 X35.160 Y61.463 E0.02180
G1 E-0.80000 F2100.000
G1 Z0.800 F10800.000
G1 X40.600 Y56.615
G1 Z0.200
G1 E0.80000 F2100.000
;TYPE:External perimeter
G1 F1200.000
G1 X40.727 Y56.769 E0.00626
G1 X41.048 Y57.370 E0.02136
G1 X41.246 Y58.022 E0.02136
G1 X41.313 Y58.700 E0.02136
G1 X41.246 Y59.378 E0.02136
G1 X41.048 Y60.029 E0.02136
G1 X40.727 Y60.630 E0.02136
G1 X40.295 Y61.157 E0.02136
G1 X39.768 Y61.589 E0.02136
G1 X39.168 Y61.910 E0.02136
G1 X38.516 Y62.108 E0.02136
G1 X37.838 Y62.174 E0.02136
G1 X37.160 Y62.108 E0.02136
G1 X36.508 Y61.910 E0.02136
G1 X35.908 Y61.589 E0.02136
G1 X35.381 Y61.157 E0.02136
G1 X34.949 Y60.630 E0.02136
G1 X34.628 Y60.029 E0.02136
G1 X34.430 Y59.378 E0.02136
G1 X34.363 Y58.700 E0.02136
G1 X34.430 Y58.022 E0.02136
G1 X34.628 Y57.370 E0.02136
G1 X34.949 Y56.769 E0.02136
G1 X35.381 Y56.243 E0.02136
G1 X35.908 Y55.811 E0.02136
G1 X36.509 Y55.489 E0.02136
G1 X37.168 Y55.291 E0.02159
G1 X37.838 Y55.225 E0.02111
G1 X38.516 Y55.292 E0.02136
G1 X39.168 Y55.490 E0.02136
G1 X39.768 Y55.811 E0.02136
G1 X40.295 Y56.243 E0.02136
G1 X40.562 Y56.569 E0.01321
G1 X40.796 Y56.575 F10800.000
G1 E-0.80000 F2100.000
G1 Z0.800 F10800.000
G1 X40.562 Y50.389
G1 Z0.200
G1 E0.80000 F2100.000
;TYPE:Perimeter
G1 F1200.000
G1 X36.675 Y50.389 E0.12190
G1 X36.675 Y40.574 E0.30775
G1 X55.108 Y40.574 E0.57798
G1 X55.108 Y50.389 E0.30775
G1 X40.622 Y50.389 E0.45420
G1 E-0.80000 F2100.000
G1 Z0.800 F10800.000
G1 X54.731 Y46.433
G1 Z0.200
G1 E0.80000 F2100.000
;TYPE:External perimeter
G1 F1200.000
G1 X54.731 Y50.012 E0.11220
G1 X37.052 Y50.012 E0.55433
G1 X37.052 Y40.951 E0.28410
G1 X54.731 Y40.951 E0.55433
G1 X54.731 Y46.373 E0.17002
G1 X55.129 Y46.473 F10800.000
G1 E-0.80000 F2100.000
G1 Z0.800 F10800.000
G1 X29.576 Y31.000
G1 Z0.200
G1 E0.80000 F2100.000
;TYPE:Perimeter
G1 F1200.000
G1 X29.628 Y30.401 E0.01887
G1 X62.155 Y30.401 E1.01986
G1 X65.060 Y63.601 E1.04495
G1 X67.674 Y63.601 E0.08197
G1 X67.674 Y67.212 E0.11323
G1 X65.060 Y67.212 E0.08197
G1 X62.155 Y100.413 E1.04495
G1 X29.628 Y100.413 E1.01986
G1 X26.723 Y67.212 E1.04495
G1 X24.109 Y67.212 E0.08197
G1 X24.109 Y63.601 E0.11323
G1 X26.723 Y63.601 E0.08197
G1 X29.570 Y31.060 E1.02420
G1 X29.195 Y31.027 F10800.000
;TYPE:External perimeter
G1 F1200.000
G1 X29.283 Y30.024 E0.03158
G1 X62.501 Y30.024 E1.04153
G1 X65.405 Y63.224 E1.04495
G1 X68.051 Y63.224 E0.08296
G1 X68.051 Y67.590 E0.13687
G1 X65.405 Y67.590 E0.08296
G1 X62.501 Y100.790 E1.04495
G1 X29.283 Y100.790 E1.04153
G1 X26.378 Y67.590 E1.04495
G1 X23.732 Y67.590 E0.08296
G1 X23.732 Y63.224 E0.13687
G1 X26.378 Y63.224 E0.08296
G1 X29.190 Y31.087 E1.01149
G1 X29.562 Y30.868 F10800.000
G1 E-0.80000 F2100.000
G1 Z0.800 F10800.000
G1 X36.561 Y50.192
G1 Z0.200
G1 E0.80000 F2100.000
;TYPE:Solid infill
;WIDTH:0.421195
G1 F1200.000
G1 X28.855 Y42.485 E0.34281
G1 X28.898 Y41.993 E0.01553
G1 X36.392 Y49.487 E0.33335
G1 X36.392 Y48.952 E0.01683
G1 X28.941 Y41.501 E0.33143
G1 X28.984 Y41.010 E0.01553
G1 X36.392 Y48.417 E0.32952
G1 X36.392 Y47.882 E0.01683
G1 X29.027 Y40.518 E0.32760
G1 X29.070 Y40.026 E0.01553
G1 X36.392 Y47.347 E0.32569
G1 X36.392 Y46.813 E0.01683
G1 X29.113 Y39.534 E0.32377
G1 X29.156 Y39.042 E0.01553
G1 X36.392 Y46.278 E0.32186
G1 X36.392 Y45.743 E0.01683
G1 X29.199 Y38.550 E0.31995
G1 X29.242 Y38.058 E0.01553
G1 X36.392 Y45.208 E0.31803
G1 X36.392 Y44.673 E0.01683
G1 X29.285 Y37.566 E0.31612
G1 X29.328 Y37.074 E0.01553
G1 X36.392 Y44.138 E0.31420
G1 X36.392 Y43.603 E0.01683
G1 X29.371 Y36.582 E0.31229
G1 X29.414 Y36.090 E0.01553
G1 X36.392 Y43.068 E0.31037
G1 X36.392 Y42.533 E0.01683
G1 X29.457 Y35.598 E0.30846
G1 X29.500 Y35.106 E0.01553
G1 X36.392 Y41.998 E0.30654
G1 X36.392 Y41.463 E0.01683
G1 X29.543 Y34.615 E0.30463
G1 X29.586 Y34.123 E0.01553
G1 X36.392 Y40.928 E0.30272
G1 X36.392 Y40.393 E0.01683
G1 X29.629 Y33.631 E0.30080
G1 X29.672 Y33.139 E0.01553
G1 X36.825 Y40.291 E0.31814
G1 X37.360 Y40.291 E0.01683
G1 X29.716 Y32.647 E0.34003
G1 X29.759 Y32.155 E0.01553
G1 X37.895 Y40.291 E0.36191
G1 X38.430 Y40.291 E0.01683
G1 X29.802 Y31.663 E0.38379
M73 P0 R230
G1 X29.845 Y31.171 E0.01553
G1 X38.964 Y40.291 E0.40567
G1 X39.499 Y40.291 E0.01683
G1 X29.892 Y30.684 E0.42735
G1 X30.427 Y30.684 E0.01683
G1 X40.034 Y40.291 E0.42735
G1 X40.569 Y40.291 E0.01683
G1 X30.962 Y30.684 E0.42735
G1 X31.497 Y30.684 E0.01683
G1 X41.104 Y40.291 E0.42735
G1 X41.639 Y40.291 E0.01683
G1 X32.032 Y30.684 E0.42735
G1 X32.567 Y30.684 E0.01683
G1 X42.174 Y40.291 E0.42735
G1 X42.709 Y40.291 E0.01683
G1 X33.102 Y30.684 E0.42735
G1 X33.637 Y30.684 E0.01683
G1 X43.244 Y40.291 E0.42735
G1 X43.779 Y40.291 E0.01683
G1 X34.172 Y30.684 E0.42735
G1 X34.707 Y30.684 E0.01683
G1 X44.314 Y40.291 E0.42735
G1 X44.849 Y40.291 E0.01683
G1 X35.242 Y30.684 E0.42735
G1 X35.777 Y30.684 E0.01683
G1 X45.384 Y40.291 E0.42735
G1 X45.919 Y40.291 E0.01683
G1 X36.312 Y30.684 E0.42735
G1 X36.847 Y30.684 E0.01683
G1 X46.454 Y40.291 E0.42735
G1 X46.989 Y40.291 E0.01683
G1 X37.382 Y30.684 E0.42735
G1 X37.917 Y30.684 E0.01683
G1 X47.524 Y40.291 E0.42735
G1 X48.059 Y40.291 E0.01683
G1 X38.452 Y30.684 E0.42735
G1 X38.986 Y30.684 E0.01683
G1 X48.594 Y40.291 E0.42735
G1 X49.129 Y40.291 E0.01683
G1 X39.521 Y30.684 E0.42735
G1 X40.056 Y30.684 E0.01683
G1 X49.664 Y40.291 E0.42735
G1 X50.199 Y40.291 E0.01683
G1 X40.591 Y30.684 E0.42735
G1 X41.126 Y30.684 E0.01683
G1 X50.734 Y40.291 E0.42735
M73 Q0 S233
G1 X51.269 Y40.291 E0.01683
G1 X41.661 Y30.684 E0.42735
G1 X42.196 Y30.684 E0.01683
G1 X51.804 Y40.291 E0.42735
G1 X52.339 Y40.291 E0.01683
G1 X42.731 Y30.684 E0.42735
G1 X43.266 Y30.684 E0.01683
G1 X52.873 Y40.291 E0.42735
G1 X53.408 Y40.291 E0.01683
G1 X43.801 Y30.684 E0.42735
G1 X44.336 Y30.684 E0.01683
G1 X53.943 Y40.291 E0.42735
G1 X54.478 Y40.291 E0.01683
G1 X44.871 Y30.684 E0.42735
G1 X45.406 Y30.684 E0.01683
G1 X55.183 Y40.461 E0.43490
G1 E-0.80000 F2100.000
G1 Z0.800 F10800.000
G1 X62.125 Y31.354
G1 Z0.200
G1 E0.80000 F2100.000
G1 F1200.000
G1 X61.455 Y30.684 E0.02981
G1 X60.920 Y30.684 E0.01683
G1 X61.990 Y31.753 E0.04759
G1 X62.041 Y32.340 E0.01851
G1 X60.385 Y30.684 E0.07366
G1 X59.850 Y30.684 E0.01683
G1 X62.092 Y32.926 E0.09974
G1 X62.144 Y33.512 E0.01851
