; generated by PrusaSlicer 2.4.1+win64 on 2022-05-24 at 19:41:04 UTC

; 

; external perimeters extrusion width = 0.45mm
; perimeters extrusion width = 0.45mm
; infill extrusion width = 0.45mm
; solid infill extrusion width = 0.45mm
; top infill extrusion width = 0.40mm
; first layer extrusion width = 0.42mm

M73 P0 R42
M73 C33
M73 Q0 S42
M73 D33
M201 X1000 Y1000 Z200 E5000 ; sets maximum accelerations, mm/sec^2
M203 X200 Y200 Z12 E120 ; sets maximum feedrates, mm / sec
M204 P1250 R1250 T1250 ; sets acceleration (P, T) and retract acceleration (R), mm/sec^2
M205 X8.00 Y8.00 Z0.40 E4.50 ; sets the jerk limits, mm/sec
M205 S0 T0 ; sets the minimum extruding and travel feed rate, mm/sec
M107
;TYPE:Custom
M862.3 P "MK3S" ; printer model check
M862.1 P0.4 ; nozzle diameter check
M115 U3.10.1 ; tell printer latest fw version
G90 ; use absolute coordinates
M83 ; extruder relative mode
M104 S225 ; set extruder temp
M140 S65 ; set bed temp
M190 S65 ; wait for bed temp
M109 S225 ; wait for extruder temp
G28 W ; home all without mesh bed level
G80 ; mesh bed leveling
G1 Z0.2 F720
G1 Y-3 F1000 ; go outside print area
G92 E0
G1 X60 E9 F1000 ; intro line
G1 X100 E12.5 F1000 ; intro line
G92 E0
M221 S95

; Don't change E values below. Excessive value can damage the printer.
M907 E430 ; set extruder motor current
G21 ; set units to millimeters
G90 ; use absolute coordinates
M83 ; use relative distances for extrusion
M900 K0.05 ; Filament gcode LA 1.5
M900 K30 ; Filament gcode LA 1.0
M107
;LAYER_CHANGE
;Z:0.2
;HEIGHT:0.2
;BEFORE_LAYER_CHANGE
G92 E0.0
;0.2


G1 E-.8 F2100
G1 Z.4 F720
;AFTER_LAYER_CHANGE
;0.2
G1 X86.015 Y34.443 F10800
G1 Z.2 F720
G1 E.8 F2100
M204 S800
;TYPE:Skirt/Brim
;WIDTH:0.42
G1 F1200
G1 X87.06 Y33.567 E.04278
G1 X88 Y33.373 E.03008
G1 X162 Y33.373 E2.32022
G1 X163.307 Y33.765 E.04278
G1 X164.183 Y34.81 E.04278
G1 X164.377 Y35.75 E.03008
G1 X164.377 Y174.25 E4.34257
G1 X163.985 Y175.557 E.04278
G1 X162.94 Y176.433 E.04278
G1 X162 Y176.627 E.03008
G1 X88 Y176.627 E2.32022
G1 X86.693 Y176.235 E.04278
G1 X85.817 Y175.19 E.04278
G1 X85.623 Y174.25 E.03008
G1 X85.623 Y35.75 E4.34257
G1 X85.997 Y34.5 E.0409
M204 S1000
; printing object FrontWindows.stl id:0 copy 4
;WIPE_START
M73 P1 R41
M73 C32
M73 Q1 S42
G1 F8640
G1 X87.06 Y33.567 E-.32671
G1 X88 Y33.373 E-.22155
G1 X88.917 Y33.373 E-.21174
;WIPE_END
G1 E-.04 F2100
G1 Z.6 F720
G1 X88.787 Y108.787 F10800
G1 Z.2 F720
G1 E.8 F2100
M204 S800
;TYPE:Perimeter
G1 F1200
G1 X101.213 Y108.787 E.3896
G1 X101.213 Y173.463 E2.02787
G1 X88.787 Y173.463 E.3896
G1 X88.787 Y108.847 E2.02598
M204 S1000
G1 X88.41 Y108.41 F10800
M204 S800
;TYPE:External perimeter
M73 Q1 S41
M73 D32
G1 F1200
G1 X101.59 Y108.41 E.41325
G1 X101.59 Y173.84 E2.05151
G1 X88.41 Y173.84 E.41325
G1 X88.41 Y108.47 E2.04963
M204 S1000
G1 X88.769 Y108.587 F10800
;WIPE_START
G1 F8640
G1 X91.701 Y108.455 E-.76
;WIPE_END
G1 E-.04 F2100
G1 Z.6 F720
G1 X100.333 Y108.9 F10800
G1 Z.2 F720
G1 E.8 F2100
M204 S800
;TYPE:Solid infill
;WIDTH:0.422308
G1 F1200
G1 X100.93 Y109.498 E.02666
G1 X100.93 Y110.034 E.01693
G1 X99.966 Y109.07 E.04302
G1 X99.429 Y109.07 E.01693
G1 X100.93 Y110.571 E.06696
G1 X100.93 Y111.107 E.01693
G1 X98.893 Y109.07 E.09089
G1 X98.356 Y109.07 E.01693
G1 X100.93 Y111.644 E.11483
G1 X100.93 Y112.18 E.01693
G1 X97.82 Y109.07 E.13877
G1 X97.283 Y109.07 E.01693
G1 X100.93 Y112.717 E.1627
G1 X100.93 Y113.253 E.01693
G1 X96.747 Y109.07 E.18664
G1 X96.21 Y109.07 E.01693
G1 X100.93 Y113.79 E.21058
G1 X100.93 Y114.326 E.01693
G1 X95.674 Y109.07 E.23451
G1 X95.137 Y109.07 E.01693
G1 X100.93 Y114.863 E.25845
G1 X100.93 Y115.4 E.01693
G1 X94.6 Y109.07 E.28239
G1 X94.064 Y109.07 E.01693
G1 X100.93 Y115.936 E.30632
G1 X100.93 Y116.473 E.01693
G1 X93.527 Y109.07 E.33026
G1 X92.991 Y109.07 E.01693
G1 X100.93 Y117.009 E.3542
G1 X100.93 Y117.546 E.01693
M73 P2 R41
M73 Q2 S41
G1 X92.454 Y109.07 E.37813
G1 X91.918 Y109.07 E.01693
G1 X100.93 Y118.082 E.40207
G1 X100.93 Y118.619 E.01693
G1 X91.381 Y109.07 E.42601
G1 X90.845 Y109.07 E.01693
G1 X100.93 Y119.155 E.44994
G1 X100.93 Y119.692 E.01693
G1 X90.308 Y109.07 E.47388
G1 X89.772 Y109.07 E.01693
G1 X100.93 Y120.228 E.49782
G1 X100.93 Y120.765 E.01693
G1 X89.235 Y109.07 E.52175
G1 X89.07 Y109.07 E.00521
G1 X89.07 Y109.441 E.01171
G1 X100.93 Y121.301 E.52912
G1 X100.93 Y121.838 E.01693
G1 X89.07 Y109.978 E.52912
G1 X89.07 Y110.514 E.01693
G1 X100.93 Y122.375 E.52912
G1 X100.93 Y122.911 E.01693
G1 X89.07 Y111.051 E.52912
G1 X89.07 Y111.587 E.01693
G1 X100.93 Y123.448 E.52912
G1 X100.93 Y123.984 E.01693
G1 X89.07 Y112.124 E.52912
G1 X89.07 Y112.66 E.01693
G1 X100.93 Y124.521 E.52912
G1 X100.93 Y125.057 E.01693
G1 X89.07 Y113.197 E.52912
G1 X89.07 Y113.733 E.01693
G1 X100.93 Y125.594 E.52912
G1 X100.93 Y126.13 E.01693
G1 X89.07 Y114.27 E.52912
G1 X89.07 Y114.807 E.01693
G1 X100.93 Y126.667 E.52912
G1 X100.93 Y127.203 E.01693
G1 X89.07 Y115.343 E.52912
G1 X89.07 Y115.88 E.01693
G1 X100.93 Y127.74 E.52912
G1 X100.93 Y128.276 E.01693
G1 X89.07 Y116.416 E.52912
G1 X89.07 Y116.953 E.01693
G1 X100.93 Y128.813 E.52912
G1 X100.93 Y129.349 E.01693
G1 X89.07 Y117.489 E.52912
G1 X89.07 Y118.026 E.01693
G1 X100.93 Y129.886 E.52912
G1 X100.93 Y130.423 E.01693
G1 X89.07 Y118.562 E.52912
G1 X89.07 Y119.099 E.01693
G1 X100.93 Y130.959 E.52912
G1 X100.93 Y131.496 E.01693
G1 X89.07 Y119.635 E.52912
G1 X89.07 Y120.172 E.01693
G1 X100.93 Y132.032 E.52912
G1 X100.93 Y132.569 E.01693
G1 X89.07 Y120.708 E.52912
G1 X89.07 Y121.245 E.01693
G1 X100.93 Y133.105 E.52912
G1 X100.93 Y133.642 E.01693
M73 P3 R41
M73 Q3 S41
G1 X89.07 Y121.782 E.52912
G1 X89.07 Y122.318 E.01693
G1 X100.93 Y134.178 E.52912
G1 X100.93 Y134.715 E.01693
G1 X89.07 Y122.855 E.52912
G1 X89.07 Y123.391 E.01693
G1 X100.93 Y135.251 E.52912
G1 X100.93 Y135.788 E.01693
G1 X89.07 Y123.928 E.52912
G1 X89.07 Y124.464 E.01693
G1 X100.93 Y136.324 E.52912
G1 X100.93 Y136.861 E.01693
G1 X89.07 Y125.001 E.52912
G1 X89.07 Y125.537 E.01693
G1 X100.93 Y137.398 E.52912
G1 X100.93 Y137.934 E.01693
G1 X89.07 Y126.074 E.52912
G1 X89.07 Y126.61 E.01693
M73 P3 R40
G1 X100.93 Y138.471 E.52912
G1 X100.93 Y139.007 E.01693
G1 X89.07 Y127.147 E.52912
G1 X89.07 Y127.683 E.01693
G1 X100.93 Y139.544 E.52912
G1 X100.93 Y140.08 E.01693
G1 X89.07 Y128.22 E.52912
G1 X89.07 Y128.756 E.01693
G1 X100.93 Y140.617 E.52912
G1 X100.93 Y141.153 E.01693
M73 C31
G1 X89.07 Y129.293 E.52912
G1 X89.07 Y129.83 E.01693
G1 X100.93 Y141.69 E.52912
G1 X100.93 Y142.226 E.01693
G1 X89.07 Y130.366 E.52912
G1 X89.07 Y130.903 E.01693
G1 X100.93 Y142.763 E.52912
G1 X100.93 Y143.299 E.01693
G1 X89.07 Y131.439 E.52912
G1 X89.07 Y131.976 E.01693
G1 X100.93 Y143.836 E.52912
G1 X100.93 Y144.372 E.01693
G1 X89.07 Y132.512 E.52912
G1 X89.07 Y133.049 E.01693
M73 D31
G1 X100.93 Y144.909 E.52912
G1 X100.93 Y145.446 E.01693
M73 Q3 S40
G1 X89.07 Y133.585 E.52912
G1 X89.07 Y134.122 E.01693
G1 X100.93 Y145.982 E.52912
G1 X100.93 Y146.519 E.01693
G1 X89.07 Y134.658 E.52912
G1 X89.07 Y135.195 E.01693
G1 X100.93 Y147.055 E.52912
G1 X100.93 Y147.592 E.01693
G1 X89.07 Y135.731 E.52912
G1 X89.07 Y136.268 E.01693
G1 X100.93 Y148.128 E.52912
G1 X100.93 Y148.665 E.01693
G1 X89.07 Y136.805 E.52912
G1 X89.07 Y137.341 E.01693
M73 P4 R40
M73 Q4 S40
G1 X100.93 Y149.201 E.52912
G1 X100.93 Y149.738 E.01693
G1 X89.07 Y137.878 E.52912
G1 X89.07 Y138.414 E.01693
G1 X100.93 Y150.274 E.52912
G1 X100.93 Y150.811 E.01693
G1 X89.07 Y138.951 E.52912
G1 X89.07 Y139.487 E.01693
G1 X100.93 Y151.347 E.52912
G1 X100.93 Y151.884 E.01693
G1 X89.07 Y140.024 E.52912
G1 X89.07 Y140.56 E.01693
G1 X100.93 Y152.421 E.52912
G1 X100.93 Y152.957 E.01693
G1 X89.07 Y141.097 E.52912
G1 X89.07 Y141.633 E.01693
G1 X100.93 Y153.494 E.52912
G1 X100.93 Y154.03 E.01693
G1 X89.07 Y142.17 E.52912
G1 X89.07 Y142.706 E.01693
G1 X100.93 Y154.567 E.52912
G1 X100.93 Y155.103 E.01693
G1 X89.07 Y143.243 E.52912
G1 X89.07 Y143.779 E.01693
G1 X100.93 Y155.64 E.52912
G1 X100.93 Y156.176 E.01693
G1 X89.07 Y144.316 E.52912
G1 X89.07 Y144.853 E.01693
G1 X100.93 Y156.713 E.52912
G1 X100.93 Y157.249 E.01693
G1 X89.07 Y145.389 E.52912
G1 X89.07 Y145.926 E.01693
G1 X100.93 Y157.786 E.52912
G1 X100.93 Y158.322 E.01693
G1 X89.07 Y146.462 E.52912
G1 X89.07 Y146.999 E.01693
G1 X100.93 Y158.859 E.52912
G1 X100.93 Y159.395 E.01693
G1 X89.07 Y147.535 E.52912
G1 X89.07 Y148.072 E.01693
G1 X100.93 Y159.932 E.52912
G1 X100.93 Y160.469 E.01693
G1 X89.07 Y148.608 E.52912
G1 X89.07 Y149.145 E.01693
G1 X100.93 Y161.005 E.52912
G1 X100.93 Y161.542 E.01693
G1 X89.07 Y149.681 E.52912
G1 X89.07 Y150.218 E.01693
G1 X100.93 Y162.078 E.52912
G1 X100.93 Y162.615 E.01693
G1 X89.07 Y150.754 E.52912
G1 X89.07 Y151.291 E.01693
G1 X100.93 Y163.151 E.52912
G1 X100.93 Y163.688 E.01693
G1 X89.07 Y151.828 E.52912
G1 X89.07 Y152.364 E.01693
G1 X100.93 Y164.224 E.52912
G1 X100.93 Y164.761 E.01693
M73 P5 R40
G1 X89.07 Y152.901 E.52912
G1 X89.07 Y153.437 E.01693
M73 Q5 S40
G1 X100.93 Y165.297 E.52912
G1 X100.93 Y165.834 E.01693
G1 X89.07 Y153.974 E.52912
G1 X89.07 Y154.51 E.01693
G1 X100.93 Y166.37 E.52912
G1 X100.93 Y166.907 E.01693
G1 X89.07 Y155.047 E.52912
G1 X89.07 Y155.583 E.01693
G1 X100.93 Y167.444 E.52912
G1 X100.93 Y167.98 E.01693
G1 X89.07 Y156.12 E.52912
G1 X89.07 Y156.656 E.01693
G1 X100.93 Y168.517 E.52912
G1 X100.93 Y169.053 E.01693
G1 X89.07 Y157.193 E.52912
G1 X89.07 Y157.729 E.01693
G1 X100.93 Y169.59 E.52912
G1 X100.93 Y170.126 E.01693
G1 X89.07 Y158.266 E.52912
G1 X89.07 Y158.802 E.01693
G1 X100.93 Y170.663 E.52912
G1 X100.93 Y171.199 E.01693
G1 X89.07 Y159.339 E.52912
G1 X89.07 Y159.876 E.01693
G1 X100.93 Y171.736 E.52912
G1 X100.93 Y172.272 E.01693
G1 X89.07 Y160.412 E.52912
G1 X89.07 Y160.949 E.01693
G1 X100.93 Y172.809 E.52912
G1 X100.93 Y173.18 E.01171
G1 X100.765 Y173.18 E.00521
G1 X89.07 Y161.485 E.52175
G1 X89.07 Y162.022 E.01693
G1 X100.228 Y173.18 E.49781
G1 X99.692 Y173.18 E.01693
G1 X89.07 Y162.558 E.47388
G1 X89.07 Y163.095 E.01693
G1 X99.155 Y173.18 E.44994
G1 X98.619 Y173.18 E.01693
M73 P5 R39
G1 X89.07 Y163.631 E.426
G1 X89.07 Y164.168 E.01693
G1 X98.082 Y173.18 E.40207
G1 X97.546 Y173.18 E.01693
G1 X89.07 Y164.704 E.37813
G1 X89.07 Y165.241 E.01693
G1 X97.009 Y173.18 E.35419
G1 X96.473 Y173.18 E.01693
G1 X89.07 Y165.777 E.33026
G1 X89.07 Y166.314 E.01693
G1 X95.936 Y173.18 E.30632
G1 X95.399 Y173.18 E.01693
M73 C30
G1 X89.07 Y166.851 E.28238
G1 X89.07 Y167.387 E.01693
G1 X94.863 Y173.18 E.25845
G1 X94.326 Y173.18 E.01693
G1 X89.07 Y167.924 E.23451
G1 X89.07 Y168.46 E.01693
G1 X93.79 Y173.18 E.21057
G1 X93.253 Y173.18 E.01693
G1 X89.07 Y168.997 E.18664
G1 X89.07 Y169.533 E.01693
G1 X92.717 Y173.18 E.1627
G1 X92.18 Y173.18 E.01693
G1 X89.07 Y170.07 E.13876
G1 X89.07 Y170.606 E.01693
G1 X91.644 Y173.18 E.11483
G1 X91.107 Y173.18 E.01693
G1 X89.07 Y171.143 E.09089
G1 X89.07 Y171.679 E.01693
G1 X90.571 Y173.18 E.06695
G1 X90.034 Y173.18 E.01693
G1 X89.07 Y172.216 E.04302
G1 X89.07 Y172.752 E.01693
G1 X89.667 Y173.35 E.02665
M204 S1000
; stop printing object FrontWindows.stl id:0 copy 4
; printing object FrontWindows.stl id:0 copy 0
;WIPE_START
G1 F8640
G1 X89.07 Y172.752 E-.19508
G1 X89.07 Y172.216 E-.12389
G1 X90.034 Y173.18 E-.31487
G1 X90.571 Y173.18 E-.12389
G1 X90.564 Y173.173 E-.00228
;WIPE_END
G1 E-.04 F2100
G1 Z.6 F720
G1 X108.787 Y173.463 F10800
G1 Z.2 F720
G1 E.8 F2100
M204 S800
;TYPE:Perimeter
;WIDTH:0.42
G1 F1200
G1 X108.787 Y108.787 E2.02787
G1 X121.213 Y108.787 E.3896
M73 P6 R39
M73 Q6 S39
M73 D30
G1 X121.213 Y173.463 E2.02787
G1 X108.847 Y173.463 E.38772
M204 S1000
G1 X108.41 Y173.84 F10800
M204 S800
;TYPE:External perimeter
G1 F1200
G1 X108.41 Y108.41 E2.05151
G1 X121.59 Y108.41 E.41325
G1 X121.59 Y173.84 E2.05151
G1 X108.47 Y173.84 E.41137
M204 S1000
G1 X108.436 Y173.441 F10800
;WIPE_START
G1 F8640
G1 X108.467 Y170.549 E-.76
;WIPE_END
G1 E-.04 F2100
G1 Z.6 F720
G1 X120.333 Y108.9 F10800
G1 Z.2 F720
G1 E.8 F2100
M204 S800
;TYPE:Solid infill
;WIDTH:0.422308
G1 F1200
G1 X120.93 Y109.498 E.02666
G1 X120.93 Y110.034 E.01693
G1 X119.966 Y109.07 E.04302
G1 X119.429 Y109.07 E.01693
G1 X120.93 Y110.571 E.06696
G1 X120.93 Y111.107 E.01693
G1 X118.893 Y109.07 E.09089
G1 X118.356 Y109.07 E.01693
G1 X120.93 Y111.644 E.11483
G1 X120.93 Y112.18 E.01693
G1 X117.82 Y109.07 E.13877
G1 X117.283 Y109.07 E.01693
G1 X120.93 Y112.717 E.1627
G1 X120.93 Y113.253 E.01693
G1 X116.747 Y109.07 E.18664
G1 X116.21 Y109.07 E.01693
G1 X120.93 Y113.79 E.21058
G1 X120.93 Y114.326 E.01693
G1 X115.674 Y109.07 E.23451
G1 X115.137 Y109.07 E.01693
G1 X120.93 Y114.863 E.25845
G1 X120.93 Y115.4 E.01693
G1 X114.6 Y109.07 E.28239
G1 X114.064 Y109.07 E.01693
G1 X120.93 Y115.936 E.30632
G1 X120.93 Y116.473 E.01693
G1 X113.527 Y109.07 E.33026
G1 X112.991 Y109.07 E.01693
G1 X120.93 Y117.009 E.3542
G1 X120.93 Y117.546 E.01693
G1 X112.454 Y109.07 E.37813
G1 X111.918 Y109.07 E.01693
G1 X120.93 Y118.082 E.40207
G1 X120.93 Y118.619 E.01693
G1 X111.381 Y109.07 E.42601
G1 X110.845 Y109.07 E.01693
G1 X120.93 Y119.155 E.44994
G1 X120.93 Y119.692 E.01693
G1 X110.308 Y109.07 E.47388
G1 X109.772 Y109.07 E.01693
G1 X120.93 Y120.228 E.49782
G1 X120.93 Y120.765 E.01693
M73 P7 R39
M73 Q7 S39
G1 X109.235 Y109.07 E.52175
G1 X109.07 Y109.07 E.00521
G1 X109.07 Y109.441 E.01171
G1 X120.93 Y121.301 E.52912
G1 X120.93 Y121.838 E.01693
G1 X109.07 Y109.978 E.52912
G1 X109.07 Y110.514 E.01693
G1 X120.93 Y122.375 E.52912
G1 X120.93 Y122.911 E.01693
G1 X109.07 Y111.051 E.52912
G1 X109.07 Y111.587 E.01693
G1 X120.93 Y123.448 E.52912
G1 X120.93 Y123.984 E.01693
G1 X109.07 Y112.124 E.52912
G1 X109.07 Y112.66 E.01693
G1 X120.93 Y124.521 E.52912
G1 X120.93 Y125.057 E.01693
G1 X109.07 Y113.197 E.52912
G1 X109.07 Y113.733 E.01693
G1 X120.93 Y125.594 E.52912
G1 X120.93 Y126.13 E.01693
G1 X109.07 Y114.27 E.52912
G1 X109.07 Y114.807 E.01693
G1 X120.93 Y126.667 E.52912
G1 X120.93 Y127.203 E.01693
G1 X109.07 Y115.343 E.52912
G1 X109.07 Y115.88 E.01693
G1 X120.93 Y127.74 E.52912
G1 X120.93 Y128.276 E.01693
G1 X109.07 Y116.416 E.52912
G1 X109.07 Y116.953 E.01693
G1 X120.93 Y128.813 E.52912
G1 X120.93 Y129.349 E.01693
G1 X109.07 Y117.489 E.52912
G1 X109.07 Y118.026 E.01693
G1 X120.93 Y129.886 E.52912
G1 X120.93 Y130.423 E.01693
G1 X109.07 Y118.562 E.52912
G1 X109.07 Y119.099 E.01693
G1 X120.93 Y130.959 E.52912
G1 X120.93 Y131.496 E.01693
G1 X109.07 Y119.635 E.52912
G1 X109.07 Y120.172 E.01693
G1 X120.93 Y132.032 E.52912
G1 X120.93 Y132.569 E.01693
G1 X109.07 Y120.708 E.52912
G1 X109.07 Y121.245 E.01693
G1 X120.93 Y133.105 E.52912
G1 X120.93 Y133.642 E.01693
G1 X109.07 Y121.782 E.52912
G1 X109.07 Y122.318 E.01693
G1 X120.93 Y134.178 E.52912
G1 X120.93 Y134.715 E.01693
G1 X109.07 Y122.855 E.52912
G1 X109.07 Y123.391 E.01693
G1 X120.93 Y135.251 E.52912
G1 X120.93 Y135.788 E.01693
G1 X109.07 Y123.928 E.52912
G1 X109.07 Y124.464 E.01693
M73 P8 R39
G1 X120.93 Y136.324 E.52912
G1 X120.93 Y136.861 E.01693
M73 P8 R38
M73 Q8 S39
G1 X109.07 Y125.001 E.52912
G1 X109.07 Y125.537 E.01693
G1 X120.93 Y137.398 E.52912
G1 X120.93 Y137.934 E.01693
G1 X109.07 Y126.074 E.52912
G1 X109.07 Y126.61 E.01693
G1 X120.93 Y138.471 E.52912
G1 X120.93 Y139.007 E.01693
G1 X109.07 Y127.147 E.52912
G1 X109.07 Y127.683 E.01693
M73 C29
G1 X120.93 Y139.544 E.52912
G1 X120.93 Y140.08 E.01693
G1 X109.07 Y128.22 E.52912
G1 X109.07 Y128.756 E.01693
G1 X120.93 Y140.617 E.52912
G1 X120.93 Y141.153 E.01693
G1 X109.07 Y129.293 E.52912
G1 X109.07 Y129.83 E.01693
G1 X120.93 Y141.69 E.52912
G1 X120.93 Y142.226 E.01693
G1 X109.07 Y130.366 E.52912
G1 X109.07 Y130.903 E.01693
M73 D29
G1 X120.93 Y142.763 E.52912
G1 X120.93 Y143.299 E.01693
G1 X109.07 Y131.439 E.52912
M73 Q8 S38
G1 X109.07 Y131.976 E.01693
G1 X120.93 Y143.836 E.52912
G1 X120.93 Y144.372 E.01693
G1 X109.07 Y132.512 E.52912
G1 X109.07 Y133.049 E.01693
G1 X120.93 Y144.909 E.52912
G1 X120.93 Y145.446 E.01693
G1 X109.07 Y133.585 E.52912
G1 X109.07 Y134.122 E.01693
G1 X120.93 Y145.982 E.52912
G1 X120.93 Y146.519 E.01693
G1 X109.07 Y134.658 E.52912
G1 X109.07 Y135.195 E.01693
G1 X120.93 Y147.055 E.52912
G1 X120.93 Y147.592 E.01693
G1 X109.07 Y135.731 E.52912
G1 X109.07 Y136.268 E.01693
G1 X120.93 Y148.128 E.52912
