; generated by PrusaSlicer 2.4.1+win64 on 2022-05-24 at 19:36:56 UTC

; 

; external perimeters extrusion width = 0.45mm
; perimeters extrusion width = 0.45mm
; infill extrusion width = 0.45mm
; solid infill extrusion width = 0.45mm
; top infill extrusion width = 0.40mm
; first layer extrusion width = 0.42mm

M73 P0 R26
M73 C19
M73 Q0 S26
M73 D19
M201 X1000 Y1000 Z200 E5000 ; sets maximum accelerations, mm/sec^2
M203 X200 Y200 Z12 E120 ; sets maximum feedrates, mm / sec
M204 P1250 R1250 T1250 ; sets acceleration (P, T) and retract acceleration (R), mm/sec^2
M205 X8.00 Y8.00 Z0.40 E4.50 ; sets the jerk limits, mm/sec
M205 S0 T0 ; sets the minimum extruding and travel feed rate, mm/sec
M107
;TYPE:Custom
M862.3 P "MK3S" ; printer model check
M862.1 P0.4 ; nozzle diameter check
M115 U3.10.1 ; tell printer latest fw version
G90 ; use absolute coordinates
M83 ; extruder relative mode
M104 S225 ; set extruder temp
M140 S65 ; set bed temp
M190 S65 ; wait for bed temp
M109 S225 ; wait for extruder temp
G28 W ; home all without mesh bed level
G80 ; mesh bed leveling
G1 Z0.2 F720
G1 Y-3 F1000 ; go outside print area
G92 E0
G1 X60 E9 F1000 ; intro line
G1 X100 E12.5 F1000 ; intro line
G92 E0
M221 S95

; Don't change E values below. Excessive value can damage the printer.
M907 E430 ; set extruder motor current
G21 ; set units to millimeters
G90 ; use absolute coordinates
M83 ; use relative distances for extrusion
M900 K0.05 ; Filament gcode LA 1.5
M900 K30 ; Filament gcode LA 1.0
M107
;LAYER_CHANGE
;Z:0.2
;HEIGHT:0.2
;BEFORE_LAYER_CHANGE
G92 E0.0
;0.2


G1 E-.8 F2100
M73 P0 R25
G1 Z.4 F720
;AFTER_LAYER_CHANGE
;0.2
G1 X100.173 Y72.561 F10800
G1 Z.2 F720
G1 E.8 F2100
M204 S800
;TYPE:Skirt/Brim
;WIDTH:0.42
G1 F1200
G1 X113.434 Y54.253 E.7088
G1 X114.518 Y53.424 E.04278
G1 X115.359 Y53.271 E.02681
G1 X159.922 Y53.271 E1.39723
G1 X161.229 Y53.662 E.04278
G1 X162.105 Y54.708 E.04278
G1 X162.299 Y55.648 E.03008
G1 X162.299 Y154.352 E3.09481
G1 X161.907 Y155.659 E.04278
M73 Q1 S25
G1 X160.862 Y156.536 E.04278
M73 P1 R25
G1 X159.922 Y156.729 E.03008
G1 X90.078 Y156.729 E2.1899
G1 X88.771 Y156.337 E.04278
M73 C18
G1 X87.895 Y155.292 E.04278
G1 X87.701 Y154.352 E.03008
G1 X87.701 Y90.549 E2.00049
G1 X88.153 Y89.155 E.04596
M73 D18
G1 X100.138 Y72.61 E.64056
M204 S1000
; printing object TicketWindow.stl id:0 copy 3
;WIPE_START
G1 F8640
G1 X102.068 Y69.944 E-.76
;WIPE_END
G1 E-.04 F2100
G1 Z.6 F720
G1 X141.428 Y126.238 F10800
G1 Z.2 F720
G1 E.8 F2100
M204 S800
;TYPE:Perimeter
G1 F1200
G1 X145.894 Y126.238 E.14004
G1 X145.883 Y131.457 E.16364
G1 X145.913 Y131.787 E.0104
G1 X146.02 Y132.149 E.01182
G1 X146.213 Y132.5 E.01256
G1 X146.423 Y132.759 E.01047
G1 X146.708 Y132.997 E.01162
G1 X147.034 Y133.174 E.01162
G1 X147.388 Y133.284 E.01162
G1 X147.718 Y133.319 E.0104
G1 X152.82 Y133.338 E.15998
G1 X153.15 Y133.305 E.0104
G1 X153.505 Y133.198 E.01162
G1 X153.832 Y133.023 E.01162
G1 X154.118 Y132.788 E.01162
G1 X154.353 Y132.501 E.01162
G1 X154.528 Y132.174 E.01162
G1 X154.636 Y131.82 E.01162
G1 X154.668 Y131.489 E.0104
G1 X154.668 Y126.238 E.16466
G1 X159.135 Y126.238 E.14004
G1 X159.135 Y153.565 E.85683
G1 X141.428 Y153.565 E.55519
G1 X141.428 Y126.298 E.85494
M204 S1000
G1 X141.051 Y125.861 F10800
M204 S800
;TYPE:External perimeter
G1 F1200
G1 X146.271 Y125.861 E.16369
G1 X146.26 Y131.441 E.17497
G1 X146.285 Y131.716 E.00866
G1 X146.37 Y132.003 E.00936
G1 X146.527 Y132.288 E.01023
G1 X146.693 Y132.493 E.00827
G1 X146.921 Y132.683 E.00929
G1 X147.181 Y132.825 E.00929
G1 X147.464 Y132.913 E.00929
G1 X147.739 Y132.942 E.00866
G1 X152.801 Y132.961 E.15873
G1 X153.076 Y132.934 E.00866
G1 X153.36 Y132.848 E.00929
G1 X153.621 Y132.708 E.00929
G1 X153.85 Y132.52 E.00929
G1 X154.038 Y132.291 E.00929
G1 X154.178 Y132.029 E.00929
G1 X154.264 Y131.746 E.00929
G1 X154.291 Y131.471 E.00866
G1 X154.291 Y125.861 E.1759
G1 X159.512 Y125.861 E.16369
M73 Q2 S25
G1 X159.512 Y153.942 E.88047
M73 P2 R25
G1 X141.051 Y153.942 E.57884
G1 X141.051 Y125.921 E.87858
M204 S1000
G1 X141.429 Y125.99 F10800
;WIPE_START
G1 F8640
G1 X144.342 Y125.883 E-.76
;WIPE_END
G1 E-.04 F2100
G1 Z.6 F720
G1 X158.252 Y126.351 F10800
G1 Z.2 F720
G1 E.8 F2100
M204 S800
;TYPE:Solid infill
;WIDTH:0.423369
G1 F1200
G1 X158.852 Y126.951 E.02683
G1 X158.852 Y127.489 E.01702
G1 X157.884 Y126.521 E.04331
G1 X157.346 Y126.521 E.01702
G1 X158.852 Y128.027 E.06738
G1 X158.852 Y128.565 E.01702
G1 X156.808 Y126.521 E.09145
G1 X156.27 Y126.521 E.01702
G1 X158.852 Y129.103 E.11552
G1 X158.852 Y129.641 E.01702
G1 X155.732 Y126.521 E.13959
G1 X155.194 Y126.521 E.01702
G1 X158.852 Y130.179 E.16366
G1 X158.852 Y130.717 E.01702
G1 X154.951 Y126.816 E.17452
G1 X154.951 Y127.354 E.01702
G1 X158.852 Y131.255 E.17452
G1 X158.852 Y131.793 E.01702
G1 X154.951 Y127.892 E.17452
G1 X154.951 Y128.43 E.01702
G1 X158.852 Y132.331 E.17452
G1 X158.852 Y132.869 E.01702
G1 X154.951 Y128.968 E.17452
G1 X154.951 Y129.506 E.01702
G1 X158.852 Y133.407 E.17452
G1 X158.852 Y133.945 E.01702
G1 X154.951 Y130.044 E.17452
G1 X154.951 Y130.582 E.01702
G1 X158.852 Y134.483 E.17452
G1 X158.852 Y135.021 E.01702
G1 X154.951 Y131.12 E.17452
G1 X154.937 Y131.644 E.01659
G1 X158.852 Y135.559 E.17514
G1 X158.852 Y136.097 E.01702
G1 X154.848 Y132.094 E.17912
G1 X154.791 Y132.283 E.00627
G1 X154.689 Y132.473 E.0068
G1 X158.852 Y136.635 E.18623
G1 X158.852 Y137.173 E.01702
G1 X154.476 Y132.798 E.19577
G1 X154.319 Y132.989 E.00783
G1 X154.215 Y133.074 E.00427
G1 X158.852 Y137.711 E.20745
G1 X158.852 Y138.249 E.01702
G1 X153.906 Y133.304 E.22126
G1 X153.545 Y133.481 E.01272
G1 X158.852 Y138.787 E.2374
G1 X158.852 Y139.326 E.01702
G1 X153.119 Y133.593 E.25648
G1 X152.833 Y133.621 E.00908
G1 X152.608 Y133.62 E.00712
G1 X158.852 Y139.864 E.27933
G1 X158.852 Y140.402 E.01702
G1 X152.068 Y133.618 E.30349
G1 X151.528 Y133.616 E.01708
G1 X158.852 Y140.94 E.32765
G1 X158.852 Y141.478 E.01702
G1 X150.988 Y133.614 E.35181
G1 X150.448 Y133.612 E.01708
G1 X158.852 Y142.016 E.37597
G1 X158.852 Y142.554 E.01702
G1 X149.908 Y133.61 E.40013
G1 X149.368 Y133.608 E.01708
G1 X158.852 Y143.092 E.42429
G1 X158.852 Y143.63 E.01702
M73 Q3 S25
G1 X148.828 Y133.606 E.44845
M73 P3 R25
G1 X148.288 Y133.604 E.01708
G1 X158.852 Y144.168 E.47261
G1 X158.852 Y144.706 E.01702
G1 X147.562 Y133.416 E.50507
M204 S1000
;WIPE_START
G1 F8640
G1 X149.89 Y135.744 E-.76
;WIPE_END
G1 E-.04 F2100
G1 Z.6 F720
G1 X145.781 Y126.793 F10800
G1 Z.2 F720
G1 E.8 F2100
M204 S800
G1 F1200
G1 X145.509 Y126.521 E.01216
G1 X144.971 Y126.521 E.01702
G1 X145.611 Y127.161 E.02864
G1 X145.611 Y127.699 E.01702
G1 X144.433 Y126.521 E.05271
G1 X143.895 Y126.521 E.01702
G1 X145.611 Y128.237 E.07678
G1 X145.611 Y128.775 E.01702
G1 X143.357 Y126.521 E.10085
G1 X142.819 Y126.521 E.01702
G1 X145.611 Y129.313 E.12492
G1 X145.611 Y129.851 E.01702
G1 X142.281 Y126.521 E.149
G1 X141.743 Y126.521 E.01702
G1 X145.608 Y130.386 E.17292
G1 X145.604 Y130.92 E.0169
G1 X141.711 Y127.026 E.17419
G1 X141.711 Y127.564 E.01702
G1 X145.786 Y131.64 E.18233
M204 S1000
;WIPE_START
G1 F8640
G1 X143.459 Y129.312 E-.76
;WIPE_END
G1 E-.04 F2100
G1 Z.6 F720
G1 X141.541 Y127.933 F10800
G1 Z.2 F720
G1 E.8 F2100
M204 S800
G1 F1200
G1 X145.711 Y132.103 E.18658
G1 X145.757 Y132.258 E.00512
G1 X145.978 Y132.658 E.01444
G1 X146.221 Y132.959 E.01223
G1 X146.548 Y133.232 E.01349
G1 X146.923 Y133.435 E.01349
G1 X147.098 Y133.49 E.0058
G1 X158.852 Y145.244 E.52584
G1 X158.852 Y145.782 E.01702
G1 X141.711 Y128.64 E.76687
G1 X141.711 Y129.178 E.01702
G1 X158.852 Y146.32 E.76687
G1 X158.852 Y146.858 E.01702
G1 X141.711 Y129.717 E.76687
G1 X141.711 Y130.255 E.01702
G1 X158.852 Y147.396 E.76687
G1 X158.852 Y147.934 E.01702
G1 X141.711 Y130.793 E.76687
G1 X141.711 Y131.331 E.01702
G1 X158.852 Y148.472 E.76687
G1 X158.852 Y149.01 E.01702
G1 X141.711 Y131.869 E.76687
G1 X141.711 Y132.407 E.01702
G1 X158.852 Y149.548 E.76687
G1 X158.852 Y150.086 E.01702
M73 P4 R25
M73 Q4 S25
G1 X141.711 Y132.945 E.76687
G1 X141.711 Y133.483 E.01702
G1 X158.852 Y150.624 E.76687
G1 X158.852 Y151.162 E.01702
M73 P4 R24
G1 X141.711 Y134.021 E.76687
G1 X141.711 Y134.559 E.01702
G1 X158.852 Y151.7 E.76687
G1 X158.852 Y152.238 E.01702
G1 X141.711 Y135.097 E.76687
G1 X141.711 Y135.635 E.01702
G1 X158.852 Y152.776 E.76687
G1 X158.852 Y153.282 E.016
G1 X158.82 Y153.282 E.00102
G1 X141.711 Y136.173 E.76544
G1 X141.711 Y136.711 E.01702
G1 X158.282 Y153.282 E.74137
G1 X157.744 Y153.282 E.01702
M73 Q4 S24
G1 X141.711 Y137.249 E.7173
G1 X141.711 Y137.787 E.01702
G1 X157.206 Y153.282 E.69322
G1 X156.668 Y153.282 E.01702
G1 X141.711 Y138.325 E.66915
G1 X141.711 Y138.863 E.01702
G1 X156.13 Y153.282 E.64508
G1 X155.592 Y153.282 E.01702
G1 X141.711 Y139.401 E.62101
G1 X141.711 Y139.939 E.01702
M73 P5 R24
M73 Q5 S24
G1 X155.054 Y153.282 E.59694
G1 X154.516 Y153.282 E.01702
M73 C17
G1 X141.711 Y140.477 E.57287
G1 X141.711 Y141.015 E.01702
G1 X153.977 Y153.282 E.5488
G1 X153.439 Y153.282 E.01702
M73 D17
G1 X141.711 Y141.553 E.52473
G1 X141.711 Y142.091 E.01702
G1 X152.901 Y153.282 E.50066
G1 X152.363 Y153.282 E.01702
G1 X141.711 Y142.629 E.47659
G1 X141.711 Y143.167 E.01702
G1 X151.825 Y153.282 E.45252
G1 X151.287 Y153.282 E.01702
G1 X141.711 Y143.705 E.42844
G1 X141.711 Y144.243 E.01702
G1 X150.749 Y153.282 E.40437
G1 X150.211 Y153.282 E.01702
G1 X141.711 Y144.782 E.3803
G1 X141.711 Y145.32 E.01702
G1 X149.673 Y153.282 E.35623
G1 X149.135 Y153.282 E.01702
G1 X141.711 Y145.858 E.33216
G1 X141.711 Y146.396 E.01702
G1 X148.597 Y153.282 E.30809
G1 X148.059 Y153.282 E.01702
G1 X141.711 Y146.934 E.28402
G1 X141.711 Y147.472 E.01702
G1 X147.521 Y153.282 E.25995
G1 X146.983 Y153.282 E.01702
G1 X141.711 Y148.01 E.23588
G1 X141.711 Y148.548 E.01702
G1 X146.445 Y153.282 E.21181
G1 X145.907 Y153.282 E.01702
G1 X141.711 Y149.086 E.18773
G1 X141.711 Y149.624 E.01702
G1 X145.369 Y153.282 E.16366
G1 X144.831 Y153.282 E.01702
G1 X141.711 Y150.162 E.13959
G1 X141.711 Y150.7 E.01702
G1 X144.293 Y153.282 E.11552
G1 X143.755 Y153.282 E.01702
G1 X141.711 Y151.238 E.09145
G1 X141.711 Y151.776 E.01702
G1 X143.217 Y153.282 E.06738
G1 X142.679 Y153.282 E.01702
G1 X141.711 Y152.314 E.04331
G1 X141.711 Y152.852 E.01702
G1 X142.31 Y153.452 E.02683
M204 S1000
; stop printing object TicketWindow.stl id:0 copy 3
; printing object TicketWindow.stl id:0 copy 2
;WIPE_START
G1 F8640
G1 X141.711 Y152.852 E-.19583
G1 X141.711 Y152.314 E-.12423
G1 X142.679 Y153.282 E-.31612
G1 X143.215 Y153.282 E-.12382
;WIPE_END
G1 E-.04 F2100
G1 Z.6 F720
G1 X133.854 Y153.565 F10800
G1 Z.2 F720
G1 E.8 F2100
M204 S800
;TYPE:Perimeter
;WIDTH:0.42
G1 F1200
G1 X116.146 Y153.565 E.55519
G1 X116.146 Y126.238 E.85682
G1 X120.613 Y126.238 E.14004
M73 P6 R24
M73 Q6 S24
G1 X120.602 Y131.457 E.16364
G1 X120.632 Y131.787 E.0104
G1 X120.738 Y132.149 E.01182
G1 X120.932 Y132.5 E.01256
G1 X121.142 Y132.759 E.01047
G1 X121.427 Y132.997 E.01162
G1 X121.752 Y133.174 E.01162
G1 X122.106 Y133.284 E.01162
G1 X122.436 Y133.319 E.0104
G1 X127.539 Y133.338 E.15998
G1 X127.869 Y133.305 E.0104
G1 X128.224 Y133.198 E.01162
G1 X128.551 Y133.023 E.01162
G1 X128.837 Y132.788 E.01162
G1 X129.072 Y132.501 E.01162
G1 X129.247 Y132.174 E.01162
G1 X129.355 Y131.82 E.01162
G1 X129.387 Y131.489 E.0104
G1 X129.387 Y126.238 E.16466
G1 X133.854 Y126.238 E.14004
G1 X133.854 Y153.505 E.85495
M204 S1000
G1 X134.231 Y153.942 F10800
M204 S800
;TYPE:External perimeter
G1 F1200
G1 X115.769 Y153.942 E.57884
G1 X115.769 Y125.861 E.88047
G1 X120.99 Y125.861 E.16369
G1 X120.979 Y131.441 E.17497
G1 X121.004 Y131.716 E.00866
G1 X121.088 Y132.003 E.00936
G1 X121.246 Y132.288 E.01023
G1 X121.412 Y132.493 E.00827
G1 X121.64 Y132.683 E.00929
G1 X121.9 Y132.825 E.00929
G1 X122.183 Y132.913 E.00929
G1 X122.458 Y132.942 E.00866
G1 X127.52 Y132.961 E.15873
G1 X127.795 Y132.934 E.00866
G1 X128.079 Y132.848 E.00929
G1 X128.34 Y132.708 E.00929
G1 X128.569 Y132.52 E.00929
G1 X128.757 Y132.291 E.00929
G1 X128.897 Y132.029 E.00929
G1 X128.983 Y131.746 E.00929
G1 X129.01 Y131.471 E.00866
G1 X129.01 Y125.861 E.1759
G1 X134.231 Y125.861 E.16369
G1 X134.231 Y153.882 E.87859
M204 S1000
G1 X133.873 Y153.764 F10800
;WIPE_START
G1 F8640
G1 X130.939 Y153.893 E-.76
;WIPE_END
G1 E-.04 F2100
G1 Z.6 F720
G1 X132.971 Y126.351 F10800
G1 Z.2 F720
G1 E.8 F2100
M204 S800
;TYPE:Solid infill
;WIDTH:0.423369
G1 F1200
G1 X133.571 Y126.951 E.02683
G1 X133.571 Y127.489 E.01702
G1 X132.603 Y126.521 E.04331
G1 X132.065 Y126.521 E.01702
G1 X133.571 Y128.027 E.06738
G1 X133.571 Y128.565 E.01702
G1 X131.527 Y126.521 E.09145
G1 X130.989 Y126.521 E.01702
G1 X133.571 Y129.103 E.11552
G1 X133.571 Y129.641 E.01702
G1 X130.451 Y126.521 E.13959
G1 X129.912 Y126.521 E.01702
G1 X133.571 Y130.179 E.16366
G1 X133.571 Y130.717 E.01702
G1 X129.67 Y126.816 E.17452
G1 X129.67 Y127.354 E.01702
G1 X133.571 Y131.255 E.17452
G1 X133.571 Y131.793 E.01702
G1 X129.67 Y127.892 E.17452
G1 X129.67 Y128.43 E.01702
G1 X133.571 Y132.331 E.17452
G1 X133.571 Y132.869 E.01702
G1 X129.67 Y128.968 E.17452
G1 X129.67 Y129.506 E.01702
G1 X133.571 Y133.407 E.17452
G1 X133.571 Y133.945 E.01702
G1 X129.67 Y130.044 E.17452
G1 X129.67 Y130.582 E.01702
G1 X133.571 Y134.483 E.17452
G1 X133.571 Y135.021 E.01702
G1 X129.67 Y131.12 E.17452
G1 X129.656 Y131.644 E.01659
G1 X133.571 Y135.559 E.17514
G1 X133.571 Y136.097 E.01702
G1 X129.567 Y132.094 E.17912
G1 X129.509 Y132.283 E.00627
G1 X129.408 Y132.473 E.0068
G1 X133.571 Y136.635 E.18623
G1 X133.571 Y137.173 E.01702
G1 X129.195 Y132.798 E.19577
G1 X129.038 Y132.989 E.00783
G1 X128.934 Y133.074 E.00427
G1 X133.571 Y137.711 E.20745
G1 X133.571 Y138.249 E.01702
M73 P7 R24
M73 Q7 S24
G1 X128.625 Y133.304 E.22126
G1 X128.264 Y133.481 E.01272
G1 X133.571 Y138.787 E.2374
G1 X133.571 Y139.326 E.01702
G1 X127.838 Y133.593 E.25648
G1 X127.552 Y133.621 E.00908
G1 X127.327 Y133.62 E.00712
G1 X133.571 Y139.864 E.27933
G1 X133.571 Y140.402 E.01702
G1 X126.787 Y133.618 E.30349
G1 X126.247 Y133.616 E.01708
G1 X133.571 Y140.94 E.32765
G1 X133.571 Y141.478 E.01702
G1 X125.707 Y133.614 E.35181
G1 X125.167 Y133.612 E.01708
G1 X133.571 Y142.016 E.37597
G1 X133.571 Y142.554 E.01702
G1 X124.627 Y133.61 E.40013
G1 X124.087 Y133.608 E.01708
G1 X133.571 Y143.092 E.42429
G1 X133.571 Y143.63 E.01702
G1 X123.547 Y133.606 E.44845
G1 X123.007 Y133.604 E.01708
G1 X133.571 Y144.168 E.47261
G1 X133.571 Y144.706 E.01702
G1 X122.281 Y133.416 E.50507
M204 S1000
;WIPE_START
G1 F8640
G1 X124.609 Y135.744 E-.76
;WIPE_END
G1 E-.04 F2100
G1 Z.6 F720
G1 X120.5 Y126.793 F10800
G1 Z.2 F720
G1 E.8 F2100
M204 S800
G1 F1200
G1 X120.228 Y126.521 E.01216
G1 X119.69 Y126.521 E.01702
G1 X120.33 Y127.161 E.02864
G1 X120.33 Y127.699 E.01702
G1 X119.152 Y126.521 E.05271
G1 X118.614 Y126.521 E.01702
G1 X120.33 Y128.237 E.07678
G1 X120.33 Y128.775 E.01702
G1 X118.076 Y126.521 E.10085
G1 X117.538 Y126.521 E.01702
G1 X120.33 Y129.313 E.12492
G1 X120.33 Y129.851 E.01702
G1 X117 Y126.521 E.149
G1 X116.462 Y126.521 E.01702
G1 X120.327 Y130.386 E.17292
G1 X120.323 Y130.92 E.0169
G1 X116.429 Y127.026 E.17419
G1 X116.429 Y127.564 E.01702
G1 X120.505 Y131.64 E.18233
M204 S1000
;WIPE_START
G1 F8640
G1 X118.177 Y129.312 E-.76
;WIPE_END
G1 E-.04 F2100
G1 Z.6 F720
G1 X116.26 Y127.933 F10800
G1 Z.2 F720
G1 E.8 F2100
M204 S800
G1 F1200
G1 X120.43 Y132.103 E.18658
G1 X120.476 Y132.258 E.00512
G1 X120.696 Y132.658 E.01444
G1 X120.94 Y132.959 E.01223
G1 X121.267 Y133.232 E.01349
G1 X121.642 Y133.435 E.01349
G1 X121.817 Y133.49 E.0058
G1 X133.571 Y145.244 E.52584
G1 X133.571 Y145.782 E.01702
G1 X116.429 Y128.64 E.76687
G1 X116.429 Y129.178 E.01702
G1 X133.571 Y146.32 E.76687
G1 X133.571 Y146.858 E.01702
G1 X116.429 Y129.717 E.76687
G1 X116.429 Y130.255 E.01702
M73 P8 R23
M73 Q8 S24
G1 X133.571 Y147.396 E.76687
G1 X133.571 Y147.934 E.01702
G1 X116.429 Y130.793 E.76687
G1 X116.429 Y131.331 E.01702
G1 X133.571 Y148.472 E.76687
G1 X133.571 Y149.01 E.01702
G1 X116.429 Y131.869 E.76687
G1 X116.429 Y132.407 E.01702
G1 X133.571 Y149.548 E.76687
G1 X133.571 Y150.086 E.01702
G1 X116.429 Y132.945 E.76687
G1 X116.429 Y133.483 E.01702
G1 X133.571 Y150.624 E.76687
G1 X133.571 Y151.162 E.01702
M73 Q8 S23
