; generated by PrusaSlicer 2.3.1+win64 on 2021-11-10 at 20:13:52 UTC

; 

; external perimeters extrusion width = 0.45mm
; perimeters extrusion width = 0.45mm
; infill extrusion width = 0.45mm
; solid infill extrusion width = 0.45mm
; top infill extrusion width = 0.40mm
; support material extrusion width = 0.35mm
; first layer extrusion width = 0.42mm

M73 P0 R15
M73 Q0 S15
M201 X1000 Y1000 Z1000 E5000 ; sets maximum accelerations, mm/sec^2
M203 X200 Y200 Z12 E120 ; sets maximum feedrates, mm/sec
M204 P1250 R1250 T1250 ; sets acceleration (P, T) and retract acceleration (R), mm/sec^2
M205 X8.00 Y8.00 Z0.40 E1.50 ; sets the jerk limits, mm/sec
M205 S0 T0 ; sets the minimum extruding and travel feed rate, mm/sec
M107
;TYPE:Custom
M862.3 P "MK3S" ; printer model check
M862.1 P0.4 ; nozzle diameter check
M115 U3.8.0 ; tell printer latest fw version
G90 ; use absolute coordinates
M83 ; extruder relative mode
M104 S215 ; set extruder temp
M140 S60 ; set bed temp
M190 S60 ; wait for bed temp
M109 S215 ; wait for extruder temp
G28 W ; home all without mesh bed level
G80 ; mesh bed leveling
G1 Y-3.0 F1000.0 ; go outside print area
G92 E0.0
G1 X60.0 E9.0 F1000.0 ; intro line
G1 X100.0 E12.5 F1000.0 ; intro line
G92 E0.0
M221 S95
G21 ; set units to millimeters
G90 ; use absolute coordinates
M83 ; use relative distances for extrusion
M900 K0.05 ; Filament gcode LA 1.5
M900 K30 ; Filament gcode LA 1.0
;LAYER_CHANGE
;Z:0.2
;HEIGHT:0.2
;BEFORE_LAYER_CHANGE
G92 E0.0
;0.2


G1 E-0.80000 F2100.000
G1 Z0.600 F10800.000
;AFTER_LAYER_CHANGE
;0.2
G1 X96.513 Y107.229
G1 Z0.200
G1 E0.80000 F2100.000
M204 S1000
;TYPE:Perimeter
;WIDTH:0.42
G1 F1200.000
G1 X95.980 Y106.391 E0.03113
G1 X95.662 Y105.824 E0.02040
G1 X95.378 Y105.264 E0.01970
G1 X95.116 Y104.692 E0.01972
G1 X94.879 Y104.109 E0.01972
G1 X94.665 Y103.518 E0.01972
G1 X94.476 Y102.918 E0.01972
G1 X94.311 Y102.312 E0.01972
G1 X94.171 Y101.699 E0.01972
G1 X94.056 Y101.080 E0.01972
G1 X93.967 Y100.458 E0.01972
G1 X93.903 Y99.832 E0.01972
G1 X93.864 Y99.205 E0.01972
G1 X93.851 Y98.576 E0.01972
G1 X93.864 Y97.947 E0.01972
G1 X93.903 Y97.320 E0.01972
G1 X93.967 Y96.694 E0.01972
G1 X94.056 Y96.072 E0.01972
G1 X94.171 Y95.454 E0.01972
G1 X94.311 Y94.841 E0.01972
G1 X94.476 Y94.234 E0.01972
G1 X94.665 Y93.634 E0.01972
G1 X94.879 Y93.043 E0.01972
G1 X95.116 Y92.461 E0.01972
G1 X95.369 Y91.908 E0.01905
G1 X95.662 Y91.328 E0.02040
G1 X95.969 Y90.779 E0.01970
G1 X96.298 Y90.243 E0.01972
G1 X96.649 Y89.721 E0.01972
G1 X97.020 Y89.214 E0.01972
G1 X97.412 Y88.723 E0.01972
G1 X98.255 Y87.789 E0.03943
G1 X98.704 Y87.349 E0.01970
G1 X99.171 Y86.928 E0.01972
G1 X99.654 Y86.526 E0.01972
G1 X100.154 Y86.144 E0.01972
G1 X100.651 Y85.795 E0.01905
G1 X101.198 Y85.443 E0.02040
G1 X101.740 Y85.125 E0.01970
G1 X102.295 Y84.829 E0.01972
M73 Q1 S15
G1 X102.861 Y84.556 E0.01972
G1 X103.438 Y84.307 E0.01972
G1 X104.025 Y84.081 E0.01972
G1 X104.621 Y83.879 E0.01972
G1 X105.224 Y83.702 E0.01972
G1 X106.450 Y83.422 E0.03943
G1 X107.071 Y83.320 E0.01970
G1 X107.695 Y83.243 E0.01972
G1 X108.321 Y83.192 E0.01972
G1 X108.950 Y83.167 E0.01972
M73 P1 R15
G1 X109.578 Y83.167 E0.01972
G1 X110.834 Y83.243 E0.03943
G1 X111.457 Y83.320 E0.01970
G1 X112.078 Y83.422 E0.01972
G1 X112.694 Y83.550 E0.01972
G1 X113.304 Y83.702 E0.01972
G1 X113.907 Y83.879 E0.01972
G1 X114.503 Y84.081 E0.01972
G1 X115.090 Y84.307 E0.01972
G1 X115.667 Y84.556 E0.01972
G1 X116.233 Y84.829 E0.01972
G1 X116.788 Y85.125 E0.01972
G1 X117.331 Y85.443 E0.01972
G1 X117.860 Y85.783 E0.01972
G1 X118.374 Y86.144 E0.01972
G1 X118.874 Y86.526 E0.01972
G1 X119.357 Y86.928 E0.01972
G1 X119.824 Y87.349 E0.01972
G1 X120.273 Y87.789 E0.01972
G1 X120.704 Y88.247 E0.01972
G1 X121.116 Y88.723 E0.01972
G1 X121.508 Y89.214 E0.01972
G1 X121.879 Y89.721 E0.01972
G1 X122.230 Y90.243 E0.01972
G1 X122.559 Y90.779 E0.01972
G1 X122.866 Y91.328 E0.01972
G1 X123.150 Y91.889 E0.01972
G1 X123.412 Y92.461 E0.01972
G1 X123.863 Y93.635 E0.03943
G1 X124.053 Y94.234 E0.01970
G1 X124.357 Y95.454 E0.03944
G1 X124.472 Y96.072 E0.01970
G1 X124.562 Y96.694 E0.01972
G1 X124.626 Y97.320 E0.01972
G1 X124.664 Y97.947 E0.01972
G1 X124.677 Y98.576 E0.01972
G1 X124.664 Y99.205 E0.01972
G1 X124.626 Y99.832 E0.01972
G1 X124.562 Y100.458 E0.01972
G1 X124.357 Y101.699 E0.03943
G1 X124.217 Y102.312 E0.01970
G1 X124.053 Y102.918 E0.01972
G1 X123.863 Y103.518 E0.01972
G1 X123.649 Y104.109 E0.01972
G1 X123.412 Y104.691 E0.01972
G1 X123.151 Y105.263 E0.01972
G1 X122.866 Y105.824 E0.01972
G1 X122.559 Y106.373 E0.01972
G1 X121.879 Y107.431 E0.03943
G1 X121.508 Y107.938 E0.01970
G1 X121.116 Y108.430 E0.01972
G1 X120.704 Y108.905 E0.01972
G1 X120.273 Y109.363 E0.01972
G1 X119.824 Y109.803 E0.01972
G1 X118.873 Y110.627 E0.03943
G1 X118.374 Y111.008 E0.01970
G1 X117.860 Y111.370 E0.01972
G1 X117.331 Y111.709 E0.01972
G1 X116.788 Y112.028 E0.01972
G1 X116.233 Y112.323 E0.01972
G1 X115.667 Y112.596 E0.01972
G1 X115.109 Y112.837 E0.01905
G1 X114.502 Y113.071 E0.02040
G1 X113.907 Y113.273 E0.01970
G1 X113.304 Y113.450 E0.01972
G1 X112.694 Y113.602 E0.01972
G1 X112.078 Y113.730 E0.01972
G1 X111.458 Y113.832 E0.01972
G1 X110.833 Y113.909 E0.01972
G1 X110.207 Y113.960 E0.01972
G1 X109.578 Y113.986 E0.01972
G1 X108.950 Y113.986 E0.01972
G1 X108.321 Y113.960 E0.01972
G1 X107.695 Y113.909 E0.01972
G1 X107.071 Y113.832 E0.01972
G1 X106.450 Y113.730 E0.01972
G1 X105.224 Y113.450 E0.03943
G1 X104.621 Y113.273 E0.01970
G1 X104.025 Y113.071 E0.01972
G1 X103.439 Y112.846 E0.01972
G1 X102.861 Y112.596 E0.01972
M73 P1 R14
G1 X102.314 Y112.333 E0.01905
G1 X101.740 Y112.027 E0.02040
G1 X101.198 Y111.709 E0.01970
G1 X100.669 Y111.370 E0.01972
G1 X100.154 Y111.008 E0.01972
G1 X99.654 Y110.626 E0.01972
G1 X99.171 Y110.224 E0.01972
G1 X98.704 Y109.803 E0.01972
G1 X98.255 Y109.363 E0.01972
G1 X97.824 Y108.905 E0.01972
G1 X97.412 Y108.430 E0.01972
G1 X97.020 Y107.938 E0.01972
G1 X96.547 Y107.279 E0.02545
G1 X96.234 Y107.489 F10800.000
;TYPE:External perimeter
G1 F1200.000
G1 X95.655 Y106.582 E0.03373
G1 X95.329 Y106.002 E0.02088
G1 X95.038 Y105.427 E0.02019
G1 X94.770 Y104.841 E0.02020
G1 X94.527 Y104.245 E0.02020
G1 X94.308 Y103.639 E0.02020
G1 X94.114 Y103.025 E0.02020
G1 X93.945 Y102.403 E0.02020
G1 X93.802 Y101.775 E0.02020
G1 X93.684 Y101.142 E0.02020
G1 X93.592 Y100.504 E0.02020
G1 X93.527 Y99.863 E0.02020
G1 X93.487 Y99.220 E0.02020
G1 X93.474 Y98.576 E0.02020
G1 X93.487 Y97.932 E0.02020
G1 X93.527 Y97.289 E0.02020
G1 X93.592 Y96.648 E0.02020
G1 X93.684 Y96.011 E0.02020
G1 X93.801 Y95.377 E0.02020
G1 X93.945 Y94.749 E0.02020
G1 X94.114 Y94.128 E0.02020
G1 X94.308 Y93.513 E0.02020
G1 X94.527 Y92.908 E0.02020
G1 X94.770 Y92.311 E0.02020
G1 X95.029 Y91.745 E0.01952
G1 X95.329 Y91.150 E0.02088
G1 X95.644 Y90.588 E0.02019
G1 X95.981 Y90.039 E0.02020
G1 X96.340 Y89.505 E0.02020
G1 X96.721 Y88.985 E0.02020
G1 X97.122 Y88.481 E0.02020
G1 X97.530 Y88.011 E0.01952
G1 X97.986 Y87.525 E0.02088
G1 X98.446 Y87.075 E0.02019
G1 X98.924 Y86.643 E0.02020
G1 X99.419 Y86.231 E0.02020
G1 X99.931 Y85.840 E0.02020
G1 X100.440 Y85.482 E0.01952
G1 X101.000 Y85.121 E0.02088
G1 X101.556 Y84.796 E0.02019
G1 X102.124 Y84.493 E0.02020
G1 X102.705 Y84.213 E0.02020
G1 X103.296 Y83.957 E0.02020
G1 X103.897 Y83.726 E0.02020
G1 X104.507 Y83.520 E0.02020
G1 X105.125 Y83.338 E0.02020
G1 X105.729 Y83.187 E0.01952
G1 X106.381 Y83.052 E0.02088
G1 X107.017 Y82.947 E0.02019
G1 X107.656 Y82.868 E0.02020
G1 X108.298 Y82.816 E0.02020
G1 X108.942 Y82.789 E0.02020
G1 X109.586 Y82.789 E0.02020
G1 X110.208 Y82.815 E0.01952
G1 X110.872 Y82.868 E0.02088
G1 X111.511 Y82.947 E0.02019
G1 X112.147 Y83.052 E0.02020
G1 X112.778 Y83.182 E0.02020
G1 X113.403 Y83.338 E0.02020
G1 X114.021 Y83.520 E0.02020
G1 X114.631 Y83.726 E0.02020
G1 X115.232 Y83.957 E0.02020
G1 X115.823 Y84.213 E0.02020
G1 X116.404 Y84.493 E0.02020
G1 X116.972 Y84.795 E0.02020
G1 X117.528 Y85.121 E0.02020
G1 X118.070 Y85.470 E0.02020
G1 X118.597 Y85.840 E0.02020
G1 X119.109 Y86.231 E0.02020
G1 X119.604 Y86.643 E0.02020
G1 X120.082 Y87.075 E0.02020
G1 X120.543 Y87.525 E0.02020
G1 X120.984 Y87.995 E0.02020
G1 X121.406 Y88.481 E0.02020
G1 X121.807 Y88.985 E0.02020
G1 X122.188 Y89.505 E0.02020
G1 X122.547 Y90.039 E0.02020
G1 X122.885 Y90.588 E0.02020
G1 X123.199 Y91.151 E0.02020
G1 X123.490 Y91.725 E0.02020
G1 X123.758 Y92.311 E0.02020
G1 X123.993 Y92.887 E0.01952
G1 X124.220 Y93.513 E0.02088
G1 X124.414 Y94.128 E0.02019
G1 X124.578 Y94.728 E0.01952
G1 X124.727 Y95.377 E0.02088
G1 X124.844 Y96.011 E0.02019
G1 X124.936 Y96.648 E0.02020
G1 X125.001 Y97.289 E0.02020
G1 X125.041 Y97.932 E0.02020
G1 X125.054 Y98.576 E0.02020
G1 X125.041 Y99.220 E0.02020
G1 X125.001 Y99.863 E0.02020
G1 X124.936 Y100.504 E0.02020
G1 X124.847 Y101.120 E0.01952
G1 X124.727 Y101.775 E0.02088
G1 X124.583 Y102.403 E0.02019
G1 X124.414 Y103.025 E0.02020
G1 X124.220 Y103.639 E0.02020
G1 X124.001 Y104.245 E0.02020
G1 X123.758 Y104.841 E0.02020
G1 X123.490 Y105.427 E0.02020
G1 X123.199 Y106.002 E0.02020
G1 X122.885 Y106.564 E0.02020
G1 X122.559 Y107.094 E0.01952
G1 X122.188 Y107.648 E0.02088
G1 X121.807 Y108.167 E0.02019
G1 X121.406 Y108.671 E0.02020
G1 X120.984 Y109.158 E0.02020
G1 X120.543 Y109.627 E0.02020
G1 X120.082 Y110.078 E0.02020
G1 X119.620 Y110.495 E0.01952
G1 X119.109 Y110.921 E0.02088
G1 X118.597 Y111.312 E0.02019
G1 X118.070 Y111.683 E0.02020
G1 X117.528 Y112.031 E0.02020
G1 X116.972 Y112.357 E0.02020
G1 X116.404 Y112.660 E0.02020
G1 X115.823 Y112.939 E0.02020
G1 X115.252 Y113.186 E0.01952
G1 X114.631 Y113.426 E0.02088
G1 X114.021 Y113.633 E0.02019
G1 X113.403 Y113.814 E0.02020
G1 X112.778 Y113.970 E0.02020
G1 X112.147 Y114.101 E0.02020
G1 X111.511 Y114.205 E0.02020
G1 X110.872 Y114.284 E0.02020
G1 X110.230 Y114.337 E0.02020
G1 X109.586 Y114.363 E0.02020
G1 X108.942 Y114.363 E0.02020
G1 X108.298 Y114.337 E0.02020
G1 X107.656 Y114.284 E0.02020
G1 X107.017 Y114.205 E0.02020
G1 X106.381 Y114.101 E0.02020
G1 X105.772 Y113.975 E0.01952
G1 X105.125 Y113.814 E0.02088
G1 X104.507 Y113.633 E0.02019
G1 X103.897 Y113.426 E0.02020
G1 X103.296 Y113.195 E0.02020
G1 X102.705 Y112.939 E0.02020
G1 X102.144 Y112.669 E0.01952
G1 X101.556 Y112.357 E0.02088
G1 X101.000 Y112.031 E0.02019
G1 X100.458 Y111.683 E0.02020
G1 X99.931 Y111.313 E0.02020
G1 X99.419 Y110.921 E0.02020
G1 X98.924 Y110.509 E0.02020
G1 X98.446 Y110.078 E0.02020
G1 X97.986 Y109.627 E0.02020
G1 X97.544 Y109.158 E0.02020
G1 X97.122 Y108.671 E0.02020
G1 X96.721 Y108.167 E0.02020
G1 X96.267 Y107.539 E0.02430
G1 X96.409 Y107.130 F10800.000
G1 E-0.80000 F2100.000
G1 Z0.800 F10800.000
G1 X110.168 Y83.474
M73 Q2 S15
G1 Z0.200
G1 E0.80000 F2100.000
;TYPE:Solid infill
;WIDTH:0.421168
G1 F1200.000
G1 X110.805 Y83.525 E0.02010
M73 P2 R14
G1 X111.417 Y83.600 E0.01940
G1 X112.026 Y83.700 E0.01941
G1 X112.631 Y83.826 E0.01941
G1 X113.230 Y83.975 E0.01941
G1 X113.822 Y84.149 E0.01941
G1 X114.407 Y84.347 E0.01941
G1 X114.983 Y84.569 E0.01941
G1 X115.549 Y84.813 E0.01941
G1 X116.105 Y85.081 E0.01941
G1 X116.650 Y85.372 E0.01941
G1 X117.183 Y85.684 E0.01941
G1 X117.702 Y86.017 E0.01941
G1 X118.207 Y86.372 E0.01941
G1 X118.697 Y86.747 E0.01941
G1 X119.172 Y87.142 E0.01941
G1 X119.630 Y87.555 E0.01941
G1 X120.071 Y87.987 E0.01941
G1 X120.494 Y88.437 E0.01941
G1 X120.898 Y88.903 E0.01941
G1 X121.283 Y89.386 E0.01941
G1 X121.648 Y89.884 E0.01941
G1 X121.992 Y90.396 E0.01941
G1 X122.315 Y90.922 E0.01941
G1 X122.617 Y91.461 E0.01941
G1 X122.896 Y92.011 E0.01941
G1 X123.151 Y92.570 E0.01932
G1 X123.596 Y93.728 E0.03901
G1 X123.937 Y94.889 E0.03805
G1 X124.080 Y95.512 E0.02010
G1 X124.193 Y96.118 E0.01940
M73 Q2 S14
G1 X124.281 Y96.729 E0.01941
G1 X124.344 Y97.343 E0.01941
G1 X124.381 Y97.959 E0.01941
G1 X124.394 Y98.576 E0.01941
G1 X124.381 Y99.193 E0.01941
G1 X124.344 Y99.809 E0.01941
G1 X124.196 Y101.013 E0.03815
G1 X124.080 Y101.642 E0.02010
G1 X123.943 Y102.243 E0.01940
G1 X123.781 Y102.839 E0.01941
G1 X123.595 Y103.427 E0.01941
G1 X123.385 Y104.008 E0.01941
G1 X123.152 Y104.579 E0.01941
G1 X122.896 Y105.141 E0.01941
G1 X122.617 Y105.691 E0.01941
G1 X122.317 Y106.227 E0.01932
G1 X121.646 Y107.271 E0.03901
G1 X121.283 Y107.766 E0.01931
G1 X120.898 Y108.249 E0.01941
G1 X120.494 Y108.715 E0.01941
G1 X120.071 Y109.165 E0.01941
G1 X119.632 Y109.595 E0.01932
G1 X118.695 Y110.407 E0.03901
G1 X118.207 Y110.780 E0.01931
G1 X117.702 Y111.135 E0.01941
G1 X117.183 Y111.468 E0.01941
G1 X116.650 Y111.781 E0.01941
G1 X116.105 Y112.071 E0.01941
G1 X115.552 Y112.338 E0.01932
G1 X114.403 Y112.806 E0.03901
G1 X113.822 Y113.003 E0.01931
G1 X113.230 Y113.177 E0.01941
G1 X112.631 Y113.327 E0.01941
G1 X112.026 Y113.452 E0.01941
G1 X111.417 Y113.552 E0.01941
G1 X110.805 Y113.627 E0.01941
G1 X110.189 Y113.678 E0.01941
G1 X109.573 Y113.703 E0.01941
G1 X108.955 Y113.703 E0.01941
G1 X108.339 Y113.678 E0.01941
G1 X107.723 Y113.627 E0.01941
G1 X107.111 Y113.552 E0.01941
G1 X106.505 Y113.452 E0.01932
G1 X105.295 Y113.176 E0.03901
G1 X104.706 Y113.003 E0.01931
G1 X104.122 Y112.805 E0.01941
G1 X103.545 Y112.584 E0.01941
G1 X102.442 Y112.080 E0.03815
G1 X101.877 Y111.780 E0.02010
G1 X101.346 Y111.468 E0.01940
G1 X100.826 Y111.135 E0.01941
G1 X100.321 Y110.780 E0.01941
G1 X99.831 Y110.405 E0.01941
G1 X99.356 Y110.011 E0.01941
G1 X98.898 Y109.597 E0.01941
G1 X98.457 Y109.165 E0.01941
G1 X98.034 Y108.715 E0.01941
G1 X97.630 Y108.249 E0.01941
G1 X97.245 Y107.766 E0.01941
G1 X96.880 Y107.268 E0.01941
G1 X96.538 Y106.758 E0.01932
G1 X95.910 Y105.688 E0.03901
G1 X95.632 Y105.141 E0.01931
G1 X95.376 Y104.579 E0.01941
G1 X95.143 Y104.008 E0.01941
G1 X94.933 Y103.427 E0.01941
G1 X94.747 Y102.839 E0.01941
G1 X94.585 Y102.243 E0.01941
G1 X94.448 Y101.641 E0.01941
G1 X94.335 Y101.034 E0.01941
G1 X94.247 Y100.423 E0.01941
G1 X94.184 Y99.809 E0.01941
G1 X94.147 Y99.193 E0.01941
G1 X94.134 Y98.576 E0.01941
G1 X94.147 Y97.959 E0.01941
G1 X94.184 Y97.343 E0.01941
G1 X94.247 Y96.729 E0.01941
G1 X94.335 Y96.118 E0.01941
G1 X94.448 Y95.511 E0.01941
G1 X94.585 Y94.909 E0.01941
G1 X94.747 Y94.314 E0.01941
G1 X94.933 Y93.725 E0.01941
G1 X95.143 Y93.144 E0.01941
G1 X95.624 Y92.031 E0.03815
G1 X95.912 Y91.460 E0.02010
G1 X96.213 Y90.922 E0.01940
G1 X96.536 Y90.396 E0.01941
G1 X96.880 Y89.884 E0.01941
G1 X97.245 Y89.386 E0.01941
G1 X98.020 Y88.453 E0.03815
G1 X98.457 Y87.987 E0.02010
G1 X98.898 Y87.555 E0.01940
G1 X99.356 Y87.142 E0.01941
G1 X99.831 Y86.747 E0.01941
G1 X100.319 Y86.374 E0.01932
G1 X101.348 Y85.682 E0.03901
G1 X101.878 Y85.372 E0.01931
G1 X102.423 Y85.081 E0.01941
G1 X102.979 Y84.813 E0.01941
G1 X103.545 Y84.569 E0.01941
G1 X104.122 Y84.347 E0.01941
G1 X104.706 Y84.149 E0.01941
G1 X105.877 Y83.831 E0.03815
G1 X106.502 Y83.700 E0.02010
G1 X107.111 Y83.600 E0.01940
G1 X107.723 Y83.525 E0.01941
G1 X108.339 Y83.475 E0.01941
G1 X108.955 Y83.449 E0.01941
G1 X110.108 Y83.471 E0.03627
G1 X110.145 Y83.851 F10800.000
G1 F1200.000
G1 X110.767 Y83.901 E0.01961
G1 X111.363 Y83.975 E0.01890
G1 X112.547 Y84.194 E0.03785
G1 X113.130 Y84.340 E0.01893
G1 X114.278 Y84.703 E0.03785
G1 X115.392 Y85.158 E0.03785
G1 X116.465 Y85.702 E0.03785
G1 X117.491 Y86.332 E0.03785
G1 X117.983 Y86.677 E0.01893
G1 X118.462 Y87.043 E0.01893
G1 X119.371 Y87.831 E0.03785
G1 X120.213 Y88.690 E0.03785
G1 X120.983 Y89.616 E0.03785
G1 X121.674 Y90.601 E0.03785
G1 X121.989 Y91.114 E0.01893
G1 X122.283 Y91.639 E0.01893
G1 X122.802 Y92.717 E0.03764
G1 X123.239 Y93.853 E0.03828
G1 X123.570 Y94.981 E0.03697
G1 X123.710 Y95.588 E0.01961
G1 X123.905 Y96.775 E0.03782
G1 X124.003 Y97.974 E0.03785
G1 X124.003 Y99.178 E0.03785
G1 X123.967 Y99.778 E0.01893
G1 X123.823 Y100.952 E0.03719
G1 X123.710 Y101.565 E0.01961
G1 X123.576 Y102.151 E0.01890
G1 X123.237 Y103.306 E0.03785
G1 X122.805 Y104.429 E0.03785
G1 X122.555 Y104.977 E0.01893
G1 X121.992 Y106.033 E0.03764
G1 X121.334 Y107.057 E0.03828
G1 X120.607 Y108.007 E0.03762
G1 X120.213 Y108.462 E0.01893
G1 X119.376 Y109.317 E0.03764
G1 X118.456 Y110.114 E0.03828
G1 X117.491 Y110.821 E0.03762
G1 X116.985 Y111.146 E0.01893
G1 X116.465 Y111.451 E0.01893
G1 X115.398 Y111.992 E0.03764
G1 X114.271 Y112.452 E0.03828
G1 X113.130 Y112.812 E0.03762
