; generated by PrusaSlicer 2.1.0+win64 on 2020-03-25 at 21:22:42 UTC

; 

; external perimeters extrusion width = 0.45mm
; perimeters extrusion width = 0.45mm
; infill extrusion width = 0.45mm
; solid infill extrusion width = 0.45mm
; top infill extrusion width = 0.40mm
; first layer extrusion width = 0.42mm

M73 P0 R21
M73 Q0 S21
M201 X1000 Y1000 Z1000 E5000 ; sets maximum accelerations, mm/sec^2
M203 X200 Y200 Z12 E120 ; sets maximum feedrates, mm/sec
M204 P1250 R1250 T1250 ; sets acceleration (P, T) and retract acceleration (R), mm/sec^2
M205 X8.00 Y8.00 Z0.40 E1.50 ; sets the jerk limits, mm/sec
M205 S0 T0 ; sets the minimum extruding and travel feed rate, mm/sec
M107
M115 U3.7.1 ; tell printer latest fw version
G90 ; use absolute coordinates
M83 ; extruder relative mode
M104 S215 ; set extruder temp
M140 S60 ; set bed temp
M190 S60 ; wait for bed temp
M109 S215 ; wait for extruder temp
G28 W ; home all without mesh bed level
G80 ; mesh bed leveling
G1 Y-3.0 F1000.0 ; go outside print area
G92 E0.0
G1 X60.0 E9.0 F1000.0 ; intro line
M73 Q0 S21
M73 P0 R21
G1 X100.0 E12.5 F1000.0 ; intro line
G92 E0.0
M221 S95
G21 ; set units to millimeters
G90 ; use absolute coordinates
M83 ; use relative distances for extrusion
M900 K30 ; Filament gcode
;BEFORE_LAYER_CHANGE
G92 E0.0
;0.2


G1 E-0.80000 F2100.00000
G1 Z0.600 F10800.000
;AFTER_LAYER_CHANGE
;0.2
G1 X125.000 Y136.913
G1 Z0.200
G1 E0.80000 F2100.00000
M204 S1000
G1 F1200
G1 X115.587 Y136.913 E0.29514
G1 X115.587 Y73.087 E2.00121
G1 X134.413 Y73.087 E0.59027
G1 X134.413 Y136.913 E2.00121
G1 X125.060 Y136.913 E0.29325
G1 X125.000 Y137.290 F10800.000
G1 F1200
G1 X115.210 Y137.290 E0.30696
G1 X115.210 Y72.710 E2.02486
G1 X134.790 Y72.710 E0.61392
G1 X134.790 Y137.290 E2.02486
G1 X125.060 Y137.290 E0.30508
G1 X124.664 Y137.073 F10800.000
G1 F8640
G1 X121.769 Y137.290 E-0.76000
G1 E-0.04000 F2100.00000
G1 Z0.800 F10800.000
G1 X116.464 Y136.800
G1 Z0.200
G1 E0.80000 F2100.00000
G1 F1200
G1 X115.870 Y136.206 E0.02639
G1 X115.870 Y135.672 E0.01678
G1 X116.828 Y136.630 E0.04259
G1 X117.363 Y136.630 E0.01678
G1 X115.870 Y135.137 E0.06632
G1 X115.870 Y134.603 E0.01678
G1 X117.897 Y136.630 E0.09005
G1 X118.431 Y136.630 E0.01678
G1 X115.870 Y134.069 E0.11378
G1 X115.870 Y133.535 E0.01678
G1 X118.965 Y136.630 E0.13752
G1 X119.500 Y136.630 E0.01678
G1 X115.870 Y133.000 E0.16125
G1 X115.870 Y132.466 E0.01678
G1 X120.034 Y136.630 E0.18498
G1 X120.568 Y136.630 E0.01678
G1 X115.870 Y131.932 E0.20872
G1 X115.870 Y131.398 E0.01678
G1 X121.102 Y136.630 E0.23245
G1 X121.637 Y136.630 E0.01678
G1 X115.870 Y130.863 E0.25618
G1 X115.870 Y130.329 E0.01678
G1 X122.171 Y136.630 E0.27992
G1 X122.705 Y136.630 E0.01678
G1 X115.870 Y129.795 E0.30365
G1 X115.870 Y129.261 E0.01678
G1 X123.239 Y136.630 E0.32738
G1 X123.774 Y136.630 E0.01678
G1 X115.870 Y128.726 E0.35111
G1 X115.870 Y128.192 E0.01678
G1 X124.308 Y136.630 E0.37485
G1 X124.842 Y136.630 E0.01678
G1 X115.870 Y127.658 E0.39858
G1 X115.870 Y127.124 E0.01678
G1 X125.376 Y136.630 E0.42231
G1 X125.911 Y136.630 E0.01678
G1 X115.870 Y126.589 E0.44605
G1 X115.870 Y126.055 E0.01678
G1 X126.445 Y136.630 E0.46978
G1 X126.979 Y136.630 E0.01678
G1 X115.870 Y125.521 E0.49351
G1 X115.870 Y124.987 E0.01678
G1 X127.513 Y136.630 E0.51725
G1 X128.048 Y136.630 E0.01678
G1 X115.870 Y124.452 E0.54098
G1 X115.870 Y123.918 E0.01678
G1 X128.582 Y136.630 E0.56471
G1 X129.116 Y136.630 E0.01678
G1 X115.870 Y123.384 E0.58845
G1 X115.870 Y122.850 E0.01678
G1 X129.650 Y136.630 E0.61218
G1 X130.185 Y136.630 E0.01678
G1 X115.870 Y122.315 E0.63591
G1 X115.870 Y121.781 E0.01678
G1 X130.719 Y136.630 E0.65964
G1 X131.253 Y136.630 E0.01678
G1 X115.870 Y121.247 E0.68338
G1 X115.870 Y120.713 E0.01678
G1 X131.787 Y136.630 E0.70711
G1 X132.322 Y136.630 E0.01678
G1 X115.870 Y120.178 E0.73084
G1 X115.870 Y119.644 E0.01678
G1 X132.856 Y136.630 E0.75458
G1 X133.390 Y136.630 E0.01678
G1 X115.870 Y119.110 E0.77831
G1 X115.870 Y118.575 E0.01678
G1 X133.925 Y136.630 E0.80204
G1 X134.130 Y136.630 E0.00646
G1 X134.130 Y136.302 E0.01032
G1 X115.870 Y118.041 E0.81118
G1 X115.870 Y117.507 E0.01678
G1 X134.130 Y135.767 E0.81118
G1 X134.130 Y135.233 E0.01678
G1 X115.870 Y116.973 E0.81118
G1 X115.870 Y116.438 E0.01678
G1 X134.130 Y134.699 E0.81118
G1 X134.130 Y134.165 E0.01678
G1 X115.870 Y115.904 E0.81118
G1 X115.870 Y115.370 E0.01678
G1 X134.130 Y133.630 E0.81118
G1 X134.130 Y133.096 E0.01678
G1 X115.870 Y114.836 E0.81118
G1 X115.870 Y114.301 E0.01678
G1 X134.130 Y132.562 E0.81118
G1 X134.130 Y132.028 E0.01678
G1 X115.870 Y113.767 E0.81118
G1 X115.870 Y113.233 E0.01678
G1 X134.130 Y131.493 E0.81118
G1 X134.130 Y130.959 E0.01678
G1 X115.870 Y112.699 E0.81118
G1 X115.870 Y112.164 E0.01678
G1 X134.130 Y130.425 E0.81118
M73 Q5 S20
M73 P5 R20
G1 X134.130 Y129.891 E0.01678
G1 X115.870 Y111.630 E0.81118
G1 X115.870 Y111.096 E0.01678
G1 X134.130 Y129.356 E0.81118
G1 X134.130 Y128.822 E0.01678
G1 X115.870 Y110.562 E0.81118
G1 X115.870 Y110.027 E0.01678
G1 X134.130 Y128.288 E0.81118
G1 X134.130 Y127.754 E0.01678
G1 X115.870 Y109.493 E0.81118
G1 X115.870 Y108.959 E0.01678
G1 X134.130 Y127.219 E0.81118
G1 X134.130 Y126.685 E0.01678
G1 X115.870 Y108.425 E0.81118
G1 X115.870 Y107.890 E0.01678
G1 X134.130 Y126.151 E0.81118
G1 X134.130 Y125.617 E0.01678
G1 X115.870 Y107.356 E0.81118
G1 X115.870 Y106.822 E0.01678
G1 X134.130 Y125.082 E0.81118
G1 X134.130 Y124.548 E0.01678
G1 X115.870 Y106.288 E0.81118
G1 X115.870 Y105.753 E0.01678
G1 X134.130 Y124.014 E0.81118
G1 X134.130 Y123.480 E0.01678
G1 X115.870 Y105.219 E0.81118
G1 X115.870 Y104.685 E0.01678
G1 X134.130 Y122.945 E0.81118
G1 X134.130 Y122.411 E0.01678
G1 X115.870 Y104.151 E0.81118
G1 X115.870 Y103.616 E0.01678
G1 X134.130 Y121.877 E0.81118
G1 X134.130 Y121.343 E0.01678
G1 X115.870 Y103.082 E0.81118
G1 X115.870 Y102.548 E0.01678
G1 X134.130 Y120.808 E0.81118
G1 X134.130 Y120.274 E0.01678
G1 X115.870 Y102.014 E0.81118
G1 X115.870 Y101.479 E0.01678
G1 X134.130 Y119.740 E0.81118
G1 X134.130 Y119.206 E0.01678
G1 X115.870 Y100.945 E0.81118
G1 X115.870 Y100.411 E0.01678
G1 X134.130 Y118.671 E0.81118
G1 X134.130 Y118.137 E0.01678
G1 X115.870 Y99.877 E0.81118
G1 X115.870 Y99.342 E0.01678
G1 X134.130 Y117.603 E0.81118
G1 X134.130 Y117.069 E0.01678
G1 X115.870 Y98.808 E0.81118
G1 X115.870 Y98.274 E0.01678
G1 X134.130 Y116.534 E0.81118
G1 X134.130 Y116.000 E0.01678
G1 X115.870 Y97.740 E0.81118
G1 X115.870 Y97.205 E0.01678
G1 X134.130 Y115.466 E0.81118
G1 X134.130 Y114.932 E0.01678
G1 X115.870 Y96.671 E0.81118
G1 X115.870 Y96.137 E0.01678
G1 X134.130 Y114.397 E0.81118
G1 X134.130 Y113.863 E0.01678
G1 X115.870 Y95.603 E0.81118
G1 X115.870 Y95.068 E0.01678
G1 X134.130 Y113.329 E0.81118
G1 X134.130 Y112.795 E0.01678
G1 X115.870 Y94.534 E0.81118
G1 X115.870 Y94.000 E0.01678
G1 X134.130 Y112.260 E0.81118
G1 X134.130 Y111.726 E0.01678
G1 X115.870 Y93.466 E0.81118
G1 X115.870 Y92.931 E0.01678
G1 X134.130 Y111.192 E0.81118
G1 X134.130 Y110.658 E0.01678
G1 X115.870 Y92.397 E0.81118
G1 X115.870 Y91.863 E0.01678
G1 X134.130 Y110.123 E0.81118
G1 X134.130 Y109.589 E0.01678
G1 X115.870 Y91.329 E0.81118
G1 X115.870 Y90.794 E0.01678
G1 X134.130 Y109.055 E0.81118
G1 X134.130 Y108.521 E0.01678
G1 X115.870 Y90.260 E0.81118
G1 X115.870 Y89.726 E0.01678
G1 X134.130 Y107.986 E0.81118
G1 X134.130 Y107.452 E0.01678
G1 X115.870 Y89.192 E0.81118
G1 X115.870 Y88.657 E0.01678
G1 X134.130 Y106.918 E0.81118
G1 X134.130 Y106.384 E0.01678
G1 X115.870 Y88.123 E0.81118
G1 X115.870 Y87.589 E0.01678
G1 X134.130 Y105.849 E0.81118
M73 Q10 S19
M73 P10 R19
G1 X134.130 Y105.315 E0.01678
G1 X115.870 Y87.055 E0.81118
G1 X115.870 Y86.520 E0.01678
G1 X134.130 Y104.781 E0.81118
G1 X134.130 Y104.247 E0.01678
G1 X115.870 Y85.986 E0.81118
G1 X115.870 Y85.452 E0.01678
G1 X134.130 Y103.712 E0.81118
G1 X134.130 Y103.178 E0.01678
G1 X115.870 Y84.918 E0.81118
G1 X115.870 Y84.383 E0.01678
G1 X134.130 Y102.644 E0.81118
G1 X134.130 Y102.109 E0.01678
G1 X115.870 Y83.849 E0.81118
G1 X115.870 Y83.315 E0.01678
G1 X134.130 Y101.575 E0.81118
G1 X134.130 Y101.041 E0.01678
G1 X115.870 Y82.781 E0.81118
G1 X115.870 Y82.246 E0.01678
G1 X134.130 Y100.507 E0.81118
G1 X134.130 Y99.972 E0.01678
G1 X115.870 Y81.712 E0.81118
G1 X115.870 Y81.178 E0.01678
G1 X134.130 Y99.438 E0.81118
G1 X134.130 Y98.904 E0.01678
G1 X115.870 Y80.644 E0.81118
G1 X115.870 Y80.109 E0.01678
G1 X134.130 Y98.370 E0.81118
G1 X134.130 Y97.835 E0.01678
G1 X115.870 Y79.575 E0.81118
G1 X115.870 Y79.041 E0.01678
G1 X134.130 Y97.301 E0.81118
G1 X134.130 Y96.767 E0.01678
G1 X115.870 Y78.507 E0.81118
G1 X115.870 Y77.972 E0.01678
G1 X134.130 Y96.233 E0.81118
G1 X134.130 Y95.698 E0.01678
G1 X115.870 Y77.438 E0.81118
G1 X115.870 Y76.904 E0.01678
G1 X134.130 Y95.164 E0.81118
G1 X134.130 Y94.630 E0.01678
G1 X115.870 Y76.370 E0.81118
G1 X115.870 Y75.835 E0.01678
G1 X134.130 Y94.096 E0.81118
G1 X134.130 Y93.561 E0.01678
G1 X115.870 Y75.301 E0.81118
G1 X115.870 Y74.767 E0.01678
G1 X134.130 Y93.027 E0.81118
G1 X134.130 Y92.493 E0.01678
G1 X115.870 Y74.233 E0.81118
G1 X115.870 Y73.698 E0.01678
G1 X134.130 Y91.959 E0.81118
G1 X134.130 Y91.424 E0.01678
G1 X116.076 Y73.370 E0.80204
G1 X116.610 Y73.370 E0.01678
G1 X134.130 Y90.890 E0.77831
G1 X134.130 Y90.356 E0.01678
G1 X117.144 Y73.370 E0.75458
G1 X117.678 Y73.370 E0.01678
G1 X134.130 Y89.822 E0.73084
G1 X134.130 Y89.287 E0.01678
G1 X118.213 Y73.370 E0.70711
G1 X118.747 Y73.370 E0.01678
G1 X134.130 Y88.753 E0.68338
G1 X134.130 Y88.219 E0.01678
G1 X119.281 Y73.370 E0.65964
G1 X119.815 Y73.370 E0.01678
G1 X134.130 Y87.685 E0.63591
G1 X134.130 Y87.150 E0.01678
G1 X120.350 Y73.370 E0.61218
G1 X120.884 Y73.370 E0.01678
G1 X134.130 Y86.616 E0.58844
G1 X134.130 Y86.082 E0.01678
G1 X121.418 Y73.370 E0.56471
G1 X121.952 Y73.370 E0.01678
G1 X134.130 Y85.548 E0.54098
G1 X134.130 Y85.013 E0.01678
G1 X122.487 Y73.370 E0.51725
G1 X123.021 Y73.370 E0.01678
G1 X134.130 Y84.479 E0.49351
G1 X134.130 Y83.945 E0.01678
G1 X123.555 Y73.370 E0.46978
G1 X124.089 Y73.370 E0.01678
G1 X134.130 Y83.411 E0.44605
G1 X134.130 Y82.876 E0.01678
G1 X124.624 Y73.370 E0.42231
G1 X125.158 Y73.370 E0.01678
G1 X134.130 Y82.342 E0.39858
G1 X134.130 Y81.808 E0.01678
G1 X125.692 Y73.370 E0.37485
G1 X126.226 Y73.370 E0.01678
G1 X134.130 Y81.274 E0.35111
G1 X134.130 Y80.739 E0.01678
G1 X126.761 Y73.370 E0.32738
G1 X127.295 Y73.370 E0.01678
G1 X134.130 Y80.205 E0.30365
G1 X134.130 Y79.671 E0.01678
G1 X127.829 Y73.370 E0.27992
G1 X128.363 Y73.370 E0.01678
G1 X134.130 Y79.137 E0.25618
G1 X134.130 Y78.602 E0.01678
G1 X128.898 Y73.370 E0.23245
G1 X129.432 Y73.370 E0.01678
G1 X134.130 Y78.068 E0.20872
G1 X134.130 Y77.534 E0.01678
G1 X129.966 Y73.370 E0.18498
G1 X130.500 Y73.370 E0.01678
G1 X134.130 Y77.000 E0.16125
G1 X134.130 Y76.465 E0.01678
G1 X131.035 Y73.370 E0.13752
G1 X131.569 Y73.370 E0.01678
G1 X134.130 Y75.931 E0.11378
G1 X134.130 Y75.397 E0.01678
G1 X132.103 Y73.370 E0.09005
G1 X132.637 Y73.370 E0.01678
G1 X134.130 Y74.863 E0.06632
G1 X134.130 Y74.328 E0.01678
G1 X133.172 Y73.370 E0.04258
G1 X133.706 Y73.370 E0.01678
G1 X134.300 Y73.964 E0.02639
M106 S255
;BEFORE_LAYER_CHANGE
G92 E0.0
;0.4


G1 F8640
G1 X133.706 Y73.370 E-0.19399
G1 X133.172 Y73.370 E-0.12336
G1 X134.130 Y74.328 E-0.31303
G1 X134.130 Y74.863 E-0.12336
G1 X134.111 Y74.844 E-0.00626
G1 E-0.04000 F2100.00000
G1 Z0.800 F10800.000
;AFTER_LAYER_CHANGE
;0.4
M104 S210 ; set temperature
G1 X125.000 Y136.868
G1 Z0.400
G1 E0.80000 F2100.00000
M204 S800
G1 F2700
G1 X115.632 Y136.868 E0.31709
G1 X115.632 Y73.132 E2.15738
M73 Q14 S18
M73 P14 R18
G1 X134.368 Y73.132 E0.63419
G1 X134.368 Y136.868 E2.15738
G1 X125.060 Y136.868 E0.31506
M204 S1000
G1 X125.000 Y137.275 F10800.000
M204 S800
G1 F1500
G1 X115.225 Y137.275 E0.33087
G1 X115.225 Y72.725 E2.18494
G1 X134.775 Y72.725 E0.66174
G1 X134.775 Y137.275 E2.18494
G1 X125.060 Y137.275 E0.32884
M204 S1000
G1 X124.664 Y137.058 F10800.000
G1 F8640
G1 X121.769 Y137.275 E-0.76000
G1 E-0.04000 F2100.00000
G1 Z1.000 F10800.000
G1 X133.420 Y136.746
G1 Z0.400
G1 E0.80000 F2100.00000
M204 S1250
G1 F4800
G1 X134.063 Y136.103 E0.03090
G1 X134.063 Y135.525 E0.01964
G1 X133.025 Y136.563 E0.04987
G1 X132.447 Y136.563 E0.01964
G1 X134.063 Y134.947 E0.07764
G1 X134.063 Y134.369 E0.01964
G1 X131.869 Y136.563 E0.10541
G1 X131.291 Y136.563 E0.01964
G1 X134.063 Y133.791 E0.13318
G1 X134.063 Y133.213 E0.01964
G1 X130.713 Y136.563 E0.16096
G1 X130.135 Y136.563 E0.01964
G1 X134.063 Y132.635 E0.18873
G1 X134.063 Y132.057 E0.01964
G1 X129.557 Y136.563 E0.21650
G1 X128.979 Y136.563 E0.01964
G1 X134.063 Y131.479 E0.24427
G1 X134.063 Y130.901 E0.01964
G1 X128.401 Y136.563 E0.27204
G1 X127.824 Y136.563 E0.01964
G1 X134.063 Y130.324 E0.29981
G1 X134.063 Y129.746 E0.01964
G1 X127.246 Y136.563 E0.32759
G1 X126.668 Y136.563 E0.01964
G1 X134.063 Y129.168 E0.35536
G1 X134.063 Y128.590 E0.01964
G1 X126.090 Y136.563 E0.38313
G1 X125.512 Y136.563 E0.01964
G1 X134.063 Y128.012 E0.41090
G1 X134.063 Y127.434 E0.01964
G1 X124.934 Y136.563 E0.43867
G1 X124.356 Y136.563 E0.01964
G1 X134.063 Y126.856 E0.46644
G1 X134.063 Y126.278 E0.01964
G1 X123.778 Y136.563 E0.49421
G1 X123.200 Y136.563 E0.01964
G1 X134.063 Y125.700 E0.52199
G1 X134.063 Y125.122 E0.01964
G1 X122.622 Y136.563 E0.54976
G1 X122.044 Y136.563 E0.01964
G1 X134.063 Y124.544 E0.57753
G1 X134.063 Y123.966 E0.01964
G1 X121.466 Y136.563 E0.60530
G1 X120.889 Y136.563 E0.01964
G1 X134.063 Y123.389 E0.63307
G1 X134.063 Y122.811 E0.01964
G1 X120.311 Y136.563 E0.66084
G1 X119.733 Y136.563 E0.01964
G1 X134.063 Y122.233 E0.68861
G1 X134.063 Y121.655 E0.01964
G1 X119.155 Y136.563 E0.71639
G1 X118.577 Y136.563 E0.01964
G1 X134.063 Y121.077 E0.74416
G1 X134.063 Y120.499 E0.01964
G1 X117.999 Y136.563 E0.77193
G1 X117.421 Y136.563 E0.01964
G1 X134.063 Y119.921 E0.79970
G1 X134.063 Y119.343 E0.01964
G1 X116.843 Y136.563 E0.82747
G1 X116.265 Y136.563 E0.01964
G1 X134.063 Y118.765 E0.85524
G1 X134.063 Y118.187 E0.01964
G1 X115.937 Y136.312 E0.87099
G1 X115.937 Y135.735 E0.01964
G1 X134.063 Y117.609 E0.87099
G1 X134.063 Y117.031 E0.01964
G1 X115.937 Y135.157 E0.87099
G1 X115.937 Y134.579 E0.01964
G1 X134.063 Y116.453 E0.87099
G1 X134.063 Y115.876 E0.01964
G1 X115.937 Y134.001 E0.87099
G1 X115.937 Y133.423 E0.01964
G1 X134.063 Y115.298 E0.87099
G1 X134.063 Y114.720 E0.01964
G1 X115.937 Y132.845 E0.87099
G1 X115.937 Y132.267 E0.01964
G1 X134.063 Y114.142 E0.87099
G1 X134.063 Y113.564 E0.01964
G1 X115.937 Y131.689 E0.87099
G1 X115.937 Y131.111 E0.01964
G1 X134.063 Y112.986 E0.87099
G1 X134.063 Y112.408 E0.01964
G1 X115.937 Y130.533 E0.87099
G1 X115.937 Y129.955 E0.01964
G1 X134.063 Y111.830 E0.87099
G1 X134.063 Y111.252 E0.01964
G1 X115.937 Y129.377 E0.87099
G1 X115.937 Y128.800 E0.01964
G1 X134.063 Y110.674 E0.87099
G1 X134.063 Y110.096 E0.01964
G1 X115.937 Y128.222 E0.87099
G1 X115.937 Y127.644 E0.01964
G1 X134.063 Y109.518 E0.87099
G1 X134.063 Y108.941 E0.01964
G1 X115.937 Y127.066 E0.87099
G1 X115.937 Y126.488 E0.01964
G1 X134.063 Y108.363 E0.87099
G1 X134.063 Y107.785 E0.01964
G1 X115.937 Y125.910 E0.87099
G1 X115.937 Y125.332 E0.01964
G1 X134.063 Y107.207 E0.87099
G1 X134.063 Y106.629 E0.01964
G1 X115.937 Y124.754 E0.87099
G1 X115.937 Y124.176 E0.01964
G1 X134.063 Y106.051 E0.87099
G1 X134.063 Y105.473 E0.01964
G1 X115.937 Y123.598 E0.87099
G1 X115.937 Y123.020 E0.01964
G1 X134.063 Y104.895 E0.87099
G1 X134.063 Y104.317 E0.01964
G1 X115.937 Y122.442 E0.87099
G1 X115.937 Y121.864 E0.01964
G1 X134.063 Y103.739 E0.87099
G1 X134.063 Y103.161 E0.01964
G1 X115.937 Y121.287 E0.87099
G1 X115.937 Y120.709 E0.01964
G1 X134.063 Y102.583 E0.87099
G1 X134.063 Y102.005 E0.01964
G1 X115.937 Y120.131 E0.87099
G1 X115.937 Y119.553 E0.01964
G1 X134.063 Y101.428 E0.87099
G1 X134.063 Y100.850 E0.01964
G1 X115.937 Y118.975 E0.87099
G1 X115.937 Y118.397 E0.01964
G1 X134.063 Y100.272 E0.87099
G1 X134.063 Y99.694 E0.01964
G1 X115.937 Y117.819 E0.87099
G1 X115.937 Y117.241 E0.01964
G1 X134.063 Y99.116 E0.87099
G1 X134.063 Y98.538 E0.01964
G1 X115.937 Y116.663 E0.87099
G1 X115.937 Y116.085 E0.01964
G1 X134.063 Y97.960 E0.87099
G1 X134.063 Y97.382 E0.01964
