; generated by PrusaSlicer 2.5.0-rc2+win64 on 2022-09-23 at 16:59:35 UTC

; 

; external perimeters extrusion width = 0.45mm
; perimeters extrusion width = 0.45mm
; infill extrusion width = 0.45mm
; solid infill extrusion width = 0.45mm
; top infill extrusion width = 0.40mm
; first layer extrusion width = 0.42mm

M73 P0 R5
M73 C4
M73 Q0 S5
M73 D4
M107
;TYPE:Custom
M862.3 P "MK3S" ; printer model check
M862.1 P0.4 ; nozzle diameter check
G90 ; use absolute coordinates
M83 ; extruder relative mode
M104 S215 ; set extruder temp
M140 S60 ; set bed temp
M190 S60 ; wait for bed temp
M109 S215 ; wait for extruder temp
G28 W ; home all without mesh bed level
G80 ; mesh bed leveling
G1 Y-3.0 F1000.0 ; go outside print area
G92 E0.0
G1 X60.0 E9.0 F1000.0 ; intro line
G1 X100.0 E12.5 F1000.0 ; intro line
G92 E0.0
M221 S95

; Don't change E values below. Excessive value can damage the printer.
M907 E430 ; set extruder motor current
G21 ; set units to millimeters
G90 ; use absolute coordinates
M83 ; use relative distances for extrusion
M900 K0.05 ; Filament gcode LA 1.5
M900 K30 ; Filament gcode LA 1.0
M107
;LAYER_CHANGE
;Z:0.2
;HEIGHT:0.2
;BEFORE_LAYER_CHANGE
G92 E0.0
;0.2


M73 P1 R5
M73 Q1 S5
G1 E-.8 F2100
G1 Z.4 F720
;AFTER_LAYER_CHANGE
;0.2
G1 X115.35 Y83.999 F10800
M73 P2 R5
G1 Z.2 F720
M73 C3
M73 Q2 S5
G1 E.8 F2100
M204 S800
;TYPE:Skirt/Brim
;WIDTH:0.42
G1 F1200
G1 X116.416 Y82.986 E.04612
G1 X117.712 Y82.662 E.04186
G1 X132.288 Y82.662 E.45705
G1 X133.706 Y83.055 E.04612
M73 D3
G1 X134.719 Y84.121 E.04612
G1 X135.043 Y85.416 E.04186
G1 X135.043 Y124.74 E1.23298
G1 X134.65 Y126.158 E.04612
M73 P3 R5
M73 Q3 S5
G1 X133.584 Y127.171 E.04612
G1 X132.288 Y127.494 E.04186
G1 X117.712 Y127.494 E.45705
G1 X116.294 Y127.102 E.04612
G1 X115.281 Y126.035 E.04612
G1 X114.957 Y124.74 E.04186
G1 X114.957 Y85.416 E1.23298
G1 X115.334 Y84.057 E.04424
M204 S1000
M73 P4 R5
M73 Q4 S5
G1 X115.708 Y84.169 F10800
M204 S800
G1 F1200
G1 X115.726 Y84.109 E.00195
G1 X116.772 Y83.233 E.04278
G1 X117.712 Y83.039 E.03008
M73 P4 R4
G1 X132.288 Y83.039 E.45705
G1 X133.595 Y83.431 E.04278
G1 X134.472 Y84.477 E.04278
G1 X134.666 Y85.416 E.03008
G1 X134.666 Y124.74 E1.23298
M73 Q4 S4
G1 X134.274 Y126.047 E.04278
M73 P5 R4
M73 Q5 S4
G1 X133.228 Y126.924 E.04278
G1 X132.288 Y127.117 E.03008
G1 X117.712 Y127.117 E.45705
G1 X116.405 Y126.726 E.04278
G1 X115.528 Y125.68 E.04278
G1 X115.334 Y124.74 E.03008
G1 X115.334 Y85.416 E1.23298
G1 X115.691 Y84.226 E.03895
M204 S1000
; printing object Door.stl id:0 copy 0
;WIPE_START
M73 P6 R4
M73 Q6 S4
G1 F8640
G1 X115.726 Y84.109 E-.0282
G1 X116.772 Y83.233 E-.31505
G1 X117.712 Y83.039 E-.22155
G1 X118.557 Y83.039 E-.1952
;WIPE_END
G1 E-.04 F2100
G1 Z.6 F720
G1 X118.601 Y92.972 F10800
G1 Z.2 F720
G1 E.8 F2100
M204 S800
;TYPE:Perimeter
;WIDTH:0.623882
G1 F1200
G1 X118.972 Y93.438 E.02879
;WIDTH:0.584977
G1 X119.115 Y93.448 E.00646
;WIDTH:0.537733
G1 X119.258 Y93.458 E.0059
;WIDTH:0.490489
G1 X130.742 Y93.458 E.42738
;WIDTH:0.537736
G1 X130.885 Y93.448 E.0059
;WIDTH:0.584982
G1 X131.028 Y93.438 E.00647
;WIDTH:0.623878
G1 X131.399 Y92.972 E.02879
G1 X131.419 Y93.681 E.03428
;WIDTH:0.613812
G1 X131.404 Y94.506 E.03915
G1 X131.028 Y93.925 E.03288
;WIDTH:0.584982
G1 X130.885 Y93.915 E.00647
;WIDTH:0.537736
G1 X130.742 Y93.905 E.0059
;WIDTH:0.49049
G1 X119.258 Y93.905 E.42738
;WIDTH:0.537733
G1 X119.115 Y93.915 E.0059
;WIDTH:0.584977
G1 X118.972 Y93.925 E.00647
;WIDTH:0.613782
G1 X118.596 Y94.506 E.03288
G1 X118.581 Y93.681 E.03915
;WIDTH:0.623882
G1 X118.599 Y93.032 E.03138
M204 S1000
;WIPE_START
G1 F8640
G1 X118.972 Y93.438 E-.12732
G1 X119.115 Y93.448 E-.03312
G1 X119.258 Y93.458 E-.03312
G1 X121.711 Y93.458 E-.56645
;WIPE_END
G1 E-.04 F2100
G1 Z.6 F720
G1 X118.906 Y99.493 F10800
M73 Q7 S4
G1 Z.2 F720
G1 E.8 F2100
M204 S800
;WIDTH:0.448446
M73 P7 R4
G1 F1200
G1 X118.897 Y99.632 E.0047
;WIDTH:0.436182
G1 X118.837 Y100.137 E.01664
;WIDTH:0.420942
G1 X118.873 Y100.426 E.00914
;WIDTH:0.447973
G1 X118.908 Y100.714 E.00979
G1 X118.897 Y100.907 E.0065
;WIDTH:0.436182
G1 X118.842 Y101.51 E.01981
;WIDTH:0.448353
G1 X118.937 Y102.052 E.01852
G1 X118.905 Y102.132 E.00291
;WIDTH:0.444512
G1 X118.843 Y102.535 E.01363
;WIDTH:0.400472
G1 X118.78 Y102.939 E.01214
;WIDTH:0.404238
G1 X118.752 Y103.004 E.00213
;WIDTH:0.452043
G1 X118.723 Y103.069 E.00241
;WIDTH:0.499848
G1 X118.695 Y103.133 E.00269
;WIDTH:0.547654
G1 X118.667 Y103.198 E.00297
;WIDTH:0.595459
G1 X118.639 Y103.263 E.00325
;WIDTH:0.643264
G1 X118.61 Y103.328 E.00353
G1 X118.586 Y103.261 E.00353
;WIDTH:0.595459
G1 X118.562 Y103.195 E.00325
;WIDTH:0.547654
G1 X118.539 Y103.128 E.00297
;WIDTH:0.499848
G1 X118.515 Y103.062 E.00269
;WIDTH:0.452043
G1 X118.491 Y102.995 E.00241
;WIDTH:0.404238
G1 X118.467 Y102.928 E.00213
;WIDTH:0.374105
G1 X118.476 Y102.607 E.00884
;WIDTH:0.405144
G1 X118.491 Y102.28 E.00987
;WIDTH:0.436182
G1 X118.507 Y100.677 E.0524
G1 X118.488 Y100.008 E.0219
;WIDTH:0.44714
G1 X118.512 Y99.488 E.01749
G1 X118.492 Y99.203 E.00959
;WIDTH:0.407086
G1 X118.472 Y98.919 E.00864
;WIDTH:0.411658
G1 X118.494 Y98.843 E.00241
;WIDTH:0.456284
G1 X118.517 Y98.768 E.0027
;WIDTH:0.500911
G1 X118.539 Y98.693 E.00299
;WIDTH:0.545537
G1 X118.561 Y98.617 E.00329
;WIDTH:0.590164
G1 X118.584 Y98.542 E.00358
;WIDTH:0.63479
G1 X118.606 Y98.466 E.00387
G1 X118.637 Y98.537 E.00381
;WIDTH:0.590164
G1 X118.669 Y98.608 E.00352
;WIDTH:0.545537
G1 X118.7 Y98.679 E.00323
;WIDTH:0.500911
G1 X118.731 Y98.749 E.00294
;WIDTH:0.456284
G1 X118.763 Y98.82 E.00266
;WIDTH:0.411658
G1 X118.794 Y98.891 E.00237
;WIDTH:0.407739
G1 X118.852 Y99.164 E.00847
;WIDTH:0.448446
G1 X118.909 Y99.433 E.00928
M204 S1000
G1 X119.462 Y99.5 F10800
M204 S800
;TYPE:External perimeter
;WIDTH:0.510006
G1 F1200
G1 X123.691 Y99.5 E.16425
;WIDTH:0.532804
G1 X123.794 Y99.511 E.00423
G1 X123.869 Y99.583 E.00423
;WIDTH:0.51
G1 X127.316 Y103.667 E.20755
;WIDTH:0.532804
G1 X127.391 Y103.738 E.00423
G1 X127.494 Y103.75 E.00423
;WIDTH:0.510006
G1 X130.538 Y103.75 E.11824
M204 S1000
;WIPE_START
G1 F8640
G1 X127.494 Y103.75 E-.70294
G1 X127.391 Y103.738 E-.02398
G1 X127.316 Y103.667 E-.02398
G1 X127.29 Y103.637 E-.00911
;WIPE_END
G1 E-.04 F2100
G1 Z.6 F720
G1 X130.558 Y106.3 F10800
G1 Z.2 F720
G1 E.8 F2100
M204 S800
;WIDTH:0.511784
G1 F1200
G1 X130.537 Y106.3 E.00083
;WIDTH:0.51
G1 X126.309 Y106.3 E.16419
;WIDTH:0.51354
G1 X126.158 Y106.247 E.00626
G1 X126.131 Y106.217 E.00159
;WIDTH:0.51
G1 X122.684 Y102.133 E.20755
;WIDTH:0.532804
G1 X122.609 Y102.061 E.00423
G1 X122.506 Y102.05 E.00423
;WIDTH:0.510006
G1 X119.462 Y102.05 E.11824
;WIDTH:0.511786
G1 X119.442 Y102.05 E.00077
M204 S1000
;WIPE_START
G1 F8640
G1 X119.462 Y102.05 E-.00454
G1 X122.506 Y102.05 E-.70294
G1 X122.609 Y102.061 E-.02398
G1 X122.684 Y102.133 E-.02398
G1 X122.697 Y102.148 E-.00457
;WIPE_END
G1 E-.04 F2100
G1 Z.6 F720
G1 X119.441 Y100.775 F10800
G1 Z.2 F720
G1 E.8 F2100
M204 S800
;WIDTH:0.511782
G1 F1200
G1 X119.462 Y100.775 E.0008
;WIDTH:0.51
G1 X123.098 Y100.775 E.14124
;WIDTH:0.532804
G1 X123.202 Y100.786 E.00423
M73 Q8 S4
G1 X123.277 Y100.858 E.00423
;WIDTH:0.509998
G1 X126.723 Y104.942 E.20755
;WIDTH:0.532802
G1 X126.798 Y105.013 E.00423
M73 P8 R4
G1 X126.902 Y105.025 E.00423
;WIDTH:0.509998
G1 X130.538 Y105.025 E.14124
M204 S1000
;WIPE_START
G1 F8640
G1 X127.247 Y105.025 E-.76
;WIPE_END
G1 E-.04 F2100
G1 Z.6 F720
G1 X131.206 Y103.105 F10800
G1 Z.2 F720
G1 E.8 F2100
M204 S800
;TYPE:Perimeter
;WIDTH:0.411857
G1 F1200
G1 X131.237 Y103.031 E.00246
;WIDTH:0.45671
G1 X131.269 Y102.957 E.00276
;WIDTH:0.501564
G1 X131.3 Y102.883 E.00306
;WIDTH:0.546417
G1 X131.331 Y102.809 E.00336
;WIDTH:0.591271
G1 X131.362 Y102.735 E.00366
;WIDTH:0.636124
G1 X131.393 Y102.661 E.00396
G1 X131.416 Y102.727 E.00347
;WIDTH:0.590476
G1 X131.439 Y102.794 E.0032
;WIDTH:0.544827
G1 X131.462 Y102.861 E.00294
;WIDTH:0.499178
G1 X131.485 Y102.927 E.00267
;WIDTH:0.45353
G1 X131.507 Y102.994 E.0024
;WIDTH:0.407881
G1 X131.53 Y103.06 E.00214
;WIDTH:0.374354
G1 X131.524 Y103.199 E.00384
;WIDTH:0.405268
G1 X131.509 Y103.523 E.00977
;WIDTH:0.436182
G1 X131.493 Y105.122 E.05229
G1 X131.512 Y105.792 E.0219
;WIDTH:0.444203
G1 X131.489 Y106.332 E.01802
G1 X131.511 Y106.76 E.01431
;WIDTH:0.400274
G1 X131.533 Y107.188 E.01275
;WIDTH:0.404183
G1 X131.509 Y107.255 E.00213
;WIDTH:0.452021
G1 X131.485 Y107.322 E.00241
;WIDTH:0.499859
G1 X131.461 Y107.388 E.00269
;WIDTH:0.547698
G1 X131.438 Y107.455 E.00297
;WIDTH:0.595536
G1 X131.414 Y107.522 E.00325
;WIDTH:0.643374
G1 X131.39 Y107.588 E.00353
G1 X131.361 Y107.523 E.00353
;WIDTH:0.595536
G1 X131.333 Y107.458 E.00325
;WIDTH:0.547698
G1 X131.305 Y107.393 E.00297
;WIDTH:0.499859
G1 X131.277 Y107.329 E.00269
;WIDTH:0.452021
G1 X131.248 Y107.264 E.00241
;WIDTH:0.404183
G1 X131.22 Y107.199 E.00213
;WIDTH:0.373841
G1 X131.199 Y106.908 E.00803
;WIDTH:0.411091
G1 X131.145 Y106.635 E.00851
;WIDTH:0.448341
G1 X131.091 Y106.362 E.00937
G1 X131.103 Y106.168 E.00657
;WIDTH:0.436182
G1 X131.163 Y105.662 E.01664
;WIDTH:0.420941
G1 X131.127 Y105.374 E.00914
;WIDTH:0.447973
G1 X131.092 Y105.085 E.00979
G1 X131.103 Y104.893 E.0065
;WIDTH:0.436182
G1 X131.158 Y104.289 E.01981
;WIDTH:0.448364
G1 X131.063 Y103.748 E.01852
G1 X131.094 Y103.669 E.00286
;WIDTH:0.444806
G1 X131.15 Y103.387 E.00961
;WIDTH:0.405905
G1 X131.195 Y103.164 E.00687
M204 S1000
;WIPE_START
G1 F8640
G1 X131.237 Y103.031 E-.03224
G1 X131.269 Y102.957 E-.01855
G1 X131.3 Y102.883 E-.01855
G1 X131.331 Y102.809 E-.01855
G1 X131.362 Y102.735 E-.01855
G1 X131.393 Y102.661 E-.01855
G1 X131.416 Y102.727 E-.01625
G1 X131.439 Y102.794 E-.01625
G1 X131.462 Y102.861 E-.01625
G1 X131.485 Y102.927 E-.01625
G1 X131.507 Y102.994 E-.01625
G1 X131.53 Y103.06 E-.01625
G1 X131.524 Y103.199 E-.03214
G1 X131.509 Y103.523 E-.07491
G1 X131.493 Y105.122 E-.36924
G1 X131.5 Y105.388 E-.06126
;WIPE_END
G1 E-.04 F2100
G1 Z.6 F720
G1 X131.399 Y123.309 F10800
G1 Z.2 F720
G1 E.8 F2100
M204 S800
;WIDTH:0.623878
G1 F1200
G1 X131.422 Y123.417 E.00535
;WIDTH:0.578422
G1 X131.445 Y123.526 E.00493
;WIDTH:0.532966
G1 X131.468 Y123.634 E.00451
;WIDTH:0.48751
G1 X131.49 Y123.743 E.00409
;WIDTH:0.442054
G1 X131.49 Y123.942 E.00662
G1 X131.291 Y123.942 E.00662
;WIDTH:0.487511
G1 X131.182 Y123.919 E.00409
;WIDTH:0.532968
G1 X131.074 Y123.897 E.00451
;WIDTH:0.578425
G1 X130.966 Y123.874 E.00493
;WIDTH:0.623882
G1 X130.857 Y123.851 E.00535
G1 X130.93 Y123.789 E.00464
;WIDTH:0.578425
G1 X131.003 Y123.726 E.00428
;WIDTH:0.532968
G1 X131.077 Y123.664 E.00392
;WIDTH:0.48751
G1 X131.212 Y123.528 E.00709
;WIDTH:0.532966
G1 X131.275 Y123.455 E.00392
;WIDTH:0.578422
G1 X131.337 Y123.382 E.00428
;WIDTH:0.623878
G1 X131.36 Y123.355 E.00175
M204 S1000
;WIPE_START
G1 F8640
G1 X131.422 Y123.417 E-.02032
G1 X131.445 Y123.526 E-.02557
G1 X131.468 Y123.634 E-.02557
G1 X131.49 Y123.743 E-.02557
G1 X131.49 Y123.942 E-.04608
G1 X131.291 Y123.942 E-.04608
G1 X131.182 Y123.919 E-.02557
G1 X131.074 Y123.897 E-.02557
G1 X130.966 Y123.874 E-.02557
G1 X130.857 Y123.851 E-.02557
G1 X130.93 Y123.789 E-.0222
G1 X131.003 Y123.726 E-.0222
G1 X131.077 Y123.664 E-.0222
G1 X131.212 Y123.528 E-.04426
G1 X131.275 Y123.455 E-.0222
G1 X131.337 Y123.382 E-.0222
G1 X131.36 Y123.355 E-.00835
;WIPE_END
G1 E-.34493 F2100
G1 Z.6 F720
G1 X118.601 Y123.309 F10800
G1 Z.2 F720
G1 E.8 F2100
M204 S800
;WIDTH:0.623882
G1 F1200
G1 X118.663 Y123.382 E.00464
;WIDTH:0.578425
G1 X118.725 Y123.455 E.00428
;WIDTH:0.532968
G1 X118.788 Y123.528 E.00392
;WIDTH:0.487511
G1 X118.85 Y123.601 E.00355
;WIDTH:0.485001
G1 X118.952 Y123.665 E.00442
;WIDTH:0.527948
G1 X119.054 Y123.729 E.00485
;WIDTH:0.570895
G1 X119.156 Y123.793 E.00528
;WIDTH:0.613842
G1 X119.258 Y123.856 E.00571
G1 X119.071 Y123.878 E.00894
;WIDTH:0.570895
G1 X118.884 Y123.899 E.00827
;WIDTH:0.527948
G1 X118.697 Y123.921 E.0076
;WIDTH:0.485001
G1 X118.51 Y123.942 E.00692
;WIDTH:0.442054
G1 X118.51 Y123.743 E.00662
;WIDTH:0.487511
G1 X118.532 Y123.634 E.00409
;WIDTH:0.532968
G1 X118.555 Y123.526 E.00451
;WIDTH:0.578425
G1 X118.578 Y123.417 E.00493
;WIDTH:0.623882
G1 X118.588 Y123.368 E.00245
M204 S1000
;WIPE_START
G1 F8640
G1 X118.663 Y123.382 E-.01758
G1 X118.725 Y123.455 E-.0222
G1 X118.788 Y123.528 E-.0222
G1 X118.85 Y123.601 E-.0222
G1 X118.952 Y123.665 E-.02776
G1 X119.054 Y123.729 E-.02776
G1 X119.156 Y123.793 E-.02776
G1 X119.258 Y123.856 E-.02776
G1 X119.071 Y123.878 E-.04349
G1 X118.884 Y123.899 E-.04349
G1 X118.697 Y123.921 E-.04349
G1 X118.51 Y123.942 E-.04349
G1 X118.51 Y123.743 E-.04608
G1 X118.532 Y123.634 E-.02557
G1 X118.555 Y123.526 E-.02557
G1 X118.578 Y123.417 E-.02557
G1 X118.588 Y123.368 E-.01172
;WIPE_END
G1 E-.29635 F2100
G1 Z.6 F720
G1 X119.456 Y99.504 F10800
G1 Z.2 F720
M73 Q9 S4
G1 E.8 F2100
M204 S800
;TYPE:External perimeter
;WIDTH:0.510006
M73 P9 R4
G1 F1200
G1 X119.372 Y99.41 E.00491
;WIDTH:0.465003
G1 X119.283 Y99.32 E.00445
;WIDTH:0.419999
G1 X119.139 Y98.83 E.016
G1 X119.08 Y98.343 E.01537
G1 X119.07 Y94.506 E.12031
G1 X119.213 Y94.323 E.00729
G1 X130.742 Y94.318 E.36148
G1 X130.825 Y94.337 E.00268
G1 X130.93 Y94.506 E.00625
G1 X130.92 Y102.522 E.25133
G1 X130.863 Y103.033 E.01612
G1 X130.719 Y103.566 E.01731
;WIDTH:0.465003
G1 X130.629 Y103.658 E.00452
;WIDTH:0.510006
G1 X130.538 Y103.75 E.005
G1 X130.628 Y103.838 E.00489
;WIDTH:0.465003
G1 X130.718 Y103.927 E.00442
;WIDTH:0.419999
G1 X130.796 Y104.421 E.01569
;WIDTH:0.426023
G1 X130.701 Y104.893 E.01535
;WIDTH:0.468011
G1 X130.62 Y104.959 E.0037
;WIDTH:0.509998
G1 X130.538 Y105.025 E.00406
G1 X130.628 Y105.113 E.0049
;WIDTH:0.464999
G1 X130.718 Y105.202 E.00443
;WIDTH:0.419999
G1 X130.796 Y105.696 E.01567
;WIDTH:0.4307
G1 X130.702 Y106.17 E.01558
;WIDTH:0.471242
G1 X130.63 Y106.235 E.00346
;WIDTH:0.511784
G1 X130.558 Y106.3 E.00379
G1 X130.639 Y106.392 E.00477
;WIDTH:0.465892
G1 X130.719 Y106.485 E.00431
;WIDTH:0.419999
G1 X130.857 Y106.999 E.01672
G1 X130.93 Y108.047 E.03293
G1 X130.93 Y123.194 E.47491
G1 X130.875 Y123.327 E.00452
G1 X130.742 Y123.382 E.00452
G1 X119.258 Y123.382 E.36007
G1 X119.125 Y123.327 E.00452
M73 Q10 S4
G1 X119.07 Y123.194 E.00452
G1 X119.07 Y103.781 E.60867
G1 X119.143 Y102.744 E.03261
M73 P10 R4
G1 X119.281 Y102.234 E.01655
;WIDTH:0.465893
G1 X119.362 Y102.142 E.0043
;WIDTH:0.511786
G1 X119.442 Y102.05 E.00476
G1 X119.362 Y101.962 E.00465
;WIDTH:0.465893
G1 X119.282 Y101.873 E.00419
;WIDTH:0.419999
G1 X119.204 Y101.379 E.01569
;WIDTH:0.43083
G1 X119.297 Y100.906 E.01557
;WIDTH:0.471306
G1 X119.369 Y100.84 E.00346
;WIDTH:0.511782
G1 X119.441 Y100.775 E.00379
G1 X119.361 Y100.686 E.00465
;WIDTH:0.465891
G1 X119.282 Y100.598 E.00419
;WIDTH:0.419999
G1 X119.204 Y100.104 E.01567
;WIDTH:0.426076
G1 X119.3 Y99.631 E.01537
;WIDTH:0.468041
G1 X119.381 Y99.566 E.00369
;WIDTH:0.510006
G1 X119.41 Y99.542 E.00146
M204 S1000
;WIPE_START
G1 F8640
G1 X119.372 Y99.41 E-.03171
G1 X119.283 Y99.32 E-.0293
G1 X119.139 Y98.83 E-.11784
G1 X119.08 Y98.343 E-.11322
G1 X119.075 Y96.317 E-.46792
;WIPE_END
G1 E-.04 F2100
G1 Z.6 F720
G1 X131.404 Y94.506 F10800
G1 Z.2 F720
G1 E.8 F2100
M204 S800
;TYPE:Perimeter
;WIDTH:0.613812
G1 F1200
G1 X131.404 Y94.507 E.00004
;WIDTH:0.624644
G1 X131.399 Y102.523 E.38773
;WIDTH:0.636124
G1 X131.393 Y102.661 E.00682
M204 S1000
;WIPE_START
G1 F8640
G1 X131.399 Y102.523 E-.0319
G1 X131.401 Y99.37 E-.7281
;WIPE_END
G1 E-.04 F2100
G1 Z.6 F720
G1 X131.39 Y107.588 F10800
G1 Z.2 F720
G1 E.8 F2100
M204 S800
;WIDTH:0.643374
G1 F1200
G1 X131.404 Y108.047 E.02293
;WIDTH:0.614516
G1 X131.404 Y123.194 E.71989
;WIDTH:0.623878
G1 X131.399 Y123.309 E.00558
M204 S1000
M73 P11 R4
M73 Q11 S4
G1 X130.857 Y123.851 F10800
M204 S800
;WIDTH:0.623882
G1 F1200
G1 X130.742 Y123.856 E.00558
;WIDTH:0.613842
G1 X119.258 Y123.856 E.54516
M204 S1000
G1 X118.601 Y123.309 F10800
M204 S800
;WIDTH:0.623882
G1 F1200
G1 X118.596 Y123.194 E.00558
;WIDTH:0.614516
G1 X118.596 Y103.781 E.92266
;WIDTH:0.643264
G1 X118.61 Y103.328 E.02261
M204 S1000
;WIPE_START
G1 F8640
G1 X118.596 Y103.781 E-.1046
G1 X118.596 Y106.619 E-.6554
;WIPE_END
G1 E-.04 F2100
G1 Z.6 F720
G1 X118.606 Y98.466 F10800
G1 Z.2 F720
G1 E.8 F2100
M204 S800
;WIDTH:0.63479
G1 F1200
