; generated by PrusaSlicer 2.5.0-rc2+win64 on 2022-09-22 at 15:54:25 UTC

; 

; external perimeters extrusion width = 0.45mm
; perimeters extrusion width = 0.45mm
; infill extrusion width = 0.45mm
; solid infill extrusion width = 0.45mm
; top infill extrusion width = 0.40mm
; first layer extrusion width = 0.42mm

M73 P0 R15
M73 C11
M73 Q0 S15
M73 D11
M107
;TYPE:Custom
M862.3 P "MK3S" ; printer model check
M862.1 P0.4 ; nozzle diameter check
G90 ; use absolute coordinates
M83 ; extruder relative mode
M104 S190 ; set extruder temp
M140 S60 ; set bed temp
M190 S60 ; wait for bed temp
M109 S190 ; wait for extruder temp
G28 W ; home all without mesh bed level
G80 ; mesh bed leveling
G1 Y-3.0 F1000.0 ; go outside print area
G92 E0.0
G1 X60.0 E9.0 F1000.0 ; intro line
G1 X100.0 E12.5 F1000.0 ; intro line
G92 E0.0
M221 S95

; Don't change E values below. Excessive value can damage the printer.
M907 E430 ; set extruder motor current
G21 ; set units to millimeters
G90 ; use absolute coordinates
M83 ; use relative distances for extrusion
M900 K0.05 ; Filament gcode LA 1.5
M900 K30 ; Filament gcode LA 1.0
M107
;LAYER_CHANGE
;Z:0.2
;HEIGHT:0.2
;BEFORE_LAYER_CHANGE
G92 E0.0
;0.2


G1 E-.8 F2100
G1 Z.4 F720
;AFTER_LAYER_CHANGE
;0.2
G1 X88.381 Y80.67 F10800
G1 Z.2 F720
G1 E.8 F2100
M204 S800
;TYPE:Skirt/Brim
;WIDTH:0.42
G1 F1200
G1 X89.427 Y79.793 E.04278
G1 X90.367 Y79.6 E.03008
G1 X159.633 Y79.6 E2.1718
G1 X160.94 Y79.991 E.04278
M73 P1 R15
M73 Q1 S15
G1 X161.817 Y81.037 E.04278
G1 X162.01 Y81.977 E.03008
G1 X162.01 Y128.023 E1.44376
G1 X161.619 Y129.33 E.04278
G1 X160.573 Y130.207 E.04278
G1 X159.633 Y130.4 E.03008
G1 X90.367 Y130.4 E2.1718
G1 X89.06 Y130.009 E.04278
G1 X88.183 Y128.963 E.04278
G1 X87.99 Y128.023 E.03008
G1 X87.99 Y81.977 E1.44376
G1 X88.364 Y80.727 E.0409
M204 S1000
; printing object Windows.stl id:0 copy 0
;WIPE_START
M73 P2 R15
M73 C10
M73 Q2 S15
M73 D10
G1 F8640
G1 X89.427 Y79.793 E-.32671
G1 X90.367 Y79.6 E-.22155
G1 X91.284 Y79.6 E-.21174
;WIPE_END
G1 E-.04 F2100
G1 Z.6 F720
G1 X158.846 Y127.236 F10800
G1 Z.2 F720
G1 E.8 F2100
M204 S800
;TYPE:Perimeter
;WIDTH:0.419999
G1 F1200
G1 X91.154 Y127.236 E2.12244
G1 X91.154 Y82.764 E1.3944
G1 X158.846 Y82.764 E2.12244
G1 X158.846 Y127.176 E1.39252
M204 S1000
M73 P3 R15
M73 Q3 S15
G1 X159.223 Y127.613 F10800
M204 S800
;TYPE:External perimeter
G1 F1200
G1 X90.777 Y127.613 E2.14609
G1 X90.777 Y82.387 E1.41805
G1 X159.223 Y82.387 E2.14609
G1 X159.223 Y127.553 E1.41617
M204 S1000
M73 P4 R15
M73 Q4 S15
G1 X158.831 Y127.536 F10800
;WIPE_START
G1 F8640
G1 X155.932 Y127.556 E-.76
;WIPE_END
G1 E-.04 F2100
G1 Z.6 F720
G1 X157.968 Y82.877 F10800
G1 Z.2 F720
G1 E.8 F2100
M204 S800
;TYPE:Solid infill
;WIDTH:0.42113
G1 F1200
G1 X158.563 Y83.472 E.02646
G1 X158.563 Y84.007 E.01682
G1 X157.603 Y83.047 E.0427
G1 X157.068 Y83.047 E.01682
G1 X158.563 Y84.542 E.06649
G1 X158.563 Y85.076 E.01682
G1 X156.533 Y83.047 E.09028
G1 X155.999 Y83.047 E.01682
G1 X158.563 Y85.611 E.11407
G1 X158.563 Y86.146 E.01682
G1 X155.464 Y83.047 E.13786
G1 X154.929 Y83.047 E.01682
G1 X158.563 Y86.681 E.16164
G1 X158.563 Y87.216 E.01682
M73 P4 R14
G1 X154.394 Y83.047 E.18543
G1 X153.859 Y83.047 E.01682
G1 X158.563 Y87.751 E.20922
G1 X158.563 Y88.286 E.01682
G1 X153.324 Y83.047 E.23301
G1 X152.789 Y83.047 E.01682
G1 X158.563 Y88.821 E.2568
G1 X158.563 Y89.355 E.01682
G1 X152.255 Y83.047 E.28058
G1 X151.72 Y83.047 E.01682
M73 Q5 S14
G1 X158.563 Y89.89 E.30437
G1 X158.563 Y90.425 E.01682
M73 P5 R14
G1 X151.185 Y83.047 E.32816
G1 X150.65 Y83.047 E.01682
G1 X158.563 Y90.96 E.35195
G1 X158.563 Y91.495 E.01682
G1 X150.115 Y83.047 E.37574
G1 X149.58 Y83.047 E.01682
G1 X158.563 Y92.03 E.39952
G1 X158.563 Y92.565 E.01682
G1 X149.045 Y83.047 E.42331
G1 X148.51 Y83.047 E.01682
G1 X158.563 Y93.099 E.4471
G1 X158.563 Y93.634 E.01682
G1 X147.976 Y83.047 E.47089
G1 X147.441 Y83.047 E.01682
G1 X158.563 Y94.169 E.49468
G1 X158.563 Y94.704 E.01682
G1 X146.906 Y83.047 E.51847
G1 X146.371 Y83.047 E.01682
G1 X158.563 Y95.239 E.54225
G1 X158.563 Y95.774 E.01682
G1 X145.836 Y83.047 E.56604
G1 X145.301 Y83.047 E.01682
G1 X158.563 Y96.309 E.58983
G1 X158.563 Y96.844 E.01682
M73 P6 R14
M73 Q6 S14
G1 X144.766 Y83.047 E.61362
G1 X144.231 Y83.047 E.01682
G1 X158.563 Y97.378 E.63741
G1 X158.563 Y97.913 E.01682
G1 X143.697 Y83.047 E.66119
G1 X143.162 Y83.047 E.01682
G1 X158.563 Y98.448 E.68498
G1 X158.563 Y98.983 E.01682
G1 X142.627 Y83.047 E.70877
G1 X142.092 Y83.047 E.01682
G1 X158.563 Y99.518 E.73256
G1 X158.563 Y100.053 E.01682
G1 X141.557 Y83.047 E.75635
G1 X141.022 Y83.047 E.01682
G1 X158.563 Y100.588 E.78013
G1 X158.563 Y101.123 E.01682
M73 Q7 S14
G1 X140.487 Y83.047 E.80392
G1 X139.953 Y83.047 E.01682
M73 P7 R14
G1 X158.563 Y101.657 E.82771
G1 X158.563 Y102.192 E.01682
G1 X139.418 Y83.047 E.8515
G1 X138.883 Y83.047 E.01682
G1 X158.563 Y102.727 E.87529
G1 X158.563 Y103.262 E.01682
G1 X138.348 Y83.047 E.89908
G1 X137.813 Y83.047 E.01682
G1 X158.563 Y103.797 E.92286
G1 X158.563 Y104.332 E.01682
G1 X137.278 Y83.047 E.94665
G1 X136.743 Y83.047 E.01682
M73 P8 R14
M73 Q8 S14
G1 X158.563 Y104.867 E.97044
G1 X158.563 Y105.402 E.01682
G1 X136.208 Y83.047 E.99423
G1 X135.674 Y83.047 E.01682
M73 C9
M73 D9
G1 X158.563 Y105.936 E1.01802
G1 X158.563 Y106.471 E.01682
G1 X135.139 Y83.047 E1.0418
G1 X134.604 Y83.047 E.01682
G1 X158.563 Y107.006 E1.06559
G1 X158.563 Y107.541 E.01682
G1 X134.069 Y83.047 E1.08938
G1 X133.534 Y83.047 E.01682
M73 P9 R14
M73 Q9 S14
G1 X158.563 Y108.076 E1.11317
G1 X158.563 Y108.611 E.01682
G1 X132.999 Y83.047 E1.13696
G1 X132.464 Y83.047 E.01682
G1 X158.563 Y109.146 E1.16074
G1 X158.563 Y109.68 E.01682
G1 X131.929 Y83.047 E1.18453
G1 X131.395 Y83.047 E.01682
G1 X158.563 Y110.215 E1.20832
G1 X158.563 Y110.75 E.01682
M73 P10 R14
M73 Q10 S14
G1 X130.86 Y83.047 E1.23211
G1 X130.325 Y83.047 E.01682
G1 X158.563 Y111.285 E1.2559
G1 X158.563 Y111.82 E.01682
G1 X129.79 Y83.047 E1.27969
G1 X129.255 Y83.047 E.01682
G1 X158.563 Y112.355 E1.30347
G1 X158.563 Y112.89 E.01682
M73 Q11 S14
G1 X128.72 Y83.047 E1.32726
G1 X128.185 Y83.047 E.01682
M73 P11 R13
G1 X158.563 Y113.425 E1.35105
G1 X158.563 Y113.959 E.01682
M73 Q11 S13
G1 X127.651 Y83.047 E1.37484
G1 X127.116 Y83.047 E.01682
G1 X158.563 Y114.494 E1.39863
G1 X158.563 Y115.029 E.01682
G1 X126.581 Y83.047 E1.42241
G1 X126.046 Y83.047 E.01682
M73 P12 R13
M73 Q12 S13
G1 X158.563 Y115.564 E1.4462
G1 X158.563 Y116.099 E.01682
G1 X125.511 Y83.047 E1.46999
G1 X124.976 Y83.047 E.01682
G1 X158.563 Y116.634 E1.49378
G1 X158.563 Y117.169 E.01682
G1 X124.441 Y83.047 E1.51757
G1 X123.906 Y83.047 E.01682
M73 P13 R13
M73 Q13 S13
G1 X158.563 Y117.704 E1.54135
G1 X158.563 Y118.238 E.01682
G1 X123.372 Y83.047 E1.56514
G1 X122.837 Y83.047 E.01682
G1 X158.563 Y118.773 E1.58893
G1 X158.563 Y119.308 E.01682
G1 X122.302 Y83.047 E1.61272
M73 Q14 S13
G1 X121.767 Y83.047 E.01682
M73 P14 R13
G1 X158.563 Y119.843 E1.63651
G1 X158.563 Y120.378 E.01682
G1 X121.232 Y83.047 E1.66029
G1 X120.697 Y83.047 E.01682
M73 C8
M73 D8
G1 X158.563 Y120.913 E1.68408
G1 X158.563 Y121.448 E.01682
M73 P15 R13
M73 Q15 S13
G1 X120.162 Y83.047 E1.70787
G1 X119.627 Y83.047 E.01682
G1 X158.563 Y121.982 E1.73166
G1 X158.563 Y122.517 E.01682
G1 X119.093 Y83.047 E1.75545
G1 X118.558 Y83.047 E.01682
M73 Q16 S13
G1 X158.563 Y123.052 E1.77924
G1 X158.563 Y123.587 E.01682
M73 P16 R13
G1 X118.023 Y83.047 E1.80302
G1 X117.488 Y83.047 E.01682
G1 X158.563 Y124.122 E1.82681
G1 X158.563 Y124.657 E.01682
G1 X116.953 Y83.047 E1.8506
G1 X116.418 Y83.047 E.01682
M73 P17 R13
M73 Q17 S13
G1 X158.563 Y125.192 E1.87439
G1 X158.563 Y125.727 E.01682
M73 P17 R12
G1 X115.883 Y83.047 E1.89818
G1 X115.348 Y83.047 E.01682
M73 Q17 S12
G1 X158.563 Y126.261 E1.92196
G1 X158.563 Y126.796 E.01682
M73 P18 R12
M73 Q18 S12
G1 X114.814 Y83.047 E1.94575
G1 X114.279 Y83.047 E.01682
G1 X158.186 Y126.953 E1.95274
G1 X157.651 Y126.953 E.01682
G1 X113.744 Y83.047 E1.95274
G1 X113.209 Y83.047 E.01682
M73 P19 R12
M73 Q19 S12
G1 X157.116 Y126.953 E1.95274
G1 X156.581 Y126.953 E.01682
G1 X112.674 Y83.047 E1.95274
G1 X112.139 Y83.047 E.01682
G1 X156.046 Y126.953 E1.95274
G1 X155.511 Y126.953 E.01682
M73 P20 R12
M73 Q20 S12
G1 X111.604 Y83.047 E1.95274
G1 X111.07 Y83.047 E.01682
G1 X154.976 Y126.953 E1.95274
G1 X154.442 Y126.953 E.01682
G1 X110.535 Y83.047 E1.95274
G1 X110 Y83.047 E.01682
M73 P21 R12
M73 C7
M73 Q21 S12
M73 D7
G1 X153.907 Y126.953 E1.95274
G1 X153.372 Y126.953 E.01682
G1 X109.465 Y83.047 E1.95274
G1 X108.93 Y83.047 E.01682
G1 X152.837 Y126.953 E1.95274
G1 X152.302 Y126.953 E.01682
M73 P22 R12
M73 Q22 S12
G1 X108.395 Y83.047 E1.95274
G1 X107.86 Y83.047 E.01682
G1 X151.767 Y126.953 E1.95274
G1 X151.232 Y126.953 E.01682
G1 X107.325 Y83.047 E1.95274
G1 X106.791 Y83.047 E.01682
M73 P23 R12
M73 Q23 S12
G1 X150.697 Y126.953 E1.95274
G1 X150.163 Y126.953 E.01682
G1 X106.256 Y83.047 E1.95274
G1 X105.721 Y83.047 E.01682
M73 P23 R11
G1 X149.628 Y126.953 E1.95274
G1 X149.093 Y126.953 E.01682
M73 P24 R11
M73 Q24 S11
G1 X105.186 Y83.047 E1.95274
G1 X104.651 Y83.047 E.01682
G1 X148.558 Y126.953 E1.95274
G1 X148.023 Y126.953 E.01682
G1 X104.116 Y83.047 E1.95274
G1 X103.581 Y83.047 E.01682
M73 P25 R11
M73 Q25 S11
G1 X147.488 Y126.953 E1.95274
G1 X146.953 Y126.953 E.01682
G1 X103.046 Y83.047 E1.95274
G1 X102.512 Y83.047 E.01682
G1 X146.419 Y126.953 E1.95274
G1 X145.884 Y126.953 E.01682
M73 P26 R11
M73 Q26 S11
G1 X101.977 Y83.047 E1.95274
G1 X101.442 Y83.047 E.01682
G1 X145.349 Y126.953 E1.95274
G1 X144.814 Y126.953 E.01682
G1 X100.907 Y83.047 E1.95274
G1 X100.372 Y83.047 E.01682
M73 P27 R11
M73 Q27 S11
G1 X144.279 Y126.953 E1.95274
G1 X143.744 Y126.953 E.01682
M73 C6
M73 D6
G1 X99.837 Y83.047 E1.95274
G1 X99.302 Y83.047 E.01682
G1 X143.209 Y126.953 E1.95274
G1 X142.674 Y126.953 E.01682
M73 P28 R11
M73 Q28 S11
G1 X98.768 Y83.047 E1.95274
G1 X98.233 Y83.047 E.01682
G1 X142.14 Y126.953 E1.95274
G1 X141.605 Y126.953 E.01682
G1 X97.698 Y83.047 E1.95274
G1 X97.163 Y83.047 E.01682
M73 P29 R11
M73 Q29 S11
G1 X141.07 Y126.953 E1.95274
G1 X140.535 Y126.953 E.01682
G1 X96.628 Y83.047 E1.95274
G1 X96.093 Y83.047 E.01682
G1 X140 Y126.953 E1.95274
G1 X139.465 Y126.953 E.01682
M73 P30 R10
M73 Q30 S11
G1 X95.558 Y83.047 E1.95274
G1 X95.023 Y83.047 E.01682
M73 Q30 S10
G1 X138.93 Y126.953 E1.95274
G1 X138.395 Y126.953 E.01682
G1 X94.489 Y83.047 E1.95274
G1 X93.954 Y83.047 E.01682
M73 P31 R10
M73 Q31 S10
G1 X137.861 Y126.953 E1.95274
G1 X137.326 Y126.953 E.01682
G1 X93.419 Y83.047 E1.95274
G1 X92.884 Y83.047 E.01682
G1 X136.791 Y126.953 E1.95274
G1 X136.256 Y126.953 E.01682
M73 P32 R10
M73 Q32 S10
G1 X92.349 Y83.047 E1.95274
G1 X91.814 Y83.047 E.01682
G1 X135.721 Y126.953 E1.95274
G1 X135.186 Y126.953 E.01682
G1 X91.437 Y83.204 E1.94575
G1 X91.437 Y83.739 E.01682
M73 P33 R10
M73 Q33 S10
G1 X134.651 Y126.953 E1.92196
G1 X134.117 Y126.953 E.01682
G1 X91.437 Y84.274 E1.89817
G1 X91.437 Y84.808 E.01682
M73 C5
M73 D5
G1 X133.582 Y126.953 E1.87438
G1 X133.047 Y126.953 E.01682
M73 P34 R10
M73 Q34 S10
G1 X91.437 Y85.343 E1.8506
G1 X91.437 Y85.878 E.01682
G1 X132.512 Y126.953 E1.82681
G1 X131.977 Y126.953 E.01682
G1 X91.437 Y86.413 E1.80302
G1 X91.437 Y86.948 E.01682
M73 P35 R10
M73 Q35 S10
G1 X131.442 Y126.953 E1.77923
G1 X130.907 Y126.953 E.01682
G1 X91.437 Y87.483 E1.75544
G1 X91.437 Y88.018 E.01682
G1 X130.372 Y126.953 E1.73166
G1 X129.838 Y126.953 E.01682
G1 X91.437 Y88.553 E1.70787
G1 X91.437 Y89.087 E.01682
M73 P36 R10
M73 Q36 S10
G1 X129.303 Y126.953 E1.68408
G1 X128.768 Y126.953 E.01682
M73 P36 R9
G1 X91.437 Y89.622 E1.66029
G1 X91.437 Y90.157 E.01682
M73 Q36 S9
G1 X128.233 Y126.953 E1.6365
G1 X127.698 Y126.953 E.01682
M73 P37 R9
M73 Q37 S9
G1 X91.437 Y90.692 E1.61271
G1 X91.437 Y91.227 E.01682
G1 X127.163 Y126.953 E1.58893
G1 X126.628 Y126.953 E.01682
G1 X91.437 Y91.762 E1.56514
G1 X91.437 Y92.297 E.01682
G1 X126.093 Y126.953 E1.54135
G1 X125.559 Y126.953 E.01682
M73 P38 R9
M73 Q38 S9
G1 X91.437 Y92.831 E1.51756
G1 X91.437 Y93.366 E.01682
G1 X125.024 Y126.953 E1.49377
G1 X124.489 Y126.953 E.01682
G1 X91.437 Y93.901 E1.46999
G1 X91.437 Y94.436 E.01682
G1 X123.954 Y126.953 E1.4462
G1 X123.419 Y126.953 E.01682
M73 P39 R9
M73 Q39 S9
G1 X91.437 Y94.971 E1.42241
G1 X91.437 Y95.506 E.01682
G1 X122.884 Y126.953 E1.39862
G1 X122.349 Y126.953 E.01682
G1 X91.437 Y96.041 E1.37483
G1 X91.437 Y96.576 E.01682
G1 X121.815 Y126.953 E1.35105
G1 X121.28 Y126.953 E.01682
M73 P40 R9
M73 C4
M73 Q40 S9
M73 D4
G1 X91.437 Y97.11 E1.32726
G1 X91.437 Y97.645 E.01682
G1 X120.745 Y126.953 E1.30347
G1 X120.21 Y126.953 E.01682
G1 X91.437 Y98.18 E1.27968
G1 X91.437 Y98.715 E.01682
G1 X119.675 Y126.953 E1.25589
G1 X119.14 Y126.953 E.01682
M73 P41 R9
M73 Q41 S9
G1 X91.437 Y99.25 E1.2321
G1 X91.437 Y99.785 E.01682
G1 X118.605 Y126.953 E1.20832
G1 X118.07 Y126.953 E.01682
G1 X91.437 Y100.32 E1.18453
G1 X91.437 Y100.855 E.01682
G1 X117.536 Y126.953 E1.16074
G1 X117.001 Y126.953 E.01682
G1 X91.437 Y101.389 E1.13695
G1 X91.437 Y101.924 E.01682
M73 P42 R9
M73 Q42 S9
G1 X116.466 Y126.953 E1.11316
G1 X115.931 Y126.953 E.01682
G1 X91.437 Y102.459 E1.08938
G1 X91.437 Y102.994 E.01682
G1 X115.396 Y126.953 E1.06559
G1 X114.861 Y126.953 E.01682
G1 X91.437 Y103.529 E1.0418
G1 X91.437 Y104.064 E.01682
G1 X114.326 Y126.953 E1.01801
G1 X113.791 Y126.953 E.01682
M73 P43 R8
G1 X91.437 Y104.599 E.99422
G1 X91.437 Y105.133 E.01682
M73 Q43 S8
G1 X113.257 Y126.953 E.97044
G1 X112.722 Y126.953 E.01682
G1 X91.437 Y105.668 E.94665
G1 X91.437 Y106.203 E.01682
G1 X112.187 Y126.953 E.92286
G1 X111.652 Y126.953 E.01682
G1 X91.437 Y106.738 E.89907
G1 X91.437 Y107.273 E.01682
G1 X111.117 Y126.953 E.87528
G1 X110.582 Y126.953 E.01682
G1 X91.437 Y107.808 E.85149
G1 X91.437 Y108.343 E.01682
M73 P44 R8
M73 Q44 S8
G1 X110.047 Y126.953 E.82771
G1 X109.513 Y126.953 E.01682
G1 X91.437 Y108.878 E.80392
G1 X91.437 Y109.412 E.01682
G1 X108.978 Y126.953 E.78013
G1 X108.443 Y126.953 E.01682
G1 X91.437 Y109.947 E.75634
G1 X91.437 Y110.482 E.01682
G1 X107.908 Y126.953 E.73255
G1 X107.373 Y126.953 E.01682
G1 X91.437 Y111.017 E.70877
G1 X91.437 Y111.552 E.01682
G1 X106.838 Y126.953 E.68498
G1 X106.303 Y126.953 E.01682
M73 P45 R8
G1 X91.437 Y112.087 E.66119
G1 X91.437 Y112.622 E.01682
M73 Q45 S8
G1 X105.768 Y126.953 E.6374
G1 X105.234 Y126.953 E.01682
G1 X91.437 Y113.157 E.61361
G1 X91.437 Y113.691 E.01682
G1 X104.699 Y126.953 E.58983
G1 X104.164 Y126.953 E.01682
G1 X91.437 Y114.226 E.56604
G1 X91.437 Y114.761 E.01682
G1 X103.629 Y126.953 E.54225
G1 X103.094 Y126.953 E.01682
G1 X91.437 Y115.296 E.51846
G1 X91.437 Y115.831 E.01682
G1 X102.559 Y126.953 E.49467
G1 X102.024 Y126.953 E.01682
G1 X91.437 Y116.366 E.47088
G1 X91.437 Y116.901 E.01682
G1 X101.489 Y126.953 E.4471
G1 X100.955 Y126.953 E.01682
M73 P46 R8
G1 X91.437 Y117.435 E.42331
G1 X91.437 Y117.97 E.01682
M73 Q46 S8
G1 X100.42 Y126.953 E.39952
G1 X99.885 Y126.953 E.01682
G1 X91.437 Y118.505 E.37573
G1 X91.437 Y119.04 E.01682
G1 X99.35 Y126.953 E.35194
G1 X98.815 Y126.953 E.01682
G1 X91.437 Y119.575 E.32816
G1 X91.437 Y120.11 E.01682
M73 C3
G1 X98.28 Y126.953 E.30437
G1 X97.745 Y126.953 E.01682
M73 D3
G1 X91.437 Y120.645 E.28058
G1 X91.437 Y121.18 E.01682
G1 X97.211 Y126.953 E.25679
G1 X96.676 Y126.953 E.01682
G1 X91.437 Y121.714 E.233
G1 X91.437 Y122.249 E.01682
G1 X96.141 Y126.953 E.20922
G1 X95.606 Y126.953 E.01682
G1 X91.437 Y122.784 E.18543
G1 X91.437 Y123.319 E.01682
G1 X95.071 Y126.953 E.16164
G1 X94.536 Y126.953 E.01682
G1 X91.437 Y123.854 E.13785
G1 X91.437 Y124.389 E.01682
G1 X94.001 Y126.953 E.11406
G1 X93.466 Y126.953 E.01682
G1 X91.437 Y124.924 E.09027
G1 X91.437 Y125.459 E.01682
G1 X92.932 Y126.953 E.06649
G1 X92.397 Y126.953 E.01682
G1 X91.437 Y125.993 E.0427
G1 X91.437 Y126.528 E.01682
G1 X92.032 Y127.123 E.02646
M204 S1000
; stop printing object Windows.stl id:0 copy 0
M106 S84.15
;LAYER_CHANGE
;Z:0.35
;HEIGHT:0.15
;BEFORE_LAYER_CHANGE
G92 E0.0
;0.35


;WIPE_START
G1 F8640
G1 X91.437 Y126.528 E-.19426
G1 X91.437 Y125.993 E-.1235
G1 X92.397 Y126.953 E-.31351
G1 X92.932 Y126.953 E-.1235
G1 X92.916 Y126.937 E-.00523
;WIPE_END
G1 E-.04 F2100
G1 Z.6 F720
;AFTER_LAYER_CHANGE
;0.35
