; generated by PrusaSlicer 2.4.2+win64 on 2022-08-23 at 19:01:34 UTC

; 

; external perimeters extrusion width = 0.45mm
; perimeters extrusion width = 0.45mm
; infill extrusion width = 0.45mm
; solid infill extrusion width = 0.45mm
; top infill extrusion width = 0.40mm
; support material extrusion width = 0.35mm
; first layer extrusion width = 0.42mm

; external perimeters extrusion width = 0.45mm
; perimeters extrusion width = 0.45mm
; infill extrusion width = 0.45mm
; solid infill extrusion width = 0.45mm
; top infill extrusion width = 0.40mm
; support material extrusion width = 0.35mm
; first layer extrusion width = 0.42mm

; external perimeters extrusion width = 0.45mm
; perimeters extrusion width = 0.45mm
; infill extrusion width = 0.45mm
; solid infill extrusion width = 0.45mm
; top infill extrusion width = 0.40mm
; support material extrusion width = 0.35mm
; first layer extrusion width = 0.42mm

M73 P0 R161
M73 Q0 S163
M201 X1000 Y1000 Z200 E5000 ; sets maximum accelerations, mm/sec^2
M203 X200 Y200 Z12 E120 ; sets maximum feedrates, mm / sec
M204 P1250 R1250 T1250 ; sets acceleration (P, T) and retract acceleration (R), mm/sec^2
M205 X8.00 Y8.00 Z0.40 E4.50 ; sets the jerk limits, mm/sec
M205 S0 T0 ; sets the minimum extruding and travel feed rate, mm/sec
M107
;TYPE:Custom
M862.3 P "MK3S" ; printer model check
M862.1 P0.4 ; nozzle diameter check
M115 U3.10.1 ; tell printer latest fw version
G90 ; use absolute coordinates
M83 ; extruder relative mode
M104 S215 ; set extruder temp
M140 S60 ; set bed temp
M190 S60 ; wait for bed temp
M109 S215 ; wait for extruder temp
G28 W ; home all without mesh bed level
G80 ; mesh bed leveling
G1 Z0.2 F720
G1 Y-3 F1000 ; go outside print area
G92 E0
G1 X60 E9 F1000 ; intro line
G1 X100 E12.5 F1000 ; intro line
G92 E0
M221 S95

; Don't change E values below. Excessive value can damage the printer.
M907 E430 ; set extruder motor current
G21 ; set units to millimeters
G90 ; use absolute coordinates
M83 ; use relative distances for extrusion
M900 K0.05 ; Filament gcode LA 1.5
M900 K30 ; Filament gcode LA 1.0
M107
;LAYER_CHANGE
;Z:0.2
;HEIGHT:0.2
;BEFORE_LAYER_CHANGE
G92 E0.0
;0.2


G1 E-.8 F2100
G1 Z.4 F720
;AFTER_LAYER_CHANGE
;0.2
G1 X109.189 Y87.257 F10800
G1 Z.2 F720
G1 E.8 F2100
M204 S800
;TYPE:Skirt/Brim
;WIDTH:0.42
G1 F600
G1 X110.397 Y86.252 E.04928
G1 X111.617 Y85.677 E.04227
G1 X112.529 Y85.408 E.02982
G1 X125.774 Y83.638 E.41897
G1 X128.964 Y83.667 E.10003
G1 X139.324 Y85.083 E.32783
G1 X140.465 Y85.474 E.03783
G1 X141.672 Y86.171 E.04369
G1 X142.697 Y87.123 E.04387
G1 X147.251 Y93.83 E.25417
G1 X147.778 Y95.297 E.04889
G1 X152.365 Y144.324 E1.54391
G1 X152.434 Y147.682 E.10531
G1 X152.434 Y157.672 E.31323
G1 X152.04 Y159.192 E.04923
G1 X151.516 Y159.886 E.02726
G1 X143.958 Y167.445 E.33516
G1 X142.605 Y168.241 E.04923
M73 P0 R160
G1 X141.744 Y168.362 E.02726
G1 X115.443 Y168.243 E.82465
G1 X113.891 Y167.824 E.05039
G1 X112.685 Y167.127 E.04369
G1 X111.539 Y165.981 E.05082
G1 X107.709 Y159.348 E.24015
G1 X107.219 Y157.933 E.04694
G1 X107.113 Y157.197 E.02332
G1 X105.622 Y95.223 E1.94371
G1 X105.796 Y93.799 E.045
G1 X106.093 Y92.879 E.0303
G1 X108.273 Y88.576 E.15125
G1 X109.155 Y87.306 E.04848
M204 S1000
G1 X109.464 Y87.521 F10800
M204 S800
G1 F600
G1 X109.495 Y87.477 E.0017
G1 X110.558 Y86.593 E.04335
G1 X111.778 Y86.018 E.04227
G1 X112.58 Y85.781 E.02622
G1 X125.774 Y84.015 E.41738
G1 X128.913 Y84.041 E.09843
G1 X139.273 Y85.457 E.32783
G1 X140.277 Y85.801 E.03327
G1 X141.483 Y86.497 E.04369
G1 X142.385 Y87.335 E.03859
G1 X146.939 Y94.042 E.25417
G1 X147.403 Y95.332 E.043
G1 X151.989 Y144.359 E1.54391
G1 X152.057 Y147.682 E.10421
G1 X152.057 Y157.672 E.31323
G1 X151.25 Y159.619 E.06609
G1 X143.691 Y167.178 E.33516
G1 X141.744 Y167.985 E.06609
G1 X115.445 Y167.866 E.8246
G1 X114.08 Y167.497 E.04432
G1 X112.873 Y166.801 E.04369
G1 X111.865 Y165.792 E.0447
G1 X108.036 Y159.159 E.24015
G1 X107.584 Y157.836 E.04386
G1 X107.49 Y157.188 E.02051
G1 X105.999 Y95.214 E1.94371
G1 X106.169 Y93.858 E.04286
G1 X106.43 Y93.049 E.02665
G1 X108.605 Y88.754 E.15094
G1 X109.43 Y87.571 E.04523
M204 S1000
G1 X109.739 Y87.786 F10800
M204 S800
G1 F600
G1 X109.801 Y87.697 E.00343
G1 X110.719 Y86.934 E.03741
G1 X111.939 Y86.36 E.04227
G1 X112.631 Y86.155 E.02263
G1 X125.774 Y84.393 E.41579
G1 X128.862 Y84.415 E.09683
G1 X139.222 Y85.831 E.32783
G1 X140.088 Y86.127 E.02872
M73 Q0 S162
G1 X141.295 Y86.824 E.04369
G1 X142.073 Y87.547 E.0333
G1 X146.627 Y94.253 E.25417
G1 X147.027 Y95.367 E.03711
G1 X151.614 Y144.394 E1.54391
G1 X151.679 Y157.672 E.41632
G1 X150.983 Y159.353 E.05704
G1 X143.425 Y166.911 E.33516
G1 X141.744 Y167.608 E.05704
G1 X115.446 Y167.489 E.82455
G1 X114.269 Y167.171 E.03825
G1 X113.062 Y166.474 E.04369
G1 X112.192 Y165.604 E.03858
G1 X108.362 Y158.971 E.24015
G1 X107.948 Y157.738 E.04078
G1 X107.867 Y157.179 E.0177
G1 X106.376 Y95.205 E1.94371
G1 X106.541 Y93.917 E.04073
G1 X106.766 Y93.219 E.023
G1 X108.938 Y88.933 E.15064
G1 X109.704 Y87.836 E.04197
M204 S1000
;WIPE_START
G1 F8640
G1 X109.801 Y87.697 E-.03908
G1 X110.719 Y86.934 E-.27552
G1 X111.939 Y86.36 E-.31132
G1 X112.495 Y86.195 E-.13408
;WIPE_END
G1 E-.04 F2100
G1 Z.6 F720
G1 X130.88 Y95.597 F10800
G1 Z.2 F720
G1 E.8 F2100
M204 S800
G1 F600
G1 X134.546 Y89.317 E.22799
G1 X134.862 Y89.035 E.01329
G1 X135.215 Y88.821 E.01293
G1 X135.768 Y88.643 E.01824
G1 X138.524 Y88.63 E.08639
G1 X138.996 Y88.756 E.01534
G1 X139.423 Y88.979 E.01511
G1 X139.998 Y89.547 E.02533
G1 X142.972 Y94.699 E.18652
G1 X143.437 Y94.967 E.01682
M73 P0 R159
G1 X143.858 Y95.421 E.01942
G1 X144.155 Y96.034 E.02133
G1 X144.234 Y96.461 E.01363
G1 X144.234 Y106.211 E.30569
G1 X143.917 Y107.143 E.03088
G1 X143.212 Y108.057 E.03617
G1 X142.603 Y108.515 E.02391
G1 X142.768 Y114.289 E.18112
G1 X142.631 Y114.956 E.02134
G1 X142.196 Y115.68 E.02647
G1 X141.318 Y116.49 E.03748
G1 X140.551 Y117.306 E.0351
G1 X139.854 Y118.174 E.03491
G1 X139.153 Y119.2 E.03896
G1 X139.413 Y119.42 E.01067
G1 X139.67 Y119.173 E.01116
G1 X140.115 Y118.916 E.01612
G1 X140.667 Y118.772 E.0179
G1 X141.224 Y118.776 E.01745
G1 X141.928 Y118.996 E.02313
G1 X142.355 Y119.262 E.0158
G1 X142.777 Y119.734 E.01982
G1 X143.041 Y120.308 E.01982
G1 X143.175 Y121.147 E.02664
G1 X143.209 Y122.28 E.03553
G1 X143.179 Y122.958 E.0213
G1 X143.08 Y123.827 E.02744
G1 X143.083 Y124.63 E.02516
G1 X143.246 Y129.957 E.16711
G1 X143.445 Y130.056 E.00695
G1 X143.719 Y130.275 E.01101
G1 X144.117 Y130.78 E.02015
G1 X144.326 Y131.303 E.01765
G1 X144.433 Y132.158 E.02704
G1 X144.422 Y132.977 E.02565
G1 X144.263 Y133.975 E.03171
G1 X144.241 Y134.301 E.01022
G1 X144.234 Y144.694 E.32589
G1 X143.963 Y145.524 E.02737
G1 X143.721 Y145.859 E.01295
G1 X143.297 Y146.247 E.01801
G1 X142.804 Y146.499 E.01737
G1 X142.463 Y146.595 E.01112
G1 X142.029 Y146.615 E.01364
G1 X141.932 Y156.009 E.29456
G1 X142.812 Y156.149 E.02793
G1 X143.258 Y156.341 E.01524
G1 X143.689 Y156.675 E.01708
G1 X144.022 Y157.107 E.01711
G1 X144.26 Y157.679 E.01943
G1 X144.339 Y158.33 E.02055
G1 X144.261 Y158.826 E.01575
G1 X144.068 Y159.285 E.01562
G1 X143.566 Y159.928 E.02557
G1 X142.946 Y160.467 E.02575
G1 X142.797 Y160.631 E.00695
G1 X142.667 Y160.817 E.00713
G1 X142.068 Y161.921 E.03937
G1 X141.662 Y162.871 E.03238
G1 X141.185 Y163.566 E.02644
G1 X140.633 Y164.027 E.02254
G1 X140.091 Y164.254 E.01843
G1 X139.577 Y164.327 E.01628
G1 X138.645 Y164.27 E.02926
G1 X138.288 Y164.163 E.01168
G1 X137.703 Y163.824 E.02122
G1 X137.272 Y163.357 E.01992
G1 X137.102 Y163.066 E.01057
G1 X136.949 Y162.633 E.0144
G1 X136.915 Y162.315 E.01003
G1 X136.72 Y161.646 E.02184
G1 X136.764 Y159.097 E.07993
G1 X136.792 Y155.076 E.1261
G1 X136.418 Y155.07 E.01174
G1 X136.277 Y161.677 E.20719
G1 X136.074 Y162.313 E.02093
G1 X136.039 Y162.633 E.01011
G1 X135.887 Y163.065 E.01435
G1 X135.694 Y163.387 E.01176
G1 X135.328 Y163.789 E.01706
G1 X134.738 Y164.147 E.02163
G1 X134.343 Y164.27 E.01299
G1 X133.312 Y164.322 E.03236
G1 X132.753 Y164.21 E.01787
G1 X132.214 Y163.939 E.0189
G1 X131.778 Y163.54 E.01853
G1 X131.406 Y163.018 E.02011
G1 X130.929 Y161.941 E.03694
G1 X129.378 Y158.984 E.10468
G1 X129.215 Y158.272 E.02292
G1 X129.223 Y158.035 E.00742
G1 X130.475 Y150.872 E.22799
G1 X131.783 Y108.309 E1.33516
G1 X131.373 Y107.847 E.01937
G1 X131.081 Y107.389 E.01704
G1 X130.84 Y106.817 E.01945
G1 X130.704 Y106.213 E.01942
G1 X130.675 Y105.8 E.01297
G1 X130.676 Y96.358 E.29605
G1 X130.864 Y95.655 E.02282
M204 S1000
G1 X131.218 Y95.765 F10800
M204 S800
G1 F600
G1 X134.821 Y89.577 E.22452
G1 X135.074 Y89.348 E.01069
M73 P1 R159
G1 X135.39 Y89.156 E.01161
G1 X135.853 Y89.011 E.01521
G1 X138.454 Y89.001 E.08155
G1 X138.842 Y89.101 E.01256
G1 X139.224 Y89.3 E.0135
G1 X139.684 Y89.757 E.02034
G1 X142.699 Y94.98 E.18907
G1 X143.186 Y95.249 E.01746
M73 Q1 S162
G1 X143.532 Y95.613 E.01574
G1 X143.804 Y96.174 E.01953
G1 X143.857 Y96.477 E.00964
G1 X143.857 Y106.18 E.30423
G1 X143.599 Y106.937 E.02509
G1 X142.93 Y107.805 E.03434
G1 X142.438 Y108.167 E.01919
G1 X142.218 Y108.257 E.00742
G1 X142.391 Y114.277 E.18884
G1 X142.269 Y114.845 E.01823
G1 X141.921 Y115.42 E.02107
G1 X141.052 Y116.222 E.03708
G1 X140.266 Y117.059 E.03597
G1 X139.551 Y117.949 E.03582
G1 X138.906 Y118.893 E.03582
G1 X138.337 Y119.883 E.03582
G1 X137.846 Y120.915 E.03582
G1 X137.436 Y121.981 E.03582
G1 X137.11 Y123.076 E.03582
G1 X136.869 Y124.193 E.03582
G1 X136.716 Y125.325 E.03582
G1 X136.648 Y126.499 E.03686
G1 X135.901 Y161.639 E1.10205
G1 X135.702 Y162.235 E.0197
G1 X135.675 Y162.532 E.00932
G1 X135.537 Y162.922 E.01297
G1 X135.403 Y163.147 E.00823
G1 X135.069 Y163.514 E.01555
G1 X134.566 Y163.811 E.01831
G1 X134.298 Y163.895 E.00882
G1 X133.358 Y163.947 E.02951
G1 X132.894 Y163.859 E.01482
G1 X132.446 Y163.641 E.01562
G1 X132.073 Y163.304 E.01575
G1 X131.725 Y162.815 E.01882
G1 X131.269 Y161.777 E.03554
G1 X129.724 Y158.831 E.10433
G1 X129.593 Y158.256 E.01847
G1 X129.597 Y158.085 E.00536
G1 X130.852 Y150.911 E.22836
G1 X132.166 Y108.128 E1.34205
G1 X131.971 Y107.958 E.0081
G1 X131.682 Y107.631 E.0137
G1 X131.421 Y107.226 E.01512
G1 X131.203 Y106.716 E.01736
G1 X131.079 Y106.172 E.01752
G1 X131.053 Y105.794 E.01188
G1 X131.053 Y96.383 E.29507
G1 X131.203 Y95.823 E.01817
M204 S1000
G1 X131.557 Y95.933 F10800
M204 S800
G1 F600
G1 X135.096 Y89.837 E.22101
G1 X135.312 Y89.641 E.00915
G1 X135.561 Y89.492 E.00909
G1 X135.935 Y89.38 E.01223
G1 X138.384 Y89.373 E.07678
G1 X138.725 Y89.46 E.01106
G1 X139.02 Y89.619 E.0105
G1 X139.37 Y89.967 E.01548
G1 X142.428 Y95.264 E.19175
G1 X142.935 Y95.533 E.018
G1 X143.238 Y95.851 E.01379
G1 X143.438 Y96.268 E.01449
G1 X143.48 Y96.495 E.00724
G1 X143.48 Y106.149 E.30268
G1 X143.282 Y106.732 E.01931
G1 X142.649 Y107.552 E.03247
G1 X142.247 Y107.84 E.01552
G1 X141.833 Y107.978 E.01368
G1 X142.013 Y114.267 E.19726
G1 X141.928 Y114.682 E.0133
M73 Q1 S161
G1 X141.644 Y115.163 E.01749
G1 X140.786 Y115.955 E.0366
G1 X139.982 Y116.811 E.03685
G1 X139.248 Y117.725 E.03674
G1 X138.587 Y118.692 E.03674
G1 X138.003 Y119.708 E.03674
G1 X137.499 Y120.766 E.03674
G1 X137.079 Y121.86 E.03674
G1 X136.744 Y122.983 E.03674
G1 X136.497 Y124.128 E.03674
G1 X136.34 Y125.289 E.03674
G1 X136.272 Y126.484 E.03753
G1 X135.525 Y161.6 E1.10128
G1 X135.329 Y162.16 E.01859
G1 X135.31 Y162.432 E.00857
G1 X135.188 Y162.778 E.01151
G1 X135.111 Y162.907 E.00471
G1 X134.811 Y163.237 E.01398
G1 X134.401 Y163.471 E.0148
G1 X134.213 Y163.527 E.00615
G1 X133.406 Y163.572 E.02535
G1 X132.991 Y163.494 E.01323
G1 X132.64 Y163.317 E.01233
G1 X132.369 Y163.069 E.01151
G1 X132.043 Y162.613 E.01758
G1 X131.61 Y161.615 E.03412
G1 X130.069 Y158.678 E.10399
G1 X129.97 Y158.238 E.01413
G1 X129.971 Y158.134 E.00325
G1 X131.228 Y150.949 E.22869
G1 X132.549 Y107.958 E1.3486
G1 X132.245 Y107.698 E.01253
G1 X131.975 Y107.392 E.01279
G1 X131.747 Y107.037 E.01324
G1 X131.558 Y106.586 E.01534
G1 X131.454 Y106.13 E.01465
G1 X131.43 Y105.787 E.0108
G1 X131.43 Y96.407 E.29408
G1 X131.542 Y95.991 E.01353
M204 S1000
G1 X131.896 Y96.1 F10800
M204 S800
G1 F600
G1 X135.371 Y90.096 E.2175
G1 X135.55 Y89.934 E.00756
G1 X135.728 Y89.831 E.00645
G1 X136.012 Y89.75 E.00928
G1 X138.356 Y89.75 E.0735
G1 X138.601 Y89.817 E.00795
G1 X138.813 Y89.935 E.00761
G1 X139.055 Y90.177 E.01075
G1 X142.197 Y95.618 E.197
G1 X142.354 Y95.65 E.00503
G1 X142.685 Y95.817 E.01163
G1 X142.942 Y96.087 E.01166
G1 X143.084 Y96.399 E.01076
G1 X143.103 Y96.51 E.00352
G1 X143.103 Y106.117 E.30123
G1 X142.964 Y106.526 E.01353
G1 X142.369 Y107.297 E.03053
G1 X142.06 Y107.511 E.01179
G1 X141.606 Y107.649 E.01489
G1 X141.485 Y107.779 E.00557
G1 X141.453 Y107.891 E.00364
G1 X141.635 Y114.254 E.19958
G1 X141.566 Y114.571 E.0102
G1 X141.368 Y114.904 E.01214
G1 X140.521 Y115.687 E.03617
G1 X139.697 Y116.564 E.03773
G1 X138.945 Y117.5 E.03765
G1 X138.267 Y118.492 E.03765
G1 X137.669 Y119.533 E.03765
G1 X137.152 Y120.617 E.03765
G1 X136.721 Y121.738 E.03765
G1 X136.378 Y122.889 E.03765
G1 X136.126 Y124.063 E.03766
G1 X135.964 Y125.253 E.03765
G1 X135.895 Y126.469 E.0382
G1 X135.148 Y161.563 E1.10057
G1 X135.028 Y161.909 E.01149
G1 X134.955 Y162.017 E.00407
G1 X134.944 Y162.337 E.01004
G1 X134.839 Y162.635 E.00992
G1 X134.555 Y162.959 E.0135
G1 X134.243 Y163.128 E.01111
G1 X134.135 Y163.157 E.00351
G1 X133.412 Y163.195 E.02272
G1 X133.095 Y163.13 E.01013
G1 X132.839 Y162.996 E.00907
G1 X132.665 Y162.835 E.00743
G1 X132.362 Y162.411 E.01634
G1 X131.95 Y161.453 E.03269
G1 X130.415 Y158.525 E.10365
G1 X130.346 Y158.213 E.01003
G1 X131.604 Y150.988 E.22994
G1 X132.926 Y107.961 E1.34973
M73 P1 R158
G1 X132.888 Y107.793 E.00538
G1 X132.808 Y107.683 E.00427
G1 X132.518 Y107.438 E.01191
G1 X132.268 Y107.155 E.01184
G1 X132.075 Y106.849 E.01134
G1 X131.921 Y106.485 E.01239
G1 X131.829 Y106.088 E.01278
G1 X131.807 Y105.78 E.00969
G1 X131.807 Y96.432 E.29308
G1 X131.88 Y96.158 E.0089
M204 S1000
G1 X132.235 Y96.267 F10800
M204 S800
G1 F600
G1 X135.65 Y90.351 E.21418
G1 X135.758 Y90.249 E.00466
G1 X135.893 Y90.171 E.00489
G1 X136.083 Y90.12 E.00617
G1 X138.325 Y90.127 E.07028
G1 X138.467 Y90.17 E.00465
G1 X138.602 Y90.248 E.00488
G1 X138.741 Y90.387 E.00618
G1 X141.978 Y95.992 E.20294
G1 X142.238 Y96.012 E.00819
G1 X142.446 Y96.11 E.0072
G1 X142.616 Y96.281 E.00758
G1 X142.726 Y96.531 E.00856
G1 X142.726 Y106.086 E.29961
G1 X142.646 Y106.32 E.00774
G1 X142.091 Y107.04 E.02851
G1 X141.881 Y107.179 E.00789
G1 X141.448 Y107.3 E.01411
G1 X141.258 Y107.45 E.00759
G1 X141.135 Y107.632 E.00688
G1 X141.075 Y107.843 E.00687
G1 X141.258 Y114.244 E.20077
G1 X141.223 Y114.414 E.00545
G1 X141.09 Y114.648 E.00845
G1 X140.255 Y115.419 E.03562
G1 X139.412 Y116.316 E.03861
G1 X138.641 Y117.275 E.03857
G1 X137.948 Y118.291 E.03857
G1 X137.334 Y119.357 E.03857
G1 X136.806 Y120.468 E.03857
G1 X136.364 Y121.616 E.03857
G1 X136.013 Y122.795 E.03857
G1 X135.754 Y123.998 E.03857
G1 X135.589 Y125.217 E.03857
G1 X135.518 Y126.455 E.03887
G1 X134.772 Y161.52 E1.0997
G1 X134.691 Y161.734 E.00718
G1 X134.576 Y161.872 E.00561
G1 X134.577 Y162.245 E.0117
G1 X134.502 Y162.456 E.00702
G1 X134.301 Y162.677 E.00938
G1 X134.069 Y162.786 E.00804
G1 X133.417 Y162.817 E.02046
G1 X133.24 Y162.782 E.00567
G1 X133.069 Y162.696 E.006
G1 X132.959 Y162.598 E.00462
G1 X132.682 Y162.209 E.01497
G1 X132.292 Y161.292 E.03125
G1 X130.762 Y158.376 E.10323
G1 X130.726 Y158.193 E.00584
G1 X131.98 Y151.026 E.22812
G1 X133.303 Y107.973 E1.35055
G1 X133.296 Y107.845 E.004
G1 X133.226 Y107.616 E.0075
G1 X133.085 Y107.423 E.0075
G1 X132.791 Y107.177 E.01203
G1 X132.561 Y106.917 E.01086
G1 X132.403 Y106.663 E.0094
G1 X132.284 Y106.382 E.00956
G1 X132.204 Y106.044 E.01089
G1 X132.184 Y105.772 E.00854
G1 X132.184 Y96.457 E.29208
G1 X132.219 Y96.325 E.00428
M204 S1000
G1 X132.574 Y96.434 F10800
M204 S800
G1 F600
G1 X135.936 Y90.597 E.21119
G1 X135.971 Y90.562 E.00156
G1 X136.108 Y90.497 E.00476
G1 X138.255 Y90.497 E.06729
G1 X138.392 Y90.562 E.00476
G1 X138.427 Y90.597 E.00156
G1 X141.764 Y96.377 E.20928
G1 X142.139 Y96.377 E.01176
G1 X142.209 Y96.406 E.00235
G1 X142.32 Y96.518 E.00495
G1 X142.349 Y96.587 E.00235
