; generated by PrusaSlicer 2.5.0+win64 on 2023-03-31 at 19:10:41 UTC


;
;
; 

; external perimeters extrusion width = 0.45mm
; perimeters extrusion width = 0.45mm
; infill extrusion width = 0.45mm
; solid infill extrusion width = 0.45mm
; top infill extrusion width = 0.40mm
; support material extrusion width = 0.35mm
; first layer extrusion width = 0.42mm

M73 P0 R56
M73 Q0 S56
M201 X1000 Y1000 Z200 E5000 ; sets maximum accelerations, mm/sec^2
M203 X200 Y200 Z12 E120 ; sets maximum feedrates, mm / sec
M204 P1250 R1250 T1250 ; sets acceleration (P, T) and retract acceleration (R), mm/sec^2
M205 X8.00 Y8.00 Z0.40 E4.50 ; sets the jerk limits, mm/sec
M205 S0 T0 ; sets the minimum extruding and travel feed rate, mm/sec
M107
;TYPE:Custom
M862.3 P "MK3S" ; printer model check
M862.1 P0.4 ; nozzle diameter check
M115 U3.11.0 ; tell printer latest fw version
G90 ; use absolute coordinates
M83 ; extruder relative mode
M104 S215 ; set extruder temp
M140 S60 ; set bed temp
M190 S60 ; wait for bed temp
M109 S215 ; wait for extruder temp
G28 W ; home all without mesh bed level
G80 ; mesh bed leveling

G1 Z0.2 F720
G1 Y-3 F1000 ; go outside print area
G92 E0
G1 X60 E9 F1000 ; intro line
G1 X100 E12.5 F1000 ; intro line

G92 E0
M221 S95

; Don't change E values below. Excessive value can damage the printer.

G21 ; set units to millimeters
G90 ; use absolute coordinates
M83 ; use relative distances for extrusion
M900 K0.05 ; Filament gcode LA 1.5
M900 K30 ; Filament gcode LA 1.0
M107
;LAYER_CHANGE
;Z:0.2
;HEIGHT:0.2
;BEFORE_LAYER_CHANGE
G92 E0.0
;0.2


G1 E-.8 F2100
G1 Z.4 F900
;AFTER_LAYER_CHANGE
;0.2
G1 X71.449 Y92.242 F13200
G1 Z.2 F900
G1 E.8 F2100
M204 S800
;TYPE:Skirt/Brim
;WIDTH:0.42
G1 F750
G1 X73.128 Y91.546 E.057
G1 X110.678 Y91.522 E1.17735
G1 X113.247 Y91.544 E.08053
G1 X114.867 Y92.202 E.05484
G1 X117.406 Y94.625 E.11003
G1 X118.137 Y96.192 E.05421
G1 X118.309 Y98.916 E.0856
G1 X118.316 Y104.706 E.18156
G1 X118.247 Y105.895 E.03732
G1 X117.903 Y107.418 E.04897
G1 X117.243 Y108.839 E.04912
G1 X116.68 Y109.651 E.03099
G1 X115.849 Y110.537 E.03808
G1 X114.71 Y111.373 E.04432
G1 X113.284 Y112.035 E.04928
G1 X111.778 Y112.377 E.04844
G1 X110.554 Y112.448 E.03843
G1 X82.244 Y112.369 E.88766
G1 X81.647 Y112.291 E.01886
G1 X73.958 Y110.272 E.24927
G1 X73.25 Y109.956 E.0243
G1 X71.043 Y108.496 E.08297
G1 X70.167 Y107.444 E.04293
G1 X68.401 Y103.171 E.14496
G1 X68.175 Y101.826 E.04276
G1 X68.175 Y96.5 E.16699
G1 X68.872 Y94.819 E.05704
G1 X71.407 Y92.284 E.11241
M204 S1000
;WIPE_START
G1 F10560
G1 X73.128 Y91.546 E-.35394
G1 X75.278 Y91.544 E-.40606
;WIPE_END
G1 E-.04 F2100
G1 Z.6 F900
G1 X72.968 Y94.88 F13200
G1 Z.2 F900
G1 E.8 F2100
M204 S800
G1 F750
G1 X73.394 Y94.623 E.01559
G1 X74.108 Y94.394 E.02352
G1 X107.126 Y94.341 E1.03525
G1 X108.634 Y94.317 E.0473
G1 X110.664 Y94.317 E.06364
G1 X111.954 Y94.343 E.04047
G1 X112.792 Y94.528 E.02691
G1 X113.733 Y95.016 E.03321
G1 X114.528 Y95.74 E.03373
G1 X115.098 Y96.63 E.03312
G1 X115.31 Y97.172 E.01827
G1 X115.512 Y98.934 E.0556
G1 X115.522 Y104.656 E.1794
G1 X115.382 Y106.027 E.04321
G1 X114.877 Y107.334 E.04394
G1 X114.027 Y108.402 E.04279
G1 X112.906 Y109.167 E.04256
G1 X111.563 Y109.579 E.04404
G1 X110.547 Y109.654 E.03195
G1 X108.559 Y109.654 E.06234
G1 X107.52 Y109.569 E.03267
G1 X106.138 Y109.553 E.04333
G1 X105.096 Y109.379 E.03313
G1 X104.042 Y108.918 E.03607
G1 X103.183 Y108.262 E.03391
G1 X102.666 Y107.555 E.02745
G1 X96.404 Y107.555 E.19635
M73 P0 R55
G1 X96.081 Y108.037 E.01819
G1 X95.187 Y108.895 E.03885
G1 X94.463 Y109.295 E.02593
G1 X93.454 Y109.563 E.03273
G1 X83.254 Y109.523 E.31982
G1 X82.472 Y109.277 E.0257
G1 X81.754 Y108.864 E.02598
G1 X80.9 Y108.035 E.03731
G1 X80.579 Y107.555 E.01812
G1 X75.487 Y107.555 E.15963
G1 X73.967 Y107.083 E.04992
G1 X73.098 Y106.441 E.03386
G1 X72.416 Y105.563 E.03487
G1 X71.221 Y102.783 E.09489
G1 X71.03 Y102.102 E.02214
G1 X70.969 Y97.949 E.13024
G1 X71.142 Y97.046 E.02882
G1 X71.666 Y96.023 E.03606
G1 X72.451 Y95.19 E.03587
G1 X72.916 Y94.911 E.01702
M204 S1000
G1 X73.107 Y95.232 F13200
M204 S800
G1 F750
G1 X73.566 Y94.959 E.01675
G1 X74.193 Y94.763 E.0206
G1 X107.129 Y94.718 E1.03268
G1 X108.636 Y94.694 E.04725
G1 X110.662 Y94.694 E.06353
G1 X111.929 Y94.719 E.03973
G1 X112.641 Y94.874 E.02286
G1 X113.536 Y95.339 E.03161
G1 X114.253 Y96 E.03058
G1 X114.769 Y96.814 E.03023
G1 X114.949 Y97.284 E.01578
G1 X115.136 Y98.965 E.05303
G1 X115.145 Y104.648 E.17817
G1 X115.02 Y105.917 E.04001
G1 X114.563 Y107.122 E.04041
G1 X113.751 Y108.144 E.04093
G1 X112.72 Y108.838 E.03896
G1 X111.476 Y109.211 E.04073
G1 X110.541 Y109.277 E.02939
G1 X108.567 Y109.277 E.0619
G1 X107.538 Y109.192 E.03236
G1 X106.158 Y109.176 E.04328
G1 X105.182 Y109.011 E.03102
G1 X104.253 Y108.605 E.03179
G1 X103.435 Y107.98 E.03229
G1 X102.861 Y107.178 E.03092
G1 X96.199 Y107.178 E.20887
G1 X95.802 Y107.782 E.02265
G1 X94.98 Y108.579 E.03591
G1 X94.341 Y108.938 E.023
G1 X93.429 Y109.186 E.02962
G1 X83.34 Y109.155 E.31634
G1 X82.606 Y108.923 E.02413
M73 Q1 S56
G1 X81.964 Y108.55 E.02328
M73 P1 R55
G1 X81.179 Y107.781 E.03446
G1 X80.783 Y107.178 E.02262
G1 X75.515 Y107.178 E.16517
G1 X74.165 Y106.761 E.04431
G1 X73.344 Y106.154 E.03201
G1 X72.73 Y105.353 E.03165
G1 X71.572 Y102.646 E.0923
G1 X71.4 Y102.025 E.0202
G1 X71.347 Y97.963 E.12739
G1 X71.491 Y97.191 E.02461
G1 X71.96 Y96.261 E.03266
G1 X72.707 Y95.469 E.03414
G1 X73.055 Y95.262 E.01269
M204 S1000
G1 X73.243 Y95.584 F13200
M204 S800
G1 F750
G1 X73.736 Y95.297 E.0179
G1 X74.276 Y95.131 E.01771
G1 X107.132 Y95.095 E1.03017
G1 X108.637 Y95.071 E.0472
G1 X110.66 Y95.071 E.06343
G1 X111.904 Y95.096 E.039
G1 X112.493 Y95.222 E.01889
G1 X113.3 Y95.634 E.02842
G1 X113.979 Y96.259 E.02894
G1 X114.438 Y96.997 E.02725
G1 X114.588 Y97.394 E.0133
G1 X114.76 Y98.995 E.0505
G1 X114.768 Y104.64 E.17697
G1 X114.658 Y105.81 E.03687
G1 X114.248 Y106.914 E.03691
G1 X113.515 Y107.848 E.03724
G1 X112.534 Y108.509 E.03708
G1 X111.391 Y108.844 E.03735
G1 X110.535 Y108.9 E.02689
G1 X108.574 Y108.9 E.06147
G1 X107.556 Y108.815 E.03205
G1 X106.177 Y108.799 E.04323
G1 X105.27 Y108.644 E.02887
G1 X104.428 Y108.27 E.02888
G1 X103.689 Y107.7 E.02927
G1 X103.058 Y106.801 E.03443
G1 X95.927 Y106.801 E.22359
G1 X95.825 Y107.06 E.00874
G1 X95.523 Y107.528 E.01746
G1 X94.771 Y108.264 E.03299
G1 X94.215 Y108.582 E.02007
G1 X93.403 Y108.809 E.02644
G1 X83.426 Y108.787 E.31283
G1 X82.741 Y108.57 E.02254
G1 X82.177 Y108.238 E.02052
G1 X81.46 Y107.528 E.03163
G1 X81.157 Y107.06 E.01748
G1 X81.055 Y106.801 E.00874
G1 X75.543 Y106.801 E.17283
G1 X74.363 Y106.439 E.0387
G1 X73.591 Y105.867 E.03013
G1 X73.045 Y105.145 E.02838
G1 X71.924 Y102.511 E.08976
G1 X71.77 Y101.949 E.01825
G1 X71.724 Y97.976 E.12458
G1 X71.84 Y97.336 E.02039
G1 X72.284 Y96.456 E.0309
G1 X72.96 Y95.749 E.03068
G1 X73.191 Y95.615 E.00838
M204 S1000
M73 Q1 S55
G1 X73.376 Y95.937 F13200
M204 S800
G1 F750
G1 X73.903 Y95.635 E.01905
G1 X74.356 Y95.501 E.01484
G1 X107.135 Y95.472 E1.02775
G1 X108.638 Y95.448 E.04715
G1 X110.658 Y95.448 E.06332
G1 X111.879 Y95.473 E.03829
G1 X112.344 Y95.569 E.01489
G1 X113.104 Y95.957 E.02676
G1 X113.702 Y96.516 E.02564
G1 X114.106 Y97.177 E.0243
G1 X114.226 Y97.501 E.01083
G1 X114.384 Y99.024 E.04802
G1 X114.391 Y104.632 E.17582
G1 X114.295 Y105.706 E.0338
G1 X113.932 Y106.705 E.03334
G1 X113.237 Y107.591 E.0353
G1 X112.351 Y108.178 E.03332
G1 X111.308 Y108.475 E.03401
G1 X110.53 Y108.522 E.02445
G1 X108.582 Y108.522 E.06106
G1 X107.574 Y108.438 E.03174
G1 X106.197 Y108.423 E.04317
G1 X105.359 Y108.277 E.02668
G1 X104.604 Y107.936 E.02594
G1 X103.945 Y107.421 E.02625
G1 X103.257 Y106.424 E.03798
G1 X95.658 Y106.424 E.23825
G1 X95.494 Y106.879 E.01515
G1 X95.242 Y107.276 E.01476
G1 X94.56 Y107.951 E.03009
G1 X94.087 Y108.227 E.01715
G1 X93.376 Y108.432 E.0232
G1 X83.51 Y108.418 E.30936
G1 X82.909 Y108.233 E.0197
G1 X82.424 Y107.953 E.01757
G1 X81.741 Y107.276 E.03015
G1 X81.488 Y106.879 E.01476
G1 X81.324 Y106.424 E.01515
G1 X75.571 Y106.424 E.18038
G1 X74.559 Y106.115 E.03318
G1 X73.873 Y105.616 E.02661
G1 X73.383 Y104.975 E.02529
G1 X72.277 Y102.375 E.08859
G1 X72.14 Y101.874 E.01628
G1 X72.101 Y97.989 E.12181
G1 X72.191 Y97.478 E.01628
G1 X72.577 Y96.695 E.02734
G1 X73.213 Y96.03 E.02887
G1 X73.323 Y95.967 E.00398
M204 S1000
G1 X73.505 Y96.29 F13200
M204 S800
G1 F750
G1 X74.066 Y95.976 E.02019
G1 X74.434 Y95.87 E.01199
G1 X107.138 Y95.849 E1.0254
G1 X108.64 Y95.825 E.0471
G1 X110.656 Y95.825 E.06322
G1 X111.856 Y95.849 E.03761
G1 X112.2 Y95.918 E.011
G1 X112.867 Y96.252 E.0234
G1 X113.424 Y96.773 E.02391
G1 X113.773 Y97.353 E.02123
G1 X113.863 Y97.605 E.00837
G1 X114.008 Y99.052 E.04561
G1 X114.014 Y104.625 E.17472
G1 X113.931 Y105.604 E.03081
G1 X113.615 Y106.5 E.0298
G1 X113.002 Y107.294 E.03144
G1 X112.169 Y107.847 E.03136
G1 X111.229 Y108.106 E.03058
G1 X110.525 Y108.145 E.02209
G1 X108.59 Y108.145 E.06066
G1 X107.592 Y108.061 E.03142
G1 X106.217 Y108.046 E.04311
G1 X105.449 Y107.91 E.02445
G1 X104.783 Y107.604 E.02297
G1 X104.202 Y107.144 E.02323
G1 X103.634 Y106.307 E.03171
G1 X103.545 Y106.047 E.00863
G1 X95.387 Y106.047 E.25577
G1 X95.163 Y106.696 E.02153
G1 X94.935 Y107.055 E.01334
G1 X94.313 Y107.665 E.02733
G1 X93.957 Y107.872 E.01292
G1 X93.348 Y108.055 E.01993
G1 X83.594 Y108.049 E.30583
G1 X83.04 Y107.878 E.01816
G1 X82.67 Y107.666 E.01338
G1 X82.047 Y107.055 E.02737
G1 X81.819 Y106.696 E.01334
G1 X81.595 Y106.047 E.02153
G1 X75.599 Y106.047 E.188
G1 X74.752 Y105.79 E.02774
G1 X74.153 Y105.362 E.02309
G1 X73.72 Y104.804 E.02213
G1 X72.629 Y102.24 E.08738
G1 X72.511 Y101.8 E.01429
G1 X72.478 Y98.002 E.1191
G1 X72.542 Y97.619 E.01217
G1 X72.901 Y96.89 E.02548
G1 X73.454 Y96.323 E.02484
M204 S1000
G1 X73.712 Y96.598 F13200
M204 S800
G1 F750
G1 X74.226 Y96.318 E.01834
G1 X74.508 Y96.241 E.00919
G1 X107.141 Y96.226 E1.02317
G1 X108.641 Y96.202 E.04705
G1 X110.654 Y96.202 E.06311
G1 X111.83 Y96.226 E.03686
G1 X112.096 Y96.282 E.00855
G1 X112.67 Y96.574 E.02019
G1 X113.144 Y97.026 E.02052
G1 X113.437 Y97.526 E.01818
G1 X113.499 Y97.705 E.00593
G1 X113.631 Y99.061 E.04273
G1 X113.637 Y104.618 E.17423
G1 X113.567 Y105.506 E.02792
G1 X113.297 Y106.295 E.02615
G1 X112.724 Y107.038 E.02941
G1 X111.99 Y107.513 E.02742
G1 X111.152 Y107.736 E.02719
G1 X110.521 Y107.768 E.01982
G1 X108.598 Y107.768 E.06027
G1 X107.61 Y107.685 E.03111
G1 X106.237 Y107.669 E.04304
G1 X105.54 Y107.543 E.02222
G1 X105 Y107.294 E.01865
G1 X104.46 Y106.867 E.02158
G1 X103.968 Y106.128 E.02785
G1 X103.839 Y105.67 E.01492
G1 X95.009 Y105.67 E.27684
G1 X94.986 Y106.054 E.01206
G1 X94.815 Y106.55 E.01646
G1 X94.632 Y106.83 E.01049
G1 X94.068 Y107.378 E.02467
G1 X93.823 Y107.519 E.00885
G1 X93.318 Y107.678 E.01662
G1 X83.678 Y107.681 E.30225
G1 X83.171 Y107.524 E.01664
G1 X82.915 Y107.378 E.00923
G1 X82.35 Y106.83 E.02468
G1 X82.167 Y106.55 E.01049
G1 X81.996 Y106.054 E.01646
G1 X81.973 Y105.67 E.01206
M73 P2 R55
G1 X75.626 Y105.67 E.199
M73 Q2 S55
G1 X74.943 Y105.463 E.0224
G1 X74.43 Y105.105 E.0196
G1 X74.057 Y104.633 E.01888
G1 X72.981 Y102.105 E.08613
G1 X72.881 Y101.727 E.01226
G1 X72.855 Y98.013 E.11646
G1 X72.895 Y97.754 E.0082
G1 X73.194 Y97.13 E.02169
G1 X73.67 Y96.641 E.02142
M204 S1000
G1 X73.936 Y96.907 F13200
M204 S800
G1 F750
G1 X74.38 Y96.663 E.01588
G1 X74.578 Y96.612 E.00641
G1 X107.144 Y96.603 E1.02108
G1 X108.643 Y96.58 E.047
G1 X110.652 Y96.58 E.06301
G1 X111.802 Y96.603 E.03606
G1 X111.991 Y96.644 E.00607
G1 X112.43 Y96.866 E.01543
G1 X112.863 Y97.279 E.01874
G1 X113.099 Y97.694 E.01496
G1 X113.133 Y97.8 E.0035
G1 X113.254 Y99.07 E.04001
G1 X113.26 Y104.612 E.17375
G1 X113.201 Y105.411 E.02513
G1 X112.976 Y106.095 E.02256
G1 X112.487 Y106.743 E.02544
G1 X111.861 Y107.158 E.02357
G1 X111.112 Y107.361 E.02432
G1 X110.516 Y107.391 E.01872
G1 X108.606 Y107.391 E.05987
G1 X107.628 Y107.308 E.03079
G1 X106.258 Y107.292 E.04296
G1 X105.632 Y107.177 E.01996
G1 X105.216 Y106.985 E.01436
G1 X104.719 Y106.591 E.01989
G1 X104.302 Y105.952 E.02392
G1 X104.137 Y105.293 E.0213
G1 X94.632 Y105.293 E.29801
G1 X94.619 Y105.962 E.021
G1 X94.466 Y106.404 E.01466
G1 X94.353 Y106.575 E.00643
G1 X93.854 Y107.067 E.02197
G1 X93.683 Y107.169 E.00625
G1 X93.285 Y107.301 E.01312
G1 X83.762 Y107.312 E.29861
G1 X83.305 Y107.171 E.01501
G1 X83.128 Y107.067 E.00642
G1 X82.629 Y106.575 E.02196
G1 X82.516 Y106.404 E.00643
G1 X82.363 Y105.962 E.01466
G1 X82.35 Y105.293 E.021
G1 X75.654 Y105.293 E.20995
G1 X75.13 Y105.135 E.01716
G1 X74.705 Y104.845 E.01614
G1 X74.393 Y104.46 E.01553
G1 X73.334 Y101.971 E.08482
G1 X73.252 Y101.656 E.0102
G1 X73.233 Y98.027 E.11378
G1 X73.262 Y97.843 E.00583
G1 X73.517 Y97.326 E.01807
G1 X73.894 Y96.949 E.01672
M204 S1000
G1 X74.16 Y97.216 F13200
M204 S800
G1 F750
G1 X74.201 Y97.175 E.00181
G1 X74.527 Y97.011 E.01144
G1 X74.641 Y96.984 E.00369
G1 X107.147 Y96.98 E1.0192
G1 X108.644 Y96.957 E.04696
G1 X110.65 Y96.957 E.0629
G1 X111.772 Y96.979 E.03519
G1 X111.881 Y97.005 E.00351
G1 X112.191 Y97.159 E.01084
G1 X112.58 Y97.531 E.01687
G1 X112.766 Y97.885 E.01256
G1 X112.877 Y99.079 E.03759
G1 X112.883 Y104.607 E.17331
G1 X112.834 Y105.321 E.02246
G1 X112.652 Y105.899 E.01899
G1 X112.25 Y106.447 E.02133
G1 X111.679 Y106.826 E.02149
G1 X111.074 Y106.985 E.01961
G1 X110.511 Y107.014 E.01768
G1 X108.615 Y107.014 E.05946
G1 X107.647 Y106.931 E.03047
G1 X106.279 Y106.915 E.04287
G1 X105.726 Y106.811 E.01767
G1 X105.428 Y106.672 E.01029
G1 X105.016 Y106.357 E.01625
G1 X104.638 Y105.775 E.02176
G1 X104.507 Y105.205 E.01836
G1 X104.494 Y104.916 E.00907
G1 X94.251 Y104.916 E.32115
G1 X94.251 Y105.871 E.02995
G1 X94.119 Y106.254 E.0127
G1 X94.057 Y106.343 E.00343
G1 X93.636 Y106.759 E.01854
G1 X93.533 Y106.822 E.00379
G1 X93.25 Y106.924 E.00943
G1 X83.793 Y106.935 E.29652
G1 X83.447 Y106.821 E.01143
M73 P2 R54
G1 X83.346 Y106.759 E.00371
G1 X82.926 Y106.343 E.01854
G1 X82.863 Y106.254 E.00343
G1 X82.731 Y105.871 E.0127
G1 X82.731 Y104.916 E.02995
G1 X75.682 Y104.916 E.22103
G1 X75.314 Y104.805 E.01205
G1 X74.975 Y104.581 E.01274
G1 X74.729 Y104.286 E.01205
G1 X73.687 Y101.837 E.08343
G1 X73.624 Y101.587 E.0081
G1 X73.61 Y98.043 E.11109
G1 X73.629 Y97.935 E.00346
G1 X73.806 Y97.571 E.0127
G1 X74.118 Y97.258 E.01384
M204 S1000
G1 X74.385 Y97.525 F13200
M204 S800
G1 F750
G1 X74.443 Y97.467 E.00259
G1 X74.693 Y97.357 E.00856
G1 X107.15 Y97.357 E1.01766
G1 X108.646 Y97.334 E.04691
G1 X111.717 Y97.352 E.09629
G1 X111.955 Y97.455 E.00812
G1 X112.295 Y97.78 E.01477
G1 X112.396 Y97.975 E.00687
G1 X112.499 Y99.088 E.03506
G1 X112.506 Y104.602 E.17287
G1 X112.467 Y105.236 E.01993
G1 X112.326 Y105.709 E.01546
G1 X112.008 Y106.157 E.01723
G1 X111.548 Y106.471 E.01745
G1 X111.034 Y106.61 E.0167
G1 X110.506 Y106.637 E.01658
G1 X108.623 Y106.637 E.05905
G1 X107.665 Y106.554 E.03014
G1 X106.301 Y106.538 E.04277
G1 X105.822 Y106.445 E.01531
G1 X105.636 Y106.357 E.00646
G1 X105.308 Y106.117 E.01273
G1 X104.997 Y105.656 E.01745
G1 X104.88 Y105.143 E.01647
G1 X104.874 Y104.538 E.01897
G1 X93.874 Y104.538 E.34489
G1 X93.874 Y105.837 E.04072
G1 X93.775 Y106.092 E.00856
G1 X93.408 Y106.458 E.01626
G1 X93.154 Y106.558 E.00856
G1 X83.828 Y106.558 E.29239
G1 X83.574 Y106.458 E.00856
G1 X83.207 Y106.092 E.01626
G1 X83.108 Y105.837 E.00856
G1 X83.108 Y104.538 E.04072
G1 X75.709 Y104.538 E.23198
G1 X75.499 Y104.475 E.00689
G1 X75.206 Y104.281 E.01101
G1 X75.065 Y104.113 E.00689
G1 X74.04 Y101.704 E.08206
G1 X73.995 Y101.52 E.00595
G1 X73.987 Y98.064 E.10837
G1 X74.096 Y97.813 E.00857
G1 X74.342 Y97.568 E.0109
M204 S1000
G1 X74.609 Y97.834 F13200
M204 S800
G1 F750
G1 X74.68 Y97.763 E.00315
G1 X74.749 Y97.734 E.00235
G1 X107.153 Y97.734 E1.01599
G1 X108.647 Y97.711 E.04686
G1 X111.657 Y97.728 E.09438
G1 X111.723 Y97.755 E.00223
G1 X112.006 Y98.025 E.01225
G1 X112.036 Y98.091 E.00227
G1 X112.06 Y98.57 E.01504
G1 X112.122 Y99.102 E.0168
G1 X112.129 Y104.597 E.1723
G1 X112.098 Y105.157 E.01757
G1 X111.995 Y105.525 E.01199
G1 X111.759 Y105.872 E.01314
G1 X111.413 Y106.117 E.01331
G1 X110.993 Y106.234 E.01368
G1 X110.501 Y106.26 E.01544
G1 X108.631 Y106.26 E.05863
