; generated by PrusaSlicer 2.5.0+win64 on 2023-03-31 at 19:10:23 UTC


;
;
; 

; external perimeters extrusion width = 0.45mm
; perimeters extrusion width = 0.45mm
; infill extrusion width = 0.45mm
; solid infill extrusion width = 0.45mm
; top infill extrusion width = 0.40mm
; support material extrusion width = 0.35mm
; first layer extrusion width = 0.42mm

M73 P0 R47
M73 Q0 S47
M201 X1000 Y1000 Z200 E5000 ; sets maximum accelerations, mm/sec^2
M203 X200 Y200 Z12 E120 ; sets maximum feedrates, mm / sec
M204 P1250 R1250 T1250 ; sets acceleration (P, T) and retract acceleration (R), mm/sec^2
M205 X8.00 Y8.00 Z0.40 E4.50 ; sets the jerk limits, mm/sec
M205 S0 T0 ; sets the minimum extruding and travel feed rate, mm/sec
M107
;TYPE:Custom
M862.3 P "MK3S" ; printer model check
M862.1 P0.4 ; nozzle diameter check
M115 U3.11.0 ; tell printer latest fw version
G90 ; use absolute coordinates
M83 ; extruder relative mode
M104 S215 ; set extruder temp
M140 S60 ; set bed temp
M190 S60 ; wait for bed temp
M109 S215 ; wait for extruder temp
G28 W ; home all without mesh bed level
G80 ; mesh bed leveling

G1 Z0.2 F720
G1 Y-3 F1000 ; go outside print area
G92 E0
G1 X60 E9 F1000 ; intro line
G1 X100 E12.5 F1000 ; intro line

G92 E0
M221 S95

; Don't change E values below. Excessive value can damage the printer.

G21 ; set units to millimeters
G90 ; use absolute coordinates
M83 ; use relative distances for extrusion
M900 K0.05 ; Filament gcode LA 1.5
M900 K30 ; Filament gcode LA 1.0
M107
;LAYER_CHANGE
;Z:0.2
;HEIGHT:0.2
;BEFORE_LAYER_CHANGE
G92 E0.0
;0.2


G1 E-.8 F2100
G1 Z.4 F900
;AFTER_LAYER_CHANGE
;0.2
G1 X71.677 Y108.778 F13200
G1 Z.2 F900
G1 E.8 F2100
M204 S800
;TYPE:Skirt/Brim
;WIDTH:0.42
G1 F750
G1 X73.232 Y108.123 E.0529
G1 X79.628 Y107.927 E.20066
G1 X110.903 Y107.945 E.9806
G1 X112.225 Y108.043 E.04157
G1 X114.383 Y108.407 E.0686
G1 X115.796 Y109.21 E.05096
G1 X117.87 Y111.648 E.10037
G1 X118.436 Y113.163 E.05069
G1 X118.457 Y117.345 E.13112
G1 X118.332 Y118.881 E.04831
G1 X118.073 Y120.028 E.0369
G1 X116.364 Y124.058 E.13724
G1 X115.492 Y125.098 E.04256
G1 X113.283 Y126.556 E.08297
G1 X112.122 Y126.945 E.03839
G1 X80.504 Y128.93 E.99332
G1 X78.003 Y129.029 E.07849
G1 X75.735 Y129.021 E.0711
G1 X74.299 Y128.882 E.04524
G1 X73.248 Y128.613 E.03401
G1 X71.823 Y127.95 E.04928
G1 X70.684 Y127.113 E.04431
G1 X69.854 Y126.227 E.03807
G1 X69.291 Y125.414 E.03099
G1 X68.632 Y123.993 E.04913
G1 X68.289 Y122.469 E.04897
G1 X68.221 Y121.281 E.03732
G1 X68.231 Y115.491 E.18156
G1 X68.405 Y112.766 E.0856
G1 X69.137 Y111.2 E.05421
G1 X71.633 Y108.82 E.10815
M204 S1000
;WIPE_START
G1 F10560
G1 X73.232 Y108.123 E-.32935
G1 X75.51 Y108.053 E-.43065
;WIPE_END
G1 E-.04 F2100
G1 Z.6 F900
G1 X73.163 Y111.414 F13200
G1 Z.2 F900
G1 E.8 F2100
M204 S800
G1 F750
G1 X73.544 Y111.189 E.01388
G1 X74.234 Y110.969 E.0227
G1 X77.191 Y110.892 E.09275
G1 X77.908 Y110.791 E.02267
G1 X78.585 Y110.729 E.02133
G1 X79.675 Y110.733 E.03417
G1 X81.271 Y111.116 E.05147
G1 X81.941 Y111.472 E.02379
G1 X82.692 Y112.138 E.03148
G1 X83.397 Y113.224 E.04058
G1 X106.324 Y113.237 E.71887
G1 X106.438 Y112.96 E.00938
G1 X107.156 Y111.979 E.03812
G1 X108.447 Y111.114 E.04874
G1 X109.59 Y110.806 E.03712
G1 X110.785 Y110.739 E.03751
G1 X111.765 Y110.803 E.03078
G1 X112.741 Y110.962 E.03103
G1 X113.679 Y111.349 E.03179
G1 X114.17 Y111.695 E.01884
G1 X114.978 Y112.569 E.03734
G1 X115.489 Y113.592 E.03586
G1 X115.638 Y114.333 E.02369
G1 X115.667 Y117.139 E.08798
G1 X115.545 Y118.613 E.04636
G1 X113.886 Y122.536 E.13356
G1 X113.27 Y123.195 E.02828
G1 X112.535 Y123.702 E.028
G1 X111.408 Y124.098 E.03744
G1 X102.379 Y124.15 E.28312
G1 X101.24 Y123.891 E.03662
G1 X100.368 Y123.433 E.03088
G1 X99.685 Y122.785 E.02953
G1 X95.828 Y122.782 E.12095
G1 X95.185 Y123.405 E.02806
G1 X94.48 Y123.799 E.02532
G1 X93.264 Y124.135 E.03956
G1 X83.904 Y124.138 E.29347
G1 X83.703 Y124.444 E.0115
G1 X82.908 Y125.221 E.03485
G1 X81.777 Y125.849 E.04056
G1 X80.601 Y126.114 E.03779
G1 X79.018 Y126.15 E.04965
G1 X77.975 Y126.234 E.03281
G1 X75.949 Y126.232 E.06351
G1 X74.879 Y126.143 E.03368
G1 X73.862 Y125.852 E.03317
G1 X72.703 Y125.15 E.04246
G1 X71.783 Y124.115 E.04342
G1 X71.548 Y123.691 E.0152
G1 X71.071 Y122.174 E.04988
G1 X71.015 Y121.211 E.03022
G1 X71.024 Y115.578 E.17665
G1 X71.096 Y114.875 E.02216
G1 X71.136 Y114.193 E.02139
G1 X71.438 Y113.211 E.03222
G1 X71.917 Y112.443 E.02838
G1 X72.623 Y111.733 E.03141
G1 X73.111 Y111.445 E.01778
M204 S1000
G1 X73.3 Y111.768 F13200
M204 S800
G1 F750
G1 X73.715 Y111.526 E.01506
G1 X74.321 Y111.337 E.0199
G1 X77.203 Y111.269 E.0904
G1 X77.421 Y111.253 E.00685
G1 X77.951 Y111.166 E.01686
G1 X78.593 Y111.106 E.0202
G1 X79.651 Y111.11 E.03317
G1 X81.157 Y111.476 E.04861
G1 X81.742 Y111.793 E.02085
G1 X82.39 Y112.365 E.0271
G1 X83.031 Y113.353 E.03692
G1 X83.12 Y113.601 E.00825
G1 X106.592 Y113.614 E.73594
G1 X106.761 Y113.156 E.01532
M73 P1 R47
M73 Q1 S47
G1 X107.396 Y112.271 E.03414
G1 X108.576 Y111.469 E.04473
G1 X109.669 Y111.176 E.03548
G1 X110.793 Y111.116 E.0353
G1 X111.73 Y111.179 E.02945
G1 X112.658 Y111.331 E.02948
G1 X113.514 Y111.688 E.02908
G1 X113.908 Y111.967 E.01514
G1 X114.653 Y112.763 E.03419
G1 X115.14 Y113.738 E.03417
G1 X115.261 Y114.354 E.01969
G1 X115.29 Y117.134 E.08717
G1 X115.171 Y118.552 E.04459
G1 X113.587 Y122.305 E.12773
G1 X113.038 Y122.897 E.02531
G1 X112.342 Y123.377 E.02651
G1 X111.315 Y123.732 E.03407
G1 X102.399 Y123.772 E.27958
G1 X101.393 Y123.546 E.0323
G1 X100.568 Y123.112 E.02923
G1 X99.839 Y122.408 E.0318
G1 X95.673 Y122.405 E.13062
G1 X94.978 Y123.088 E.03055
G1 X94.315 Y123.459 E.0238
G1 X93.238 Y123.758 E.03506
G1 X83.693 Y123.761 E.29925
G1 X83.421 Y124.193 E.01603
G1 X82.702 Y124.905 E.03171
G1 X81.618 Y125.506 E.03885
G1 X80.539 Y125.741 E.03464
G1 X78.999 Y125.773 E.04831
G1 X77.967 Y125.857 E.03245
G1 X75.971 Y125.855 E.06258
G1 X74.964 Y125.775 E.03169
G1 X73.99 Y125.497 E.03175
G1 X72.925 Y124.844 E.03916
G1 X72.08 Y123.882 E.04015
G1 X71.902 Y123.56 E.01154
G1 X71.438 Y122.084 E.04852
G1 X71.392 Y121.208 E.02751
G1 X71.401 Y115.588 E.1762
G1 X71.473 Y114.903 E.02159
G1 X71.504 Y114.281 E.01953
G1 X71.791 Y113.346 E.03065
G1 X72.223 Y112.663 E.02535
G1 X72.871 Y112.017 E.02869
G1 X73.248 Y111.798 E.01366
M204 S1000
G1 X73.434 Y112.122 F13200
M204 S800
G1 F750
G1 X73.883 Y111.864 E.01624
G1 X74.405 Y111.705 E.01711
G1 X77.22 Y111.646 E.08829
G1 X77.465 Y111.628 E.0077
G1 X77.993 Y111.541 E.01677
G1 X78.619 Y111.483 E.01973
G1 X79.584 Y111.482 E.03025
G1 X81.044 Y111.837 E.04711
G1 X81.511 Y112.091 E.01666
G1 X82.088 Y112.593 E.024
G1 X82.698 Y113.532 E.0351
G1 X82.834 Y113.977 E.0146
G1 X106.863 Y113.991 E.75342
G1 X107.084 Y113.352 E.02122
G1 X107.683 Y112.518 E.03218
G1 X108.705 Y111.825 E.03873
G1 X109.709 Y111.551 E.03262
G1 X110.802 Y111.493 E.0343
G1 X111.678 Y111.552 E.02754
G1 X112.574 Y111.699 E.02848
G1 X113.347 Y112.027 E.02633
G1 X113.646 Y112.239 E.01147
G1 X114.358 Y113 E.03269
G1 X114.79 Y113.88 E.03074
G1 X114.884 Y114.374 E.01578
G1 X114.913 Y117.129 E.08638
G1 X114.798 Y118.49 E.04282
G1 X113.288 Y122.072 E.12189
G1 X112.776 Y122.624 E.02359
G1 X112.152 Y123.05 E.0237
G1 X111.224 Y123.365 E.03072
G1 X102.418 Y123.395 E.27609
G1 X101.547 Y123.201 E.028
G1 X100.769 Y122.791 E.02755
G1 X99.994 Y122.031 E.03406
G1 X95.518 Y122.028 E.14032
G1 X94.733 Y122.801 E.03455
G1 X94.154 Y123.117 E.02069
G1 X93.212 Y123.381 E.03067
G1 X83.481 Y123.384 E.3051
G1 X83.137 Y123.944 E.02062
G1 X82.495 Y124.588 E.02851
G1 X81.461 Y125.162 E.03709
G1 X80.48 Y125.369 E.03143
G1 X78.98 Y125.396 E.04703
G1 X77.96 Y125.48 E.0321
G1 X75.979 Y125.478 E.06209
G1 X75.014 Y125.401 E.03038
G1 X74.121 Y125.142 E.02914
G1 X73.149 Y124.539 E.03585
G1 X72.378 Y123.65 E.03689
G1 X72.256 Y123.429 E.00794
G1 X71.805 Y121.995 E.04714
G1 X71.769 Y121.204 E.02481
G1 X71.778 Y115.598 E.17577
G1 X71.849 Y114.932 E.021
G1 X71.879 Y114.324 E.01909
G1 X72.143 Y113.483 E.02763
G1 X72.504 Y112.916 E.0211
G1 X73.119 Y112.302 E.02724
G1 X73.382 Y112.152 E.00947
M204 S1000
G1 X73.564 Y112.477 F13200
M204 S800
G1 F750
G1 X74.048 Y112.204 E.01741
G1 X74.487 Y112.074 E.01434
G1 X77.237 Y112.022 E.08626
G1 X77.51 Y112.003 E.00857
G1 X78.035 Y111.916 E.01668
G1 X78.646 Y111.859 E.01924
G1 X79.561 Y111.859 E.0287
G1 X80.929 Y112.197 E.04419
G1 X81.281 Y112.39 E.01259
G1 X81.787 Y112.822 E.02087
G1 X82.365 Y113.712 E.03324
G1 X82.544 Y114.354 E.02092
G1 X107.138 Y114.369 E.77113
G1 X107.408 Y113.547 E.02711
M73 P1 R46
G1 X107.97 Y112.765 E.03017
G1 X108.834 Y112.181 E.03273
G1 X109.788 Y111.921 E.031
G1 X110.809 Y111.871 E.03203
G1 X111.643 Y111.928 E.02622
G1 X112.49 Y112.067 E.0269
G1 X113.179 Y112.365 E.02355
G1 X113.386 Y112.512 E.00795
G1 X114.033 Y113.192 E.02944
G1 X114.44 Y114.022 E.02897
G1 X114.507 Y114.393 E.01184
G1 X114.536 Y117.124 E.08563
G1 X114.425 Y118.429 E.04105
G1 X112.989 Y121.84 E.11606
G1 X112.515 Y122.352 E.02186
G1 X111.964 Y122.723 E.02083
G1 X111.134 Y122.997 E.02739
G1 X102.438 Y123.018 E.27267
G1 X101.7 Y122.855 E.0237
G1 X100.97 Y122.471 E.02585
G1 X100.151 Y121.654 E.0363
G1 X95.362 Y121.651 E.15014
G1 X94.526 Y122.485 E.03702
G1 X94.028 Y122.761 E.01786
G1 X93.185 Y123.004 E.02751
G1 X83.267 Y123.007 E.31097
G1 X82.851 Y123.697 E.02526
G1 X82.288 Y124.272 E.02524
G1 X81.304 Y124.818 E.03528
G1 X80.423 Y124.996 E.02817
G1 X78.961 Y125.019 E.04583
G1 X77.952 Y125.103 E.03176
G1 X75.986 Y125.101 E.06163
G1 X75.1 Y125.033 E.02789
G1 X74.252 Y124.787 E.02768
G1 X73.375 Y124.236 E.03247
G1 X72.678 Y123.421 E.03364
G1 X72.609 Y123.297 E.00444
G1 X72.181 Y121.952 E.04424
G1 X72.146 Y121.2 E.02359
G1 X72.155 Y115.609 E.17531
G1 X72.225 Y114.962 E.0204
G1 X72.255 Y114.369 E.01864
G1 X72.494 Y113.623 E.02456
G1 X72.785 Y113.168 E.01691
G1 X73.367 Y112.588 E.02578
G1 X73.512 Y112.506 E.00522
M204 S1000
G1 X73.692 Y112.831 F13200
M204 S800
G1 F750
G1 X74.21 Y112.545 E.01856
G1 X74.565 Y112.444 E.01158
G1 X77.254 Y112.399 E.08431
G1 X77.554 Y112.378 E.00945
G1 X78.076 Y112.291 E.01659
G1 X78.672 Y112.235 E.01874
G1 X79.537 Y112.236 E.02713
G1 X80.812 Y112.556 E.04122
G1 X81.053 Y112.691 E.00868
G1 X81.487 Y113.053 E.0177
G1 X82.031 Y113.89 E.03131
G1 X82.181 Y114.466 E.01864
G1 X82.188 Y114.731 E.00833
G1 X107.504 Y114.746 E.79376
G1 X107.514 Y114.436 E.0097
G1 X107.733 Y113.742 E.02284
G1 X108.256 Y113.013 E.02814
G1 X108.963 Y112.536 E.02673
G1 X109.867 Y112.29 E.02937
G1 X110.814 Y112.248 E.02973
G1 X111.608 Y112.303 E.02494
G1 X112.404 Y112.435 E.02531
G1 X113.009 Y112.702 E.02072
G1 X113.125 Y112.785 E.00447
G1 X113.74 Y113.431 E.02797
G1 X114.074 Y114.117 E.02393
G1 X114.13 Y114.415 E.0095
G1 X114.159 Y117.119 E.0848
G1 X114.052 Y118.367 E.03928
G1 X112.688 Y121.611 E.11032
M73 Q2 S47
G1 X112.285 Y122.052 E.01873
M73 P2 R46
G1 X111.776 Y122.395 E.01925
G1 X111.048 Y122.629 E.024
G1 X102.459 Y122.641 E.26928
G1 X101.809 Y122.493 E.0209
M73 Q2 S46
G1 X101.175 Y122.153 E.02258
G1 X100.309 Y121.277 E.03862
G1 X95.204 Y121.274 E.16006
G1 X94.316 Y122.17 E.03956
G1 X93.899 Y122.407 E.01505
G1 X93.156 Y122.627 E.02427
G1 X82.996 Y122.63 E.31856
G1 X82.924 Y122.844 E.0071
G1 X82.563 Y123.453 E.02218
G1 X82.079 Y123.956 E.0219
G1 X81.148 Y124.473 E.03339
G1 X80.369 Y124.622 E.02485
G1 X78.943 Y124.642 E.04472
G1 X77.944 Y124.726 E.03143
G1 X75.994 Y124.724 E.06115
G1 X75.149 Y124.659 E.02658
G1 X74.385 Y124.433 E.02498
G1 X73.603 Y123.935 E.02908
G1 X72.962 Y123.163 E.03145
G1 X72.556 Y121.909 E.04132
G1 X72.523 Y121.197 E.02236
G1 X72.532 Y115.62 E.17485
G1 X72.601 Y114.992 E.0198
G1 X72.63 Y114.414 E.01817
G1 X72.844 Y113.764 E.02143
G1 X73.065 Y113.421 E.01279
G1 X73.639 Y112.86 E.02517
M204 S1000
G1 X73.86 Y113.161 F13200
M204 S800
G1 F750
G1 X74.368 Y112.888 E.01808
G1 X74.64 Y112.814 E.00885
G1 X77.27 Y112.776 E.08246
G1 X77.599 Y112.752 E.01036
G1 X78.118 Y112.665 E.0165
G1 X78.698 Y112.612 E.01824
G1 X79.513 Y112.613 E.02557
G1 X80.654 Y112.899 E.03686
G1 X80.827 Y112.993 E.0062
G1 X81.223 Y113.323 E.01615
G1 X81.695 Y114.065 E.02757
G1 X81.806 Y114.52 E.01471
G1 X81.78 Y115.108 E.01844
G1 X107.906 Y115.123 E.81915
G1 X107.886 Y114.508 E.01929
G1 X108.058 Y113.935 E.01877
G1 X108.543 Y113.26 E.02605
G1 X109.093 Y112.891 E.02078
G1 X109.905 Y112.666 E.02643
G1 X110.82 Y112.625 E.0287
G1 X111.572 Y112.679 E.02363
G1 X112.317 Y112.803 E.02369
G1 X112.864 Y113.057 E.01891
G1 X113.446 Y113.669 E.02649
G1 X113.709 Y114.214 E.01898
G1 X113.754 Y114.437 E.00712
G1 X113.782 Y117.114 E.08393
G1 X113.679 Y118.305 E.0375
G1 X112.388 Y121.38 E.10456
G1 X112.023 Y121.78 E.01696
G1 X111.592 Y122.065 E.01621
G1 X110.963 Y122.261 E.02064
G1 X102.482 Y122.264 E.26593
G1 X101.922 Y122.133 E.01803
G1 X101.381 Y121.837 E.01931
G1 X100.469 Y120.9 E.04101
G1 X95.045 Y120.897 E.17007
G1 X94.104 Y121.857 E.04217
G1 X93.766 Y122.053 E.01225
G1 X93.127 Y122.25 E.02094
G1 X82.699 Y122.253 E.32697
G1 X82.583 Y122.679 E.01385
G1 X82.25 Y123.243 E.02055
G1 X81.871 Y123.641 E.01723
G1 X80.993 Y124.128 E.03146
G1 X80.32 Y124.248 E.02146
G1 X78.925 Y124.265 E.04373
G1 X77.937 Y124.349 E.03111
G1 X76.001 Y124.347 E.0607
G1 X75.236 Y124.291 E.02405
G1 X74.518 Y124.08 E.02345
G1 X73.833 Y123.635 E.0256
G1 X73.303 Y122.994 E.02608
G1 X72.931 Y121.865 E.03726
G1 X72.9 Y121.193 E.02112
G1 X72.91 Y115.631 E.17438
G1 X72.977 Y115.023 E.01919
G1 X73.005 Y114.46 E.01767
G1 X73.193 Y113.909 E.01824
G1 X73.345 Y113.675 E.00877
G1 X73.818 Y113.204 E.02092
M204 S1000
G1 X74.084 Y113.471 F13200
M204 S800
G1 F750
G1 X74.52 Y113.234 E.01557
G1 X74.71 Y113.185 E.00616
G1 X77.285 Y113.153 E.08074
G1 X77.644 Y113.127 E.01128
G1 X78.16 Y113.04 E.01641
G1 X78.723 Y112.988 E.01773
G1 X79.489 Y112.99 E.024
G1 X80.5 Y113.244 E.03268
G1 X80.602 Y113.297 E.00362
G1 X80.959 Y113.594 E.01456
G1 X81.336 Y114.184 E.02195
G1 X81.433 Y114.58 E.01277
G1 X81.401 Y115.062 E.01516
G1 X81.435 Y115.485 E.01329
G1 X108.252 Y115.5 E.84084
G1 X108.286 Y115.078 E.0133
G1 X108.258 Y114.577 E.01572
G1 X108.385 Y114.127 E.01466
G1 X108.827 Y113.51 E.02379
G1 X109.27 Y113.225 E.01652
G1 X109.981 Y113.036 E.02307
G1 X110.824 Y113.002 E.02644
G1 X111.535 Y113.054 E.02236
G1 X112.228 Y113.171 E.02204
G1 X112.627 Y113.356 E.0138
G1 X113.152 Y113.907 E.02385
G1 X113.346 Y114.315 E.01416
G1 X113.377 Y114.461 E.00468
G1 X113.404 Y117.108 E.08301
G1 X113.306 Y118.243 E.03572
G1 X112.085 Y121.153 E.09894
G1 X111.794 Y121.479 E.0137
G1 X111.408 Y121.734 E.01451
G1 X110.883 Y121.892 E.0172
G1 X102.503 Y121.887 E.26273
G1 X102.08 Y121.789 E.01362
G1 X101.588 Y121.52 E.01757
G1 X100.631 Y120.523 E.04336
G1 X94.885 Y120.519 E.18015
G1 X93.889 Y121.547 E.04487
G1 X93.628 Y121.702 E.00951
G1 X93.097 Y121.872 E.0175
G1 X82.399 Y121.876 E.33542
G1 X82.243 Y122.513 E.02056
G1 X81.937 Y123.031 E.01888
G1 X81.621 Y123.357 E.01423
G1 X80.843 Y123.78 E.02778
G1 X80.274 Y123.874 E.01807
G1 X78.907 Y123.888 E.04287
G1 X77.929 Y123.971 E.03079
G1 X76.007 Y123.97 E.06026
G1 X75.322 Y123.923 E.02152
G1 X74.653 Y123.726 E.02188
G1 X74.067 Y123.338 E.02203
G1 X73.619 Y122.785 E.02232
G1 X73.307 Y121.823 E.0317
G1 X73.277 Y121.189 E.01991
G1 X73.287 Y115.642 E.1739
G1 X73.353 Y115.053 E.01858
G1 X73.38 Y114.507 E.01714
G1 X73.54 Y114.058 E.01495
G1 X73.625 Y113.928 E.00487
G1 X74.041 Y113.513 E.01843
M204 S1000
G1 X74.308 Y113.78 F13200
M204 S800
G1 F750
G1 X74.348 Y113.739 E.0018
G1 X74.665 Y113.582 E.01108
G1 X74.774 Y113.557 E.00353
G1 X77.301 Y113.53 E.07922
G1 X77.69 Y113.502 E.01222
G1 X78.202 Y113.415 E.01631
G1 X78.749 Y113.364 E.01722
G1 X79.464 Y113.367 E.02242
G1 X80.356 Y113.592 E.02882
G1 X80.663 Y113.829 E.01217
G1 X80.978 Y114.306 E.01794
G1 X81.059 Y114.637 E.01068
G1 X81.023 Y115.059 E.01328
G1 X81.057 Y115.497 E.01376
G1 X80.978 Y115.862 E.01171
G1 X108.708 Y115.878 E.86947
G1 X108.629 Y115.513 E.0117
G1 X108.664 Y115.076 E.01376
G1 X108.63 Y114.645 E.01355
G1 X108.739 Y114.261 E.01252
G1 X109.066 Y113.804 E.01763
G1 X109.399 Y113.581 E.01255
G1 X110.057 Y113.406 E.02136
G1 X110.826 Y113.379 E.02412
G1 X111.481 Y113.427 E.0206
G1 X112.138 Y113.538 E.02088
G1 X112.429 Y113.678 E.01014
