; generated by PrusaSlicer 2.3.1+win64 on 2021-08-05 at 21:23:05 UTC

; 

; external perimeters extrusion width = 0.45mm
; perimeters extrusion width = 0.45mm
; infill extrusion width = 0.45mm
; solid infill extrusion width = 0.45mm
; top infill extrusion width = 0.40mm
; support material extrusion width = 0.35mm
; first layer extrusion width = 0.42mm

M73 P0 R58
M73 Q0 S59
M201 X1000 Y1000 Z1000 E5000 ; sets maximum accelerations, mm/sec^2
M203 X200 Y200 Z12 E120 ; sets maximum feedrates, mm/sec
M204 P1250 R1250 T1250 ; sets acceleration (P, T) and retract acceleration (R), mm/sec^2
M205 X8.00 Y8.00 Z0.40 E1.50 ; sets the jerk limits, mm/sec
M205 S0 T0 ; sets the minimum extruding and travel feed rate, mm/sec
M107
;TYPE:Custom
M862.3 P "MK3S" ; printer model check
M862.1 P0.4 ; nozzle diameter check
M115 U3.8.0 ; tell printer latest fw version
G90 ; use absolute coordinates
M83 ; extruder relative mode
M104 S215 ; set extruder temp
M140 S60 ; set bed temp
M190 S60 ; wait for bed temp
M109 S215 ; wait for extruder temp
G28 W ; home all without mesh bed level
G80 ; mesh bed leveling
G1 Y-3.0 F1000.0 ; go outside print area
G92 E0.0
G1 X60.0 E9.0 F1000.0 ; intro line
G1 X100.0 E12.5 F1000.0 ; intro line
G92 E0.0
M221 S95
G21 ; set units to millimeters
G90 ; use absolute coordinates
M83 ; use relative distances for extrusion
M900 K0.05 ; Filament gcode LA 1.5
M900 K30 ; Filament gcode LA 1.0
;LAYER_CHANGE
;Z:0.2
;HEIGHT:0.2
;BEFORE_LAYER_CHANGE
G92 E0.0
;0.2


G1 E-0.80000 F2100.000
G1 Z0.600 F10800.000
;AFTER_LAYER_CHANGE
;0.2
G1 X162.327 Y75.896
G1 Z0.200
G1 E0.80000 F2100.000
M204 S1000
;TYPE:Perimeter
;WIDTH:0.42
G1 F1200.000
G1 X162.440 Y76.236 E0.01123
G1 X163.028 Y80.315 E0.12923
G1 X162.886 Y84.435 E0.12927
G1 X162.013 Y88.464 E0.12925
G1 X160.289 Y92.660 E0.14224
G1 X158.523 Y95.469 E0.10404
G1 X156.047 Y98.281 E0.11746
G1 X155.384 Y98.879 E0.02802
G1 X153.177 Y100.635 E0.08843
G1 X150.304 Y102.304 E0.10418
M73 Q0 S58
G1 X146.050 Y103.881 E0.14224
G1 X141.993 Y104.613 E0.12926
G1 X137.871 Y104.615 E0.12926
G1 X133.813 Y103.883 E0.12927
G1 X129.950 Y102.444 E0.12926
G1 X126.406 Y100.341 E0.12921
G1 X123.287 Y97.642 E0.12930
G1 X120.700 Y94.433 E0.12924
G1 X118.721 Y90.817 E0.12927
G1 X117.416 Y86.906 E0.12926
G1 X116.827 Y82.825 E0.12927
G1 X116.972 Y78.705 E0.12926
G1 X117.844 Y74.676 E0.12926
G1 X119.569 Y70.480 E0.14224
G1 X121.335 Y67.671 E0.10404
G1 X123.801 Y64.873 E0.11696
G1 X126.685 Y62.504 E0.11702
G1 X129.554 Y60.836 E0.10403
G1 X133.808 Y59.259 E0.14224
G1 X137.864 Y58.527 E0.12925
G1 X141.986 Y58.527 E0.12922
G1 X146.043 Y59.258 E0.12927
G1 X149.906 Y60.698 E0.12926
G1 X153.453 Y62.801 E0.12929
G1 X156.570 Y65.498 E0.12924
G1 X159.159 Y68.708 E0.12930
G1 X161.136 Y72.325 E0.12923
G1 X162.308 Y75.839 E0.11615
G1 X162.665 Y75.720 F10800.000
;TYPE:External perimeter
G1 F1200.000
G1 X162.808 Y76.148 E0.01417
G1 X163.406 Y80.294 E0.13134
G1 X163.262 Y84.482 E0.13138
G1 X162.375 Y88.577 E0.13137
G1 X160.726 Y92.570 E0.13545
G1 X160.766 Y92.611 E0.00178
G1 X158.826 Y95.695 E0.11425
G1 X156.316 Y98.546 E0.11909
G1 X155.628 Y99.167 E0.02906
G1 X153.390 Y100.948 E0.08966
G1 X150.238 Y102.778 E0.11431
G1 X150.198 Y102.737 E0.00178
G1 X146.150 Y104.246 E0.13545
G1 X142.027 Y104.990 E0.13137
G1 X137.837 Y104.992 E0.13138
G1 X133.713 Y104.248 E0.13139
G1 X129.787 Y102.785 E0.13138
G1 X126.185 Y100.648 E0.13133
G1 X123.015 Y97.905 E0.13142
G1 X120.386 Y94.644 E0.13136
G1 X118.374 Y90.968 E0.13139
G1 X117.048 Y86.993 E0.13138
G1 X116.449 Y82.846 E0.13139
G1 X116.596 Y78.658 E0.13138
G1 X117.483 Y74.563 E0.13137
G1 X119.132 Y70.570 E0.13545
G1 X119.092 Y70.530 E0.00178
G1 X121.032 Y67.445 E0.11426
G1 X123.538 Y64.600 E0.11887
G1 X126.470 Y62.193 E0.11893
G1 X129.620 Y60.362 E0.11425
G1 X129.659 Y60.403 E0.00178
G1 X133.707 Y58.894 E0.13545
G1 X137.831 Y58.150 E0.13137
G1 X142.019 Y58.150 E0.13133
G1 X146.143 Y58.893 E0.13139
G1 X150.070 Y60.356 E0.13138
G1 X153.675 Y62.494 E0.13140
G1 X156.843 Y65.235 E0.13135
G1 X159.473 Y68.498 E0.13142
G1 X161.483 Y72.173 E0.13134
G1 X162.646 Y75.663 E0.11532
G1 X162.409 Y76.027 F10800.000
G1 E-0.80000 F2100.000
G1 Z0.800 F10800.000
G1 X127.349 Y100.768
G1 Z0.200
G1 E0.80000 F2100.000
;TYPE:Solid infill
;WIDTH:0.420582
G1 F1200.000
G1 X121.274 Y94.694 E0.26978
G1 X120.936 Y94.275 E0.01688
G1 X120.389 Y93.274 E0.03583
G1 X128.177 Y101.063 E0.34588
G1 X129.490 Y101.842 E0.04796
G1 X119.742 Y92.094 E0.43291
G1 X119.096 Y90.914 E0.04225
G1 X130.547 Y102.364 E0.50850
G1 X131.398 Y102.681 E0.02853
G1 X118.761 Y90.045 E0.56119
G1 X118.494 Y89.244 E0.02653
G1 X132.249 Y102.999 E0.61087
G1 X133.101 Y103.316 E0.02853
G1 X118.227 Y88.442 E0.66055
G1 X117.960 Y87.641 E0.02653
G1 X133.937 Y103.618 E0.70956
G1 X134.589 Y103.736 E0.02079
G1 X117.693 Y86.840 E0.75035
G1 X117.602 Y86.215 E0.01981
G1 X135.240 Y103.853 E0.78329
G1 X135.892 Y103.970 E0.02079
G1 X117.512 Y85.591 E0.81623
G1 X117.422 Y84.967 E0.01981
G1 X136.543 Y104.088 E0.84918
G1 X137.195 Y104.205 E0.02079
G1 X117.332 Y84.342 E0.88212
M73 P1 R58
M73 Q1 S58
G1 X117.241 Y83.718 E0.01981
G1 X137.846 Y104.323 E0.91506
G1 X138.389 Y104.332 E0.01705
G1 X117.151 Y83.094 E0.94317
M73 P1 R57
G1 X117.110 Y82.810 E0.00901
G1 X117.120 Y82.529 E0.00884
G1 X138.923 Y104.331 E0.96827
G1 X139.457 Y104.331 E0.01677
G1 X117.138 Y82.013 E0.99117
G1 X117.156 Y81.497 E0.01621
G1 X139.991 Y104.331 E1.01408
G1 X140.525 Y104.331 E0.01677
G1 X117.175 Y80.981 E1.03699
G1 X117.193 Y80.465 E0.01621
G1 X141.059 Y104.331 E1.05989
G1 X141.593 Y104.330 E0.01677
G1 X117.211 Y79.949 E1.08280
G1 X117.229 Y79.433 E0.01621
G1 X142.102 Y104.306 E1.10463
G1 X142.555 Y104.224 E0.01444
G1 X117.247 Y78.917 E1.12392
G1 X117.253 Y78.740 E0.00555
G1 X117.316 Y78.451 E0.00928
G1 X143.007 Y104.143 E1.14096
G1 X143.460 Y104.061 E0.01444
G1 X117.411 Y78.013 E1.15683
G1 X117.506 Y77.574 E0.01411
G1 X143.912 Y103.980 E1.17269
G1 X144.364 Y103.898 E0.01444
G1 X117.601 Y77.135 E1.18856
G1 X117.696 Y76.696 E0.01411
G1 X144.817 Y103.816 E1.20443
G1 X145.269 Y103.735 E0.01444
G1 X117.791 Y76.257 E1.22030
G1 X117.886 Y75.818 E0.01411
G1 X145.722 Y103.653 E1.23617
G1 X145.975 Y103.607 E0.00809
G1 X146.147 Y103.544 E0.00574
G1 X117.982 Y75.379 E1.25081
G1 X118.077 Y74.940 E0.01411
G1 X146.536 Y103.399 E1.26389
M73 P2 R57
M73 Q2 S57
G1 X146.926 Y103.255 E0.01305
G1 X118.208 Y74.536 E1.27539
G1 X118.363 Y74.158 E0.01285
G1 X147.316 Y103.110 E1.28578
G1 X147.705 Y102.966 E0.01305
G1 X118.519 Y73.779 E1.29618
G1 X118.674 Y73.401 E0.01285
G1 X148.095 Y102.821 E1.30657
G1 X148.484 Y102.677 E0.01305
G1 X118.830 Y73.022 E1.31697
G1 X118.985 Y72.644 E0.01285
G1 X148.874 Y102.532 E1.32736
G1 X149.264 Y102.388 E0.01305
G1 X119.141 Y72.265 E1.33776
G1 X119.296 Y71.887 E0.01285
G1 X149.653 Y102.243 E1.34815
G1 X150.043 Y102.099 E0.01305
G1 X119.452 Y71.508 E1.35855
G1 X119.608 Y71.130 E0.01285
G1 X150.399 Y101.921 E1.36747
G1 X150.737 Y101.725 E0.01227
G1 X119.763 Y70.751 E1.37557
G1 X119.821 Y70.610 E0.00478
G1 X119.950 Y70.404 E0.00764
G1 X151.075 Y101.529 E1.38225
G1 X151.413 Y101.333 E0.01227
G1 X120.157 Y70.076 E1.38810
M73 P2 R56
G1 X120.363 Y69.748 E0.01216
G1 X151.751 Y101.137 E1.39395
G1 X152.089 Y100.940 E0.01227
G1 X120.569 Y69.420 E1.39980
G1 X120.775 Y69.093 E0.01216
G1 X152.427 Y100.744 E1.40565
M73 P3 R56
G1 X152.765 Y100.548 E0.01227
G1 X120.981 Y68.765 E1.41150
M73 Q3 S57
G1 X121.187 Y68.437 E0.01216
G1 X153.092 Y100.342 E1.41690
G1 X153.390 Y100.105 E0.01194
G1 X121.394 Y68.109 E1.42095
G1 X121.608 Y67.789 E0.01209
G1 X153.687 Y99.868 E1.42464
G1 X153.984 Y99.631 E0.01194
G1 X121.858 Y67.505 E1.42673
G1 X122.108 Y67.221 E0.01188
G1 X154.282 Y99.395 E1.42883
G1 X154.579 Y99.158 E0.01194
G1 X122.359 Y66.937 E1.43092
G1 X122.609 Y66.653 E0.01188
G1 X154.877 Y98.921 E1.43302
G1 X155.174 Y98.684 E0.01194
G1 X122.859 Y66.369 E1.43511
G1 X123.109 Y66.086 E0.01188
G1 X155.456 Y98.433 E1.43654
G1 X155.737 Y98.179 E0.01188
G1 X123.359 Y65.802 E1.43790
M73 Q3 S56
G1 X123.610 Y65.518 E0.01188
G1 X155.999 Y97.907 E1.43842
G1 X156.249 Y97.623 E0.01188
G1 X123.860 Y65.234 E1.43842
G1 X123.998 Y65.077 E0.00658
G1 X124.129 Y64.969 E0.00531
G1 X156.499 Y97.339 E1.43756
G1 X156.749 Y97.055 E0.01188
G1 X124.422 Y64.728 E1.43564
M73 P4 R56
G1 X124.716 Y64.488 E0.01192
G1 X156.999 Y96.771 E1.43373
M73 Q4 S56
G1 X157.249 Y96.487 E0.01188
G1 X125.009 Y64.247 E1.43181
G1 X125.302 Y64.006 E0.01192
G1 X157.500 Y96.203 E1.42989
G1 X157.750 Y95.919 E0.01188
G1 X125.595 Y63.765 E1.42798
G1 X125.889 Y63.524 E0.01192
G1 X158.000 Y95.635 E1.42606
G1 X158.250 Y95.351 E0.01188
G1 X126.182 Y63.283 E1.42414
G1 X126.475 Y63.042 E0.01192
G1 X158.464 Y95.031 E1.42064
G1 X158.670 Y94.703 E0.01216
G1 X126.768 Y62.801 E1.41677
M73 P4 R55
G1 X127.094 Y62.593 E0.01214
G1 X158.876 Y94.375 E1.41146
G1 X159.083 Y94.048 E0.01216
G1 X127.432 Y62.397 E1.40561
G1 X127.770 Y62.201 E0.01227
G1 X159.289 Y93.720 E1.39977
G1 X159.495 Y93.392 E0.01216
G1 X128.107 Y62.004 E1.39392
G1 X128.445 Y61.808 E0.01227
G1 X159.701 Y93.064 E1.38808
G1 X159.907 Y92.736 E0.01216
G1 X128.783 Y61.612 E1.38224
G1 X129.121 Y61.415 E0.01227
G1 X160.095 Y92.389 E1.37555
G1 X160.250 Y92.011 E0.01285
G1 X129.458 Y61.219 E1.36746
M73 P5 R55
M73 Q5 S56
G1 X129.675 Y61.093 E0.00787
G1 X129.815 Y61.041 E0.00468
G1 X160.406 Y91.632 E1.35854
G1 X160.561 Y91.254 E0.01285
G1 X130.204 Y60.897 E1.34815
G1 X130.594 Y60.752 E0.01305
G1 X160.717 Y90.875 E1.33776
G1 X160.872 Y90.496 E0.01285
G1 X130.984 Y60.608 E1.32736
G1 X131.373 Y60.463 E0.01305
G1 X161.028 Y90.118 E1.31697
G1 X161.183 Y89.739 E0.01285
G1 X131.763 Y60.319 E1.30657
M73 Q5 S55
G1 X132.153 Y60.174 E0.01305
G1 X161.339 Y89.361 E1.29618
G1 X161.495 Y88.982 E0.01285
G1 X132.542 Y60.030 E1.28578
G1 X132.932 Y59.885 E0.01305
G1 X161.650 Y88.604 E1.27539
G1 X161.742 Y88.380 E0.00761
G1 X161.781 Y88.201 E0.00575
G1 X133.321 Y59.741 E1.26390
G1 X133.711 Y59.596 E0.01305
G1 X161.876 Y87.762 E1.25082
G1 X161.971 Y87.323 E0.01411
G1 X134.136 Y59.487 E1.23618
G1 X134.588 Y59.406 E0.01444
G1 X162.066 Y86.884 E1.22031
G1 X162.161 Y86.445 E0.01411
G1 X135.041 Y59.324 E1.20444
G1 X135.493 Y59.242 E0.01444
G1 X162.257 Y86.006 E1.18857
G1 X162.352 Y85.567 E0.01411
G1 X135.946 Y59.161 E1.17270
G1 X136.398 Y59.079 E0.01444
G1 X162.447 Y85.128 E1.15683
M73 P6 R55
M73 Q6 S55
G1 X162.542 Y84.689 E0.01411
G1 X136.850 Y58.997 E1.14096
G1 X137.303 Y58.916 E0.01444
G1 X162.611 Y84.223 E1.12392
G1 X162.628 Y83.707 E0.01622
G1 X137.755 Y58.834 E1.10461
G1 X137.889 Y58.810 E0.00427
G1 X138.266 Y58.811 E0.01184
G1 X162.646 Y83.191 E1.08271
M73 P6 R54
G1 X162.664 Y82.674 E0.01622
G1 X138.802 Y58.813 E1.05971
G1 X139.338 Y58.814 E0.01682
G1 X162.682 Y82.158 E1.03671
G1 X162.700 Y81.642 E0.01622
G1 X139.874 Y58.816 E1.01371
G1 X140.409 Y58.817 E0.01682
G1 X162.717 Y81.125 E0.99071
G1 X162.735 Y80.609 E0.01622
G1 X140.945 Y58.819 E0.96770
G1 X141.481 Y58.821 E0.01682
G1 X162.703 Y80.043 E0.94250
G1 X162.613 Y79.419 E0.01980
G1 X142.016 Y58.822 E0.91471
G1 X142.665 Y58.937 E0.02068
G1 X162.523 Y78.795 E0.88191
G1 X162.433 Y78.171 E0.01980
G1 X143.316 Y59.054 E0.84898
G1 X143.968 Y59.172 E0.02079
G1 X162.343 Y77.547 E0.81605
G1 X162.253 Y76.923 E0.01980
G1 X144.619 Y59.289 E0.78312
G1 X145.271 Y59.406 E0.02079
G1 X162.163 Y76.298 E0.75016
G1 X161.895 Y75.497 E0.02653
G1 X145.923 Y59.524 E0.70935
G1 X146.760 Y59.827 E0.02797
G1 X161.628 Y74.695 E0.66030
G1 X161.361 Y73.894 E0.02653
G1 X147.611 Y60.144 E0.61062
G1 X148.463 Y60.462 E0.02853
G1 X161.094 Y73.093 E0.56094
G1 X160.875 Y72.438 E0.02166
G1 X160.757 Y72.222 E0.00774
G1 X149.314 Y60.779 E0.50819
G1 X149.784 Y60.954 E0.01575
G1 X150.372 Y61.303 E0.02146
G1 X160.113 Y71.044 E0.43261
G1 X159.469 Y69.866 E0.04217
G1 X151.684 Y62.081 E0.34574
G1 X152.996 Y62.859 E0.04790
G1 X159.251 Y69.114 E0.27781
G1 E-0.80000 F2100.000
G1 Z0.800 F10800.000
G1 X89.249 Y119.324
G1 Z0.200
G1 E0.80000 F2100.000
;TYPE:Perimeter
;WIDTH:0.42
G1 F1200.000
G1 X89.689 Y118.155 E0.03917
G1 X92.084 Y114.303 E0.14220
M73 P7 R54
G1 X95.184 Y110.993 E0.14220
G1 X98.871 Y108.352 E0.14220
G1 X103.002 Y106.480 E0.14220
G1 X106.452 Y105.675 E0.11109
G1 X106.452 Y104.246 E0.04481
G1 X114.425 Y104.246 E0.24997
G1 X114.425 Y105.710 E0.04590
G1 X116.426 Y106.041 E0.06359
M73 Q7 S55
G1 X120.670 Y107.638 E0.14220
G1 X124.521 Y110.033 E0.14220
G1 X127.831 Y113.133 E0.14220
G1 X130.473 Y116.819 E0.14220
G1 X132.345 Y120.950 E0.14220
G1 X133.374 Y125.367 E0.14220
G1 X133.523 Y129.900 E0.14220
G1 X132.784 Y134.374 E0.14220
G1 X132.069 Y136.273 E0.06360
G1 X133.337 Y137.005 E0.04590
G1 X129.351 Y143.909 E0.24997
G1 X128.113 Y143.194 E0.04482
M73 Q7 S54
G1 X125.692 Y145.780 E0.11107
G1 X122.005 Y148.422 E0.14220
G1 X117.874 Y150.293 E0.14220
G1 X113.458 Y151.323 E0.14220
G1 X108.925 Y151.472 E0.14220
G1 X104.450 Y150.733 E0.14220
G1 X100.206 Y149.135 E0.14220
G1 X96.355 Y146.741 E0.14217
G1 X92.653 Y143.258 E0.15938
G1 X91.525 Y143.909 E0.04084
G1 X87.539 Y137.004 E0.24997
G1 X88.667 Y136.353 E0.04084
G1 X87.501 Y131.406 E0.15938
G1 X87.353 Y126.874 E0.14217
G1 X88.092 Y122.399 E0.14220
G1 X89.228 Y119.380 E0.10115
G1 X88.875 Y119.247 F10800.000
;TYPE:External perimeter
G1 F1200.000
G1 X89.349 Y117.987 E0.04221
G1 X91.784 Y114.073 E0.14452
G1 X94.934 Y110.708 E0.14453
G1 X98.681 Y108.024 E0.14453
G1 X102.880 Y106.121 E0.14453
G1 X106.075 Y105.376 E0.10287
G1 X106.075 Y103.869 E0.04725
G1 X114.802 Y103.869 E0.27362
G1 X114.802 Y105.390 E0.04769
G1 X116.524 Y105.675 E0.05472
G1 X120.838 Y107.298 E0.14452
G1 X124.752 Y109.732 E0.14452
G1 X128.116 Y112.883 E0.14453
G1 X130.801 Y116.630 E0.14453
G1 X132.703 Y120.829 E0.14453
G1 X133.750 Y125.318 E0.14453
G1 X133.901 Y129.925 E0.14452
G1 X133.150 Y134.472 E0.14452
G1 X132.535 Y136.106 E0.05473
G1 X133.853 Y136.867 E0.04770
G1 X129.489 Y144.424 E0.27362
G1 X128.184 Y143.671 E0.04726
G1 X125.941 Y146.065 E0.10286
G1 X122.195 Y148.750 E0.14453
G1 X117.996 Y150.652 E0.14453
G1 X113.507 Y151.699 E0.14453
G1 X108.900 Y151.850 E0.14452
G1 X104.352 Y151.099 E0.14452
G1 X100.038 Y149.475 E0.14452
G1 X96.124 Y147.041 E0.14452
G1 X92.599 Y143.724 E0.15176
G1 X91.387 Y144.424 E0.04388
G1 X87.024 Y136.866 E0.27362
G1 X88.236 Y136.167 E0.04388
G1 X87.126 Y131.455 E0.15176
G1 X86.975 Y126.849 E0.14452
G1 X87.726 Y122.301 E0.14452
G1 X88.854 Y119.303 E0.10043
G1 X89.267 Y119.167 F10800.000
G1 E-0.80000 F2100.000
G1 Z0.800 F10800.000
G1 X92.054 Y143.473
G1 Z0.200
G1 E0.80000 F2100.000
;TYPE:Solid infill
;WIDTH:0.420712
G1 F1200.000
G1 X90.980 Y142.399 E0.04772
G1 X90.250 Y141.135 E0.04585
G1 X92.268 Y143.153 E0.08967
G1 X92.607 Y142.958 E0.01229
G1 X89.520 Y139.871 E0.13714
G1 X88.790 Y138.606 E0.04585
G1 X96.981 Y146.797 E0.36385
G1 X98.393 Y147.675 E0.05226
G1 X88.061 Y137.342 E0.45904
G1 X87.925 Y137.108 E0.00850
G1 X88.201 Y136.949 E0.01001
G1 X99.806 Y148.554 E0.51556
G1 X100.332 Y148.880 E0.01943
G1 X100.870 Y149.083 E0.01806
G1 X88.540 Y136.753 E0.54776
G1 X88.879 Y136.558 E0.01229
G1 X101.726 Y149.405 E0.57077
G1 X102.583 Y149.728 E0.02876
G1 X88.880 Y136.025 E0.60876
G1 X88.716 Y135.326 E0.02256
G1 X103.440 Y150.050 E0.65413
G1 X104.297 Y150.373 E0.02876
G1 X88.551 Y134.627 E0.69951
G1 X88.386 Y133.928 E0.02256
G1 X104.994 Y150.536 E0.73781
G1 X105.634 Y150.642 E0.02037
G1 X88.222 Y133.229 E0.77355
G1 X88.057 Y132.530 E0.02256
G1 X106.274 Y150.747 E0.80930
G1 X106.914 Y150.853 E0.02037
G1 X87.892 Y131.831 E0.84504
G1 X87.783 Y131.368 E0.01495
G1 X87.777 Y131.182 E0.00586
G1 X107.554 Y150.959 E0.87859
G1 X108.194 Y151.064 E0.02037
G1 X87.759 Y130.629 E0.90782
G1 X87.741 Y130.077 E0.01736
G1 X108.834 Y151.170 E0.93705
M73 P7 R53
G1 X108.943 Y151.188 E0.00350
G1 X109.372 Y151.174 E0.01347
G1 X87.723 Y129.525 E0.96178
M73 P8 R53
G1 X87.705 Y128.972 E0.01736
G1 X109.889 Y151.157 E0.98556
M73 Q8 S54
G1 X110.407 Y151.140 E0.01626
G1 X87.687 Y128.420 E1.00935
G1 X87.669 Y127.868 E0.01736
G1 X110.924 Y151.123 E1.03314
G1 X111.441 Y151.106 E0.01626
G1 X87.650 Y127.315 E1.05692
G1 X87.637 Y126.892 E0.01330
G1 X87.654 Y126.785 E0.00342
G1 X111.959 Y151.089 E1.07973
