; generated by PrusaSlicer 2.4.2+win64 on 2022-08-02 at 21:13:22 UTC

; 

; external perimeters extrusion width = 0.45mm
; perimeters extrusion width = 0.45mm
; infill extrusion width = 0.45mm
; solid infill extrusion width = 0.45mm
; top infill extrusion width = 0.40mm
; support material extrusion width = 0.35mm
; first layer extrusion width = 0.42mm

M73 P0 R237
M73 Q0 S241
M201 X1000 Y1000 Z200 E5000 ; sets maximum accelerations, mm/sec^2
M203 X200 Y200 Z12 E120 ; sets maximum feedrates, mm / sec
M204 P1250 R1250 T1250 ; sets acceleration (P, T) and retract acceleration (R), mm/sec^2
M205 X8.00 Y8.00 Z0.40 E4.50 ; sets the jerk limits, mm/sec
M205 S0 T0 ; sets the minimum extruding and travel feed rate, mm/sec
M107
;TYPE:Custom
M862.3 P "MK3S" ; printer model check
M862.1 P0.4 ; nozzle diameter check
M115 U3.10.1 ; tell printer latest fw version
G90 ; use absolute coordinates
M83 ; extruder relative mode
M104 S215 ; set extruder temp
M140 S60 ; set bed temp
M190 S60 ; wait for bed temp
M109 S215 ; wait for extruder temp
G28 W ; home all without mesh bed level
G80 ; mesh bed leveling
G1 Z0.2 F720
G1 Y-3 F1000 ; go outside print area
G92 E0
G1 X60 E9 F1000 ; intro line
G1 X100 E12.5 F1000 ; intro line
G92 E0
M221 S95

; Don't change E values below. Excessive value can damage the printer.

G21 ; set units to millimeters
G90 ; use absolute coordinates
M83 ; use relative distances for extrusion
M900 K0.05 ; Filament gcode LA 1.5
M900 K30 ; Filament gcode LA 1.0
M107
;LAYER_CHANGE
;Z:0.2
;HEIGHT:0.2
;BEFORE_LAYER_CHANGE
G92 E0.0
;0.2


G1 E-.8 F2100
G1 Z.4 F720
;AFTER_LAYER_CHANGE
;0.2
G1 X48.183 Y33.919 F10800
G1 Z.2 F720
G1 E.8 F2100
M204 S800
;TYPE:Skirt/Brim
;WIDTH:0.42
G1 F600
G1 X49.284 Y32.596 E.05397
G1 X51.542 Y31.84 E.07467
G1 X198.458 Y31.84 E4.60642
G1 X200.133 Y32.235 E.05397
M73 P0 R236
G1 X201.456 Y33.336 E.05397
G1 X202.212 Y35.594 E.07467
G1 X202.212 Y174.406 E4.35233
G1 X201.817 Y176.081 E.05397
G1 X200.716 Y177.404 E.05397
G1 X198.458 Y178.16 E.07467
G1 X51.542 Y178.16 E4.60642
G1 X49.867 Y177.765 E.05397
G1 X48.544 Y176.664 E.05397
G1 X47.788 Y174.406 E.07467
G1 X47.788 Y35.594 E4.35233
G1 X48.169 Y33.977 E.05209
M204 S1000
M73 Q0 S240
G1 X48.545 Y34.071 F10800
M204 S800
G1 F600
G1 X48.559 Y34.011 E.00192
G1 X49.65 Y32.798 E.05115
G1 X51.542 Y32.217 E.06207
G1 X198.458 Y32.217 E4.60642
G1 X200.041 Y32.611 E.05115
M73 P0 R235
G1 X201.254 Y33.702 E.05115
G1 X201.835 Y35.594 E.06207
G1 X201.835 Y174.406 E4.35233
G1 X201.441 Y175.989 E.05115
G1 X200.35 Y177.202 E.05115
G1 X198.458 Y177.783 E.06207
G1 X51.542 Y177.783 E4.60642
G1 X49.959 Y177.389 E.05115
G1 X48.746 Y176.298 E.05115
G1 X48.165 Y174.406 E.06207
G1 X48.165 Y35.594 E4.35233
G1 X48.53 Y34.129 E.04735
M204 S1000
; printing object DT Bank BracketV1R2.stl id:0 copy 9
;WIPE_START
M73 Q0 S239
G1 F8640
G1 X48.559 Y34.011 E-.028
G1 X49.65 Y32.798 E-.37671
G1 X51.121 Y32.347 E-.3553
;WIPE_END
G1 E-.04 F2100
G1 Z.6 F720
G1 X56.138 Y166.593 F10800
G1 Z.2 F720
G1 E.8 F2100
M204 S800
;TYPE:External perimeter
G1 F300
G1 X56.852 Y166.653 E.02248
G1 X57.494 Y166.848 E.02102
G1 X58.084 Y167.163 E.02097
G1 X58.601 Y167.587 E.02097
G1 X59.025 Y168.104 E.02097
G1 X59.34 Y168.694 E.02097
G1 X59.535 Y169.334 E.02097
G1 X59.6 Y170 E.02097
G1 X59.535 Y170.666 E.02097
G1 X59.34 Y171.306 E.02097
G1 X59.025 Y171.896 E.02097
G1 X58.601 Y172.413 E.02097
G1 X58.084 Y172.837 E.02097
G1 X57.494 Y173.152 E.02097
G1 X56.854 Y173.346 E.02097
G1 X56.188 Y173.412 E.02097
G1 X55.523 Y173.346 E.02097
G1 X54.883 Y173.152 E.02097
G1 X54.293 Y172.837 E.02097
G1 X53.776 Y172.413 E.02097
G1 X53.351 Y171.896 E.02097
G1 X53.036 Y171.306 E.02097
G1 X52.842 Y170.666 E.02097
G1 X52.776 Y170 E.02097
G1 X52.842 Y169.334 E.02097
G1 X53.036 Y168.694 E.02097
G1 X53.351 Y168.104 E.02097
G1 X53.776 Y167.587 E.02097
G1 X54.293 Y167.163 E.02097
G1 X54.883 Y166.848 E.02097
G1 X55.523 Y166.654 E.02097
G1 X56.078 Y166.599 E.0175
M204 S1000
G1 X56.334 Y166.244 F10800
;WIPE_START
G1 F8640
G1 X56.852 Y166.653 E-.17922
G1 X57.494 Y166.848 E-.15479
G1 X58.084 Y167.163 E-.15444
G1 X58.601 Y167.587 E-.15444
G1 X58.923 Y167.979 E-.1171
;WIPE_END
G1 E-.04 F2100
G1 Z.6 F720
G1 X56.188 Y43.412 F10800
G1 Z.2 F720
G1 E.8 F2100
M204 S800
G1 F300
G1 X55.523 Y43.346 E.02097
G1 X54.883 Y43.152 E.02097
G1 X54.293 Y42.837 E.02097
G1 X53.776 Y42.413 E.02097
G1 X53.351 Y41.896 E.02097
G1 X53.036 Y41.306 E.02097
G1 X52.842 Y40.666 E.02097
G1 X52.776 Y40 E.02097
G1 X52.842 Y39.334 E.02097
G1 X53.036 Y38.694 E.02097
G1 X53.351 Y38.104 E.02097
G1 X53.776 Y37.587 E.02097
G1 X54.293 Y37.163 E.02097
G1 X54.883 Y36.848 E.02097
G1 X55.523 Y36.654 E.02097
G1 X56.188 Y36.588 E.02097
G1 X56.854 Y36.654 E.02097
G1 X57.494 Y36.848 E.02097
G1 X58.084 Y37.163 E.02097
G1 X58.601 Y37.587 E.02097
G1 X59.025 Y38.104 E.02097
G1 X59.34 Y38.694 E.02097
G1 X59.535 Y39.334 E.02097
G1 X59.6 Y40 E.02097
G1 X59.535 Y40.666 E.02097
G1 X59.34 Y41.306 E.02097
G1 X59.025 Y41.896 E.02097
G1 X58.601 Y42.413 E.02097
M73 P0 R234
G1 X58.084 Y42.837 E.02097
G1 X57.494 Y43.152 E.02097
G1 X56.854 Y43.346 E.02097
G1 X56.248 Y43.406 E.01909
M204 S1000
G1 X55.988 Y43.758 F10800
;WIPE_START
G1 F8640
G1 X55.523 Y43.346 E-.16805
G1 X54.883 Y43.152 E-.15444
G1 X54.293 Y42.837 E-.15444
G1 X53.776 Y42.413 E-.15444
G1 X53.422 Y41.982 E-.12862
;WIPE_END
G1 E-.04 F2100
G1 Z.6 F720
G1 X56.188 Y44.549 F10800
G1 Z.2 F720
G1 E.8 F2100
M204 S800
;TYPE:Perimeter
G1 F540
G1 X57.076 Y44.461 E.02796
G1 X57.929 Y44.202 E.02796
G1 X58.715 Y43.782 E.02796
G1 X59.293 Y43.308 E.02342
G1 X59.293 Y60.143 E.52783
G1 X53.084 Y54.332 E.26664
G1 X53.084 Y43.308 E.34563
G1 X53.661 Y43.782 E.02342
G1 X54.448 Y44.202 E.02796
G1 X55.301 Y44.461 E.02796
G1 X56.129 Y44.543 E.02608
M204 S1000
;WIPE_START
G1 F8640
G1 X57.076 Y44.461 E-.2195
G1 X57.929 Y44.202 E-.2059
G1 X58.715 Y43.782 E-.2059
G1 X59.146 Y43.428 E-.12871
;WIPE_END
G1 E-.04 F2100
G1 Z.6 F720
G1 X57.066 Y165.536 F10800
G1 Z.2 F720
M73 P1 R234
G1 E.8 F2100
M204 S800
G1 F540
G1 X56.13 Y165.457 E.02947
G1 X55.301 Y165.539 E.02612
G1 X54.448 Y165.798 E.02796
G1 X53.661 Y166.218 E.02796
G1 X53.084 Y166.692 E.02342
G1 X53.084 Y155.668 E.34563
G1 X59.293 Y149.857 E.26664
M73 Q1 S239
G1 X59.293 Y166.692 E.52783
G1 X58.715 Y166.218 E.02342
G1 X57.929 Y165.798 E.02796
G1 X57.124 Y165.553 E.02638
M204 S1000
G1 X57.014 Y165.914 F10800
M204 S800
G1 F540
G1 X56.132 Y165.836 E.02776
G1 X55.375 Y165.91 E.02387
G1 X54.593 Y166.148 E.02563
G1 X53.872 Y166.533 E.02563
G1 X53.24 Y167.051 E.02563
G1 X52.707 Y167.711 E.02658
G1 X52.707 Y155.505 E.3827
G1 X59.203 Y149.425 E.27897
G1 X59.203 Y60.575 E2.78584
G1 X52.707 Y54.495 E.27897
G1 X52.707 Y42.289 E.3827
G1 X53.24 Y42.949 E.02658
G1 X53.872 Y43.467 E.02563
G1 X54.593 Y43.852 E.02563
G1 X55.375 Y44.09 E.02563
G1 X56.188 Y44.17 E.02563
G1 X57.002 Y44.09 E.02563
G1 X57.784 Y43.852 E.02563
G1 X58.505 Y43.467 E.02563
G1 X59.137 Y42.949 E.02563
G1 X59.67 Y42.289 E.02658
G1 X59.67 Y167.711 E3.93249
G1 X59.137 Y167.051 E.02658
M73 Q1 S238
G1 X58.505 Y166.533 E.02563
G1 X57.784 Y166.148 E.02563
G1 X57.072 Y165.932 E.02333
M204 S1000
;WIPE_START
G1 F8640
G1 X56.132 Y165.836 E-.21802
G1 X55.375 Y165.91 E-.17581
G1 X54.593 Y166.148 E-.18875
G1 X53.915 Y166.51 E-.17742
;WIPE_END
G1 E-.04 F2100
G1 Z.6 F720
G1 X52.707 Y37.711 F10800
G1 Z.2 F720
G1 E.8 F2100
M204 S800
G1 F300
G1 X52.707 Y36.759 E.02985
G1 X53.597 Y36.759 E.02791
G1 X53.24 Y37.052 E.01448
G1 X52.74 Y37.661 E.02472
M204 S1000
;WIPE_START
G1 F8640
G1 X52.707 Y36.759 E-.20849
G1 X53.597 Y36.759 E-.20553
G1 X53.24 Y37.052 E-.10664
G1 X52.74 Y37.661 E-.18201
;WIPE_END
G1 E-.09733 F2100
G1 Z.6 F720
G1 X58.78 Y36.759 F10800
G1 Z.2 F720
G1 E.8 F2100
M204 S800
G1 F300
G1 X59.67 Y36.759 E.02791
G1 X59.67 Y37.711 E.02985
G1 X59.137 Y37.052 E.02658
G1 X58.826 Y36.797 E.0126
M204 S1000
;WIPE_START
G1 F8640
G1 X59.67 Y36.759 E-.19502
G1 X59.67 Y37.711 E-.21984
G1 X59.137 Y37.052 E-.19574
G1 X58.826 Y36.797 E-.09279
;WIPE_END
G1 E-.09662 F2100
G1 Z.6 F720
G1 X52.707 Y172.289 F10800
G1 Z.2 F720
G1 E.8 F2100
M204 S800
G1 F300
G1 X53.24 Y172.948 E.02658
G1 X53.597 Y173.241 E.01448
G1 X52.707 Y173.241 E.02791
G1 X52.707 Y172.349 E.02797
M204 S1000
;WIPE_START
G1 F8640
G1 X53.24 Y172.948 E-.18517
G1 X53.597 Y173.241 E-.10664
G1 X52.707 Y173.241 E-.20553
G1 X52.707 Y172.349 E-.20598
;WIPE_END
G1 E-.09668 F2100
G1 Z.6 F720
G1 X59.67 Y172.289 F10800
G1 Z.2 F720
G1 E.8 F2100
M204 S800
G1 F300
G1 X59.67 Y173.241 E.02985
G1 X58.78 Y173.241 E.02791
G1 X59.137 Y172.948 E.01448
G1 X59.637 Y172.339 E.02472
M204 S1000
G1 X59.34 Y172.106 F10800
M204 S800
G1 F540
G1 X59.691 Y171.451 E.0233
G1 X59.906 Y170.74 E.0233
G1 X59.979 Y170 E.0233
G1 X59.906 Y169.26 E.0233
G1 X59.691 Y168.549 E.0233
G1 X59.34 Y167.894 E.0233
G1 X58.869 Y167.319 E.0233
G1 X58.294 Y166.848 E.0233
G1 X57.639 Y166.498 E.0233
G1 X56.924 Y166.281 E.02343
G1 X56.135 Y166.214 E.02481
G1 X55.449 Y166.282 E.02163
G1 X54.738 Y166.498 E.0233
G1 X54.082 Y166.848 E.0233
G1 X53.508 Y167.319 E.0233
G1 X53.036 Y167.894 E.0233
G1 X52.686 Y168.549 E.0233
G1 X52.47 Y169.26 E.0233
G1 X52.397 Y170 E.0233
G1 X52.47 Y170.74 E.0233
G1 X52.686 Y171.451 E.0233
G1 X53.036 Y172.106 E.0233
G1 X53.508 Y172.681 E.0233
G1 X54.082 Y173.152 E.0233
G1 X54.738 Y173.502 E.0233
G1 X55.121 Y173.619 E.01255
G1 X52.33 Y173.619 E.08751
G1 X52.33 Y155.341 E.57307
G1 X58.826 Y149.262 E.27897
G1 X58.826 Y60.738 E2.77558
G1 X52.33 Y54.659 E.27897
M73 P1 R233
G1 X52.33 Y36.381 E.57307
G1 X55.121 Y36.381 E.08751
G1 X54.738 Y36.498 E.01255
G1 X54.082 Y36.848 E.0233
G1 X53.508 Y37.319 E.0233
G1 X53.036 Y37.894 E.0233
G1 X52.686 Y38.549 E.0233
G1 X52.47 Y39.26 E.0233
G1 X52.397 Y40 E.0233
G1 X52.47 Y40.74 E.0233
G1 X52.686 Y41.451 E.0233
G1 X53.036 Y42.106 E.0233
G1 X53.508 Y42.681 E.0233
G1 X54.082 Y43.152 E.0233
G1 X54.738 Y43.502 E.0233
G1 X55.449 Y43.718 E.0233
G1 X56.188 Y43.791 E.0233
G1 X56.928 Y43.718 E.0233
G1 X57.639 Y43.502 E.0233
G1 X58.294 Y43.152 E.0233
G1 X58.869 Y42.681 E.0233
G1 X59.34 Y42.106 E.0233
G1 X59.691 Y41.451 E.0233
G1 X59.906 Y40.74 E.0233
G1 X59.979 Y40 E.0233
G1 X59.906 Y39.26 E.0233
G1 X59.691 Y38.549 E.0233
G1 X59.34 Y37.894 E.0233
G1 X58.869 Y37.319 E.0233
G1 X58.294 Y36.848 E.0233
G1 X57.639 Y36.498 E.0233
G1 X57.256 Y36.381 E.01255
G1 X60.047 Y36.381 E.08751
G1 X60.047 Y173.619 E4.30297
G1 X57.256 Y173.619 E.08751
G1 X57.639 Y173.502 E.01255
G1 X58.294 Y173.152 E.0233
G1 X58.869 Y172.681 E.0233
G1 X59.302 Y172.152 E.02142
M204 S1000
;WIPE_START
G1 F8640
G1 X59.691 Y171.451 E-.1852
G1 X59.906 Y170.74 E-.17159
G1 X59.979 Y170 E-.17159
G1 X59.906 Y169.26 E-.17159
G1 X59.831 Y169.012 E-.06002
;WIPE_END
G1 E-.04 F2100
G1 Z.6 F720
G1 X58.449 Y149.098 F10800
G1 Z.2 F720
G1 E.8 F2100
M204 S800
;TYPE:External perimeter
G1 F300
G1 X58.449 Y60.902 E2.76532
G1 X51.952 Y54.822 E.27897
M73 Q1 S237
G1 X51.952 Y36.004 E.59002
G1 X60.424 Y36.004 E.26562
G1 X60.424 Y173.996 E4.32662
G1 X51.952 Y173.996 E.26562
M73 P1 R232
G1 X51.952 Y155.178 E.59002
G1 X58.405 Y149.139 E.27709
M204 S1000
G1 X58.811 Y148.928 F10800
;WIPE_START
G1 F8640
G1 X58.406 Y145.848 E-.76
;WIPE_END
G1 E-.04 F2100
G1 Z.6 F720
G1 X59.436 Y149.465 F10800
G1 Z.2 F720
G1 E.8 F2100
M204 S800
;TYPE:Gap fill
;WIDTH:0.132972
G1 F480
G1 X59.436 Y60.535 E.66589
M204 S1000
;WIPE_START
G1 F8640
M73 P2 R232
M73 Q2 S236
G1 X59.436 Y63.827 E-.76
;WIPE_END
G1 E-.04 F2100
G1 Z.6 F720
G1 X59.18 Y44.302 F10800
G1 Z.2 F720
G1 E.8 F2100
M204 S800
;TYPE:Solid infill
;WIDTH:0.426209
G1 F960
G1 X58.886 Y44.008 E.01324
G1 X58.535 Y44.199 E.01273
G1 X59.01 Y44.674 E.02141
G1 X59.01 Y45.216 E.01728
G1 X58.182 Y44.388 E.03733
G1 X58.038 Y44.465 E.0052
G1 X57.791 Y44.54 E.0082
G1 X59.01 Y45.758 E.05492
G1 X59.01 Y46.3 E.01728
G1 X57.375 Y44.666 E.07367
G1 X57.131 Y44.74 E.00814
G1 X56.928 Y44.76 E.00652
G1 X59.01 Y46.842 E.09386
G1 X59.01 Y47.384 E.01728
G1 X56.434 Y44.809 E.1161
G1 X56.188 Y44.833 E.00788
G1 X55.887 Y44.803 E.00966
G1 X59.01 Y47.927 E.14078
G1 X59.01 Y48.469 E.01728
G1 X55.285 Y44.744 E.16788
G1 X54.519 Y44.52 E.02545
G1 X59.01 Y49.011 E.20242
G1 X59.01 Y49.553 E.01728
G1 X53.366 Y43.909 E.25436
G1 X53.366 Y44.451 E.01728
G1 X59.01 Y50.095 E.25436
G1 X59.01 Y50.637 E.01728
G1 X53.366 Y44.993 E.25436
G1 X53.366 Y45.535 E.01728
G1 X59.01 Y51.179 E.25436
G1 X59.01 Y51.721 E.01728
G1 X53.366 Y46.077 E.25436
G1 X53.366 Y46.619 E.01728
G1 X59.01 Y52.263 E.25436
G1 X59.01 Y52.805 E.01728
G1 X53.366 Y47.162 E.25436
G1 X53.366 Y47.704 E.01728
G1 X59.01 Y53.347 E.25436
G1 X59.01 Y53.889 E.01728
G1 X53.366 Y48.246 E.25436
G1 X53.366 Y48.788 E.01728
G1 X59.01 Y54.431 E.25436
G1 X59.01 Y54.973 E.01728
G1 X53.366 Y49.33 E.25436
G1 X53.366 Y49.872 E.01728
G1 X59.01 Y55.515 E.25436
G1 X59.01 Y56.057 E.01728
G1 X53.366 Y50.414 E.25436
G1 X53.366 Y50.956 E.01728
G1 X59.01 Y56.599 E.25436
G1 X59.01 Y57.141 E.01728
G1 X53.366 Y51.498 E.25436
G1 X53.366 Y52.04 E.01728
G1 X59.01 Y57.683 E.25436
G1 X59.01 Y58.226 E.01728
G1 X53.366 Y52.582 E.25436
G1 X53.366 Y53.124 E.01728
G1 X59.01 Y58.768 E.25436
G1 X59.01 Y59.31 E.01728
G1 X53.366 Y53.666 E.25436
G1 X53.366 Y54.208 E.01728
G1 X57.004 Y57.846 E.16395
M204 S1000
;WIPE_START
G1 F8640
G1 X54.677 Y55.518 E-.76
;WIPE_END
G1 E-.04 F2100
G1 Z.6 F720
G1 X57.045 Y36.514 F10800
G1 Z.2 F720
G1 E.8 F2100
M204 S800
;TYPE:Gap fill
;WIDTH:0.323505
G1 F480
G1 X56.93 Y36.333 E.005
M204 S1000
M204 S800
;WIDTH:0.323505
G1 X56.904 Y36.331 E.00061
M204 S1000
M204 S800
;WIDTH:0.318449
G1 X56.551 Y36.313 E.0081
M204 S1000
M204 S800
;WIDTH:0.283762
G1 X56.198 Y36.296 E.00708
M204 S1000
M204 S800
;WIDTH:0.249075
G1 X56.178 Y36.296 E.00035
M204 S1000
M204 S800
;WIDTH:0.282316
G1 X55.84 Y36.313 E.00674
M204 S1000
G1 X55.84 Y36.313 F10800
M204 S800
;WIDTH:0.318448
G1 F480
G1 X55.472 Y36.331 E.00843
M204 S1000
M204 S800
;WIDTH:0.323506
G1 X55.446 Y36.333 E.00061
M204 S1000
M204 S800
;WIDTH:0.323505
G1 X55.331 Y36.514 E.005
M204 S1000
;WIPE_START
G1 F8640
G1 X55.446 Y36.333 E-.04947
;WIPE_END
G1 E-.75053 F2100
G1 Z.6 F720
G1 X58.798 Y150.475 F10800
G1 Z.2 F720
G1 E.8 F2100
M204 S800
;TYPE:Solid infill
;WIDTH:0.42069
G1 F960
G1 X59.01 Y150.687 E.00942
G1 X59.01 Y151.222 E.01678
G1 X58.642 Y150.854 E.01635
G1 X58.366 Y151.112 E.01187
G1 X59.01 Y151.756 E.02861
G1 X59.01 Y152.29 E.01678
G1 X58.09 Y151.37 E.04087
G1 X57.814 Y151.629 E.01187
G1 X59.01 Y152.824 E.05313
G1 X59.01 Y153.359 E.01678
G1 X57.538 Y151.887 E.06539
G1 X57.262 Y152.145 E.01187
G1 X59.01 Y153.893 E.07764
G1 X59.01 Y154.427 E.01678
G1 X56.986 Y152.403 E.0899
G1 X56.71 Y152.662 E.01187
G1 X59.01 Y154.961 E.10216
G1 X59.01 Y155.496 E.01678
G1 X56.434 Y152.92 E.11442
G1 X56.158 Y153.178 E.01187
G1 X59.01 Y156.03 E.12668
G1 X59.01 Y156.564 E.01678
G1 X55.882 Y153.437 E.13894
G1 X55.606 Y153.695 E.01187
G1 X59.01 Y157.098 E.1512
G1 X59.01 Y157.633 E.01678
G1 X55.33 Y153.953 E.16346
G1 X55.054 Y154.211 E.01187
G1 X59.01 Y158.167 E.17572
G1 X59.01 Y158.701 E.01678
G1 X54.778 Y154.47 E.18798
G1 X54.502 Y154.728 E.01187
G1 X59.01 Y159.235 E.20024
G1 X59.01 Y159.77 E.01678
G1 X54.226 Y154.986 E.2125
G1 X53.951 Y155.245 E.01187
G1 X59.01 Y160.304 E.22475
G1 X59.01 Y160.838 E.01678
G1 X53.675 Y155.503 E.23701
G1 X53.399 Y155.761 E.01187
G1 X59.01 Y161.372 E.24927
G1 X59.01 Y161.907 E.01678
G1 X53.366 Y156.263 E.2507
G1 X53.366 Y156.797 E.01678
G1 X59.01 Y162.441 E.2507
G1 X59.01 Y162.975 E.01678
G1 X53.366 Y157.332 E.2507
G1 X53.366 Y157.866 E.01678
G1 X59.01 Y163.509 E.2507
G1 X59.01 Y164.044 E.01678
M73 P2 R231
G1 X53.366 Y158.4 E.2507
G1 X53.366 Y158.934 E.01678
G1 X59.01 Y164.578 E.2507
G1 X59.01 Y165.112 E.01678
G1 X53.366 Y159.469 E.2507
G1 X53.366 Y160.003 E.01678
G1 X59.01 Y165.646 E.2507
G1 X59.01 Y166.094 E.01405
G1 X58.873 Y165.982 E.00556
G1 X58.739 Y165.91 E.00477
G1 X53.366 Y160.537 E.23868
G1 X53.366 Y161.071 E.01678
G1 X57.74 Y165.445 E.19427
G1 X57.12 Y165.257 E.02034
G1 X57.008 Y165.247 E.00353
G1 X53.366 Y161.606 E.16177
G1 X53.366 Y162.14 E.01678
G1 X56.425 Y165.198 E.13585
G1 X56.128 Y165.173 E.00936
G1 X55.889 Y165.197 E.00754
G1 X53.366 Y162.674 E.11205
G1 X53.366 Y163.208 E.01678
