; generated by PrusaSlicer 2.2.0+win64 on 2020-07-30 at 16:16:49 UTC

; 

; external perimeters extrusion width = 0.60mm
; perimeters extrusion width = 0.50mm
; infill extrusion width = 0.50mm
; solid infill extrusion width = 0.50mm
; top infill extrusion width = 0.45mm
; first layer extrusion width = 0.42mm

M73 P0 R235
M73 Q0 S237
M201 X1000 Y1000 Z1000 E5000 ; sets maximum accelerations, mm/sec^2
M203 X200 Y200 Z12 E120 ; sets maximum feedrates, mm/sec
M204 P1250 R1250 T1250 ; sets acceleration (P, T) and retract acceleration (R), mm/sec^2
M205 X8.00 Y8.00 Z0.40 E1.50 ; sets the jerk limits, mm/sec
M205 S0 T0 ; sets the minimum extruding and travel feed rate, mm/sec
M107
M862.3 P "MK3S" ; printer model check
M862.1 P0.4 ; nozzle diameter check
M115 U3.8.0 ; tell printer latest fw version
G90 ; use absolute coordinates
M83 ; extruder relative mode
M104 S215 ; set extruder temp
M140 S60 ; set bed temp
M190 S60 ; wait for bed temp
M109 S215 ; wait for extruder temp
G28 W ; home all without mesh bed level
G80 ; mesh bed leveling
G1 Y-3.0 F1000.0 ; go outside print area
G92 E0.0
G1 X60.0 E9.0 F1000.0 ; intro line
M73 Q0 S237
M73 P0 R235
G1 X100.0 E12.5 F1000.0 ; intro line
G92 E0.0
M221 S95
G21 ; set units to millimeters
G90 ; use absolute coordinates
M83 ; use relative distances for extrusion
M900 K0.06 ; Filament gcode LA 1.5
M900 K30 ; Filament gcode LA 1.0
;BEFORE_LAYER_CHANGE
G92 E0.0
;0.2


G1 E-0.80000 F2100.00000
G1 Z0.600 F10800.000
;AFTER_LAYER_CHANGE
;0.2
G1 X45.819 Y12.107
G1 Z0.200
G1 E0.80000 F2100.00000
M204 S1000
G1 F1200.000
G1 X46.187 Y11.435 E0.02402
G1 X46.563 Y11.053 E0.01680
G1 X47.012 Y10.766 E0.01669
G1 X47.512 Y10.587 E0.01668
G1 X48.045 Y10.523 E0.01680
G1 X193.444 Y10.523 E4.55889
G1 X194.297 Y10.683 E0.02720
G1 X195.035 Y11.137 E0.02720
G1 X195.561 Y11.827 E0.02720
G1 X195.805 Y12.656 E0.02708
G1 X205.028 Y122.759 E3.46429
G1 X205.032 Y197.115 E2.33140
G1 X204.900 Y197.881 E0.02437
G1 X204.526 Y198.567 E0.02449
G1 X204.149 Y198.949 E0.01680
G1 X203.697 Y199.236 E0.01680
G1 X203.192 Y199.416 E0.01680
G1 X202.660 Y199.477 E0.01680
G1 X47.337 Y199.477 E4.87003
G1 X46.564 Y199.345 E0.02461
G1 X45.878 Y198.971 E0.02449
G1 X45.499 Y198.597 E0.01669
G1 X45.212 Y198.149 E0.01668
G1 X45.032 Y197.648 E0.01668
G1 X44.968 Y197.120 E0.01669
G1 X44.968 Y82.796 E3.58455
G1 X45.683 Y12.860 E2.19290
G1 X45.808 Y12.166 E0.02214
G1 E-0.80000 F2100.00000
G1 Z0.800 F10800.000
G1 X155.672 Y163.787
G1 Z0.200
G1 E0.80000 F2100.00000
G1 F1200.000
G1 X201.868 Y163.787 E1.44844
G1 X201.868 Y196.313 E1.01982
G1 X155.672 Y196.313 E1.44844
G1 X155.672 Y163.847 E1.01794
G1 X155.295 Y163.410 F10800.000
G1 F1200.000
G1 X202.245 Y163.410 E1.47208
G1 X202.245 Y196.690 E1.04347
G1 X155.295 Y196.690 E1.47208
G1 X155.295 Y163.470 E1.04159
G1 X155.687 Y163.492 F10800.000
G1 E-0.80000 F2100.00000
G1 Z0.800 F10800.000
G1 X201.755 Y164.667
G1 Z0.200
G1 E0.80000 F2100.00000
G1 F1200.000
G1 X201.157 Y164.070 E0.02666
G1 X200.621 Y164.070 E0.01693
G1 X201.585 Y165.034 E0.04304
G1 X201.585 Y165.571 E0.01693
G1 X200.084 Y164.070 E0.06698
G1 X199.547 Y164.070 E0.01693
G1 X201.585 Y166.108 E0.09092
G1 X201.585 Y166.644 E0.01693
G1 X199.011 Y164.070 E0.11486
G1 X198.474 Y164.070 E0.01693
G1 X201.585 Y167.181 E0.13881
G1 X201.585 Y167.717 E0.01693
G1 X197.938 Y164.070 E0.16275
G1 X197.401 Y164.070 E0.01693
G1 X201.585 Y168.254 E0.18669
G1 X201.585 Y168.791 E0.01693
G1 X196.864 Y164.070 E0.21064
G1 X196.328 Y164.070 E0.01693
G1 X201.585 Y169.327 E0.23458
G1 X201.585 Y169.864 E0.01693
G1 X195.791 Y164.070 E0.25852
G1 X195.255 Y164.070 E0.01693
G1 X201.585 Y170.400 E0.28246
G1 X201.585 Y170.937 E0.01693
G1 X194.718 Y164.070 E0.30641
G1 X194.181 Y164.070 E0.01693
G1 X201.585 Y171.474 E0.33035
M73 Q0 S236
G1 X201.585 Y172.010 E0.01693
G1 X193.645 Y164.070 E0.35429
M73 P0 R234
G1 X193.108 Y164.070 E0.01693
G1 X201.585 Y172.547 E0.37824
G1 X201.585 Y173.083 E0.01693
G1 X192.572 Y164.070 E0.40218
G1 X192.035 Y164.070 E0.01693
G1 X201.585 Y173.620 E0.42612
G1 X201.585 Y174.157 E0.01693
G1 X191.498 Y164.070 E0.45006
G1 X190.962 Y164.070 E0.01693
G1 X201.585 Y174.693 E0.47401
G1 X201.585 Y175.230 E0.01693
G1 X190.425 Y164.070 E0.49795
G1 X189.888 Y164.070 E0.01693
G1 X201.585 Y175.767 E0.52189
G1 X201.585 Y176.303 E0.01693
G1 X189.352 Y164.070 E0.54584
G1 X188.815 Y164.070 E0.01693
G1 X201.585 Y176.840 E0.56978
G1 X201.585 Y177.376 E0.01693
G1 X188.279 Y164.070 E0.59372
G1 X187.742 Y164.070 E0.01693
G1 X201.585 Y177.913 E0.61766
G1 X201.585 Y178.450 E0.01693
G1 X187.205 Y164.070 E0.64161
G1 X186.669 Y164.070 E0.01693
G1 X201.585 Y178.986 E0.66555
G1 X201.585 Y179.523 E0.01693
G1 X186.132 Y164.070 E0.68949
G1 X185.596 Y164.070 E0.01693
G1 X201.585 Y180.059 E0.71344
G1 X201.585 Y180.596 E0.01693
G1 X185.059 Y164.070 E0.73738
G1 X184.522 Y164.070 E0.01693
G1 X201.585 Y181.133 E0.76132
G1 X201.585 Y181.669 E0.01693
G1 X183.986 Y164.070 E0.78526
G1 X183.449 Y164.070 E0.01693
G1 X201.585 Y182.206 E0.80921
G1 X201.585 Y182.742 E0.01693
G1 X182.913 Y164.070 E0.83315
G1 X182.376 Y164.070 E0.01693
G1 X201.585 Y183.279 E0.85709
G1 X201.585 Y183.816 E0.01693
G1 X181.839 Y164.070 E0.88103
G1 X181.303 Y164.070 E0.01693
G1 X201.585 Y184.352 E0.90498
G1 X201.585 Y184.889 E0.01693
G1 X180.766 Y164.070 E0.92892
G1 X180.230 Y164.070 E0.01693
G1 X201.585 Y185.425 E0.95286
G1 X201.585 Y185.962 E0.01693
G1 X179.693 Y164.070 E0.97681
G1 X179.156 Y164.070 E0.01693
G1 X201.585 Y186.499 E1.00075
G1 X201.585 Y187.035 E0.01693
G1 X178.620 Y164.070 E1.02469
G1 X178.083 Y164.070 E0.01693
G1 X201.585 Y187.572 E1.04863
G1 X201.585 Y188.108 E0.01693
G1 X177.547 Y164.070 E1.07258
G1 X177.010 Y164.070 E0.01693
G1 X201.585 Y188.645 E1.09652
G1 X201.585 Y189.182 E0.01693
G1 X176.473 Y164.070 E1.12046
G1 X175.937 Y164.070 E0.01693
G1 X201.585 Y189.718 E1.14441
G1 X201.585 Y190.255 E0.01693
G1 X175.400 Y164.070 E1.16835
G1 X174.864 Y164.070 E0.01693
G1 X201.585 Y190.791 E1.19229
G1 X201.585 Y191.328 E0.01693
G1 X174.327 Y164.070 E1.21623
G1 X173.790 Y164.070 E0.01693
G1 X201.585 Y191.865 E1.24018
G1 X201.585 Y192.401 E0.01693
G1 X173.254 Y164.070 E1.26412
G1 X172.717 Y164.070 E0.01693
G1 X201.585 Y192.938 E1.28806
G1 X201.585 Y193.475 E0.01693
G1 X172.180 Y164.070 E1.31201
G1 X171.644 Y164.070 E0.01693
G1 X201.585 Y194.011 E1.33595
G1 X201.585 Y194.548 E0.01693
G1 X171.107 Y164.070 E1.35989
M73 Q0 S235
G1 X170.571 Y164.070 E0.01693
G1 X201.585 Y195.084 E1.38383
M73 P0 R233
G1 X201.585 Y195.621 E0.01693
G1 X170.034 Y164.070 E1.40778
G1 X169.497 Y164.070 E0.01693
G1 X201.458 Y196.030 E1.42603
G1 X200.921 Y196.030 E0.01693
G1 X168.961 Y164.070 E1.42603
G1 X168.424 Y164.070 E0.01693
G1 X200.384 Y196.030 E1.42603
G1 X199.848 Y196.030 E0.01693
G1 X167.888 Y164.070 E1.42603
G1 X167.351 Y164.070 E0.01693
G1 X199.311 Y196.030 E1.42603
G1 X198.775 Y196.030 E0.01693
G1 X166.814 Y164.070 E1.42603
G1 X166.278 Y164.070 E0.01693
G1 X198.238 Y196.030 E1.42603
G1 X197.701 Y196.030 E0.01693
G1 X165.741 Y164.070 E1.42603
G1 X165.205 Y164.070 E0.01693
G1 X197.165 Y196.030 E1.42603
G1 X196.628 Y196.030 E0.01693
G1 X164.668 Y164.070 E1.42603
G1 X164.131 Y164.070 E0.01693
G1 X196.092 Y196.030 E1.42603
G1 X195.555 Y196.030 E0.01693
G1 X163.595 Y164.070 E1.42603
G1 X163.058 Y164.070 E0.01693
G1 X195.018 Y196.030 E1.42603
G1 X194.482 Y196.030 E0.01693
G1 X162.522 Y164.070 E1.42603
G1 X161.985 Y164.070 E0.01693
G1 X193.945 Y196.030 E1.42603
G1 X193.409 Y196.030 E0.01693
G1 X161.448 Y164.070 E1.42603
G1 X160.912 Y164.070 E0.01693
G1 X192.872 Y196.030 E1.42603
G1 X192.335 Y196.030 E0.01693
G1 X160.375 Y164.070 E1.42603
G1 X159.839 Y164.070 E0.01693
G1 X191.799 Y196.030 E1.42603
G1 X191.262 Y196.030 E0.01693
G1 X159.302 Y164.070 E1.42603
G1 X158.765 Y164.070 E0.01693
G1 X190.726 Y196.030 E1.42603
G1 X190.189 Y196.030 E0.01693
G1 X158.229 Y164.070 E1.42603
G1 X157.692 Y164.070 E0.01693
G1 X189.652 Y196.030 E1.42603
G1 X189.116 Y196.030 E0.01693
G1 X157.155 Y164.070 E1.42603
G1 X156.619 Y164.070 E0.01693
G1 X188.579 Y196.030 E1.42603
M73 Q1 S234
G1 X188.043 Y196.030 E0.01693
G1 X156.082 Y164.070 E1.42603
M73 P1 R232
G1 X155.955 Y164.070 E0.00402
G1 X155.955 Y164.479 E0.01291
G1 X187.506 Y196.030 E1.40778
G1 X186.969 Y196.030 E0.01693
G1 X155.955 Y165.016 E1.38383
G1 X155.955 Y165.552 E0.01693
G1 X186.433 Y196.030 E1.35989
G1 X185.896 Y196.030 E0.01693
G1 X155.955 Y166.089 E1.33595
G1 X155.955 Y166.626 E0.01693
G1 X185.359 Y196.030 E1.31200
G1 X184.823 Y196.030 E0.01693
G1 X155.955 Y167.162 E1.28806
G1 X155.955 Y167.699 E0.01693
G1 X184.286 Y196.030 E1.26412
G1 X183.750 Y196.030 E0.01693
G1 X155.955 Y168.235 E1.24018
G1 X155.955 Y168.772 E0.01693
G1 X183.213 Y196.030 E1.21623
G1 X182.676 Y196.030 E0.01693
G1 X155.955 Y169.309 E1.19229
G1 X155.955 Y169.845 E0.01693
G1 X182.140 Y196.030 E1.16835
G1 X181.603 Y196.030 E0.01693
G1 X155.955 Y170.382 E1.14441
G1 X155.955 Y170.918 E0.01693
G1 X181.067 Y196.030 E1.12046
G1 X180.530 Y196.030 E0.01693
G1 X155.955 Y171.455 E1.09652
G1 X155.955 Y171.992 E0.01693
G1 X179.993 Y196.030 E1.07258
G1 X179.457 Y196.030 E0.01693
G1 X155.955 Y172.528 E1.04863
G1 X155.955 Y173.065 E0.01693
G1 X178.920 Y196.030 E1.02469
G1 X178.384 Y196.030 E0.01693
G1 X155.955 Y173.601 E1.00075
G1 X155.955 Y174.138 E0.01693
G1 X177.847 Y196.030 E0.97681
G1 X177.310 Y196.030 E0.01693
G1 X155.955 Y174.675 E0.95286
G1 X155.955 Y175.211 E0.01693
G1 X176.774 Y196.030 E0.92892
G1 X176.237 Y196.030 E0.01693
G1 X155.955 Y175.748 E0.90498
G1 X155.955 Y176.284 E0.01693
G1 X175.701 Y196.030 E0.88103
G1 X175.164 Y196.030 E0.01693
G1 X155.955 Y176.821 E0.85709
G1 X155.955 Y177.358 E0.01693
G1 X174.627 Y196.030 E0.83315
G1 X174.091 Y196.030 E0.01693
G1 X155.955 Y177.894 E0.80921
G1 X155.955 Y178.431 E0.01693
G1 X173.554 Y196.030 E0.78526
G1 X173.018 Y196.030 E0.01693
G1 X155.955 Y178.967 E0.76132
G1 X155.955 Y179.504 E0.01693
G1 X172.481 Y196.030 E0.73738
G1 X171.944 Y196.030 E0.01693
G1 X155.955 Y180.041 E0.71343
G1 X155.955 Y180.577 E0.01693
G1 X171.408 Y196.030 E0.68949
G1 X170.871 Y196.030 E0.01693
G1 X155.955 Y181.114 E0.66555
G1 X155.955 Y181.650 E0.01693
G1 X170.335 Y196.030 E0.64161
G1 X169.798 Y196.030 E0.01693
G1 X155.955 Y182.187 E0.61766
G1 X155.955 Y182.724 E0.01693
G1 X169.261 Y196.030 E0.59372
G1 X168.725 Y196.030 E0.01693
G1 X155.955 Y183.260 E0.56978
M73 Q1 S233
G1 X155.955 Y183.797 E0.01693
G1 X168.188 Y196.030 E0.54583
G1 X167.651 Y196.030 E0.01693
G1 X155.955 Y184.334 E0.52189
G1 X155.955 Y184.870 E0.01693
G1 X167.115 Y196.030 E0.49795
M73 P1 R231
G1 X166.578 Y196.030 E0.01693
G1 X155.955 Y185.407 E0.47401
G1 X155.955 Y185.943 E0.01693
G1 X166.042 Y196.030 E0.45006
G1 X165.505 Y196.030 E0.01693
G1 X155.955 Y186.480 E0.42612
G1 X155.955 Y187.017 E0.01693
G1 X164.968 Y196.030 E0.40218
G1 X164.432 Y196.030 E0.01693
G1 X155.955 Y187.553 E0.37823
G1 X155.955 Y188.090 E0.01693
G1 X163.895 Y196.030 E0.35429
G1 X163.359 Y196.030 E0.01693
G1 X155.955 Y188.626 E0.33035
G1 X155.955 Y189.163 E0.01693
G1 X162.822 Y196.030 E0.30641
G1 X162.285 Y196.030 E0.01693
G1 X155.955 Y189.700 E0.28246
G1 X155.955 Y190.236 E0.01693
G1 X161.749 Y196.030 E0.25852
G1 X161.212 Y196.030 E0.01693
G1 X155.955 Y190.773 E0.23458
G1 X155.955 Y191.309 E0.01693
G1 X160.676 Y196.030 E0.21063
G1 X160.139 Y196.030 E0.01693
G1 X155.955 Y191.846 E0.18669
G1 X155.955 Y192.383 E0.01693
G1 X159.602 Y196.030 E0.16275
G1 X159.066 Y196.030 E0.01693
G1 X155.955 Y192.919 E0.13881
G1 X155.955 Y193.456 E0.01693
G1 X158.529 Y196.030 E0.11486
G1 X157.993 Y196.030 E0.01693
G1 X155.955 Y193.992 E0.09092
G1 X155.955 Y194.529 E0.01693
G1 X157.456 Y196.030 E0.06698
G1 X156.919 Y196.030 E0.01693
G1 X155.955 Y195.066 E0.04303
G1 X155.955 Y195.602 E0.01693
G1 X156.552 Y196.200 E0.02666
G1 E-0.80000 F2100.00000
G1 Z0.800 F10800.000
G1 X155.672 Y156.213
G1 Z0.200
G1 E0.80000 F2100.00000
G1 F1200.000
G1 X155.672 Y123.687 E1.01982
G1 X201.868 Y123.687 E1.44844
G1 X201.868 Y156.213 E1.01982
G1 X155.732 Y156.213 E1.44656
G1 X155.295 Y156.590 F10800.000
G1 F1200.000
G1 X155.295 Y123.310 E1.04347
G1 X202.245 Y123.310 E1.47208
G1 X202.245 Y156.590 E1.04347
G1 X155.355 Y156.590 E1.47020
G1 X155.420 Y156.210 F10800.000
G1 E-0.80000 F2100.00000
G1 Z0.800 F10800.000
G1 X201.755 Y124.567
G1 Z0.200
G1 E0.80000 F2100.00000
G1 F1200.000
G1 X201.157 Y123.970 E0.02666
G1 X200.621 Y123.970 E0.01693
G1 X201.585 Y124.934 E0.04304
G1 X201.585 Y125.471 E0.01693
G1 X200.084 Y123.970 E0.06698
G1 X199.547 Y123.970 E0.01693
G1 X201.585 Y126.008 E0.09092
G1 X201.585 Y126.544 E0.01693
G1 X199.011 Y123.970 E0.11486
G1 X198.474 Y123.970 E0.01693
G1 X201.585 Y127.081 E0.13881
G1 X201.585 Y127.617 E0.01693
G1 X197.938 Y123.970 E0.16275
G1 X197.401 Y123.970 E0.01693
G1 X201.585 Y128.154 E0.18669
G1 X201.585 Y128.691 E0.01693
G1 X196.864 Y123.970 E0.21064
G1 X196.328 Y123.970 E0.01693
G1 X201.585 Y129.227 E0.23458
G1 X201.585 Y129.764 E0.01693
G1 X195.791 Y123.970 E0.25852
G1 X195.255 Y123.970 E0.01693
G1 X201.585 Y130.300 E0.28246
G1 X201.585 Y130.837 E0.01693
G1 X194.718 Y123.970 E0.30641
G1 X194.181 Y123.970 E0.01693
G1 X201.585 Y131.374 E0.33035
G1 X201.585 Y131.910 E0.01693
G1 X193.645 Y123.970 E0.35429
G1 X193.108 Y123.970 E0.01693
G1 X201.585 Y132.447 E0.37824
G1 X201.585 Y132.983 E0.01693
G1 X192.572 Y123.970 E0.40218
G1 X192.035 Y123.970 E0.01693
G1 X201.585 Y133.520 E0.42612
G1 X201.585 Y134.057 E0.01693
G1 X191.498 Y123.970 E0.45006
G1 X190.962 Y123.970 E0.01693
G1 X201.585 Y134.593 E0.47401
G1 X201.585 Y135.130 E0.01693
G1 X190.425 Y123.970 E0.49795
G1 X189.888 Y123.970 E0.01693
G1 X201.585 Y135.667 E0.52189
G1 X201.585 Y136.203 E0.01693
G1 X189.352 Y123.970 E0.54584
G1 X188.815 Y123.970 E0.01693
G1 X201.585 Y136.740 E0.56978
G1 X201.585 Y137.276 E0.01693
G1 X188.279 Y123.970 E0.59372
G1 X187.742 Y123.970 E0.01693
G1 X201.585 Y137.813 E0.61766
G1 X201.585 Y138.350 E0.01693
G1 X187.205 Y123.970 E0.64161
G1 X186.669 Y123.970 E0.01693
G1 X201.585 Y138.886 E0.66555
G1 X201.585 Y139.423 E0.01693
G1 X186.132 Y123.970 E0.68949
G1 X185.596 Y123.970 E0.01693
G1 X201.585 Y139.959 E0.71344
G1 X201.585 Y140.496 E0.01693
G1 X185.059 Y123.970 E0.73738
G1 X184.522 Y123.970 E0.01693
G1 X201.585 Y141.033 E0.76132
G1 X201.585 Y141.569 E0.01693
G1 X183.986 Y123.970 E0.78526
G1 X183.449 Y123.970 E0.01693
G1 X201.585 Y142.106 E0.80921
G1 X201.585 Y142.642 E0.01693
G1 X182.913 Y123.970 E0.83315
G1 X182.376 Y123.970 E0.01693
G1 X201.585 Y143.179 E0.85709
G1 X201.585 Y143.716 E0.01693
G1 X181.839 Y123.970 E0.88103
G1 X181.303 Y123.970 E0.01693
G1 X201.585 Y144.252 E0.90498
G1 X201.585 Y144.789 E0.01693
G1 X180.766 Y123.970 E0.92892
G1 X180.230 Y123.970 E0.01693
G1 X201.585 Y145.325 E0.95286
M73 Q2 S232
G1 X201.585 Y145.862 E0.01693
G1 X179.693 Y123.970 E0.97681
G1 X179.156 Y123.970 E0.01693
G1 X201.585 Y146.399 E1.00075
M73 P2 R230
G1 X201.585 Y146.935 E0.01693
G1 X178.620 Y123.970 E1.02469
G1 X178.083 Y123.970 E0.01693
G1 X201.585 Y147.472 E1.04863
G1 X201.585 Y148.008 E0.01693
G1 X177.547 Y123.970 E1.07258
G1 X177.010 Y123.970 E0.01693
G1 X201.585 Y148.545 E1.09652
G1 X201.585 Y149.082 E0.01693
G1 X176.473 Y123.970 E1.12046
G1 X175.937 Y123.970 E0.01693
G1 X201.585 Y149.618 E1.14441
G1 X201.585 Y150.155 E0.01693
G1 X175.400 Y123.970 E1.16835
G1 X174.864 Y123.970 E0.01693
G1 X201.585 Y150.691 E1.19229
G1 X201.585 Y151.228 E0.01693
G1 X174.327 Y123.970 E1.21623
G1 X173.790 Y123.970 E0.01693
G1 X201.585 Y151.765 E1.24018
G1 X201.585 Y152.301 E0.01693
G1 X173.254 Y123.970 E1.26412
G1 X172.717 Y123.970 E0.01693
G1 X201.585 Y152.838 E1.28806
G1 X201.585 Y153.375 E0.01693
G1 X172.180 Y123.970 E1.31201
G1 X171.644 Y123.970 E0.01693
G1 X201.585 Y153.911 E1.33595
G1 X201.585 Y154.448 E0.01693
G1 X171.107 Y123.970 E1.35989
G1 X170.571 Y123.970 E0.01693
G1 X201.585 Y154.984 E1.38383
G1 X201.585 Y155.521 E0.01693
G1 X170.034 Y123.970 E1.40778
G1 X169.497 Y123.970 E0.01693
G1 X201.458 Y155.930 E1.42603
G1 X200.921 Y155.930 E0.01693
G1 X168.961 Y123.970 E1.42603
G1 X168.424 Y123.970 E0.01693
G1 X200.384 Y155.930 E1.42603
G1 X199.848 Y155.930 E0.01693
G1 X167.888 Y123.970 E1.42603
