; generated by PrusaSlicer 2.2.0+win64 on 2020-08-19 at 21:39:12 UTC

; 

; external perimeters extrusion width = 0.45mm
; perimeters extrusion width = 0.45mm
; infill extrusion width = 0.45mm
; solid infill extrusion width = 0.45mm
; top infill extrusion width = 0.40mm
; support material extrusion width = 0.35mm
; first layer extrusion width = 0.42mm

M73 P0 R79
M73 Q0 S79
M201 X1000 Y1000 Z1000 E5000 ; sets maximum accelerations, mm/sec^2
M203 X200 Y200 Z12 E120 ; sets maximum feedrates, mm/sec
M204 P1250 R1250 T1250 ; sets acceleration (P, T) and retract acceleration (R), mm/sec^2
M205 X8.00 Y8.00 Z0.40 E1.50 ; sets the jerk limits, mm/sec
M205 S0 T0 ; sets the minimum extruding and travel feed rate, mm/sec
M107
M862.3 P "MK3S" ; printer model check
M862.1 P0.4 ; nozzle diameter check
M115 U3.8.0 ; tell printer latest fw version
G90 ; use absolute coordinates
M83 ; extruder relative mode
M104 S215 ; set extruder temp
M140 S60 ; set bed temp
M190 S60 ; wait for bed temp
M109 S215 ; wait for extruder temp
G28 W ; home all without mesh bed level
G80 ; mesh bed leveling
G1 Y-3.0 F1000.0 ; go outside print area
G92 E0.0
G1 X60.0 E9.0 F1000.0 ; intro line
M73 Q0 S79
M73 P0 R79
G1 X100.0 E12.5 F1000.0 ; intro line
G92 E0.0
M221 S95
G21 ; set units to millimeters
G90 ; use absolute coordinates
M83 ; use relative distances for extrusion
M900 K0.06 ; Filament gcode LA 1.5
M900 K30 ; Filament gcode LA 1.0
;BEFORE_LAYER_CHANGE
G92 E0.0
;0.2


G1 E-0.80000 F2100.00000
G1 Z0.600 F10800.000
;AFTER_LAYER_CHANGE
;0.2
G1 X181.313 Y73.685
G1 Z0.200
G1 E0.80000 F2100.00000
M204 S1000
G1 F1200.000
G1 X181.912 Y73.715 E0.01879
G1 X182.499 Y73.862 E0.01898
G1 X183.047 Y74.121 E0.01899
G1 X183.533 Y74.481 E0.01899
G1 X183.940 Y74.930 E0.01899
G1 X184.251 Y75.450 E0.01899
G1 X184.455 Y76.020 E0.01899
G1 X184.544 Y76.619 E0.01899
G1 X184.515 Y77.224 E0.01899
G1 X184.367 Y77.812 E0.01899
G1 X184.108 Y78.359 E0.01899
G1 X183.748 Y78.846 E0.01899
G1 X183.299 Y79.253 E0.01899
G1 X182.779 Y79.564 E0.01899
G1 X182.209 Y79.768 E0.01899
G1 X181.610 Y79.857 E0.01899
G1 X181.005 Y79.827 E0.01899
G1 X180.417 Y79.680 E0.01899
G1 X179.870 Y79.421 E0.01899
G1 X179.383 Y79.060 E0.01899
G1 X178.976 Y78.612 E0.01899
G1 X178.665 Y78.092 E0.01899
G1 X178.461 Y77.522 E0.01899
G1 X178.372 Y76.923 E0.01899
G1 X178.402 Y76.318 E0.01899
G1 X178.549 Y75.730 E0.01899
G1 X178.808 Y75.182 E0.01899
G1 X179.169 Y74.696 E0.01899
G1 X179.617 Y74.289 E0.01899
G1 X180.137 Y73.978 E0.01899
G1 X180.708 Y73.774 E0.01901
G1 X181.254 Y73.693 E0.01731
G1 E-0.80000 F2100.00000
G1 Z0.800 F10800.000
G1 X181.591 Y79.479
G1 Z0.200
G1 E0.80000 F2100.00000
G1 F1200.000
G1 X181.060 Y79.453 E0.01666
G1 X180.545 Y79.324 E0.01666
G1 X180.064 Y79.096 E0.01666
G1 X179.637 Y78.780 E0.01666
G1 X179.281 Y78.386 E0.01666
G1 X179.007 Y77.930 E0.01666
G1 X178.828 Y77.430 E0.01666
G1 X178.750 Y76.904 E0.01666
G1 X178.776 Y76.373 E0.01666
G1 X178.906 Y75.858 E0.01666
G1 X179.133 Y75.377 E0.01666
G1 X179.449 Y74.950 E0.01666
G1 X179.843 Y74.593 E0.01666
G1 X180.299 Y74.320 E0.01666
G1 X180.800 Y74.141 E0.01667
G1 X181.331 Y74.063 E0.01686
G1 X181.856 Y74.089 E0.01647
G1 X182.371 Y74.218 E0.01666
G1 X182.852 Y74.446 E0.01666
G1 X183.279 Y74.762 E0.01666
G1 X183.636 Y75.156 E0.01666
G1 X183.909 Y75.612 E0.01666
G1 X184.088 Y76.112 E0.01666
G1 X184.166 Y76.638 E0.01666
G1 X184.140 Y77.169 E0.01666
G1 X184.011 Y77.684 E0.01666
G1 X183.783 Y78.165 E0.01666
G1 X183.467 Y78.592 E0.01666
G1 X183.073 Y78.948 E0.01666
G1 X182.617 Y79.222 E0.01666
G1 X182.117 Y79.401 E0.01666
G1 X181.650 Y79.470 E0.01478
G1 X181.408 Y79.835 F10800.000
G1 E-0.80000 F2100.00000
G1 Z0.800 F10800.000
G1 X181.458 Y87.284
G1 Z0.200
G1 E0.80000 F2100.00000
G1 F1200.000
G1 X180.942 Y87.271 E0.01618
G1 X180.428 Y87.233 E0.01618
G1 X179.916 Y87.170 E0.01618
G1 X179.407 Y87.082 E0.01618
G1 X178.904 Y86.969 E0.01618
G1 X178.406 Y86.831 E0.01618
G1 X177.916 Y86.669 E0.01618
G1 X177.435 Y86.483 E0.01618
G1 X176.963 Y86.274 E0.01618
G1 X176.502 Y86.042 E0.01618
G1 X176.053 Y85.788 E0.01618
G1 X175.618 Y85.512 E0.01618
G1 X175.196 Y85.215 E0.01618
G1 X174.789 Y84.897 E0.01618
G1 X174.398 Y84.560 E0.01618
G1 X174.024 Y84.205 E0.01618
G1 X173.669 Y83.831 E0.01618
G1 X173.332 Y83.440 E0.01618
G1 X173.014 Y83.033 E0.01618
G1 X172.717 Y82.612 E0.01618
G1 X172.441 Y82.176 E0.01618
G1 X172.187 Y81.727 E0.01618
G1 X171.955 Y81.266 E0.01618
G1 X171.746 Y80.794 E0.01618
G1 X171.560 Y80.313 E0.01618
G1 X171.398 Y79.823 E0.01618
G1 X171.260 Y79.325 E0.01618
G1 X171.147 Y78.822 E0.01618
G1 X171.059 Y78.313 E0.01618
G1 X170.996 Y77.801 E0.01618
G1 X170.958 Y77.287 E0.01618
G1 X170.945 Y76.771 E0.01618
G1 X170.958 Y76.255 E0.01618
G1 X170.996 Y75.741 E0.01618
G1 X171.059 Y75.228 E0.01618
G1 X171.147 Y74.720 E0.01618
G1 X171.260 Y74.217 E0.01618
G1 X171.398 Y73.719 E0.01618
G1 X171.560 Y73.229 E0.01618
G1 X171.746 Y72.748 E0.01618
G1 X171.955 Y72.276 E0.01618
G1 X172.187 Y71.815 E0.01618
G1 X172.441 Y71.366 E0.01618
G1 X172.717 Y70.930 E0.01618
G1 X173.014 Y70.509 E0.01618
G1 X173.332 Y70.102 E0.01618
G1 X173.669 Y69.711 E0.01618
G1 X174.024 Y69.337 E0.01618
G1 X174.398 Y68.982 E0.01618
G1 X174.789 Y68.644 E0.01618
G1 X175.196 Y68.327 E0.01618
G1 X175.618 Y68.030 E0.01618
G1 X176.053 Y67.754 E0.01618
G1 X176.502 Y67.500 E0.01618
G1 X176.963 Y67.268 E0.01618
G1 X177.435 Y67.058 E0.01618
G1 X177.916 Y66.873 E0.01618
G1 X178.406 Y66.711 E0.01618
G1 X178.904 Y66.573 E0.01618
G1 X179.407 Y66.460 E0.01618
G1 X179.916 Y66.372 E0.01618
G1 X180.428 Y66.309 E0.01618
G1 X180.942 Y66.271 E0.01618
G1 X181.458 Y66.258 E0.01618
G1 X182.489 Y66.309 E0.03237
G1 X183.001 Y66.372 E0.01616
G1 X183.509 Y66.460 E0.01618
G1 X184.012 Y66.573 E0.01618
G1 X184.510 Y66.711 E0.01618
G1 X185.000 Y66.873 E0.01618
G1 X185.481 Y67.058 E0.01618
G1 X185.953 Y67.268 E0.01618
G1 X186.414 Y67.500 E0.01618
G1 X186.863 Y67.754 E0.01618
G1 X187.299 Y68.030 E0.01618
G1 X187.721 Y68.327 E0.01618
G1 X188.127 Y68.645 E0.01618
G1 X188.518 Y68.982 E0.01618
G1 X188.892 Y69.337 E0.01618
G1 X189.247 Y69.711 E0.01618
G1 X189.585 Y70.102 E0.01618
G1 X189.902 Y70.509 E0.01618
G1 X190.199 Y70.930 E0.01618
G1 X190.475 Y71.366 E0.01618
G1 X190.729 Y71.815 E0.01618
G1 X190.961 Y72.276 E0.01618
G1 X191.171 Y72.748 E0.01618
G1 X191.356 Y73.229 E0.01618
G1 X191.518 Y73.719 E0.01618
G1 X191.656 Y74.217 E0.01618
G1 X191.769 Y74.720 E0.01618
G1 X191.857 Y75.228 E0.01618
G1 X191.920 Y75.741 E0.01618
G1 X191.958 Y76.255 E0.01618
G1 X191.971 Y76.771 E0.01618
G1 X191.958 Y77.287 E0.01618
G1 X191.920 Y77.801 E0.01618
G1 X191.857 Y78.314 E0.01618
G1 X191.769 Y78.822 E0.01618
G1 X191.656 Y79.325 E0.01618
G1 X191.518 Y79.823 E0.01618
G1 X191.356 Y80.313 E0.01618
G1 X191.171 Y80.794 E0.01618
G1 X190.961 Y81.266 E0.01618
G1 X190.729 Y81.727 E0.01618
G1 X190.475 Y82.176 E0.01618
G1 X190.199 Y82.612 E0.01618
G1 X189.902 Y83.033 E0.01618
G1 X189.585 Y83.440 E0.01618
G1 X189.247 Y83.831 E0.01618
G1 X188.892 Y84.205 E0.01618
G1 X188.518 Y84.560 E0.01618
G1 X188.127 Y84.897 E0.01618
G1 X187.720 Y85.215 E0.01618
G1 X187.299 Y85.512 E0.01618
G1 X186.863 Y85.788 E0.01618
G1 X186.414 Y86.042 E0.01618
G1 X185.953 Y86.274 E0.01618
G1 X185.481 Y86.483 E0.01618
G1 X185.000 Y86.669 E0.01618
G1 X184.510 Y86.831 E0.01618
G1 X184.012 Y86.969 E0.01618
G1 X183.509 Y87.082 E0.01618
G1 X183.001 Y87.170 E0.01618
G1 X182.488 Y87.233 E0.01618
G1 X181.518 Y87.282 E0.03047
G1 X181.458 Y87.661 F10800.000
G1 F1200.000
G1 X180.924 Y87.648 E0.01676
G1 X180.391 Y87.608 E0.01676
G1 X179.860 Y87.543 E0.01676
G1 X179.334 Y87.452 E0.01676
G1 X178.812 Y87.335 E0.01676
G1 X178.297 Y87.192 E0.01676
G1 X177.789 Y87.024 E0.01676
G1 X177.291 Y86.832 E0.01676
G1 X176.802 Y86.615 E0.01676
G1 X176.325 Y86.375 E0.01676
G1 X175.860 Y86.112 E0.01676
G1 X175.408 Y85.826 E0.01676
G1 X174.971 Y85.518 E0.01676
G1 X174.550 Y85.189 E0.01676
G1 X174.145 Y84.840 E0.01676
G1 X173.758 Y84.471 E0.01676
G1 X173.389 Y84.084 E0.01676
G1 X173.040 Y83.679 E0.01676
G1 X172.711 Y83.258 E0.01676
G1 X172.403 Y82.821 E0.01676
G1 X172.117 Y82.370 E0.01676
G1 X171.854 Y81.904 E0.01676
G1 X171.614 Y81.427 E0.01676
G1 X171.397 Y80.938 E0.01676
G1 X171.205 Y80.440 E0.01676
G1 X171.037 Y79.932 E0.01676
G1 X170.894 Y79.417 E0.01676
G1 X170.777 Y78.895 E0.01676
G1 X170.686 Y78.369 E0.01676
G1 X170.621 Y77.838 E0.01676
G1 X170.581 Y77.305 E0.01676
G1 X170.568 Y76.771 E0.01676
G1 X170.581 Y76.237 E0.01676
G1 X170.621 Y75.704 E0.01676
G1 X170.686 Y75.173 E0.01676
G1 X170.777 Y74.646 E0.01676
G1 X170.894 Y74.125 E0.01676
G1 X171.037 Y73.610 E0.01676
G1 X171.205 Y73.102 E0.01676
G1 X171.397 Y72.604 E0.01676
G1 X171.614 Y72.115 E0.01676
G1 X171.854 Y71.637 E0.01676
G1 X172.117 Y71.172 E0.01676
G1 X172.403 Y70.721 E0.01676
G1 X172.711 Y70.284 E0.01676
G1 X173.040 Y69.862 E0.01676
G1 X173.389 Y69.458 E0.01676
G1 X173.758 Y69.071 E0.01676
G1 X174.145 Y68.702 E0.01676
G1 X174.550 Y68.353 E0.01676
G1 X174.971 Y68.024 E0.01676
G1 X175.408 Y67.716 E0.01676
G1 X175.860 Y67.430 E0.01676
G1 X176.325 Y67.167 E0.01676
G1 X176.802 Y66.927 E0.01676
G1 X177.291 Y66.710 E0.01676
G1 X177.789 Y66.518 E0.01676
G1 X178.297 Y66.350 E0.01676
G1 X178.812 Y66.207 E0.01676
G1 X179.334 Y66.090 E0.01676
G1 X179.860 Y65.999 E0.01676
G1 X180.391 Y65.933 E0.01676
G1 X180.924 Y65.894 E0.01676
G1 X181.458 Y65.881 E0.01676
G1 X182.526 Y65.934 E0.03352
G1 X183.056 Y65.999 E0.01675
G1 X183.583 Y66.090 E0.01676
G1 X184.104 Y66.207 E0.01676
G1 X184.619 Y66.350 E0.01676
G1 X185.127 Y66.518 E0.01676
G1 X185.625 Y66.710 E0.01676
G1 X186.114 Y66.927 E0.01676
G1 X186.592 Y67.167 E0.01676
G1 X187.057 Y67.430 E0.01676
G1 X187.508 Y67.716 E0.01676
G1 X187.945 Y68.024 E0.01676
G1 X188.367 Y68.353 E0.01676
G1 X188.771 Y68.702 E0.01676
G1 X189.158 Y69.071 E0.01676
G1 X189.527 Y69.458 E0.01676
G1 X189.876 Y69.862 E0.01676
G1 X190.205 Y70.284 E0.01676
G1 X190.513 Y70.721 E0.01676
G1 X190.799 Y71.172 E0.01676
G1 X191.062 Y71.637 E0.01676
G1 X191.302 Y72.115 E0.01676
G1 X191.519 Y72.604 E0.01676
G1 X191.711 Y73.102 E0.01676
G1 X191.879 Y73.610 E0.01676
G1 X192.022 Y74.125 E0.01676
G1 X192.139 Y74.646 E0.01676
G1 X192.230 Y75.173 E0.01676
G1 X192.296 Y75.704 E0.01676
G1 X192.335 Y76.237 E0.01676
G1 X192.348 Y76.771 E0.01676
G1 X192.335 Y77.305 E0.01676
G1 X192.296 Y77.838 E0.01676
G1 X192.230 Y78.369 E0.01676
G1 X192.139 Y78.895 E0.01676
G1 X192.022 Y79.417 E0.01676
G1 X191.879 Y79.932 E0.01676
G1 X191.711 Y80.440 E0.01676
G1 X191.519 Y80.938 E0.01676
G1 X191.302 Y81.427 E0.01676
G1 X191.062 Y81.904 E0.01676
G1 X190.799 Y82.370 E0.01676
G1 X190.513 Y82.821 E0.01676
G1 X190.205 Y83.258 E0.01676
G1 X189.876 Y83.679 E0.01676
G1 X189.527 Y84.084 E0.01676
G1 X189.158 Y84.471 E0.01676
G1 X188.771 Y84.840 E0.01676
G1 X188.367 Y85.189 E0.01676
G1 X187.945 Y85.518 E0.01676
G1 X187.508 Y85.826 E0.01676
G1 X187.057 Y86.112 E0.01676
G1 X186.592 Y86.375 E0.01676
G1 X186.114 Y86.615 E0.01676
G1 X185.625 Y86.832 E0.01676
G1 X185.127 Y87.024 E0.01676
G1 X184.619 Y87.192 E0.01676
G1 X184.104 Y87.335 E0.01676
G1 X183.583 Y87.452 E0.01676
G1 X183.056 Y87.543 E0.01676
G1 X182.525 Y87.608 E0.01676
G1 X181.518 Y87.659 E0.03163
G1 X181.255 Y87.316 F10800.000
G1 E-0.80000 F2100.00000
G1 Z0.800 F10800.000
G1 X185.993 Y86.128
G1 Z0.200
G1 E0.80000 F2100.00000
G1 F1200.000
G1 X172.228 Y72.363 E0.61323
G1 X172.062 Y72.732 E0.01277
G1 X185.497 Y86.167 E0.59852
G1 X185.115 Y86.322 E0.01296
G1 X171.907 Y73.114 E0.58840
G1 X171.766 Y73.508 E0.01319
G1 X184.721 Y86.463 E0.57717
G1 X184.314 Y86.592 E0.01345
G1 X171.637 Y73.915 E0.56474
G1 X171.523 Y74.337 E0.01376
G1 X183.892 Y86.706 E0.55103
G1 X183.455 Y86.804 E0.01413
G1 X171.425 Y74.775 E0.53592
G1 X171.346 Y75.231 E0.01460
G1 X182.998 Y86.883 E0.51911
G1 X182.523 Y86.944 E0.01509
G1 X171.285 Y75.706 E0.50064
G1 X171.245 Y76.202 E0.01568
G1 X182.027 Y86.984 E0.48030
G1 X181.507 Y87.000 E0.01638
G1 X171.229 Y76.722 E0.45786
G1 X171.240 Y77.269 E0.01723
G1 X180.960 Y86.989 E0.43301
G1 X180.378 Y86.942 E0.01840
G1 X171.287 Y77.851 E0.40499
G1 X171.374 Y78.474 E0.01981
G1 X179.755 Y86.855 E0.37338
G1 X179.083 Y86.719 E0.02159
G1 X171.510 Y79.146 E0.33740
G1 X171.718 Y79.890 E0.02433
G1 X178.340 Y86.511 E0.29499
G1 X177.492 Y86.199 E0.02845
G1 X172.030 Y80.737 E0.24335
G1 X172.210 Y81.145 E0.01405
G1 X172.549 Y81.792 E0.02299
G1 X176.437 Y85.681 E0.17325
G1 X175.775 Y85.277 E0.02444
G1 X174.968 Y84.679 E0.03162
G1 X174.249 Y84.028 E0.03056
G1 X172.910 Y82.689 E0.05967
G1 E-0.80000 F2100.00000
G1 Z0.800 F10800.000
G1 X190.635 Y81.662
G1 Z0.200
G1 E0.80000 F2100.00000
G1 F1200.000
G1 X184.623 Y75.650 E0.26784
G1 X184.731 Y75.951 E0.01007
G1 X184.791 Y76.353 E0.01280
G1 X190.318 Y81.880 E0.24622
G1 X190.116 Y82.214 E0.01229
G1 X184.813 Y76.911 E0.23624
G1 X184.796 Y77.266 E0.01119
G1 X184.763 Y77.397 E0.00425
G1 X189.905 Y82.539 E0.22906
G1 X189.683 Y82.853 E0.01211
G1 X184.656 Y77.825 E0.22398
G1 X184.635 Y77.908 E0.00267
G1 X184.496 Y78.202 E0.01024
G1 X189.449 Y83.154 E0.22065
G1 X189.205 Y83.447 E0.01198
G1 X184.315 Y78.556 E0.21788
G1 X184.087 Y78.864 E0.01207
G1 X188.953 Y83.730 E0.21680
G1 X188.692 Y84.005 E0.01194
G1 X183.835 Y79.148 E0.21635
G1 X183.554 Y79.403 E0.01195
G1 X188.417 Y84.266 E0.21665
G1 X188.134 Y84.518 E0.01195
G1 X183.236 Y79.620 E0.21821
G1 X182.901 Y79.821 E0.01230
G1 X187.841 Y84.762 E0.22011
G1 X187.540 Y84.996 E0.01203
G1 X182.506 Y79.962 E0.22426
G1 X182.278 Y80.044 E0.00764
G1 X182.081 Y80.073 E0.00626
G1 X187.226 Y85.217 E0.22918
G1 X186.901 Y85.429 E0.01220
G1 X181.613 Y80.140 E0.23560
G1 X181.049 Y80.113 E0.01777
G1 X186.567 Y85.630 E0.24581
G1 X186.223 Y85.822 E0.01241
G1 X180.358 Y79.957 E0.26129
G1 X179.723 Y79.665 E0.02200
G1 X179.192 Y79.271 E0.02084
G1 X178.748 Y78.781 E0.02084
G1 X178.408 Y78.214 E0.02084
G1 X178.293 Y77.892 E0.01076
G1 X172.407 Y72.006 E0.26221
G1 X172.599 Y71.662 E0.01241
G1 X178.125 Y77.189 E0.24623
G1 X178.088 Y76.937 E0.00804
G1 X178.103 Y76.631 E0.00965
G1 X172.800 Y71.328 E0.23625
G1 X173.012 Y71.003 E0.01220
G1 X178.153 Y76.145 E0.22906
G1 X178.261 Y75.717 E0.01391
G1 X173.233 Y70.689 E0.22398
G1 X173.467 Y70.388 E0.01203
G1 X178.420 Y75.340 E0.22065
G1 X178.601 Y74.986 E0.01254
G1 X173.711 Y70.095 E0.21788
G1 X173.963 Y69.812 E0.01195
G1 X178.830 Y74.678 E0.21680
G1 X178.958 Y74.505 E0.00679
G1 X179.081 Y74.394 E0.00522
G1 X174.224 Y69.537 E0.21635
G1 X174.499 Y69.276 E0.01194
G1 X179.362 Y74.139 E0.21665
G1 X179.448 Y74.061 E0.00367
G1 X179.680 Y73.922 E0.00853
G1 X174.782 Y69.024 E0.21821
G1 X175.075 Y68.780 E0.01198
G1 X180.015 Y73.721 E0.22011
G1 X180.410 Y73.580 E0.01320
G1 X175.376 Y68.546 E0.22426
G1 X175.690 Y68.324 E0.01211
G1 X180.835 Y73.469 E0.22919
G1 X181.303 Y73.401 E0.01489
G1 X176.015 Y68.113 E0.23557
G1 X176.349 Y67.911 E0.01229
G1 X181.867 Y73.429 E0.24581
G1 X181.954 Y73.434 E0.00274
G1 X182.558 Y73.585 E0.01964
G1 X176.693 Y67.720 E0.26128
G1 X177.050 Y67.541 E0.01257
G1 X190.688 Y81.179 E0.60760
G1 X190.854 Y80.810 E0.01277
G1 X177.420 Y67.375 E0.59852
G1 X177.801 Y67.220 E0.01296
G1 X191.009 Y80.428 E0.58840
G1 X191.150 Y80.034 E0.01319
G1 X178.195 Y67.079 E0.57717
G1 X178.602 Y66.950 E0.01345
G1 X191.279 Y79.627 E0.56475
G1 X191.393 Y79.205 E0.01376
G1 X179.024 Y66.836 E0.55104
G1 X179.462 Y66.738 E0.01413
G1 X191.491 Y78.767 E0.53592
G1 X191.570 Y78.311 E0.01460
G1 X179.918 Y66.659 E0.51911
G1 X180.393 Y66.598 E0.01509
G1 X191.631 Y77.836 E0.50064
G1 X191.671 Y77.340 E0.01568
G1 X180.889 Y66.558 E0.48031
G1 X181.420 Y66.553 E0.01672
G1 X191.687 Y76.820 E0.45737
G1 X191.676 Y76.273 E0.01723
G1 X181.957 Y66.554 E0.43297
G1 X182.538 Y66.600 E0.01837
G1 X191.629 Y75.691 E0.40500
G1 X191.542 Y75.068 E0.01981
G1 X183.161 Y66.687 E0.37338
G1 X183.833 Y66.823 E0.02159
G1 X191.406 Y74.396 E0.33740
G1 X191.198 Y73.653 E0.02433
G1 X184.577 Y67.031 E0.29500
G1 X185.424 Y67.342 E0.02844
G1 X190.887 Y72.805 E0.24336
G1 X190.706 Y72.397 E0.01406
G1 X190.368 Y71.750 E0.02299
G1 X186.479 Y67.861 E0.17326
G1 X187.141 Y68.265 E0.02445
G1 X187.948 Y68.863 E0.03162
G1 X188.666 Y69.513 E0.03050
G1 X190.007 Y70.854 E0.05974
G1 E-0.80000 F2100.00000
