; generated by PrusaSlicer 2.1.1+win64 on 2020-07-13 at 21:31:50 UTC

; 

; external perimeters extrusion width = 0.60mm
; perimeters extrusion width = 0.50mm
; infill extrusion width = 0.50mm
; solid infill extrusion width = 0.50mm
; top infill extrusion width = 0.45mm
; first layer extrusion width = 0.42mm

M73 P0 R100
M73 Q0 S101
M201 X1000 Y1000 Z1000 E5000 ; sets maximum accelerations, mm/sec^2
M203 X200 Y200 Z12 E120 ; sets maximum feedrates, mm/sec
M204 P1250 R1250 T1250 ; sets acceleration (P, T) and retract acceleration (R), mm/sec^2
M205 X8.00 Y8.00 Z0.40 E1.50 ; sets the jerk limits, mm/sec
M205 S0 T0 ; sets the minimum extruding and travel feed rate, mm/sec
M107
M862.3 P "MK3S" ; printer model check
M862.1 P0.4 ; nozzle diameter check
M115 U3.8.0 ; tell printer latest fw version
G90 ; use absolute coordinates
M83 ; extruder relative mode
M104 S215 ; set extruder temp
M140 S60 ; set bed temp
M190 S60 ; wait for bed temp
M109 S215 ; wait for extruder temp
G28 W ; home all without mesh bed level
G80 ; mesh bed leveling
G1 Y-3.0 F1000.0 ; go outside print area
G92 E0.0
G1 X60.0 E9.0 F1000.0 ; intro line
M73 Q0 S100
M73 P0 R100
G1 X100.0 E12.5 F1000.0 ; intro line
G92 E0.0
M221 S95
G21 ; set units to millimeters
G90 ; use absolute coordinates
M83 ; use relative distances for extrusion
M900 K30 ; Filament gcode
;BEFORE_LAYER_CHANGE
G92 E0.0
;0.2


G1 E-0.80000 F2100.00000
G1 Z0.600 F10800.000
;AFTER_LAYER_CHANGE
;0.2
G1 X79.516 Y76.076
G1 Z0.200
G1 E0.80000 F2100.00000
M204 S1000
G1 F1200
G1 X79.949 Y75.456 E0.02372
G1 X110.955 Y44.450 E1.37486
G1 X111.435 Y44.088 E0.01885
G1 X111.939 Y43.885 E0.01703
G1 X112.477 Y43.812 E0.01703
G1 X137.504 Y43.811 E0.78469
G1 X138.330 Y43.975 E0.02642
G1 X139.036 Y44.441 E0.02653
G1 X170.058 Y75.463 E1.37554
G1 X170.396 Y75.906 E0.01749
G1 X170.612 Y76.425 E0.01760
G1 X170.689 Y77.000 E0.01820
G1 X170.689 Y164.004 E2.72794
G1 X170.636 Y164.475 E0.01487
G1 X170.484 Y164.924 E0.01487
G1 X170.151 Y165.437 E0.01919
G1 X169.685 Y165.840 E0.01930
G1 X169.129 Y166.096 E0.01919
G1 X168.524 Y166.188 E0.01919
G1 X81.496 Y166.189 E2.72870
G1 X81.025 Y166.136 E0.01487
G1 X80.576 Y165.984 E0.01487
G1 X80.063 Y165.651 E0.01919
G1 X79.660 Y165.185 E0.01930
G1 X79.404 Y164.629 E0.01919
G1 X79.312 Y164.024 E0.01919
G1 X79.311 Y76.996 E2.72870
G1 X79.364 Y76.525 E0.01487
G1 X79.497 Y76.133 E0.01299
G1 E-0.80000 F2100.00000
G1 Z0.800 F10800.000
G1 X113.087 Y108.587
G1 Z0.200
G1 E0.80000 F2100.00000
G1 F1200
G1 X136.913 Y108.587 E0.74704
G1 X136.913 Y132.413 E0.74704
G1 X113.087 Y132.413 E0.74704
G1 X113.087 Y108.647 E0.74516
G1 X112.710 Y108.210 F10800.000
G1 F1200
G1 X137.290 Y108.210 E0.77069
G1 X137.290 Y132.790 E0.77069
G1 X112.710 Y132.790 E0.77069
G1 X112.710 Y108.270 E0.76881
G1 X113.096 Y108.314 F10800.000
G1 E-0.80000 F2100.00000
G1 Z0.800 F10800.000
G1 X113.968 Y132.300
G1 Z0.200
G1 E0.80000 F2100.00000
G1 F1200
G1 X113.370 Y131.701 E0.02673
G1 X113.370 Y131.164 E0.01697
G1 X114.336 Y132.130 E0.04315
G1 X114.873 Y132.130 E0.01697
G1 X113.370 Y130.627 E0.06715
G1 X113.370 Y130.090 E0.01697
G1 X115.410 Y132.130 E0.09114
G1 X115.947 Y132.130 E0.01697
G1 X113.370 Y129.553 E0.11514
G1 X113.370 Y129.015 E0.01697
G1 X116.485 Y132.130 E0.13914
G1 X117.022 Y132.130 E0.01697
G1 X113.370 Y128.478 E0.16313
G1 X113.370 Y127.941 E0.01697
G1 X117.559 Y132.130 E0.18713
G1 X118.096 Y132.130 E0.01697
G1 X113.370 Y127.404 E0.21113
G1 X113.370 Y126.866 E0.01697
G1 X118.634 Y132.130 E0.23512
G1 X119.171 Y132.130 E0.01697
G1 X113.370 Y126.329 E0.25912
G1 X113.370 Y125.792 E0.01697
G1 X119.708 Y132.130 E0.28312
G1 X120.245 Y132.130 E0.01697
G1 X113.370 Y125.255 E0.30711
G1 X113.370 Y124.718 E0.01697
G1 X120.782 Y132.130 E0.33111
G1 X121.320 Y132.130 E0.01697
G1 X113.370 Y124.180 E0.35511
G1 X113.370 Y123.643 E0.01697
G1 X121.857 Y132.130 E0.37910
G1 X122.394 Y132.130 E0.01697
G1 X113.370 Y123.106 E0.40310
G1 X113.370 Y122.569 E0.01697
G1 X122.931 Y132.130 E0.42710
G1 X123.468 Y132.130 E0.01697
G1 X113.370 Y122.032 E0.45110
G1 X113.370 Y121.494 E0.01697
G1 X124.006 Y132.130 E0.47509
G1 X124.543 Y132.130 E0.01697
G1 X113.370 Y120.957 E0.49909
G1 X113.370 Y120.420 E0.01697
G1 X125.080 Y132.130 E0.52309
G1 X125.617 Y132.130 E0.01697
G1 X113.370 Y119.883 E0.54708
G1 X113.370 Y119.346 E0.01697
G1 X126.154 Y132.130 E0.57108
G1 X126.692 Y132.130 E0.01697
G1 X113.370 Y118.808 E0.59508
G1 X113.370 Y118.271 E0.01697
G1 X127.229 Y132.130 E0.61907
G1 X127.766 Y132.130 E0.01697
G1 X113.370 Y117.734 E0.64307
G1 X113.370 Y117.197 E0.01697
G1 X128.303 Y132.130 E0.66707
G1 X128.841 Y132.130 E0.01697
G1 X113.370 Y116.659 E0.69106
G1 X113.370 Y116.122 E0.01697
G1 X129.378 Y132.130 E0.71506
G1 X129.915 Y132.130 E0.01697
G1 X113.370 Y115.585 E0.73906
G1 X113.370 Y115.048 E0.01697
G1 X130.452 Y132.130 E0.76305
G1 X130.989 Y132.130 E0.01697
G1 X113.370 Y114.511 E0.78705
G1 X113.370 Y113.973 E0.01697
G1 X131.527 Y132.130 E0.81105
G1 X132.064 Y132.130 E0.01697
G1 X113.370 Y113.436 E0.83505
G1 X113.370 Y112.899 E0.01697
G1 X132.601 Y132.130 E0.85904
M73 Q1 S99
G1 X133.138 Y132.130 E0.01697
G1 X113.370 Y112.362 E0.88304
M73 P1 R99
G1 X113.370 Y111.825 E0.01697
G1 X133.675 Y132.130 E0.90704
G1 X134.213 Y132.130 E0.01697
G1 X113.370 Y111.287 E0.93103
G1 X113.370 Y110.750 E0.01697
G1 X134.750 Y132.130 E0.95503
G1 X135.287 Y132.130 E0.01697
G1 X113.370 Y110.213 E0.97903
G1 X113.370 Y109.676 E0.01697
G1 X135.824 Y132.130 E1.00302
G1 X136.361 Y132.130 E0.01697
G1 X113.370 Y109.139 E1.02702
G1 X113.370 Y108.870 E0.00849
G1 X113.638 Y108.870 E0.00848
G1 X136.630 Y131.862 E1.02702
G1 X136.630 Y131.324 E0.01697
G1 X114.176 Y108.870 E1.00303
G1 X114.713 Y108.870 E0.01697
G1 X136.630 Y130.787 E0.97903
G1 X136.630 Y130.250 E0.01697
G1 X115.250 Y108.870 E0.95503
G1 X115.787 Y108.870 E0.01697
G1 X136.630 Y129.713 E0.93104
G1 X136.630 Y129.176 E0.01697
G1 X116.324 Y108.870 E0.90704
G1 X116.862 Y108.870 E0.01697
G1 X136.630 Y128.638 E0.88304
G1 X136.630 Y128.101 E0.01697
G1 X117.399 Y108.870 E0.85905
G1 X117.936 Y108.870 E0.01697
G1 X136.630 Y127.564 E0.83505
G1 X136.630 Y127.027 E0.01697
G1 X118.473 Y108.870 E0.81105
G1 X119.011 Y108.870 E0.01697
G1 X136.630 Y126.489 E0.78706
G1 X136.630 Y125.952 E0.01697
G1 X119.548 Y108.870 E0.76306
G1 X120.085 Y108.870 E0.01697
G1 X136.630 Y125.415 E0.73906
G1 X136.630 Y124.878 E0.01697
G1 X120.622 Y108.870 E0.71506
G1 X121.159 Y108.870 E0.01697
G1 X136.630 Y124.341 E0.69107
G1 X136.630 Y123.803 E0.01697
G1 X121.697 Y108.870 E0.66707
G1 X122.234 Y108.870 E0.01697
G1 X136.630 Y123.266 E0.64307
G1 X136.630 Y122.729 E0.01697
G1 X122.771 Y108.870 E0.61908
G1 X123.308 Y108.870 E0.01697
G1 X136.630 Y122.192 E0.59508
G1 X136.630 Y121.655 E0.01697
G1 X123.845 Y108.870 E0.57108
G1 X124.383 Y108.870 E0.01697
G1 X136.630 Y121.117 E0.54709
G1 X136.630 Y120.580 E0.01697
G1 X124.920 Y108.870 E0.52309
G1 X125.457 Y108.870 E0.01697
G1 X136.630 Y120.043 E0.49909
G1 X136.630 Y119.506 E0.01697
G1 X125.994 Y108.870 E0.47510
G1 X126.532 Y108.870 E0.01697
G1 X136.630 Y118.968 E0.45110
G1 X136.630 Y118.431 E0.01697
G1 X127.069 Y108.870 E0.42710
G1 X127.606 Y108.870 E0.01697
G1 X136.630 Y117.894 E0.40310
G1 X136.630 Y117.357 E0.01697
G1 X128.143 Y108.870 E0.37911
G1 X128.680 Y108.870 E0.01697
G1 X136.630 Y116.820 E0.35511
G1 X136.630 Y116.282 E0.01697
G1 X129.218 Y108.870 E0.33111
G1 X129.755 Y108.870 E0.01697
G1 X136.630 Y115.745 E0.30712
G1 X136.630 Y115.208 E0.01697
G1 X130.292 Y108.870 E0.28312
G1 X130.829 Y108.870 E0.01697
G1 X136.630 Y114.671 E0.25912
G1 X136.630 Y114.134 E0.01697
G1 X131.366 Y108.870 E0.23513
G1 X131.904 Y108.870 E0.01697
G1 X136.630 Y113.596 E0.21113
G1 X136.630 Y113.059 E0.01697
G1 X132.441 Y108.870 E0.18713
G1 X132.978 Y108.870 E0.01697
G1 X136.630 Y112.522 E0.16314
G1 X136.630 Y111.985 E0.01697
G1 X133.515 Y108.870 E0.13914
G1 X134.052 Y108.870 E0.01697
G1 X136.630 Y111.448 E0.11514
G1 X136.630 Y110.910 E0.01697
G1 X134.590 Y108.870 E0.09115
G1 X135.127 Y108.870 E0.01697
G1 X136.630 Y110.373 E0.06715
G1 X136.630 Y109.836 E0.01697
G1 X135.664 Y108.870 E0.04315
G1 X136.201 Y108.870 E0.01697
G1 X136.800 Y109.468 E0.02673
G1 E-0.80000 F2100.00000
G1 Z0.800 F10800.000
G1 X136.800 Y101.413
G1 Z0.200
G1 E0.80000 F2100.00000
G1 F1200
G1 X113.087 Y101.413 E0.74350
G1 X113.087 Y77.587 E0.74704
G1 X136.913 Y77.587 E0.74704
G1 X136.913 Y101.413 E0.74704
G1 X136.860 Y101.413 E0.00166
G1 X137.290 Y101.790 F10800.000
G1 F1200
G1 X112.710 Y101.790 E0.77069
G1 X112.710 Y77.210 E0.77069
G1 X137.290 Y77.210 E0.77069
G1 X137.290 Y101.730 E0.76881
G1 X136.904 Y101.686 F10800.000
G1 E-0.80000 F2100.00000
G1 Z0.800 F10800.000
G1 X136.800 Y78.468
G1 Z0.200
G1 E0.80000 F2100.00000
G1 F1200
G1 X136.201 Y77.870 E0.02673
G1 X135.664 Y77.870 E0.01697
G1 X136.630 Y78.836 E0.04315
G1 X136.630 Y79.373 E0.01697
G1 X135.127 Y77.870 E0.06715
G1 X134.590 Y77.870 E0.01697
G1 X136.630 Y79.910 E0.09115
G1 X136.630 Y80.448 E0.01697
G1 X134.052 Y77.870 E0.11514
G1 X133.515 Y77.870 E0.01697
G1 X136.630 Y80.985 E0.13914
G1 X136.630 Y81.522 E0.01697
G1 X132.978 Y77.870 E0.16314
M73 Q2 S98
G1 X132.441 Y77.870 E0.01697
G1 X136.630 Y82.059 E0.18713
G1 X136.630 Y82.596 E0.01697
G1 X131.904 Y77.870 E0.21113
G1 X131.366 Y77.870 E0.01697
G1 X136.630 Y83.134 E0.23513
G1 X136.630 Y83.671 E0.01697
G1 X130.829 Y77.870 E0.25912
M73 P2 R98
G1 X130.292 Y77.870 E0.01697
G1 X136.630 Y84.208 E0.28312
G1 X136.630 Y84.745 E0.01697
G1 X129.755 Y77.870 E0.30712
G1 X129.218 Y77.870 E0.01697
G1 X136.630 Y85.282 E0.33111
G1 X136.630 Y85.820 E0.01697
G1 X128.680 Y77.870 E0.35511
G1 X128.143 Y77.870 E0.01697
G1 X136.630 Y86.357 E0.37911
G1 X136.630 Y86.894 E0.01697
G1 X127.606 Y77.870 E0.40310
G1 X127.069 Y77.870 E0.01697
G1 X136.630 Y87.431 E0.42710
G1 X136.630 Y87.968 E0.01697
G1 X126.532 Y77.870 E0.45110
G1 X125.994 Y77.870 E0.01697
G1 X136.630 Y88.506 E0.47510
G1 X136.630 Y89.043 E0.01697
G1 X125.457 Y77.870 E0.49909
G1 X124.920 Y77.870 E0.01697
G1 X136.630 Y89.580 E0.52309
G1 X136.630 Y90.117 E0.01697
G1 X124.383 Y77.870 E0.54709
G1 X123.845 Y77.870 E0.01697
G1 X136.630 Y90.655 E0.57108
G1 X136.630 Y91.192 E0.01697
G1 X123.308 Y77.870 E0.59508
G1 X122.771 Y77.870 E0.01697
G1 X136.630 Y91.729 E0.61908
G1 X136.630 Y92.266 E0.01697
G1 X122.234 Y77.870 E0.64307
G1 X121.697 Y77.870 E0.01697
G1 X136.630 Y92.803 E0.66707
G1 X136.630 Y93.341 E0.01697
G1 X121.159 Y77.870 E0.69107
G1 X120.622 Y77.870 E0.01697
G1 X136.630 Y93.878 E0.71506
G1 X136.630 Y94.415 E0.01697
G1 X120.085 Y77.870 E0.73906
G1 X119.548 Y77.870 E0.01697
G1 X136.630 Y94.952 E0.76306
G1 X136.630 Y95.489 E0.01697
G1 X119.011 Y77.870 E0.78706
G1 X118.473 Y77.870 E0.01697
G1 X136.630 Y96.027 E0.81105
G1 X136.630 Y96.564 E0.01697
G1 X117.936 Y77.870 E0.83505
G1 X117.399 Y77.870 E0.01697
G1 X136.630 Y97.101 E0.85905
G1 X136.630 Y97.638 E0.01697
G1 X116.862 Y77.870 E0.88304
G1 X116.324 Y77.870 E0.01697
G1 X136.630 Y98.176 E0.90704
G1 X136.630 Y98.713 E0.01697
G1 X115.787 Y77.870 E0.93104
G1 X115.250 Y77.870 E0.01697
G1 X136.630 Y99.250 E0.95503
G1 X136.630 Y99.787 E0.01697
G1 X114.713 Y77.870 E0.97903
G1 X114.176 Y77.870 E0.01697
G1 X136.630 Y100.324 E1.00303
G1 X136.630 Y100.862 E0.01697
G1 X113.638 Y77.870 E1.02702
G1 X113.370 Y77.870 E0.00848
G1 X113.370 Y78.139 E0.00849
G1 X136.361 Y101.130 E1.02702
G1 X135.824 Y101.130 E0.01697
G1 X113.370 Y78.676 E1.00302
G1 X113.370 Y79.213 E0.01697
G1 X135.287 Y101.130 E0.97903
G1 X134.750 Y101.130 E0.01697
G1 X113.370 Y79.750 E0.95503
G1 X113.370 Y80.287 E0.01697
G1 X134.213 Y101.130 E0.93103
G1 X133.675 Y101.130 E0.01697
G1 X113.370 Y80.825 E0.90704
G1 X113.370 Y81.362 E0.01697
G1 X133.138 Y101.130 E0.88304
G1 X132.601 Y101.130 E0.01697
G1 X113.370 Y81.899 E0.85904
G1 X113.370 Y82.436 E0.01697
G1 X132.064 Y101.130 E0.83505
G1 X131.527 Y101.130 E0.01697
G1 X113.370 Y82.973 E0.81105
G1 X113.370 Y83.511 E0.01697
G1 X130.989 Y101.130 E0.78705
G1 X130.452 Y101.130 E0.01697
G1 X113.370 Y84.048 E0.76305
G1 X113.370 Y84.585 E0.01697
G1 X129.915 Y101.130 E0.73906
G1 X129.378 Y101.130 E0.01697
G1 X113.370 Y85.122 E0.71506
G1 X113.370 Y85.659 E0.01697
G1 X128.841 Y101.130 E0.69106
G1 X128.303 Y101.130 E0.01697
G1 X113.370 Y86.197 E0.66707
G1 X113.370 Y86.734 E0.01697
G1 X127.766 Y101.130 E0.64307
G1 X127.229 Y101.130 E0.01697
G1 X113.370 Y87.271 E0.61907
M73 Q3 S97
G1 X113.370 Y87.808 E0.01697
G1 X126.692 Y101.130 E0.59508
G1 X126.154 Y101.130 E0.01697
G1 X113.370 Y88.346 E0.57108
M73 P3 R97
G1 X113.370 Y88.883 E0.01697
G1 X125.617 Y101.130 E0.54708
G1 X125.080 Y101.130 E0.01697
G1 X113.370 Y89.420 E0.52309
G1 X113.370 Y89.957 E0.01697
G1 X124.543 Y101.130 E0.49909
G1 X124.006 Y101.130 E0.01697
G1 X113.370 Y90.494 E0.47509
G1 X113.370 Y91.032 E0.01697
G1 X123.468 Y101.130 E0.45110
G1 X122.931 Y101.130 E0.01697
G1 X113.370 Y91.569 E0.42710
G1 X113.370 Y92.106 E0.01697
G1 X122.394 Y101.130 E0.40310
G1 X121.857 Y101.130 E0.01697
G1 X113.370 Y92.643 E0.37910
G1 X113.370 Y93.180 E0.01697
G1 X121.320 Y101.130 E0.35511
G1 X120.782 Y101.130 E0.01697
G1 X113.370 Y93.718 E0.33111
G1 X113.370 Y94.255 E0.01697
G1 X120.245 Y101.130 E0.30711
G1 X119.708 Y101.130 E0.01697
G1 X113.370 Y94.792 E0.28312
G1 X113.370 Y95.329 E0.01697
G1 X119.171 Y101.130 E0.25912
G1 X118.634 Y101.130 E0.01697
G1 X113.370 Y95.866 E0.23512
G1 X113.370 Y96.404 E0.01697
G1 X118.096 Y101.130 E0.21113
G1 X117.559 Y101.130 E0.01697
G1 X113.370 Y96.941 E0.18713
G1 X113.370 Y97.478 E0.01697
G1 X117.022 Y101.130 E0.16313
G1 X116.485 Y101.130 E0.01697
G1 X113.370 Y98.015 E0.13914
G1 X113.370 Y98.553 E0.01697
G1 X115.947 Y101.130 E0.11514
G1 X115.410 Y101.130 E0.01697
G1 X113.370 Y99.090 E0.09114
G1 X113.370 Y99.627 E0.01697
G1 X114.873 Y101.130 E0.06715
G1 X114.336 Y101.130 E0.01697
G1 X113.370 Y100.164 E0.04315
G1 X113.370 Y100.701 E0.01697
G1 X113.968 Y101.300 E0.02673
G1 E-0.80000 F2100.00000
G1 Z0.800 F10800.000
G1 X113.087 Y70.413
G1 Z0.200
G1 E0.80000 F2100.00000
G1 F1200
G1 X113.087 Y46.587 E0.74704
G1 X136.913 Y46.587 E0.74704
G1 X136.913 Y70.413 E0.74704
G1 X113.147 Y70.413 E0.74516
G1 X112.710 Y70.790 F10800.000
G1 F1200
G1 X112.710 Y46.210 E0.77069
G1 X137.290 Y46.210 E0.77069
G1 X137.290 Y70.790 E0.77069
G1 X112.770 Y70.790 E0.76881
G1 X112.814 Y70.404 F10800.000
G1 E-0.80000 F2100.00000
G1 Z0.800 F10800.000
G1 X113.968 Y70.300
G1 Z0.200
G1 E0.80000 F2100.00000
G1 F1200
G1 X113.370 Y69.701 E0.02673
G1 X113.370 Y69.164 E0.01697
G1 X114.336 Y70.130 E0.04315
G1 X114.873 Y70.130 E0.01697
G1 X113.370 Y68.627 E0.06715
G1 X113.370 Y68.090 E0.01697
G1 X115.410 Y70.130 E0.09114
G1 X115.947 Y70.130 E0.01697
G1 X113.370 Y67.553 E0.11514
G1 X113.370 Y67.015 E0.01697
G1 X116.485 Y70.130 E0.13914
G1 X117.022 Y70.130 E0.01697
G1 X113.370 Y66.478 E0.16313
G1 X113.370 Y65.941 E0.01697
G1 X117.559 Y70.130 E0.18713
G1 X118.096 Y70.130 E0.01697
G1 X113.370 Y65.404 E0.21113
G1 X113.370 Y64.866 E0.01697
G1 X118.634 Y70.130 E0.23512
G1 X119.171 Y70.130 E0.01697
G1 X113.370 Y64.329 E0.25912
G1 X113.370 Y63.792 E0.01697
G1 X119.708 Y70.130 E0.28312
G1 X120.245 Y70.130 E0.01697
G1 X113.370 Y63.255 E0.30711
G1 X113.370 Y62.718 E0.01697
G1 X120.782 Y70.130 E0.33111
G1 X121.320 Y70.130 E0.01697
G1 X113.370 Y62.180 E0.35511
G1 X113.370 Y61.643 E0.01697
G1 X121.857 Y70.130 E0.37910
G1 X122.394 Y70.130 E0.01697
G1 X113.370 Y61.106 E0.40310
G1 X113.370 Y60.569 E0.01697
G1 X122.931 Y70.130 E0.42710
G1 X123.468 Y70.130 E0.01697
G1 X113.370 Y60.032 E0.45110
G1 X113.370 Y59.494 E0.01697
G1 X124.006 Y70.130 E0.47509
G1 X124.543 Y70.130 E0.01697
G1 X113.370 Y58.957 E0.49909
G1 X113.370 Y58.420 E0.01697
G1 X125.080 Y70.130 E0.52309
G1 X125.617 Y70.130 E0.01697
G1 X113.370 Y57.883 E0.54708
G1 X113.370 Y57.346 E0.01697
G1 X126.154 Y70.130 E0.57108
G1 X126.692 Y70.130 E0.01697
G1 X113.370 Y56.808 E0.59508
G1 X113.370 Y56.271 E0.01697
G1 X127.229 Y70.130 E0.61907
G1 X127.766 Y70.130 E0.01697
G1 X113.370 Y55.734 E0.64307
G1 X113.370 Y55.197 E0.01697
G1 X128.303 Y70.130 E0.66707
G1 X128.841 Y70.130 E0.01697
G1 X113.370 Y54.659 E0.69106
G1 X113.370 Y54.122 E0.01697
G1 X129.378 Y70.130 E0.71506
G1 X129.915 Y70.130 E0.01697
