; generated by PrusaSlicer 2.4.2+win64 on 2022-06-27 at 21:32:26 UTC

; 

; external perimeters extrusion width = 0.45mm
; perimeters extrusion width = 0.45mm
; infill extrusion width = 0.45mm
; solid infill extrusion width = 0.45mm
; top infill extrusion width = 0.40mm
; support material extrusion width = 0.35mm
; first layer extrusion width = 0.42mm

M73 P0 R43
M73 Q0 S44
M107
;TYPE:Custom
M862.3 P "MK3S" ; printer model check
M862.1 P0.4 ; nozzle diameter check
M115 U3.8.0 ; tell printer latest fw version
G90 ; use absolute coordinates
M83 ; extruder relative mode
M104 S215 ; set extruder temp
M140 S60 ; set bed temp
M190 S60 ; wait for bed temp
M109 S215 ; wait for extruder temp
G28 W ; home all without mesh bed level
G80 ; mesh bed leveling
G1 Y-3.0 F1000.0 ; go outside print area
G92 E0.0
G1 X60.0 E9.0 F1000.0 ; intro line
G1 X100.0 E12.5 F1000.0 ; intro line
G92 E0.0
M221 S95
G21 ; set units to millimeters
G90 ; use absolute coordinates
M83 ; use relative distances for extrusion
M900 K0.05 ; Filament gcode LA 1.5
M900 K30 ; Filament gcode LA 1.0
M107
;LAYER_CHANGE
;Z:0.2
;HEIGHT:0.2
;BEFORE_LAYER_CHANGE
G92 E0.0
;0.2


M73 Q0 S43
G1 E-.8 F2100
G1 Z.6 F10800
;AFTER_LAYER_CHANGE
;0.2
G1 X83.431 Y72.848
G1 Z.2
G1 E.8 F2100
M204 S1000
;TYPE:Skirt/Brim
;WIDTH:0.42
G1 F1200
G1 X84.476 Y71.972 E.04278
G1 X85.416 Y71.778 E.03008
G1 X164.584 Y71.778 E2.48226
G1 X165.891 Y72.17 E.04278
G1 X166.767 Y73.216 E.04278
G1 X166.961 Y74.156 E.03008
G1 X166.961 Y135.844 E1.93422
G1 X166.569 Y137.152 E.04278
G1 X165.524 Y138.028 E.04278
G1 X164.584 Y138.222 E.03008
G1 X85.416 Y138.222 E2.48226
G1 X84.109 Y137.83 E.04278
G1 X83.233 Y136.784 E.04278
G1 X83.039 Y135.844 E.03008
G1 X83.039 Y74.156 E1.93422
G1 X83.413 Y72.906 E.0409
; printing object RGB_HOLDER-ANY-PLA.STL id:0 copy 5
G1 E-.8 F2100
G1 Z.8 F10800
G1 X134.637 Y74.943
G1 Z.2
G1 E.8 F2100
;TYPE:Perimeter
G1 F1200
G1 X163.797 Y74.943 E.91429
G1 X163.797 Y82.131 E.2254
G1 X134.637 Y82.131 E.91429
G1 X134.637 Y75.003 E.22352
G1 X134.26 Y74.565 F10800
;TYPE:External perimeter
M73 Q1 S43
G1 F1200
M73 P1 R43
G1 X164.174 Y74.565 E.93793
G1 X164.174 Y82.509 E.24905
G1 X134.26 Y82.509 E.93793
G1 X134.26 Y74.625 E.24717
G1 X134.659 Y74.6 F10800
G1 E-.8 F2100
G1 Z.8 F10800
G1 X162.916 Y75.056
G1 Z.2
G1 E.8 F2100
;TYPE:Solid infill
;WIDTH:0.422558
G1 F1200
G1 X163.514 Y75.654 E.0267
G1 X163.514 Y76.191 E.01695
G1 X162.549 Y75.225 E.04309
G1 X162.012 Y75.225 E.01695
G1 X163.514 Y76.727 E.06706
G1 X163.514 Y77.264 E.01695
G1 X161.475 Y75.225 E.09103
G1 X160.938 Y75.225 E.01695
G1 X163.514 Y77.801 E.11499
G1 X163.514 Y78.338 E.01695
G1 X160.401 Y75.225 E.13896
G1 X159.864 Y75.225 E.01695
G1 X163.514 Y78.875 E.16293
G1 X163.514 Y79.412 E.01695
G1 X159.328 Y75.225 E.1869
G1 X158.791 Y75.225 E.01695
G1 X163.514 Y79.949 E.21087
G1 X163.514 Y80.486 E.01695
G1 X158.254 Y75.225 E.23483
G1 X157.717 Y75.225 E.01695
G1 X163.514 Y81.023 E.2588
G1 X163.514 Y81.559 E.01695
G1 X157.18 Y75.225 E.28277
G1 X156.643 Y75.225 E.01695
G1 X163.266 Y81.849 E.29568
G1 X162.729 Y81.849 E.01695
G1 X156.106 Y75.225 E.29568
G1 X155.569 Y75.225 E.01695
G1 X162.193 Y81.849 E.29568
G1 X161.656 Y81.849 E.01695
G1 X155.032 Y75.225 E.29568
G1 X154.496 Y75.225 E.01695
G1 X161.119 Y81.849 E.29568
G1 X160.582 Y81.849 E.01695
G1 X153.959 Y75.225 E.29568
G1 X153.422 Y75.225 E.01695
G1 X160.045 Y81.849 E.29568
G1 X159.508 Y81.849 E.01695
G1 X152.885 Y75.225 E.29568
G1 X152.348 Y75.225 E.01695
M73 P1 R42
G1 X158.971 Y81.849 E.29568
G1 X158.434 Y81.849 E.01695
G1 X151.811 Y75.225 E.29568
G1 X151.274 Y75.225 E.01695
G1 X157.897 Y81.849 E.29568
G1 X157.361 Y81.849 E.01695
G1 X150.737 Y75.225 E.29568
G1 X150.2 Y75.225 E.01695
G1 X156.824 Y81.849 E.29568
G1 X156.287 Y81.849 E.01695
G1 X149.664 Y75.225 E.29568
G1 X149.127 Y75.225 E.01695
G1 X155.75 Y81.849 E.29568
G1 X155.213 Y81.849 E.01695
G1 X148.59 Y75.225 E.29568
G1 X148.053 Y75.225 E.01695
G1 X154.676 Y81.849 E.29568
G1 X154.139 Y81.849 E.01695
G1 X147.516 Y75.225 E.29568
G1 X146.979 Y75.225 E.01695
G1 X153.602 Y81.849 E.29568
G1 X153.065 Y81.849 E.01695
G1 X146.442 Y75.225 E.29568
G1 X145.905 Y75.225 E.01695
G1 X152.529 Y81.849 E.29568
G1 X151.992 Y81.849 E.01695
G1 X145.368 Y75.225 E.29568
G1 X144.832 Y75.225 E.01695
G1 X151.455 Y81.849 E.29568
G1 X150.918 Y81.849 E.01695
G1 X144.295 Y75.225 E.29568
G1 X143.758 Y75.225 E.01695
G1 X150.381 Y81.849 E.29568
G1 X149.844 Y81.849 E.01695
G1 X143.221 Y75.225 E.29568
G1 X142.684 Y75.225 E.01695
G1 X149.307 Y81.849 E.29568
G1 X148.77 Y81.849 E.01695
G1 X142.147 Y75.225 E.29568
G1 X141.61 Y75.225 E.01695
G1 X148.233 Y81.849 E.29568
G1 X147.697 Y81.849 E.01695
G1 X141.073 Y75.225 E.29568
G1 X140.536 Y75.225 E.01695
G1 X147.16 Y81.849 E.29568
G1 X146.623 Y81.849 E.01695
G1 X140 Y75.225 E.29568
G1 X139.463 Y75.225 E.01695
G1 X146.086 Y81.849 E.29568
G1 X145.549 Y81.849 E.01695
G1 X138.926 Y75.225 E.29568
G1 X138.389 Y75.225 E.01695
G1 X145.012 Y81.849 E.29568
G1 X144.475 Y81.849 E.01695
G1 X137.852 Y75.225 E.29568
G1 X137.315 Y75.225 E.01695
G1 X143.938 Y81.849 E.29568
G1 X143.401 Y81.849 E.01695
M73 P2 R42
M73 Q2 S43
G1 X136.778 Y75.225 E.29568
G1 X136.241 Y75.225 E.01695
G1 X142.865 Y81.849 E.29568
G1 X142.328 Y81.849 E.01695
G1 X135.704 Y75.225 E.29568
G1 X135.168 Y75.225 E.01695
G1 X141.791 Y81.849 E.29568
G1 X141.254 Y81.849 E.01695
G1 X134.92 Y75.515 E.28277
G1 X134.92 Y76.051 E.01695
G1 X140.717 Y81.849 E.2588
G1 X140.18 Y81.849 E.01695
G1 X134.92 Y76.588 E.23483
G1 X134.92 Y77.125 E.01695
G1 X139.643 Y81.849 E.21086
G1 X139.106 Y81.849 E.01695
G1 X134.92 Y77.662 E.1869
G1 X134.92 Y78.199 E.01695
G1 X138.569 Y81.849 E.16293
G1 X138.033 Y81.849 E.01695
G1 X134.92 Y78.736 E.13896
G1 X134.92 Y79.273 E.01695
G1 X137.496 Y81.849 E.11499
G1 X136.959 Y81.849 E.01695
G1 X134.92 Y79.81 E.09102
G1 X134.92 Y80.347 E.01695
G1 X136.422 Y81.849 E.06705
G1 X135.885 Y81.849 E.01695
G1 X134.92 Y80.883 E.04309
G1 X134.92 Y81.42 E.01695
G1 X135.518 Y82.018 E.02669
; stop printing object RGB_HOLDER-ANY-PLA.STL id:0 copy 5
; printing object RGB_HOLDER-ANY-PLA.STL id:0 copy 2
G1 E-.8 F2100
G1 Z.8 F10800
G1 X134.637 Y101.406
G1 Z.2
G1 E.8 F2100
;TYPE:Perimeter
;WIDTH:0.42
G1 F1200
G1 X163.797 Y101.406 E.91429
G1 X163.797 Y108.594 E.2254
G1 X134.637 Y108.594 E.91429
G1 X134.637 Y101.466 E.22352
M73 Q2 S42
G1 X134.26 Y101.028 F10800
;TYPE:External perimeter
G1 F1200
G1 X164.174 Y101.028 E.93793
G1 X164.174 Y108.971 E.24905
G1 X134.26 Y108.971 E.93793
G1 X134.26 Y101.088 E.24717
G1 X134.659 Y101.063 F10800
G1 E-.8 F2100
G1 Z.8 F10800
G1 X162.916 Y101.519
G1 Z.2
G1 E.8 F2100
;TYPE:Solid infill
;WIDTH:0.422558
G1 F1200
G1 X163.514 Y102.117 E.0267
G1 X163.514 Y102.654 E.01695
G1 X162.549 Y101.688 E.04309
G1 X162.012 Y101.688 E.01695
G1 X163.514 Y103.19 E.06706
G1 X163.514 Y103.727 E.01695
G1 X161.475 Y101.688 E.09103
G1 X160.938 Y101.688 E.01695
G1 X163.514 Y104.264 E.11499
G1 X163.514 Y104.801 E.01695
G1 X160.401 Y101.688 E.13896
G1 X159.864 Y101.688 E.01695
G1 X163.514 Y105.338 E.16293
G1 X163.514 Y105.875 E.01695
G1 X159.328 Y101.688 E.1869
G1 X158.791 Y101.688 E.01695
G1 X163.514 Y106.412 E.21087
G1 X163.514 Y106.949 E.01695
G1 X158.254 Y101.688 E.23483
G1 X157.717 Y101.688 E.01695
G1 X163.514 Y107.486 E.2588
G1 X163.514 Y108.022 E.01695
G1 X157.18 Y101.688 E.28277
G1 X156.643 Y101.688 E.01695
G1 X163.266 Y108.312 E.29568
G1 X162.729 Y108.312 E.01695
G1 X156.106 Y101.688 E.29568
G1 X155.569 Y101.688 E.01695
G1 X162.193 Y108.312 E.29568
G1 X161.656 Y108.312 E.01695
G1 X155.032 Y101.688 E.29568
G1 X154.496 Y101.688 E.01695
G1 X161.119 Y108.312 E.29568
G1 X160.582 Y108.312 E.01695
G1 X153.959 Y101.688 E.29568
G1 X153.422 Y101.688 E.01695
G1 X160.045 Y108.312 E.29568
G1 X159.508 Y108.312 E.01695
G1 X152.885 Y101.688 E.29568
G1 X152.348 Y101.688 E.01695
G1 X158.971 Y108.312 E.29568
G1 X158.434 Y108.312 E.01695
G1 X151.811 Y101.688 E.29568
G1 X151.274 Y101.688 E.01695
G1 X157.897 Y108.312 E.29568
G1 X157.361 Y108.312 E.01695
G1 X150.737 Y101.688 E.29568
G1 X150.2 Y101.688 E.01695
G1 X156.824 Y108.312 E.29568
G1 X156.287 Y108.312 E.01695
G1 X149.664 Y101.688 E.29568
G1 X149.127 Y101.688 E.01695
G1 X155.75 Y108.312 E.29568
G1 X155.213 Y108.312 E.01695
G1 X148.59 Y101.688 E.29568
G1 X148.053 Y101.688 E.01695
G1 X154.676 Y108.312 E.29568
G1 X154.139 Y108.312 E.01695
G1 X147.516 Y101.688 E.29568
G1 X146.979 Y101.688 E.01695
M73 P3 R42
M73 Q3 S42
G1 X153.602 Y108.312 E.29568
G1 X153.065 Y108.312 E.01695
G1 X146.442 Y101.688 E.29568
G1 X145.905 Y101.688 E.01695
G1 X152.529 Y108.312 E.29568
G1 X151.992 Y108.312 E.01695
G1 X145.368 Y101.688 E.29568
G1 X144.832 Y101.688 E.01695
G1 X151.455 Y108.312 E.29568
G1 X150.918 Y108.312 E.01695
G1 X144.295 Y101.688 E.29568
G1 X143.758 Y101.688 E.01695
G1 X150.381 Y108.312 E.29568
G1 X149.844 Y108.312 E.01695
G1 X143.221 Y101.688 E.29568
G1 X142.684 Y101.688 E.01695
G1 X149.307 Y108.312 E.29568
G1 X148.77 Y108.312 E.01695
G1 X142.147 Y101.688 E.29568
G1 X141.61 Y101.688 E.01695
G1 X148.233 Y108.312 E.29568
G1 X147.697 Y108.312 E.01695
G1 X141.073 Y101.688 E.29568
G1 X140.536 Y101.688 E.01695
G1 X147.16 Y108.312 E.29568
G1 X146.623 Y108.312 E.01695
G1 X140 Y101.688 E.29568
G1 X139.463 Y101.688 E.01695
G1 X146.086 Y108.312 E.29568
G1 X145.549 Y108.312 E.01695
G1 X138.926 Y101.688 E.29568
G1 X138.389 Y101.688 E.01695
G1 X145.012 Y108.312 E.29568
G1 X144.475 Y108.312 E.01695
G1 X137.852 Y101.688 E.29568
G1 X137.315 Y101.688 E.01695
G1 X143.938 Y108.312 E.29568
G1 X143.401 Y108.312 E.01695
G1 X136.778 Y101.688 E.29568
G1 X136.241 Y101.688 E.01695
G1 X142.865 Y108.312 E.29568
G1 X142.328 Y108.312 E.01695
G1 X135.704 Y101.688 E.29568
G1 X135.168 Y101.688 E.01695
G1 X141.791 Y108.312 E.29568
G1 X141.254 Y108.312 E.01695
G1 X134.92 Y101.978 E.28277
G1 X134.92 Y102.514 E.01695
G1 X140.717 Y108.312 E.2588
G1 X140.18 Y108.312 E.01695
G1 X134.92 Y103.051 E.23483
G1 X134.92 Y103.588 E.01695
G1 X139.643 Y108.312 E.21086
G1 X139.106 Y108.312 E.01695
G1 X134.92 Y104.125 E.1869
G1 X134.92 Y104.662 E.01695
G1 X138.569 Y108.312 E.16293
G1 X138.033 Y108.312 E.01695
G1 X134.92 Y105.199 E.13896
G1 X134.92 Y105.736 E.01695
G1 X137.496 Y108.312 E.11499
G1 X136.959 Y108.312 E.01695
G1 X134.92 Y106.273 E.09102
G1 X134.92 Y106.81 E.01695
G1 X136.422 Y108.312 E.06705
G1 X135.885 Y108.312 E.01695
G1 X134.92 Y107.346 E.04309
G1 X134.92 Y107.883 E.01695
G1 X135.518 Y108.481 E.02669
; stop printing object RGB_HOLDER-ANY-PLA.STL id:0 copy 2
; printing object RGB_HOLDER-ANY-PLA.STL id:0 copy 3
G1 E-.8 F2100
G1 Z.8 F10800
G1 X134.637 Y127.869
G1 Z.2
G1 E.8 F2100
;TYPE:Perimeter
;WIDTH:0.42
G1 F1200
G1 X163.797 Y127.869 E.91429
G1 X163.797 Y135.057 E.2254
G1 X134.637 Y135.057 E.91429
G1 X134.637 Y127.929 E.22352
M73 P3 R41
G1 X134.26 Y127.491 F10800
;TYPE:External perimeter
G1 F1200
G1 X164.174 Y127.491 E.93793
G1 X164.174 Y135.435 E.24905
G1 X134.26 Y135.435 E.93793
G1 X134.26 Y127.551 E.24717
G1 X134.659 Y127.526 F10800
G1 E-.8 F2100
G1 Z.8 F10800
G1 X162.916 Y127.982
G1 Z.2
G1 E.8 F2100
;TYPE:Solid infill
;WIDTH:0.422558
G1 F1200
G1 X163.514 Y128.58 E.0267
G1 X163.514 Y129.117 E.01695
G1 X162.549 Y128.151 E.04309
G1 X162.012 Y128.151 E.01695
G1 X163.514 Y129.653 E.06706
G1 X163.514 Y130.19 E.01695
G1 X161.475 Y128.151 E.09103
G1 X160.938 Y128.151 E.01695
G1 X163.514 Y130.727 E.11499
G1 X163.514 Y131.264 E.01695
G1 X160.401 Y128.151 E.13896
G1 X159.864 Y128.151 E.01695
G1 X163.514 Y131.801 E.16293
G1 X163.514 Y132.338 E.01695
G1 X159.328 Y128.151 E.1869
G1 X158.791 Y128.151 E.01695
G1 X163.514 Y132.875 E.21087
G1 X163.514 Y133.412 E.01695
G1 X158.254 Y128.151 E.23483
G1 X157.717 Y128.151 E.01695
M73 P4 R41
G1 X163.514 Y133.949 E.2588
G1 X163.514 Y134.485 E.01695
M73 Q4 S42
G1 X157.18 Y128.151 E.28277
G1 X156.643 Y128.151 E.01695
G1 X163.266 Y134.775 E.29568
G1 X162.729 Y134.775 E.01695
G1 X156.106 Y128.151 E.29568
G1 X155.569 Y128.151 E.01695
G1 X162.193 Y134.775 E.29568
G1 X161.656 Y134.775 E.01695
G1 X155.032 Y128.151 E.29568
G1 X154.496 Y128.151 E.01695
G1 X161.119 Y134.775 E.29568
G1 X160.582 Y134.775 E.01695
G1 X153.959 Y128.151 E.29568
G1 X153.422 Y128.151 E.01695
G1 X160.045 Y134.775 E.29568
G1 X159.508 Y134.775 E.01695
G1 X152.885 Y128.151 E.29568
G1 X152.348 Y128.151 E.01695
G1 X158.971 Y134.775 E.29568
G1 X158.434 Y134.775 E.01695
G1 X151.811 Y128.151 E.29568
G1 X151.274 Y128.151 E.01695
G1 X157.897 Y134.775 E.29568
G1 X157.361 Y134.775 E.01695
G1 X150.737 Y128.151 E.29568
G1 X150.2 Y128.151 E.01695
G1 X156.824 Y134.775 E.29568
G1 X156.287 Y134.775 E.01695
G1 X149.664 Y128.151 E.29568
G1 X149.127 Y128.151 E.01695
G1 X155.75 Y134.775 E.29568
G1 X155.213 Y134.775 E.01695
G1 X148.59 Y128.151 E.29568
G1 X148.053 Y128.151 E.01695
G1 X154.676 Y134.775 E.29568
G1 X154.139 Y134.775 E.01695
G1 X147.516 Y128.151 E.29568
G1 X146.979 Y128.151 E.01695
G1 X153.602 Y134.775 E.29568
G1 X153.065 Y134.775 E.01695
G1 X146.442 Y128.151 E.29568
G1 X145.905 Y128.151 E.01695
G1 X152.529 Y134.775 E.29568
G1 X151.992 Y134.775 E.01695
G1 X145.368 Y128.151 E.29568
G1 X144.832 Y128.151 E.01695
G1 X151.455 Y134.775 E.29568
G1 X150.918 Y134.775 E.01695
G1 X144.295 Y128.151 E.29568
G1 X143.758 Y128.151 E.01695
G1 X150.381 Y134.775 E.29568
G1 X149.844 Y134.775 E.01695
G1 X143.221 Y128.151 E.29568
G1 X142.684 Y128.151 E.01695
G1 X149.307 Y134.775 E.29568
G1 X148.77 Y134.775 E.01695
G1 X142.147 Y128.151 E.29568
G1 X141.61 Y128.151 E.01695
G1 X148.233 Y134.775 E.29568
G1 X147.697 Y134.775 E.01695
G1 X141.073 Y128.151 E.29568
G1 X140.536 Y128.151 E.01695
G1 X147.16 Y134.775 E.29568
G1 X146.623 Y134.775 E.01695
G1 X140 Y128.151 E.29568
G1 X139.463 Y128.151 E.01695
M73 Q4 S41
G1 X146.086 Y134.775 E.29568
G1 X145.549 Y134.775 E.01695
G1 X138.926 Y128.151 E.29568
G1 X138.389 Y128.151 E.01695
G1 X145.012 Y134.775 E.29568
G1 X144.475 Y134.775 E.01695
G1 X137.852 Y128.151 E.29568
G1 X137.315 Y128.151 E.01695
G1 X143.938 Y134.775 E.29568
G1 X143.401 Y134.775 E.01695
G1 X136.778 Y128.151 E.29568
G1 X136.241 Y128.151 E.01695
G1 X142.865 Y134.775 E.29568
G1 X142.328 Y134.775 E.01695
G1 X135.704 Y128.151 E.29568
G1 X135.168 Y128.151 E.01695
G1 X141.791 Y134.775 E.29568
G1 X141.254 Y134.775 E.01695
G1 X134.92 Y128.441 E.28277
G1 X134.92 Y128.977 E.01695
G1 X140.717 Y134.775 E.2588
G1 X140.18 Y134.775 E.01695
G1 X134.92 Y129.514 E.23483
G1 X134.92 Y130.051 E.01695
G1 X139.643 Y134.775 E.21086
G1 X139.106 Y134.775 E.01695
G1 X134.92 Y130.588 E.1869
G1 X134.92 Y131.125 E.01695
G1 X138.569 Y134.775 E.16293
G1 X138.033 Y134.775 E.01695
G1 X134.92 Y131.662 E.13896
G1 X134.92 Y132.199 E.01695
G1 X137.496 Y134.775 E.11499
G1 X136.959 Y134.775 E.01695
G1 X134.92 Y132.736 E.09102
G1 X134.92 Y133.273 E.01695
G1 X136.422 Y134.775 E.06705
G1 X135.885 Y134.775 E.01695
G1 X134.92 Y133.809 E.04309
G1 X134.92 Y134.346 E.01695
G1 X135.518 Y134.944 E.02669
; stop printing object RGB_HOLDER-ANY-PLA.STL id:0 copy 3
; printing object RGB_HOLDER-ANY-PLA.STL id:0 copy 1
G1 E-.8 F2100
G1 Z.8 F10800
G1 X115.363 Y135.057
G1 Z.2
G1 E.8 F2100
;TYPE:Perimeter
;WIDTH:0.42
G1 F1200
G1 X86.203 Y135.057 E.91429
G1 X86.203 Y127.869 E.2254
M73 P5 R41
M73 Q5 S41
G1 X115.363 Y127.869 E.91429
G1 X115.363 Y134.997 E.22352
G1 X115.74 Y135.435 F10800
;TYPE:External perimeter
G1 F1200
G1 X85.826 Y135.435 E.93793
G1 X85.826 Y127.491 E.24905
G1 X115.74 Y127.491 E.93793
G1 X115.74 Y135.375 E.24717
G1 X115.341 Y135.4 F10800
G1 E-.8 F2100
G1 Z.8 F10800
G1 X114.482 Y127.982
G1 Z.2
G1 E.8 F2100
;TYPE:Solid infill
;WIDTH:0.422558
G1 F1200
G1 X115.08 Y128.58 E.0267
G1 X115.08 Y129.117 E.01695
G1 X114.115 Y128.151 E.04309
G1 X113.578 Y128.151 E.01695
G1 X115.08 Y129.653 E.06706
G1 X115.08 Y130.19 E.01695
G1 X113.041 Y128.151 E.09103
G1 X112.504 Y128.151 E.01695
G1 X115.08 Y130.727 E.11499
G1 X115.08 Y131.264 E.01695
G1 X111.967 Y128.151 E.13896
G1 X111.43 Y128.151 E.01695
G1 X115.08 Y131.801 E.16293
G1 X115.08 Y132.338 E.01695
G1 X110.894 Y128.151 E.1869
G1 X110.357 Y128.151 E.01695
G1 X115.08 Y132.875 E.21087
G1 X115.08 Y133.412 E.01695
G1 X109.82 Y128.151 E.23483
G1 X109.283 Y128.151 E.01695
G1 X115.08 Y133.949 E.2588
