; generated by PrusaSlicer 2.1.1+win64 on 2020-03-02 at 18:51:27 UTC

; 

; external perimeters extrusion width = 0.45mm
; perimeters extrusion width = 0.45mm
; infill extrusion width = 0.45mm
; solid infill extrusion width = 0.45mm
; top infill extrusion width = 0.40mm
; support material extrusion width = 0.35mm
; first layer extrusion width = 0.42mm

M73 P0 R112
M73 Q0 S113
M201 X1000 Y1000 Z1000 E5000 ; sets maximum accelerations, mm/sec^2
M203 X200 Y200 Z12 E120 ; sets maximum feedrates, mm/sec
M204 P1250 R1250 T1250 ; sets acceleration (P, T) and retract acceleration (R), mm/sec^2
M205 X8.00 Y8.00 Z0.40 E1.50 ; sets the jerk limits, mm/sec
M205 S0 T0 ; sets the minimum extruding and travel feed rate, mm/sec
M107
M862.3 P "MK3S" ; printer model check
M862.1 P0.4 ; nozzle diameter check
M115 U3.8.0 ; tell printer latest fw version
G90 ; use absolute coordinates
M83 ; extruder relative mode
M104 S215 ; set extruder temp
M140 S60 ; set bed temp
M190 S60 ; wait for bed temp
M109 S215 ; wait for extruder temp
G28 W ; home all without mesh bed level
G80 ; mesh bed leveling
G1 Y-3.0 F1000.0 ; go outside print area
G92 E0.0
G1 X60.0 E9.0 F1000.0 ; intro line
M73 Q0 S113
M73 P0 R112
G1 X100.0 E12.5 F1000.0 ; intro line
G92 E0.0
M221 S95
G21 ; set units to millimeters
G90 ; use absolute coordinates
M83 ; use relative distances for extrusion
M900 K30 ; Filament gcode
;BEFORE_LAYER_CHANGE
G92 E0.0
;0.2


G1 E-0.80000 F2100.00000
G1 Z0.600 F10800.000
;AFTER_LAYER_CHANGE
;0.2
G1 X110.575 Y137.357
G1 Z0.200
G1 E0.80000 F2100.00000
M204 S1000
G1 F1200
G1 X108.165 Y137.357 E0.07556
G1 X108.165 Y134.437 E0.09155
G1 X112.985 Y134.437 E0.15113
G1 X112.985 Y137.357 E0.09155
G1 X110.635 Y137.357 E0.07368
G1 X110.484 Y137.747 F10800.000
G1 E-0.80000 F2100.00000
G1 Z0.800 F10800.000
G1 X110.640 Y133.459
G1 Z0.200
G1 E0.80000 F2100.00000
G1 F1200
G1 X110.009 Y133.457 E0.01977
G1 X108.905 Y133.261 E0.03517
G1 X107.851 Y132.875 E0.03517
G1 X106.881 Y132.313 E0.03517
G1 X106.023 Y131.591 E0.03517
G1 X105.265 Y130.686 E0.03699
G1 X105.265 Y123.588 E0.22257
G1 X106.026 Y122.686 E0.03700
G1 X106.888 Y121.967 E0.03517
G1 X107.860 Y121.408 E0.03517
G1 X108.916 Y121.027 E0.03518
G1 X110.020 Y120.835 E0.03514
G1 X111.142 Y120.837 E0.03520
G1 X112.246 Y121.034 E0.03514
G1 X113.300 Y121.419 E0.03518
G1 X114.270 Y121.982 E0.03517
G1 X115.128 Y122.704 E0.03517
G1 X115.885 Y123.608 E0.03699
G1 X115.885 Y130.707 E0.22257
G1 X115.124 Y131.609 E0.03700
G1 X114.263 Y132.327 E0.03517
G1 X113.291 Y132.886 E0.03517
G1 X112.236 Y133.267 E0.03517
G1 X111.131 Y133.460 E0.03517
G1 X110.700 Y133.459 E0.01351
G1 X110.453 Y133.813 F10800.000
G1 E-0.80000 F2100.00000
G1 Z0.800 F10800.000
G1 X110.575 Y138.360
G1 Z0.200
G1 E0.80000 F2100.00000
G1 F1200
G1 X108.101 Y138.360 E0.07758
G1 X107.917 Y138.344 E0.00578
G1 X107.764 Y138.303 E0.00498
G1 X107.620 Y138.236 E0.00498
G1 X107.490 Y138.145 E0.00498
G1 X107.378 Y138.033 E0.00496
G1 X107.287 Y137.902 E0.00500
G1 X107.220 Y137.759 E0.00497
G1 X107.179 Y137.605 E0.00498
G1 X107.163 Y137.422 E0.00578
G1 X107.163 Y136.122 E0.04076
G1 X107.133 Y135.784 E0.01061
G1 X107.039 Y135.433 E0.01142
G1 X106.885 Y135.103 E0.01142
G1 X106.676 Y134.804 E0.01142
G1 X106.418 Y134.547 E0.01142
G1 X106.120 Y134.338 E0.01142
G1 X105.790 Y134.184 E0.01142
G1 X105.438 Y134.090 E0.01142
G1 X105.101 Y134.060 E0.01061
G1 X103.663 Y134.060 E0.04510
G1 X103.663 Y120.234 E0.43350
G1 X110.065 Y120.234 E0.20074
G1 X110.083 Y120.441 E0.00651
G1 X108.818 Y120.661 E0.04024
G1 X107.701 Y121.065 E0.03725
G1 X106.671 Y121.656 E0.03724
G1 X105.759 Y122.417 E0.03724
G1 X104.888 Y123.450 E0.04236
G1 X104.888 Y130.823 E0.23118
G1 X105.755 Y131.858 E0.04231
G1 X106.663 Y132.623 E0.03724
G1 X107.691 Y133.218 E0.03724
G1 X108.806 Y133.626 E0.03724
G1 X110.084 Y133.854 E0.04070
G1 X110.066 Y134.060 E0.00649
G1 X107.788 Y134.060 E0.07141
G1 X107.788 Y137.734 E0.11520
G1 X113.363 Y137.734 E0.17477
G1 X113.363 Y134.060 E0.11520
G1 X111.086 Y134.060 E0.07139
G1 X111.068 Y133.853 E0.00651
G1 X112.333 Y133.633 E0.04027
G1 X113.450 Y133.229 E0.03724
G1 X114.480 Y132.638 E0.03724
G1 X115.391 Y131.877 E0.03724
G1 X116.263 Y130.845 E0.04236
G1 X116.263 Y123.471 E0.23118
G1 X115.396 Y122.436 E0.04231
G1 X114.488 Y121.672 E0.03724
G1 X113.460 Y121.076 E0.03724
G1 X112.344 Y120.668 E0.03725
G1 X111.067 Y120.441 E0.04067
G1 X111.086 Y120.234 E0.00649
G1 X117.488 Y120.234 E0.20076
G1 X117.488 Y134.060 E0.43350
G1 X116.050 Y134.060 E0.04510
G1 X115.713 Y134.090 E0.01061
G1 X115.361 Y134.184 E0.01142
G1 X115.031 Y134.338 E0.01142
G1 X114.732 Y134.547 E0.01142
G1 X114.475 Y134.804 E0.01142
G1 X114.266 Y135.103 E0.01142
G1 X114.112 Y135.433 E0.01142
G1 X114.018 Y135.784 E0.01142
G1 X113.988 Y136.122 E0.01061
G1 X113.988 Y137.422 E0.04076
G1 X113.972 Y137.605 E0.00578
G1 X113.931 Y137.759 E0.00498
G1 X113.864 Y137.903 E0.00498
G1 X113.773 Y138.033 E0.00498
G1 X113.661 Y138.145 E0.00498
G1 X113.531 Y138.236 E0.00498
G1 X113.387 Y138.303 E0.00498
G1 X113.234 Y138.344 E0.00498
G1 X113.050 Y138.360 E0.00578
G1 X110.635 Y138.360 E0.07570
G1 X110.575 Y138.737 F10800.000
G1 F1200
G1 X108.085 Y138.737 E0.07810
G1 X107.852 Y138.717 E0.00733
G1 X107.634 Y138.659 E0.00705
G1 X107.431 Y138.564 E0.00705
G1 X107.247 Y138.435 E0.00705
G1 X107.088 Y138.276 E0.00703
G1 X106.959 Y138.092 E0.00707
G1 X106.864 Y137.888 E0.00704
G1 X106.806 Y137.671 E0.00705
G1 X106.785 Y137.438 E0.00733
G1 X106.785 Y136.138 E0.04076
G1 X106.760 Y135.850 E0.00906
G1 X106.683 Y135.562 E0.00935
G1 X106.557 Y135.292 E0.00935
G1 X106.386 Y135.048 E0.00935
G1 X106.175 Y134.837 E0.00935
G1 X105.931 Y134.666 E0.00935
G1 X105.661 Y134.540 E0.00935
G1 X105.373 Y134.462 E0.00935
G1 X105.085 Y134.437 E0.00906
G1 X103.285 Y134.437 E0.05641
G1 X103.285 Y119.857 E0.45715
G1 X117.865 Y119.857 E0.45715
G1 X117.865 Y134.437 E0.45715
G1 X116.066 Y134.437 E0.05641
G1 X115.778 Y134.462 E0.00906
G1 X115.490 Y134.540 E0.00935
G1 X115.220 Y134.666 E0.00935
G1 X114.976 Y134.837 E0.00935
G1 X114.765 Y135.048 E0.00935
G1 X114.594 Y135.292 E0.00935
G1 X114.468 Y135.562 E0.00935
G1 X114.391 Y135.850 E0.00935
G1 X114.365 Y136.138 E0.00906
G1 X114.365 Y137.438 E0.04076
G1 X114.345 Y137.671 E0.00733
G1 X114.287 Y137.888 E0.00705
G1 X114.192 Y138.092 E0.00705
G1 X114.063 Y138.276 E0.00705
G1 X113.904 Y138.435 E0.00705
G1 X113.720 Y138.564 E0.00705
G1 X113.516 Y138.659 E0.00705
G1 X113.299 Y138.717 E0.00705
G1 X113.066 Y138.737 E0.00733
G1 X110.635 Y138.737 E0.07622
G1 X110.375 Y138.391 F10800.000
G1 E-0.80000 F2100.00000
G1 Z0.800 F10800.000
G1 X113.016 Y138.172
G1 Z0.200
G1 E0.80000 F2100.00000
G1 F1200
G1 X113.551 Y137.950 E0.00260
G1 X113.578 Y137.923 E0.00017
G1 X113.800 Y137.387 E0.00420
G1 X113.669 Y137.552 F10800.000
G1 F1200
G1 X113.621 Y137.918 E0.00725
G1 X113.546 Y137.993 F10800.000
G1 F1200
G1 X113.036 Y138.047 E0.01008
G1 X108.115 Y138.047 E0.09666
G1 X107.605 Y137.993 E0.01008
G1 X107.627 Y137.961 F10800.000
G1 F1200
G1 X107.600 Y137.950 E0.00019
G1 X107.573 Y137.923 E0.00017
G1 X107.351 Y137.387 E0.00260
G1 X107.530 Y137.918 F10800.000
G1 F1200
G1 X107.475 Y137.408 E0.01008
G1 X107.475 Y136.113 E0.02542
G1 X107.440 Y135.584 E0.01041
G1 X107.406 Y135.324 E0.00773
G1 X107.276 Y135.260 E0.00425
G1 X107.155 Y135.200 E0.00388
G1 X107.675 Y134.364 F10800.000
G1 F1200
G1 X103.945 Y130.634 E0.16797
G1 X103.945 Y131.176 E0.01725
G1 X107.506 Y134.736 E0.16033
G1 X107.506 Y134.836 E0.00319
G1 X107.114 Y134.647 E0.01386
G1 X107.034 Y134.807 E0.00568
G1 X103.945 Y131.717 E0.13912
G1 X103.945 Y132.259 E0.01725
G1 X105.500 Y133.813 E0.07000
G1 X104.922 Y133.777 E0.01843
G1 X103.945 Y132.801 E0.04399
G1 X103.945 Y133.342 E0.01725
G1 X104.550 Y133.947 E0.02724
G1 E-0.80000 F2100.00000
G1 Z0.800 F10800.000
G1 X106.994 Y133.141
G1 Z0.200
G1 E0.80000 F2100.00000
G1 F1200
G1 X107.498 Y133.645 E0.02272
G1 X107.614 Y133.639 F10800.000
G1 F1200
G1 X107.938 Y133.696 E0.00953
G1 X108.261 Y133.753 E0.00694
G1 X108.584 Y133.811 E0.00435
G1 X108.849 Y133.849 E0.00141
G1 E-0.80000 F2100.00000
G1 Z0.800 F10800.000
G1 X112.328 Y133.849
G1 Z0.200
G1 E0.80000 F2100.00000
G1 F1200
G1 X112.391 Y133.843 E0.00030
G1 X112.529 Y133.819 E0.00122
G1 X112.666 Y133.795 E0.00178
G1 X112.803 Y133.771 E0.00234
G1 X112.941 Y133.747 E0.00290
G1 X113.078 Y133.723 E0.00346
G1 X113.215 Y133.699 E0.00401
G1 X113.353 Y133.675 E0.00457
G1 X113.551 Y133.827 E0.00819
G1 X113.476 Y134.364 F10800.000
G1 F1200
G1 X113.851 Y134.739 E0.01671
G1 X114.037 Y134.647 E0.00656
G1 X114.121 Y134.816 E0.00597
G1 X114.263 Y134.616 E0.00774
G1 X113.719 Y134.072 E0.02424
G1 X113.952 Y133.769 E0.01204
G1 X114.531 Y134.348 E0.02581
G1 X114.843 Y134.124 E0.01210
G1 X113.974 Y133.255 E0.03874
G1 X114.314 Y133.059 E0.01237
G1 X115.201 Y133.946 E0.03953
G1 X115.614 Y133.823 E0.01358
G1 X114.653 Y132.862 E0.04284
G1 X114.945 Y132.618 E0.01199
G1 X116.104 Y133.777 E0.05167
G1 X116.640 Y133.777 E0.01689
G1 X115.237 Y132.374 E0.06253
G1 X115.529 Y132.130 E0.01199
G1 X117.176 Y133.777 E0.07340
G1 X117.206 Y133.777 E0.00092
G1 X117.206 Y133.271 E0.01597
G1 X115.785 Y131.850 E0.06333
G1 X116.030 Y131.559 E0.01198
G1 X117.206 Y132.735 E0.05240
G1 X117.206 Y132.199 E0.01689
G1 X116.275 Y131.268 E0.04147
G1 X116.520 Y130.978 E0.01198
G1 X117.206 Y131.663 E0.03054
G1 X117.206 Y131.127 E0.01689
G1 X116.545 Y130.467 E0.02942
G1 X116.545 Y129.931 E0.01689
G1 X117.206 Y130.591 E0.02942
G1 X117.206 Y130.055 E0.01689
G1 X116.545 Y129.395 E0.02942
G1 X116.545 Y128.859 E0.01689
G1 X117.206 Y129.519 E0.02942
G1 X117.206 Y128.983 E0.01689
G1 X116.545 Y128.323 E0.02942
G1 X116.545 Y127.787 E0.01689
G1 X117.206 Y128.447 E0.02942
G1 X117.206 Y127.911 E0.01689
G1 X116.545 Y127.251 E0.02942
G1 X116.545 Y126.715 E0.01689
G1 X117.206 Y127.375 E0.02942
G1 X117.206 Y126.839 E0.01689
G1 X116.545 Y126.179 E0.02942
G1 X116.545 Y125.643 E0.01689
G1 X117.206 Y126.303 E0.02942
G1 X117.206 Y125.767 E0.01689
G1 X116.545 Y125.107 E0.02942
G1 X116.545 Y124.571 E0.01689
G1 X117.206 Y125.232 E0.02942
G1 X117.206 Y124.696 E0.01689
G1 X116.545 Y124.035 E0.02942
G1 X116.545 Y123.499 E0.01689
G1 X117.206 Y124.160 E0.02942
G1 X117.206 Y123.624 E0.01689
G1 X114.099 Y120.517 E0.13844
G1 X114.635 Y120.517 E0.01689
G1 X117.206 Y123.088 E0.11456
G1 X117.206 Y122.552 E0.01689
G1 X115.171 Y120.517 E0.09067
G1 X115.707 Y120.517 E0.01689
G1 X117.206 Y122.016 E0.06679
G1 X117.206 Y121.480 E0.01689
G1 X116.243 Y120.517 E0.04291
G1 X116.779 Y120.517 E0.01689
G1 X117.375 Y121.114 E0.02659
G1 E-0.80000 F2100.00000
G1 Z0.800 F10800.000
G1 X115.007 Y121.961
G1 Z0.200
G1 E0.80000 F2100.00000
G1 F1200
G1 X113.659 Y120.613 E0.06006
G1 X113.537 Y120.656 F10800.000
G1 F1200
G1 X113.375 Y120.627 E0.00541
G1 X113.213 Y120.598 E0.00476
G1 X113.052 Y120.570 E0.00412
G1 X112.890 Y120.541 E0.00347
G1 X112.728 Y120.512 E0.00282
G1 X112.566 Y120.484 E0.00218
G1 X112.405 Y120.455 E0.00153
G1 X112.302 Y120.446 E0.00055
G1 E-0.80000 F2100.00000
G1 Z0.800 F10800.000
G1 X108.822 Y120.446
G1 Z0.200
G1 E0.80000 F2100.00000
G1 F1200
G1 X108.595 Y120.480 E0.00107
G1 X108.264 Y120.538 E0.00428
G1 X107.934 Y120.596 E0.00697
G1 X107.603 Y120.654 E0.00966
G1 X107.411 Y121.101 F10800.000
G1 F1200
G1 X106.827 Y120.517 E0.02631
G1 X106.285 Y120.517 E0.01725
G1 X106.942 Y121.175 E0.02961
G1 X106.598 Y121.372 E0.01263
G1 X105.743 Y120.517 E0.03850
G1 X105.202 Y120.517 E0.01725
G1 X106.290 Y121.606 E0.04903
G1 X105.995 Y121.852 E0.01224
G1 X104.660 Y120.517 E0.06013
G1 X104.119 Y120.517 E0.01725
G1 X105.700 Y122.099 E0.07122
G1 X105.559 Y122.216 E0.00584
G1 X105.430 Y122.370 E0.00640
G1 X103.945 Y120.885 E0.06685
G1 X103.945 Y121.427 E0.01725
G1 X105.182 Y122.664 E0.05568
G1 X104.934 Y122.957 E0.01224
G1 X103.945 Y121.969 E0.04452
G1 X103.945 Y122.510 E0.01725
G1 X104.686 Y123.251 E0.03336
G1 X104.606 Y123.347 E0.00398
G1 X104.606 Y123.712 E0.01164
G1 X103.945 Y123.052 E0.02973
G1 X103.945 Y123.593 E0.01725
G1 X104.606 Y124.254 E0.02973
G1 X104.606 Y124.795 E0.01725
G1 X103.945 Y124.135 E0.02973
G1 X103.945 Y124.677 E0.01725
G1 X104.606 Y125.337 E0.02973
G1 X104.606 Y125.878 E0.01725
G1 X103.945 Y125.218 E0.02973
G1 X103.945 Y125.760 E0.01725
G1 X104.606 Y126.420 E0.02973
G1 X104.606 Y126.962 E0.01725
G1 X103.945 Y126.301 E0.02973
G1 X103.945 Y126.843 E0.01725
G1 X104.606 Y127.503 E0.02973
G1 X104.606 Y128.045 E0.01725
G1 X103.945 Y127.385 E0.02973
G1 X103.945 Y127.926 E0.01725
G1 X104.606 Y128.586 E0.02973
G1 X104.606 Y129.128 E0.01725
G1 X103.945 Y128.468 E0.02973
G1 X103.945 Y129.009 E0.01725
G1 X104.606 Y129.670 E0.02973
G1 X104.606 Y130.211 E0.01725
G1 X103.945 Y129.551 E0.02973
G1 X103.945 Y130.093 E0.01725
G1 X104.606 Y130.753 E0.02973
G1 E-0.80000 F2100.00000
G1 Z0.800 F10800.000
G1 X107.627 Y137.961
G1 Z0.200
G1 E0.80000 F2100.00000
G1 F1200
G1 X108.135 Y138.172 E0.00399
G1 E-0.80000 F2100.00000
G1 Z0.800 F10800.000
G1 X113.669 Y137.552
G1 Z0.200
G1 E0.80000 F2100.00000
G1 F1200
G1 X113.676 Y136.103 E0.03004
G1 X113.694 Y135.715 E0.00921
G1 X113.711 Y135.584 E0.00349
G1 X113.745 Y135.324 E0.00754
G1 X113.996 Y135.200 E0.00803
G1 E-0.80000 F2100.00000
G1 Z0.800 F10800.000
G1 X122.090 Y119.667
G1 Z0.200
G1 E0.80000 F2100.00000
G1 F1200
G1 X129.666 Y112.091 E0.33592
G1 X129.133 Y111.558 E0.02365
G1 X121.677 Y119.013 E0.33060
G1 X121.144 Y118.480 E0.02365
G1 X128.599 Y111.024 E0.33060
G1 X128.066 Y110.491 E0.02365
G1 X120.610 Y117.947 E0.33060
G1 X120.077 Y117.414 E0.02365
G1 X127.533 Y109.958 E0.33060
G1 X127.000 Y109.425 E0.02365
G1 X119.544 Y116.880 E0.33060
G1 X119.011 Y116.347 E0.02365
G1 X126.466 Y108.891 E0.33060
G1 X125.933 Y108.358 E0.02365
G1 X118.477 Y115.814 E0.33060
G1 X117.944 Y115.281 E0.02365
G1 X125.520 Y107.705 E0.33592
G1 E-0.80000 F2100.00000
G1 Z0.800 F10800.000
G1 X125.837 Y120.186
G1 Z0.200
G1 E0.80000 F2100.00000
G1 F1200
G1 X124.343 Y121.680 E0.06624
G1 X123.810 Y121.147 E0.02365
G1 X125.344 Y119.613 E0.06800
G1 X124.976 Y118.914 E0.02476
G1 X123.277 Y120.613 E0.07533
G1 X122.743 Y120.080 E0.02365
G1 X124.608 Y118.216 E0.08266
G1 X124.569 Y118.142 E0.00261
G1 X124.698 Y117.726 E0.01366
G1 X125.543 Y117.281 E0.02993
G1 X130.199 Y112.624 E0.20648
G1 X130.732 Y113.158 E0.02365
G1 X127.759 Y116.131 E0.13186
G1 X128.154 Y116.254 E0.01297
G1 X128.343 Y116.613 E0.01274
G1 X131.266 Y113.691 E0.12958
G1 X131.799 Y114.224 E0.02365
G1 X128.711 Y117.312 E0.13691
G1 X129.079 Y118.010 E0.02476
G1 X132.332 Y114.757 E0.14424
G1 X132.866 Y115.291 E0.02365
G1 X129.447 Y118.709 E0.15157
G1 X129.815 Y119.408 E0.02476
G1 X133.399 Y115.824 E0.15890
G1 X133.932 Y116.357 E0.02365
G1 X130.058 Y120.232 E0.17180
G1 E-0.80000 F2100.00000
G1 Z0.800 F10800.000
G1 X150.019 Y135.467
G1 Z0.200
G1 E0.80000 F2100.00000
G1 F1200
G1 X145.171 Y140.314 E0.21495
G1 X146.078 Y140.474 E0.02887
G1 X150.432 Y136.120 E0.19308
G1 X150.965 Y136.653 E0.02365
G1 X146.984 Y140.634 E0.17652
G1 X147.431 Y140.713 E0.01422
G1 X149.373 Y138.770 E0.08612
G1 X149.644 Y139.041 E0.01200
G1 X151.498 Y137.186 E0.08224
G1 X152.032 Y137.720 E0.02365
G1 X150.177 Y139.574 E0.08224
G1 X150.710 Y140.107 E0.02365
G1 X152.565 Y138.253 E0.08224
G1 X153.098 Y138.786 E0.02365
G1 X151.244 Y140.641 E0.08224
G1 X151.488 Y140.886 E0.01085
G1 X149.857 Y142.517 E0.07234
G1 X150.146 Y142.805 E0.01279
G1 X153.632 Y139.319 E0.15457
G1 X154.165 Y139.853 E0.02365
G1 X150.679 Y143.339 E0.15457
G1 X151.212 Y143.872 E0.02365
G1 X154.698 Y140.386 E0.15457
G1 X155.198 Y140.886 E0.02215
G1 X153.566 Y142.517 E0.07234
G1 X153.600 Y142.551 E0.00149
G1 X146.144 Y150.006 E0.33060
G1 X146.678 Y150.540 E0.02365
G1 X154.133 Y143.084 E0.33060
G1 X154.667 Y143.617 E0.02365
G1 X147.091 Y151.193 E0.33592
G1 X145.491 Y149.593 F10800.000
G1 F1200
G1 X147.466 Y147.618 E0.08756
G1 X146.932 Y147.085 E0.02365
G1 X145.078 Y148.940 E0.08224
G1 X144.544 Y148.406 E0.02365
G1 X146.399 Y146.552 E0.08224
G1 X145.866 Y146.019 E0.02365
G1 X144.011 Y147.873 E0.08224
G1 X143.478 Y147.340 E0.02365
G1 X146.207 Y144.611 E0.12099
G1 X145.300 Y144.451 E0.02887
G1 X142.945 Y146.807 E0.10443
G1 X142.411 Y146.273 E0.02365
G1 X144.540 Y144.145 E0.09437
G1 E-0.80000 F2100.00000
