; generated by PrusaSlicer 2.2.0+win64 on 2020-09-08 at 20:33:27 UTC

; 

; external perimeters extrusion width = 0.45mm
; perimeters extrusion width = 0.45mm
; infill extrusion width = 0.45mm
; solid infill extrusion width = 0.45mm
; top infill extrusion width = 0.40mm
; first layer extrusion width = 0.42mm

M73 P0 R69
M73 Q0 S69
M201 X1000 Y1000 Z1000 E5000 ; sets maximum accelerations, mm/sec^2
M203 X200 Y200 Z12 E120 ; sets maximum feedrates, mm/sec
M204 P1250 R1250 T1250 ; sets acceleration (P, T) and retract acceleration (R), mm/sec^2
M205 X8.00 Y8.00 Z0.40 E1.50 ; sets the jerk limits, mm/sec
M205 S0 T0 ; sets the minimum extruding and travel feed rate, mm/sec
M107
M862.3 P "MK3S" ; printer model check
M862.1 P0.4 ; nozzle diameter check
M115 U3.8.0 ; tell printer latest fw version
G90 ; use absolute coordinates
M83 ; extruder relative mode
M104 S215 ; set extruder temp
M140 S60 ; set bed temp
M190 S60 ; wait for bed temp
M109 S215 ; wait for extruder temp
G28 W ; home all without mesh bed level
G80 ; mesh bed leveling
G1 Y-3.0 F1000.0 ; go outside print area
G92 E0.0
G1 X60.0 E9.0 F1000.0 ; intro line
M73 Q0 S69
M73 P0 R68
G1 X100.0 E12.5 F1000.0 ; intro line
G92 E0.0
M221 S95
G21 ; set units to millimeters
G90 ; use absolute coordinates
M83 ; use relative distances for extrusion
M900 K0.06 ; Filament gcode LA 1.5
M900 K30 ; Filament gcode LA 1.0
;BEFORE_LAYER_CHANGE
G92 E0.0
;0.2


G1 E-0.80000 F2100.00000
G1 Z0.600 F10800.000
;AFTER_LAYER_CHANGE
;0.2
G1 X135.439 Y94.034
G1 Z0.200
G1 E0.80000 F2100.00000
M204 S1000
G1 F1200.000
G1 X135.608 Y94.207 E0.00758
G1 X135.382 Y94.420 E0.00973
G1 X135.228 Y94.289 E0.00637
G1 X135.398 Y94.078 E0.00850
G1 E-0.80000 F2100.00000
G1 Z0.800 F10800.000
G1 X135.038 Y95.568
G1 Z0.200
G1 E0.80000 F2100.00000
G1 F1200.000
G1 X134.911 Y95.314 E0.00891
G1 X134.901 Y95.099 E0.00676
G1 X134.924 Y94.911 E0.00592
G1 X135.120 Y94.907 E0.00616
G1 X135.217 Y95.506 E0.01901
G1 X135.095 Y95.548 E0.00408
G1 E-0.80000 F2100.00000
G1 Z0.800 F10800.000
G1 X140.756 Y66.564
G1 Z0.200
G1 E0.80000 F2100.00000
G1 F1200.000
G1 X140.301 Y66.524 E0.01433
G1 X139.859 Y66.406 E0.01433
G1 X139.445 Y66.213 E0.01433
G1 X139.071 Y65.951 E0.01433
G1 X138.748 Y65.628 E0.01433
G1 X138.486 Y65.254 E0.01433
G1 X138.292 Y64.839 E0.01433
G1 X138.174 Y64.398 E0.01433
G1 X138.134 Y63.943 E0.01433
G1 X138.174 Y63.488 E0.01433
G1 X138.292 Y63.046 E0.01433
G1 X138.486 Y62.632 E0.01433
G1 X138.748 Y62.258 E0.01433
G1 X139.071 Y61.935 E0.01433
G1 X139.445 Y61.673 E0.01433
G1 X139.859 Y61.480 E0.01433
G1 X140.301 Y61.361 E0.01433
G1 X140.742 Y61.323 E0.01389
G1 X141.209 Y61.361 E0.01471
G1 X141.652 Y61.480 E0.01438
G1 X142.066 Y61.673 E0.01433
G1 X142.441 Y61.935 E0.01433
G1 X142.764 Y62.258 E0.01433
G1 X143.026 Y62.632 E0.01433
G1 X143.219 Y63.046 E0.01433
G1 X143.337 Y63.488 E0.01433
G1 X143.377 Y63.943 E0.01433
G1 X143.337 Y64.398 E0.01433
G1 X143.219 Y64.839 E0.01433
G1 X143.026 Y65.254 E0.01433
G1 X142.764 Y65.628 E0.01433
G1 X142.451 Y65.941 E0.01389
G1 X142.068 Y66.212 E0.01471
G1 X141.652 Y66.406 E0.01438
G1 X141.211 Y66.524 E0.01433
G1 X140.815 Y66.559 E0.01245
G1 X140.756 Y66.186 F10800.000
G1 F1200.000
G1 X140.366 Y66.152 E0.01226
G1 X139.989 Y66.050 E0.01226
G1 X139.634 Y65.885 E0.01226
G1 X139.314 Y65.661 E0.01226
G1 X139.038 Y65.385 E0.01226
G1 X138.813 Y65.064 E0.01226
G1 X138.648 Y64.710 E0.01226
G1 X138.547 Y64.332 E0.01226
G1 X138.513 Y63.943 E0.01226
G1 X138.547 Y63.553 E0.01226
G1 X138.648 Y63.176 E0.01226
G1 X138.813 Y62.821 E0.01226
G1 X139.038 Y62.501 E0.01226
G1 X139.314 Y62.225 E0.01226
G1 X139.634 Y62.001 E0.01226
G1 X139.989 Y61.835 E0.01226
G1 X140.366 Y61.734 E0.01226
G1 X140.743 Y61.701 E0.01185
G1 X141.145 Y61.734 E0.01264
G1 X141.523 Y61.835 E0.01228
G1 X141.877 Y62.001 E0.01226
G1 X142.197 Y62.225 E0.01226
G1 X142.474 Y62.501 E0.01226
G1 X142.698 Y62.821 E0.01226
G1 X142.863 Y63.176 E0.01226
G1 X142.964 Y63.553 E0.01226
G1 X142.998 Y63.943 E0.01226
G1 X142.964 Y64.332 E0.01226
G1 X142.863 Y64.710 E0.01226
G1 X142.698 Y65.064 E0.01226
G1 X142.474 Y65.385 E0.01226
G1 X142.206 Y65.652 E0.01185
G1 X141.878 Y65.885 E0.01264
G1 X141.523 Y66.050 E0.01228
G1 X141.145 Y66.152 E0.01226
G1 X140.815 Y66.180 E0.01038
G1 X140.560 Y66.524 F10800.000
G1 E-0.80000 F2100.00000
G1 Z0.800 F10800.000
G1 X140.585 Y101.428
G1 Z0.200
G1 E0.80000 F2100.00000
G1 F1200.000
G1 X139.862 Y101.326 E0.02290
G1 X139.166 Y101.102 E0.02292
G1 X138.518 Y100.763 E0.02292
G1 X137.938 Y100.319 E0.02292
G1 X137.442 Y99.782 E0.02292
G1 X137.028 Y99.143 E0.02388
G1 X135.649 Y96.666 E0.08889
G1 X135.787 Y96.545 E0.00575
G1 X136.039 Y96.735 E0.00988
G1 X136.637 Y97.028 E0.02087
G1 X136.860 Y97.116 E0.00752
G1 X137.182 Y97.163 E0.01020
G1 X137.514 Y97.099 E0.01059
G1 X137.683 Y97.003 E0.00610
G1 X139.171 Y98.491 E0.06597
G1 X142.182 Y95.445 E0.13431
G1 X140.651 Y93.939 E0.06735
G1 X140.707 Y93.597 E0.01088
G1 X140.666 Y93.198 E0.01257
G1 X140.576 Y92.899 E0.00979
G1 X140.424 Y92.587 E0.01087
G1 X140.222 Y92.307 E0.01084
G1 X139.984 Y92.070 E0.01053
G1 X139.745 Y91.896 E0.00925
G1 X139.444 Y91.741 E0.01062
G1 X139.137 Y91.641 E0.01011
G1 X138.822 Y91.589 E0.01002
G1 X138.544 Y91.589 E0.00871
G1 X138.175 Y91.674 E0.01188
G1 X137.880 Y91.862 E0.01096
G1 X137.710 Y92.033 E0.00758
G1 X137.422 Y92.406 E0.01478
G1 X137.292 Y92.291 E0.00544
G1 X137.210 Y92.148 E0.00516
G1 X137.214 Y92.050 E0.00307
G1 X137.275 Y91.837 E0.00696
G1 X137.275 Y68.639 E0.72734
G1 X134.965 Y66.303 E0.10300
G1 X134.992 Y61.518 E0.15006
G1 X138.395 Y58.152 E0.15006
G1 X143.181 Y58.179 E0.15006
G1 X146.546 Y61.582 E0.15006
G1 X146.519 Y66.368 E0.15006
G1 X144.237 Y68.626 E0.10066
G1 X144.237 Y94.563 E0.81326
G1 X144.699 Y95.378 E0.02936
G1 X144.946 Y96.066 E0.02292
G1 X145.072 Y96.786 E0.02292
G1 X145.074 Y97.517 E0.02292
G1 X144.951 Y98.237 E0.02292
G1 X144.708 Y98.926 E0.02292
G1 X144.350 Y99.564 E0.02292
G1 X143.889 Y100.131 E0.02292
G1 X143.338 Y100.611 E0.02292
G1 X142.713 Y100.990 E0.02292
G1 X142.032 Y101.257 E0.02292
G1 X141.328 Y101.402 E0.02255
G1 X140.645 Y101.426 E0.02143
G1 X140.565 Y101.806 F10800.000
G1 F1200.000
G1 X139.777 Y101.695 E0.02494
G1 X139.020 Y101.451 E0.02495
G1 X138.315 Y101.082 E0.02495
G1 X137.683 Y100.599 E0.02495
G1 X137.143 Y100.014 E0.02495
G1 X136.705 Y99.337 E0.02529
G1 X134.557 Y95.479 E0.13845
G1 X134.535 Y95.355 E0.00395
G1 X134.523 Y95.084 E0.00849
G1 X134.552 Y94.843 E0.00761
G1 X134.623 Y94.594 E0.00814
G1 X134.749 Y94.322 E0.00937
G1 X134.998 Y93.956 E0.01389
G1 X135.134 Y93.809 E0.00629
G1 X135.289 Y93.701 E0.00591
G1 X135.398 Y93.668 E0.00358
G1 X135.587 Y93.694 E0.00599
G1 X135.694 Y93.756 E0.00389
G1 X135.827 Y93.892 E0.00597
G1 X135.980 Y94.086 E0.00774
G1 X136.005 Y94.156 E0.00231
G1 X136.007 Y94.258 E0.00322
G1 X135.978 Y94.348 E0.00296
G1 X135.909 Y94.441 E0.00364
G1 X135.645 Y94.691 E0.01140
G1 X135.554 Y94.839 E0.00544
G1 X135.519 Y95.007 E0.00538
G1 X135.567 Y95.304 E0.00944
G1 X135.844 Y95.984 E0.02302
G1 X136.013 Y96.243 E0.00969
G1 X136.237 Y96.412 E0.00880
G1 X136.957 Y96.749 E0.02493
G1 X137.173 Y96.780 E0.00685
G1 X137.381 Y96.740 E0.00664
G1 X137.606 Y96.613 E0.00808
G1 X137.711 Y96.498 E0.00489
G1 X139.169 Y97.956 E0.06464
G1 X141.648 Y95.449 E0.11056
G1 X140.192 Y94.017 E0.06401
G1 X140.285 Y93.841 E0.00624
G1 X140.326 Y93.585 E0.00812
G1 X140.294 Y93.272 E0.00987
G1 X140.224 Y93.037 E0.00770
G1 X140.099 Y92.782 E0.00890
G1 X139.934 Y92.552 E0.00887
G1 X139.738 Y92.358 E0.00865
G1 X139.547 Y92.218 E0.00743
G1 X139.298 Y92.090 E0.00876
G1 X139.048 Y92.009 E0.00826
G1 X138.791 Y91.966 E0.00818
G1 X138.587 Y91.966 E0.00639
G1 X138.323 Y92.027 E0.00849
G1 X138.118 Y92.157 E0.00763
G1 X137.994 Y92.282 E0.00551
G1 X137.598 Y92.796 E0.02033
G1 X137.495 Y92.839 E0.00351
G1 X137.333 Y92.787 E0.00535
G1 X137.150 Y92.669 E0.00681
G1 X137.010 Y92.544 E0.00591
G1 X136.882 Y92.364 E0.00693
G1 X136.831 Y92.197 E0.00547
G1 X136.839 Y91.991 E0.00646
G1 X136.898 Y91.784 E0.00673
G1 X136.898 Y68.794 E0.72083
G1 X134.587 Y66.458 E0.10303
G1 X134.616 Y61.359 E0.15986
G1 X138.241 Y57.774 E0.15986
G1 X143.339 Y57.803 E0.15986
G1 X146.924 Y61.428 E0.15986
G1 X146.896 Y66.527 E0.15986
G1 X144.614 Y68.783 E0.10063
G1 X144.614 Y94.464 E0.80520
G1 X145.043 Y95.220 E0.02725
G1 X145.312 Y95.969 E0.02495
G1 X145.449 Y96.752 E0.02495
G1 X145.451 Y97.548 E0.02495
G1 X145.318 Y98.332 E0.02495
G1 X145.052 Y99.082 E0.02495
G1 X144.663 Y99.776 E0.02495
G1 X144.161 Y100.394 E0.02495
G1 X143.561 Y100.916 E0.02495
G1 X142.881 Y101.329 E0.02495
G1 X142.140 Y101.620 E0.02495
G1 X141.373 Y101.778 E0.02456
G1 X140.625 Y101.804 E0.02346
G1 X140.384 Y101.449 F10800.000
G1 E-0.80000 F2100.00000
G1 Z0.800 F10800.000
G1 X137.162 Y99.141
G1 Z0.200
G1 E0.80000 F2100.00000
G1 F1200.000
G1 X138.131 Y100.110 E0.04314
G1 X138.671 Y100.524 E0.02142
G1 X139.276 Y100.841 E0.02148
G1 X139.454 Y100.898 E0.00589
G1 X136.916 Y98.360 E0.11298
G1 X136.244 Y97.152 E0.04351
G1 X140.176 Y101.085 E0.17506
G1 X140.600 Y101.144 E0.01348
G1 X140.765 Y101.139 E0.00521
G1 X137.057 Y97.430 E0.16508
G1 X137.188 Y97.450 E0.00417
G1 X137.543 Y97.381 E0.01139
G1 X141.283 Y101.121 E0.16648
G1 X141.729 Y101.031 E0.01431
G1 X139.379 Y98.682 E0.10459
G1 X139.646 Y98.413 E0.01192
G1 X142.143 Y100.910 E0.11118
G1 X142.527 Y100.759 E0.01300
G1 X139.912 Y98.143 E0.11644
G1 X140.178 Y97.874 E0.01192
G1 X142.869 Y100.565 E0.11978
G1 X143.197 Y100.358 E0.01222
G1 X140.444 Y97.605 E0.12256
G1 X140.710 Y97.336 E0.01192
G1 X143.483 Y100.109 E0.12345
G1 X143.685 Y99.933 E0.00840
G1 X143.756 Y99.846 E0.00355
G1 X140.977 Y97.067 E0.12373
G1 X141.243 Y96.797 E0.01192
G1 X143.996 Y99.551 E0.12257
G1 X144.115 Y99.404 E0.00595
G1 X144.212 Y99.231 E0.00624
G1 X141.509 Y96.528 E0.12034
G1 X141.775 Y96.259 E0.01192
G1 X144.404 Y98.888 E0.11705
G1 X144.557 Y98.505 E0.01298
G1 X142.041 Y95.990 E0.11198
G1 X142.308 Y95.721 E0.01192
G1 X144.688 Y98.101 E0.10596
G1 X144.766 Y97.643 E0.01461
G1 X140.955 Y93.832 E0.16967
G1 X140.992 Y93.605 E0.00724
G1 X140.961 Y93.303 E0.00956
G1 X144.790 Y97.133 E0.17049
G1 X144.790 Y96.811 E0.01014
G1 X144.744 Y96.551 E0.00830
G1 X137.558 Y89.364 E0.31994
G1 X137.558 Y88.829 E0.01685
G1 X144.562 Y95.834 E0.31184
G1 X144.441 Y95.496 E0.01129
G1 X144.022 Y94.758 E0.02673
G1 X137.558 Y88.294 E0.28777
G1 X137.558 Y87.758 E0.01685
G1 X143.954 Y94.154 E0.28475
G1 X143.954 Y93.619 E0.01685
G1 X137.558 Y87.223 E0.28475
G1 X137.558 Y86.687 E0.01685
G1 X143.954 Y93.084 E0.28475
G1 X143.954 Y92.548 E0.01685
G1 X137.558 Y86.152 E0.28475
G1 X137.558 Y85.617 E0.01685
G1 X143.954 Y92.013 E0.28475
G1 X143.954 Y91.477 E0.01685
G1 X137.558 Y85.081 E0.28475
G1 X137.558 Y84.546 E0.01685
G1 X143.954 Y90.942 E0.28475
G1 X143.954 Y90.407 E0.01685
G1 X137.558 Y84.010 E0.28475
G1 X137.558 Y83.475 E0.01685
G1 X143.954 Y89.871 E0.28475
G1 X143.954 Y89.336 E0.01685
G1 X137.558 Y82.940 E0.28475
G1 X137.558 Y82.404 E0.01685
G1 X143.954 Y88.800 E0.28475
G1 X143.954 Y88.265 E0.01685
G1 X137.558 Y81.869 E0.28475
G1 X137.558 Y81.333 E0.01685
G1 X143.954 Y87.730 E0.28475
G1 X143.954 Y87.194 E0.01685
G1 X137.558 Y80.798 E0.28475
G1 X137.558 Y80.263 E0.01685
G1 X143.954 Y86.659 E0.28475
G1 X143.954 Y86.123 E0.01685
G1 X137.558 Y79.727 E0.28475
G1 X137.558 Y79.192 E0.01685
G1 X143.954 Y85.588 E0.28475
G1 X143.954 Y85.053 E0.01685
G1 X137.558 Y78.656 E0.28475
G1 X137.558 Y78.121 E0.01685
G1 X143.954 Y84.517 E0.28475
G1 X143.954 Y83.982 E0.01685
G1 X137.558 Y77.586 E0.28475
G1 X137.558 Y77.050 E0.01685
G1 X143.954 Y83.446 E0.28475
G1 X143.954 Y82.911 E0.01685
G1 X137.558 Y76.515 E0.28475
G1 X137.558 Y75.979 E0.01685
G1 X143.954 Y82.376 E0.28475
G1 X143.954 Y81.840 E0.01685
G1 X137.558 Y75.444 E0.28475
G1 X137.558 Y74.909 E0.01685
G1 X143.954 Y81.305 E0.28475
G1 X143.954 Y80.769 E0.01685
G1 X137.558 Y74.373 E0.28475
G1 X137.558 Y73.838 E0.01685
G1 X143.954 Y80.234 E0.28475
G1 X143.954 Y79.699 E0.01685
G1 X137.558 Y73.302 E0.28475
G1 X137.558 Y72.767 E0.01685
G1 X143.954 Y79.163 E0.28475
G1 X143.954 Y78.628 E0.01685
G1 X137.558 Y72.232 E0.28475
G1 X137.558 Y71.696 E0.01685
G1 X143.954 Y78.092 E0.28475
G1 X143.954 Y77.557 E0.01685
G1 X137.558 Y71.161 E0.28475
G1 X137.558 Y70.625 E0.01685
G1 X143.954 Y77.021 E0.28475
G1 X143.954 Y76.486 E0.01685
G1 X137.558 Y70.090 E0.28475
G1 X137.558 Y69.555 E0.01685
G1 X143.954 Y75.951 E0.28475
G1 X143.954 Y75.415 E0.01685
G1 X137.558 Y69.019 E0.28475
G1 X137.558 Y68.523 E0.01562
G1 X135.249 Y66.175 E0.10367
G1 X143.954 Y74.880 E0.38754
G1 X143.954 Y74.344 E0.01685
G1 X135.252 Y65.642 E0.38741
G1 X135.255 Y65.110 E0.01676
G1 X143.954 Y73.809 E0.38728
G1 X143.954 Y73.274 E0.01685
G1 X135.258 Y64.577 E0.38715
G1 X135.261 Y64.045 E0.01676
G1 X143.954 Y72.738 E0.38701
G1 X143.954 Y72.203 E0.01685
G1 X135.264 Y63.513 E0.38688
G1 X135.267 Y62.980 E0.01676
G1 X144.123 Y71.837 E0.39430
G1 E-0.80000 F2100.00000
G1 Z0.800 F10800.000
G1 X146.432 Y61.831
G1 Z0.200
G1 E0.80000 F2100.00000
G1 F1200.000
G1 X143.062 Y58.461 E0.15003
G1 X142.523 Y58.458 E0.01695
G1 X146.260 Y62.195 E0.16635
G1 X146.257 Y62.727 E0.01676
G1 X141.985 Y58.455 E0.19019
G1 X141.447 Y58.452 E0.01695
G1 X146.254 Y63.260 E0.21403
G1 X146.251 Y63.792 E0.01676
G1 X140.908 Y58.449 E0.23786
G1 X140.370 Y58.446 E0.01695
G1 X146.248 Y64.325 E0.26170
G1 X146.245 Y64.857 E0.01676
G1 X139.831 Y58.443 E0.28554
G1 X139.293 Y58.440 E0.01695
G1 X146.242 Y65.389 E0.30937
G1 X146.239 Y65.922 E0.01676
G1 X143.566 Y63.249 E0.11901
G1 X143.617 Y63.438 E0.00619
G1 X143.655 Y63.873 E0.01373
G1 X146.134 Y66.352 E0.11037
G1 X145.865 Y66.618 E0.01192
G1 X143.623 Y64.376 E0.09980
G1 X143.520 Y64.809 E0.01399
G1 X145.595 Y66.884 E0.09240
G1 X145.326 Y67.150 E0.01192
G1 X143.367 Y65.191 E0.08723
G1 X143.272 Y65.395 E0.00710
G1 X143.175 Y65.534 E0.00533
G1 X145.057 Y67.417 E0.08381
G1 X144.788 Y67.683 E0.01192
G1 X142.948 Y65.843 E0.08190
G1 X142.681 Y66.111 E0.01192
G1 X144.519 Y67.949 E0.08183
G1 X144.249 Y68.215 E0.01192
G1 X142.375 Y66.341 E0.08344
G1 X142.211 Y66.458 E0.00635
G1 X142.037 Y66.539 E0.00602
G1 X143.980 Y68.481 E0.08650
G1 X143.954 Y68.508 E0.00117
G1 X143.954 Y68.990 E0.01520
G1 X141.660 Y66.697 E0.10211
G1 X141.234 Y66.806 E0.01384
G1 X143.954 Y69.526 E0.12108
G1 X143.954 Y70.061 E0.01685
G1 X140.739 Y66.847 E0.14311
G1 X140.251 Y66.804 E0.01542
G1 X140.128 Y66.771 E0.00401
G1 X143.954 Y70.597 E0.17032
G1 X143.954 Y71.132 E0.01685
G1 X135.270 Y62.448 E0.38661
G1 X135.272 Y61.915 E0.01676
G1 X137.928 Y64.571 E0.11820
G1 X137.895 Y64.447 E0.00401
G1 X137.852 Y63.959 E0.01542
G1 X135.402 Y61.510 E0.10906
G1 X135.671 Y61.243 E0.01192
G1 X137.892 Y63.464 E0.09888
G1 X138.002 Y63.038 E0.01384
G1 X135.941 Y60.977 E0.09177
G1 X136.210 Y60.711 E0.01192
G1 X138.160 Y62.661 E0.08682
G1 X138.240 Y62.490 E0.00594
G1 X138.357 Y62.323 E0.00643
G1 X136.479 Y60.445 E0.08361
G1 X136.748 Y60.179 E0.01192
G1 X138.588 Y62.018 E0.08189
G1 X138.855 Y61.750 E0.01192
G1 X137.017 Y59.912 E0.08182
G1 X137.287 Y59.646 E0.01192
G1 X139.164 Y61.524 E0.08360
G1 X139.303 Y61.427 E0.00533
G1 X139.507 Y61.332 E0.00710
G1 X137.556 Y59.380 E0.08689
G1 X137.825 Y59.114 E0.01192
G1 X139.890 Y61.179 E0.09193
G1 X140.322 Y61.076 E0.01399
G1 X138.094 Y58.848 E0.09919
G1 X138.363 Y58.581 E0.01192
G1 X140.828 Y61.046 E0.10973
G1 X141.258 Y61.081 E0.01357
G1 X141.450 Y61.133 E0.00627
G1 X138.584 Y58.266 E0.12760
G1 E-0.80000 F2100.00000
G1 Z0.800 F10800.000
G1 X139.201 Y91.543
G1 Z0.200
G1 E0.80000 F2100.00000
G1 F1200.000
G1 X137.558 Y89.900 E0.07315
G1 X137.558 Y90.435 E0.01685
G1 X138.444 Y91.322 E0.03946
G1 X138.064 Y91.410 E0.01226
G1 X138.023 Y91.436 E0.00155
G1 X137.388 Y90.801 E0.02827
G1 E-0.80000 F2100.00000
G1 Z0.800 F10800.000
G1 X137.603 Y91.840
G1 Z0.200
G1 E0.80000 F2100.00000
G1 F1200.000
G1 X137.487 Y91.940 E0.00078
G1 X137.431 Y92.052 E0.00064
G1 E-0.80000 F2100.00000
G1 Z0.800 F10800.000
G1 X134.942 Y94.373
G1 Z0.200
G1 E0.80000 F2100.00000
G1 F1200.000
G1 X135.337 Y94.706 E0.00384
G1 X135.329 Y94.891 E0.00138
G1 E-0.80000 F2100.00000
G1 Z0.800 F10800.000
G1 X154.114 Y94.420
G1 Z0.200
G1 E0.80000 F2100.00000
G1 F1200.000
