; generated by PrusaSlicer 2.2.0+win64 on 2022-02-21 at 19:52:29 UTC

; 

; external perimeters extrusion width = 0.45mm
; perimeters extrusion width = 0.45mm
; infill extrusion width = 0.45mm
; solid infill extrusion width = 0.45mm
; top infill extrusion width = 0.40mm
; first layer extrusion width = 0.42mm

M73 P0 R23
M73 Q0 S23
M201 X1000 Y1000 Z200 E5000 ; sets maximum accelerations, mm/sec^2
M203 X200 Y200 Z12 E120 ; sets maximum feedrates, mm/sec
M204 P1250 R1250 T1250 ; sets acceleration (P, T) and retract acceleration (R), mm/sec^2
M205 X8.00 Y8.00 Z0.40 E4.50 ; sets the jerk limits, mm/sec
M205 S0 T0 ; sets the minimum extruding and travel feed rate, mm/sec
M107
M862.3 P "MK3S" ; printer model check
M862.1 P0.4 ; nozzle diameter check
G90 ; use absolute coordinates
M83 ; extruder relative mode
M104 S215 ; set extruder temp
M140 S60 ; set bed temp
M190 S60 ; wait for bed temp
M109 S215 ; wait for extruder temp
G28 W ; home all without mesh bed level
G80 ; mesh bed leveling
G1 Y-3.0 F1000.0 ; go outside print area
G92 E0.0
G1 X60.0 E9.0 F1000.0 ; intro line
M73 Q0 S23
M73 P0 R23
G1 X100.0 E12.5 F1000.0 ; intro line
G92 E0.0
M221 S95

; Don't change E values below. Excessive value can damage the printer.
M907 E430 ; set extruder motor current
G21 ; set units to millimeters
G90 ; use absolute coordinates
M83 ; use relative distances for extrusion
M900 K0.05 ; Filament gcode LA 1.5
M900 K30 ; Filament gcode LA 1.0
;BEFORE_LAYER_CHANGE
G92 E0.0
;0.2


G1 E-0.80000 F2100.00000
G1 Z0.400 F10800.000
;AFTER_LAYER_CHANGE
;0.2
G1 X82.230 Y92.192
G1 Z0.200
G1 E0.80000 F2100.00000
M204 S1000
G1 F1200.000
G1 X82.761 Y92.095 E0.01692
G1 X102.500 Y90.833 E0.62017
G1 X146.391 Y90.833 E1.37620
G1 X147.308 Y91.018 E0.02931
G1 X173.511 Y102.211 E0.89339
G1 X174.030 Y102.519 E0.01894
G1 X174.454 Y102.944 E0.01882
G1 X174.800 Y103.572 E0.02249
G1 X174.944 Y104.275 E0.02249
G1 X174.945 Y108.210 E0.12339
G1 X174.760 Y109.042 E0.02673
G1 X169.491 Y116.982 E0.29879
G1 X167.813 Y118.674 E0.07472
G1 X167.138 Y119.038 E0.02402
G1 X166.383 Y119.167 E0.02402
G1 X101.330 Y119.167 E2.03971
G1 X81.181 Y117.963 E0.63288
G1 X80.400 Y117.774 E0.02520
G1 X79.724 Y117.333 E0.02532
G1 X75.681 Y113.289 E0.17929
G1 X75.365 Y112.856 E0.01680
G1 X75.155 Y112.367 E0.01668
G1 X75.053 Y111.699 E0.02119
G1 X75.053 Y100.942 E0.33728
G1 X75.186 Y100.165 E0.02473
G1 X75.518 Y99.538 E0.02225
G1 X79.560 Y94.245 E0.20881
G1 X81.468 Y92.583 E0.07932
G1 X82.176 Y92.219 E0.02496
; printing object skinnyqueen.stl id:0 copy 0
G1 F8640.000
G1 X82.761 Y92.095 E-0.13794
G1 X85.449 Y91.923 E-0.62206
G1 E-0.04000 F2100.00000
G1 Z0.600 F10800.000
G1 X87.485 Y101.616
G1 Z0.200
G1 E0.80000 F2100.00000
G1 F1200.000
G1 X93.306 Y101.616 E0.18253
G1 X93.306 Y110.231 E0.27014
G1 X87.485 Y110.231 E0.18253
G1 X87.485 Y101.676 E0.26826
G1 X87.862 Y101.993 F10800.000
G1 F1200.000
G1 X92.929 Y101.993 E0.15888
G1 X92.929 Y109.854 E0.24649
G1 X87.862 Y109.854 E0.15888
G1 X87.862 Y102.053 E0.24461
G1 X87.786 Y101.600 F10800.000
G1 F8640.000
G1 X91.153 Y102.014 E-0.76000
G1 E-0.04000 F2100.00000
G1 Z0.600 F10800.000
G1 X89.273 Y97.266
G1 Z0.200
G1 E0.80000 F2100.00000
G1 F1200.000
G1 X92.188 Y97.266 E0.09141
G1 X92.188 Y96.595 E0.02103
G1 X93.530 Y96.595 E0.04205
G1 X93.530 Y95.254 E0.04205
G1 X99.332 Y95.254 E0.18194
G1 X99.332 Y100.507 E0.16471
G1 X102.136 Y100.507 E0.08791
G1 X102.136 Y95.197 E0.16651
G1 X103.336 Y95.197 E0.03763
G1 X103.336 Y93.997 E0.03763
G1 X111.762 Y93.997 E0.26419
G1 X111.762 Y95.197 E0.03763
G1 X114.536 Y95.197 E0.08698
G1 X114.536 Y93.999 E0.03757
G1 X121.816 Y94.014 E0.22827
G1 X121.816 Y95.193 E0.03695
G1 X123.063 Y95.193 E0.03909
G1 X123.063 Y97.623 E0.07618
G1 X125.837 Y97.623 E0.08698
G1 X125.837 Y96.423 E0.03763
G1 X127.037 Y96.423 E0.03763
G1 X127.037 Y95.223 E0.03763
G1 X128.237 Y95.223 E0.03763
G1 X128.237 Y93.997 E0.03843
G1 X130.670 Y93.997 E0.07626
G1 X130.670 Y95.223 E0.03843
G1 X131.870 Y95.223 E0.03763
G1 X131.870 Y96.423 E0.03763
G1 X134.644 Y96.423 E0.08698
G1 X134.644 Y95.223 E0.03763
G1 X135.952 Y95.223 E0.04103
G1 X135.952 Y93.997 E0.03843
G1 X145.601 Y93.997 E0.30251
G1 X145.601 Y96.004 E0.06294
G1 X144.401 Y96.004 E0.03763
G1 X144.401 Y101.315 E0.16653
G1 X145.601 Y101.315 E0.03763
G1 X145.601 Y103.619 E0.07222
G1 X145.566 Y103.619 E0.00109
G1 X145.566 Y106.381 E0.08661
G1 X148.340 Y106.381 E0.08698
G1 X148.340 Y105.181 E0.03763
G1 X171.783 Y105.181 E0.73503
G1 X171.783 Y107.331 E0.06742
G1 X170.585 Y107.331 E0.03756
G1 X170.585 Y108.531 E0.03763
G1 X166.777 Y108.531 E0.11940
G1 X166.777 Y114.803 E0.19665
G1 X165.577 Y114.803 E0.03763
G1 X165.577 Y116.003 E0.03763
G1 X162.159 Y116.003 E0.10716
G1 X162.159 Y108.531 E0.23427
G1 X156.777 Y108.531 E0.16876
G1 X156.777 Y114.803 E0.19665
G1 X155.577 Y114.803 E0.03763
G1 X155.577 Y116.003 E0.03763
G1 X152.106 Y116.003 E0.10883
G1 X152.106 Y114.840 E0.03647
G1 X149.332 Y114.840 E0.08698
G1 X149.332 Y116.003 E0.03647
G1 X142.206 Y116.003 E0.22343
G1 X142.206 Y114.840 E0.03647
G1 X138.087 Y114.840 E0.12916
G1 X138.087 Y116.003 E0.03647
G1 X124.580 Y116.003 E0.42348
G1 X124.580 Y114.803 E0.03763
G1 X121.806 Y114.803 E0.08698
G1 X121.806 Y116.003 E0.03763
G1 X113.406 Y116.003 E0.26338
G1 X113.406 Y114.803 E0.03763
G1 X110.632 Y114.803 E0.08698
G1 X110.632 Y116.003 E0.03763
G1 X102.136 Y116.003 E0.26638
G1 X102.136 Y110.893 E0.16024
G1 X98.550 Y110.893 E0.11244
G1 X98.550 Y114.805 E0.12266
G1 X92.188 Y114.805 E0.19946
G1 X92.188 Y112.793 E0.06308
G1 X88.491 Y112.793 E0.11594
G1 X88.491 Y114.805 E0.06308
G1 X82.129 Y114.805 E0.19946
G1 X82.129 Y110.893 E0.12266
G1 X78.217 Y110.893 E0.12266
G1 X78.217 Y101.737 E0.28707
G1 X82.129 Y101.737 E0.12266
G1 X82.129 Y96.572 E0.16194
G1 X83.600 Y96.508 E0.04615
G1 X83.665 Y95.254 E0.03935
G1 X89.273 Y95.254 E0.17583
G1 X89.273 Y97.206 E0.06120
G1 X89.650 Y96.889 F10800.000
G1 F1200.000
G1 X91.811 Y96.889 E0.06776
G1 X91.811 Y96.218 E0.02103
G1 X93.153 Y96.218 E0.04205
G1 X93.153 Y94.877 E0.04205
G1 X99.709 Y94.877 E0.20558
G1 X99.709 Y100.130 E0.16471
G1 X101.759 Y100.130 E0.06426
G1 X101.759 Y94.820 E0.16651
G1 X102.959 Y94.820 E0.03763
G1 X102.959 Y93.620 E0.03763
G1 X112.139 Y93.620 E0.28783
G1 X112.139 Y94.820 E0.03763
G1 X114.159 Y94.820 E0.06334
G1 X114.159 Y93.621 E0.03760
G1 X122.193 Y93.638 E0.25192
G1 X122.193 Y94.816 E0.03692
G1 X123.440 Y94.816 E0.03909
G1 X123.440 Y97.246 E0.07618
G1 X125.460 Y97.246 E0.06334
G1 X125.460 Y96.046 E0.03763
G1 X126.660 Y96.046 E0.03763
G1 X126.660 Y94.846 E0.03763
G1 X127.860 Y94.846 E0.03763
G1 X127.860 Y93.620 E0.03843
G1 X131.047 Y93.620 E0.09991
G1 X131.047 Y94.846 E0.03843
G1 X132.247 Y94.846 E0.03763
G1 X132.247 Y96.046 E0.03763
G1 X134.267 Y96.046 E0.06334
G1 X134.267 Y94.846 E0.03763
G1 X135.575 Y94.846 E0.04103
G1 X135.575 Y93.620 E0.03843
G1 X145.978 Y93.620 E0.32616
G1 X145.978 Y96.381 E0.08658
G1 X144.778 Y96.381 E0.03763
G1 X144.778 Y100.938 E0.14288
G1 X145.978 Y100.938 E0.03763
G1 X145.978 Y103.996 E0.09587
G1 X145.943 Y103.996 E0.00109
G1 X145.943 Y106.004 E0.06296
G1 X147.963 Y106.004 E0.06334
G1 X147.963 Y104.804 E0.03763
G1 X172.160 Y104.804 E0.75868
G1 X172.160 Y107.708 E0.09107
G1 X170.962 Y107.708 E0.03756
G1 X170.962 Y108.908 E0.03763
G1 X167.154 Y108.908 E0.11940
G1 X167.154 Y115.180 E0.19665
G1 X165.954 Y115.180 E0.03763
G1 X165.954 Y116.380 E0.03763
G1 X161.782 Y116.380 E0.13081
G1 X161.782 Y108.908 E0.23427
G1 X157.154 Y108.908 E0.14511
G1 X157.154 Y115.180 E0.19665
G1 X155.954 Y115.180 E0.03763
G1 X155.954 Y116.380 E0.03763
G1 X151.729 Y116.380 E0.13247
G1 X151.729 Y115.217 E0.03647
G1 X149.709 Y115.217 E0.06334
G1 X149.709 Y116.380 E0.03647
G1 X141.829 Y116.380 E0.24707
G1 X141.829 Y115.217 E0.03647
G1 X138.464 Y115.217 E0.10551
G1 X138.464 Y116.380 E0.03647
G1 X124.203 Y116.380 E0.44713
G1 X124.203 Y115.180 E0.03763
G1 X122.183 Y115.180 E0.06334
G1 X122.183 Y116.380 E0.03763
G1 X113.029 Y116.380 E0.28703
G1 X113.029 Y115.180 E0.03763
G1 X111.009 Y115.180 E0.06334
G1 X111.009 Y116.380 E0.03763
G1 X101.759 Y116.380 E0.29002
G1 X101.759 Y111.270 E0.16024
G1 X98.927 Y111.270 E0.08879
G1 X98.927 Y115.182 E0.12266
G1 X91.811 Y115.182 E0.22311
G1 X91.811 Y113.170 E0.06308
G1 X88.868 Y113.170 E0.09230
G1 X88.868 Y115.182 E0.06308
G1 X81.752 Y115.182 E0.22311
G1 X81.752 Y111.270 E0.12266
G1 X77.840 Y111.270 E0.12266
G1 X77.840 Y101.360 E0.31072
G1 X81.752 Y101.360 E0.12266
G1 X81.752 Y96.211 E0.16144
G1 X83.241 Y96.146 E0.04673
G1 X83.307 Y94.877 E0.03983
G1 X89.650 Y94.877 E0.19888
G1 X89.650 Y96.829 E0.06120
G1 X89.814 Y97.254 F10800.000
G1 F8640.000
G1 X91.811 Y96.889 E-0.49923
G1 X91.811 Y96.218 E-0.15485
G1 X92.270 Y96.218 E-0.10593
G1 E-0.04000 F2100.00000
G1 Z0.600 F10800.000
G1 X88.808 Y95.367
G1 Z0.200
G1 E0.80000 F2100.00000
G1 F1200.000
G1 X88.990 Y95.549 E0.00808
G1 X88.990 Y96.084 E0.01680
G1 X88.444 Y95.537 E0.02430
G1 X87.909 Y95.537 E0.01680
G1 X88.990 Y96.618 E0.04807
G1 X88.990 Y97.153 E0.01680
G1 X87.374 Y95.537 E0.07183
G1 X86.840 Y95.537 E0.01680
G1 X92.636 Y101.333 E0.25764
G1 X93.170 Y101.333 E0.01680
G1 X89.386 Y97.549 E0.16821
G1 X89.921 Y97.549 E0.01680
G1 X108.092 Y115.720 E0.80775
G1 X108.627 Y115.720 E0.01680
G1 X90.455 Y97.549 E0.80775
G1 X90.990 Y97.549 E0.01680
G1 X109.161 Y115.720 E0.80775
G1 X109.696 Y115.720 E0.01680
G1 X91.525 Y97.549 E0.80775
G1 X92.059 Y97.549 E0.01680
G1 X110.231 Y115.720 E0.80775
G1 X110.349 Y115.720 E0.00372
G1 X110.349 Y115.304 E0.01308
G1 X92.471 Y97.426 E0.79469
M73 Q4 S22
G1 X92.471 Y96.892 E0.01680
G1 X110.349 Y114.769 E0.79469
M73 P4 R22
G1 X110.349 Y114.520 E0.00783
G1 X110.634 Y114.520 E0.00897
G1 X92.992 Y96.878 E0.78422
G1 X93.527 Y96.878 E0.01680
G1 X111.169 Y114.520 E0.78422
G1 X111.704 Y114.520 E0.01680
G1 X93.812 Y96.629 E0.79529
G1 X93.812 Y96.095 E0.01680
G1 X112.408 Y114.690 E0.82660
G1 F8640.000
G1 X110.080 Y112.363 E-0.76000
G1 E-0.04000 F2100.00000
G1 Z0.600 F10800.000
G1 X114.142 Y115.890
G1 Z0.200
G1 E0.80000 F2100.00000
G1 F1200.000
G1 X113.689 Y115.436 E0.02017
G1 X113.689 Y114.902 E0.01680
G1 X114.507 Y115.720 E0.03639
G1 X115.042 Y115.720 E0.01680
G1 X100.112 Y100.790 E0.66367
G1 X100.646 Y100.790 E0.01680
G1 X115.577 Y115.720 E0.66367
G1 X116.111 Y115.720 E0.01680
G1 X101.181 Y100.790 E0.66367
G1 X101.716 Y100.790 E0.01680
G1 X116.646 Y115.720 E0.66367
G1 X117.180 Y115.720 E0.01680
G1 X102.250 Y100.790 E0.66367
G1 X102.419 Y100.790 E0.00530
G1 X102.419 Y100.424 E0.01151
G1 X117.715 Y115.720 E0.67994
G1 X118.250 Y115.720 E0.01680
G1 X102.419 Y99.890 E0.70370
G1 X102.419 Y99.355 E0.01680
G1 X118.784 Y115.720 E0.72747
G1 X119.319 Y115.720 E0.01680
G1 X102.419 Y98.820 E0.75123
G1 X102.419 Y98.286 E0.01680
G1 X119.853 Y115.720 E0.77499
G1 X120.388 Y115.720 E0.01680
G1 X102.419 Y97.751 E0.79876
G1 X102.419 Y97.217 E0.01680
G1 X120.922 Y115.720 E0.82252
G1 X121.457 Y115.720 E0.01680
G1 X102.419 Y96.682 E0.84629
G1 X102.419 Y96.147 E0.01680
G1 X121.523 Y115.252 E0.84922
G1 X121.523 Y114.717 E0.01680
G1 X102.419 Y95.613 E0.84922
G1 X102.419 Y95.480 E0.00419
G1 X102.820 Y95.480 E0.01262
G1 X121.861 Y114.520 E0.84639
G1 X122.395 Y114.520 E0.01680
G1 X103.355 Y95.480 E0.84639
G1 X103.619 Y95.480 E0.00830
G1 X103.619 Y95.209 E0.00851
G1 X122.930 Y114.520 E0.85842
G1 X123.465 Y114.520 E0.01680
G1 X103.619 Y94.674 E0.88218
G1 X103.619 Y94.280 E0.01241
G1 X103.759 Y94.280 E0.00439
G1 X124.169 Y114.690 E0.90728
G1 X124.693 Y115.214 F10800.000
G1 F1200.000
G1 X125.199 Y115.720 E0.02249
G1 X125.734 Y115.720 E0.01680
G1 X104.293 Y94.280 E0.95307
G1 X104.828 Y94.280 E0.01680
G1 X126.268 Y115.720 E0.95307
G1 X126.803 Y115.720 E0.01680
G1 X105.362 Y94.280 E0.95307
G1 X105.897 Y94.280 E0.01680
G1 X127.338 Y115.720 E0.95307
G1 X127.872 Y115.720 E0.01680
G1 X106.432 Y94.280 E0.95307
G1 X106.966 Y94.280 E0.01680
G1 X128.407 Y115.720 E0.95307
G1 X128.941 Y115.720 E0.01680
G1 X107.501 Y94.280 E0.95307
G1 X108.035 Y94.280 E0.01680
G1 X129.476 Y115.720 E0.95307
G1 X130.011 Y115.720 E0.01680
G1 X108.570 Y94.280 E0.95307
G1 X109.104 Y94.280 E0.01680
G1 X130.545 Y115.720 E0.95307
G1 X131.080 Y115.720 E0.01680
G1 X109.639 Y94.280 E0.95307
G1 X110.174 Y94.280 E0.01680
G1 X131.784 Y115.890 E0.96062
G1 F8640.000
G1 X129.457 Y113.563 E-0.76000
G1 E-0.04000 F2100.00000
G1 Z0.600 F10800.000
G1 X145.487 Y94.845
G1 Z0.200
G1 E0.80000 F2100.00000
G1 F1200.000
G1 X144.922 Y94.280 E0.02512
G1 X144.388 Y94.280 E0.01680
G1 X145.318 Y95.210 E0.04134
G1 X145.318 Y95.721 E0.01608
G1 X145.295 Y95.721 E0.00072
G1 X143.853 Y94.280 E0.06409
G1 X143.318 Y94.280 E0.01680
G1 X144.760 Y95.721 E0.06409
G1 X144.226 Y95.721 E0.01680
G1 X142.784 Y94.280 E0.06409
G1 X142.249 Y94.280 E0.01680
G1 X144.118 Y96.148 E0.08306
G1 X144.118 Y96.683 E0.01680
G1 X141.715 Y94.280 E0.10682
G1 X141.180 Y94.280 E0.01680
G1 X144.118 Y97.217 E0.13058
G1 X144.118 Y97.752 E0.01680
G1 X140.646 Y94.280 E0.15435
G1 X140.111 Y94.280 E0.01680
G1 X144.118 Y98.287 E0.17811
G1 X144.118 Y98.821 E0.01680
G1 X139.576 Y94.280 E0.20188
G1 X139.042 Y94.280 E0.01680
G1 X144.118 Y99.356 E0.22564
G1 X144.118 Y99.890 E0.01680
G1 X138.507 Y94.280 E0.24940
G1 X137.973 Y94.280 E0.01680
G1 X144.118 Y100.425 E0.27317
G1 X144.118 Y100.959 E0.01680
G1 X137.438 Y94.280 E0.29693
G1 X136.903 Y94.280 E0.01680
G1 X145.318 Y102.694 E0.37404
G1 X145.318 Y103.229 E0.01680
G1 X136.369 Y94.280 E0.39780
G1 X136.235 Y94.280 E0.00420
G1 X136.235 Y94.681 E0.01261
G1 X145.283 Y103.729 E0.40219
G1 X145.283 Y104.263 E0.01680
G1 X136.235 Y95.215 E0.40219
G1 X136.235 Y95.505 E0.00912
G1 X135.991 Y95.505 E0.00768
G1 X145.283 Y104.798 E0.41306
G1 X145.283 Y105.332 E0.01680
G1 X135.456 Y95.505 E0.43682
G1 X134.927 Y95.505 E0.01665
G1 X145.453 Y106.037 E0.46802
M73 Q8 S21
G1 F8640.000
G1 X143.126 Y103.709 E-0.76000
G1 E-0.04000 F2100.00000
G1 Z0.600 F10800.000
G1 X145.487 Y102.329
G1 Z0.200
G1 E0.80000 F2100.00000
G1 F1200.000
G1 X144.756 Y101.598 E0.03250
G1 X145.291 Y101.598 E0.01680
G1 X145.487 Y101.795 E0.00873
G1 F8640.000
G1 X145.291 Y101.598 E-0.06417
G1 X144.756 Y101.598 E-0.12344
G1 X145.487 Y102.329 E-0.23874
G1 E-0.37366 F2100.00000
M73 P8 R21
G1 Z0.600 F10800.000
G1 X152.633 Y115.890
G1 Z0.200
G1 E0.80000 F2100.00000
G1 F1200.000
G1 X152.389 Y115.645 E0.01087
G1 X152.389 Y115.111 E0.01680
G1 X153.168 Y115.890 E0.03463
G1 F8640.000
G1 X152.389 Y115.111 E-0.25443
G1 X152.389 Y115.645 E-0.12344
G1 X152.633 Y115.890 E-0.07986
G1 E-0.34228 F2100.00000
G1 Z0.600 F10800.000
G1 X171.670 Y106.058
G1 Z0.200
G1 E0.80000 F2100.00000
G1 F1200.000
G1 X171.075 Y105.464 E0.02643
G1 X170.540 Y105.464 E0.01680
G1 X171.500 Y106.423 E0.04265
G1 X171.500 Y106.958 E0.01680
G1 X170.006 Y105.464 E0.06641
G1 X169.471 Y105.464 E0.01680
G1 X171.056 Y107.049 E0.07044
G1 X170.521 Y107.049 E0.01680
G1 X168.937 Y105.464 E0.07044
G1 X168.402 Y105.464 E0.01680
G1 X170.302 Y107.364 E0.08446
G1 X170.302 Y107.898 E0.01680
G1 X167.867 Y105.464 E0.10822
G1 X167.333 Y105.464 E0.01680
G1 X170.118 Y108.249 E0.12379
G1 X169.583 Y108.249 E0.01680
G1 X166.798 Y105.464 E0.12379
G1 X166.264 Y105.464 E0.01680
G1 X169.048 Y108.249 E0.12379
G1 X168.514 Y108.249 E0.01680
G1 X165.729 Y105.464 E0.12379
G1 X165.195 Y105.464 E0.01680
G1 X167.979 Y108.249 E0.12379
G1 X167.445 Y108.249 E0.01680
G1 X164.660 Y105.464 E0.12379
G1 X164.125 Y105.464 E0.01680
G1 X166.910 Y108.249 E0.12379
G1 X166.494 Y108.249 E0.01308
G1 X166.494 Y108.367 E0.00373
G1 X163.591 Y105.464 E0.12905
G1 X163.056 Y105.464 E0.01680
G1 X166.494 Y108.902 E0.15282
G1 X166.494 Y109.436 E0.01680
G1 X162.522 Y105.464 E0.17658
G1 X161.987 Y105.464 E0.01680
G1 X166.494 Y109.971 E0.20035
G1 X166.494 Y110.505 E0.01680
G1 X161.452 Y105.464 E0.22411
G1 X160.918 Y105.464 E0.01680
G1 X166.494 Y111.040 E0.24787
G1 X166.494 Y111.575 E0.01680
G1 X160.383 Y105.464 E0.27164
G1 X159.849 Y105.464 E0.01680
G1 X166.494 Y112.109 E0.29540
G1 X166.494 Y112.644 E0.01680
G1 X162.442 Y108.592 E0.18012
G1 X162.442 Y109.126 E0.01680
G1 X166.494 Y113.178 E0.18012
G1 X166.494 Y113.713 E0.01680
G1 X162.442 Y109.661 E0.18012
G1 X162.442 Y110.195 E0.01680
G1 X166.494 Y114.248 E0.18012
G1 X166.494 Y114.520 E0.00857
