; generated by PrusaSlicer 2.2.0+win64 on 2022-02-21 at 19:55:10 UTC

; 

; external perimeters extrusion width = 0.45mm
; perimeters extrusion width = 0.45mm
; infill extrusion width = 0.45mm
; solid infill extrusion width = 0.45mm
; top infill extrusion width = 0.40mm
; first layer extrusion width = 0.42mm

M73 P0 R115
M73 Q0 S115
M201 X1000 Y1000 Z200 E5000 ; sets maximum accelerations, mm/sec^2
M203 X200 Y200 Z12 E120 ; sets maximum feedrates, mm/sec
M204 P1250 R1250 T1250 ; sets acceleration (P, T) and retract acceleration (R), mm/sec^2
M205 X8.00 Y8.00 Z0.40 E4.50 ; sets the jerk limits, mm/sec
M205 S0 T0 ; sets the minimum extruding and travel feed rate, mm/sec
M107
M862.3 P "MK3S" ; printer model check
M862.1 P0.4 ; nozzle diameter check
G90 ; use absolute coordinates
M83 ; extruder relative mode
M104 S215 ; set extruder temp
M140 S60 ; set bed temp
M190 S60 ; wait for bed temp
M109 S215 ; wait for extruder temp
G28 W ; home all without mesh bed level
G80 ; mesh bed leveling
G1 Y-3.0 F1000.0 ; go outside print area
G92 E0.0
G1 X60.0 E9.0 F1000.0 ; intro line
M73 Q0 S115
M73 P0 R115
G1 X100.0 E12.5 F1000.0 ; intro line
G92 E0.0
M221 S95

; Don't change E values below. Excessive value can damage the printer.
M907 E430 ; set extruder motor current
G21 ; set units to millimeters
G90 ; use absolute coordinates
M83 ; use relative distances for extrusion
M900 K0.05 ; Filament gcode LA 1.5
M900 K30 ; Filament gcode LA 1.0
;BEFORE_LAYER_CHANGE
G92 E0.0
;0.2


G1 E-0.80000 F2100.00000
G1 Z0.400 F10800.000
;AFTER_LAYER_CHANGE
;0.2
G1 X82.296 Y62.593
G1 Z0.200
G1 E0.80000 F2100.00000
M204 S1000
G1 F1200.000
G1 X102.500 Y61.253 E0.63487
G1 X146.391 Y61.252 E1.37620
G1 X147.308 Y61.437 E0.02931
G1 X173.682 Y72.713 E0.89936
G1 X224.346 Y102.346 E1.84031
G1 X224.970 Y102.877 E0.02567
G1 X225.371 Y103.573 E0.02520
G1 X225.516 Y104.360 E0.02508
G1 X225.493 Y138.037 E1.05592
G1 X225.369 Y138.523 E0.01574
G1 X225.144 Y138.976 E0.01585
G1 X220.087 Y146.525 E0.28490
G1 X218.451 Y148.200 E0.07341
G1 X217.744 Y148.605 E0.02555
G1 X216.942 Y148.748 E0.02555
G1 X50.711 Y148.747 E5.21207
G1 X30.220 Y147.484 E0.64369
G1 X29.655 Y147.270 E0.01894
G1 X29.165 Y146.923 E0.01882
G1 X24.885 Y142.582 E0.19114
G1 X24.589 Y141.962 E0.02154
G1 X24.483 Y141.280 E0.02166
G1 X24.501 Y100.661 E1.27357
G1 X24.640 Y100.101 E0.01811
G1 X24.911 Y99.590 E0.01811
G1 X28.915 Y94.335 E0.20714
G1 X31.025 Y92.492 E0.08785
G1 X81.721 Y62.833 E1.84158
G1 X82.240 Y62.616 E0.01765
; printing object skinnyqueen.stl id:0 copy 3
G1 F8640.000
G1 X85.524 Y62.395 E-0.76000
G1 E-0.04000 F2100.00000
G1 Z0.600 F10800.000
G1 X42.736 Y131.196
G1 Z0.200
G1 E0.80000 F2100.00000
G1 F1200.000
G1 X42.736 Y139.812 E0.27014
G1 X36.915 Y139.812 E0.18253
G1 X36.915 Y131.196 E0.27014
G1 X42.676 Y131.196 E0.18064
G1 X42.359 Y131.573 F10800.000
G1 F1200.000
G1 X42.359 Y139.435 E0.24649
G1 X37.292 Y139.435 E0.15888
G1 X37.292 Y131.573 E0.24649
G1 X42.299 Y131.573 E0.15700
G1 X42.737 Y131.443 F10800.000
G1 F8640.000
G1 X42.324 Y134.865 E-0.76000
G1 E-0.04000 F2100.00000
G1 Z0.600 F10800.000
G1 X41.619 Y126.847
G1 Z0.200
G1 E0.80000 F2100.00000
G1 F1200.000
G1 X41.619 Y126.176 E0.02103
G1 X42.960 Y126.176 E0.04205
G1 X42.960 Y124.835 E0.04205
G1 X48.762 Y124.835 E0.18194
G1 X48.762 Y130.088 E0.16471
G1 X51.566 Y130.088 E0.08791
G1 X51.566 Y124.777 E0.16651
G1 X52.766 Y124.777 E0.03763
G1 X52.766 Y123.577 E0.03763
G1 X61.192 Y123.577 E0.26419
G1 X61.192 Y124.777 E0.03763
G1 X63.966 Y124.777 E0.08698
G1 X63.966 Y123.579 E0.03757
G1 X71.247 Y123.595 E0.22827
G1 X71.247 Y124.773 E0.03695
G1 X72.493 Y124.773 E0.03909
G1 X72.493 Y127.203 E0.07618
G1 X75.268 Y127.203 E0.08698
G1 X75.268 Y126.003 E0.03763
G1 X76.468 Y126.003 E0.03763
G1 X76.468 Y124.803 E0.03763
G1 X77.668 Y124.803 E0.03763
G1 X77.668 Y123.577 E0.03843
G1 X80.100 Y123.577 E0.07626
G1 X80.100 Y124.803 E0.03843
G1 X81.300 Y124.803 E0.03763
G1 X81.300 Y126.003 E0.03763
G1 X84.074 Y126.003 E0.08698
G1 X84.074 Y124.803 E0.03763
G1 X85.383 Y124.803 E0.04103
G1 X85.383 Y123.577 E0.03843
G1 X95.031 Y123.577 E0.30251
G1 X95.031 Y125.585 E0.06294
G1 X93.831 Y125.585 E0.03763
G1 X93.831 Y130.896 E0.16653
G1 X95.031 Y130.896 E0.03763
G1 X95.031 Y133.199 E0.07222
G1 X94.996 Y133.199 E0.00109
G1 X94.996 Y135.961 E0.08661
G1 X97.770 Y135.961 E0.08698
G1 X97.770 Y134.761 E0.03763
G1 X121.213 Y134.761 E0.73503
G1 X121.213 Y136.912 E0.06742
G1 X120.015 Y136.912 E0.03756
G1 X120.015 Y138.112 E0.03763
G1 X116.207 Y138.112 E0.11940
G1 X116.207 Y144.384 E0.19665
G1 X115.007 Y144.384 E0.03763
G1 X115.007 Y145.584 E0.03763
G1 X111.589 Y145.584 E0.10716
G1 X111.589 Y138.112 E0.23427
G1 X106.207 Y138.112 E0.16876
G1 X106.207 Y144.384 E0.19665
G1 X105.007 Y144.384 E0.03763
G1 X105.007 Y145.584 E0.03763
G1 X101.536 Y145.584 E0.10883
G1 X101.536 Y144.420 E0.03647
G1 X98.762 Y144.420 E0.08698
G1 X98.762 Y145.584 E0.03647
G1 X91.636 Y145.584 E0.22343
G1 X91.636 Y144.420 E0.03647
G1 X87.517 Y144.420 E0.12916
G1 X87.517 Y145.584 E0.03647
G1 X74.010 Y145.584 E0.42348
G1 X74.010 Y144.384 E0.03763
G1 X71.236 Y144.384 E0.08698
G1 X71.236 Y145.584 E0.03763
G1 X62.836 Y145.584 E0.26338
G1 X62.836 Y144.384 E0.03763
G1 X60.062 Y144.384 E0.08698
G1 X60.062 Y145.584 E0.03763
G1 X51.566 Y145.584 E0.26638
G1 X51.566 Y140.473 E0.16024
G1 X47.980 Y140.473 E0.11244
G1 X47.980 Y144.385 E0.12266
G1 X41.619 Y144.385 E0.19946
G1 X41.619 Y142.373 E0.06308
G1 X37.921 Y142.373 E0.11594
G1 X37.921 Y144.385 E0.06308
G1 X31.559 Y144.385 E0.19946
G1 X31.559 Y140.473 E0.12266
G1 X27.647 Y140.473 E0.12266
G1 X27.647 Y131.317 E0.28707
G1 X31.559 Y131.317 E0.12266
G1 X31.559 Y126.152 E0.16194
G1 X33.030 Y126.088 E0.04615
G1 X33.095 Y124.835 E0.03935
G1 X38.703 Y124.835 E0.17583
G1 X38.703 Y126.847 E0.06308
G1 X41.559 Y126.847 E0.08953
G1 X41.242 Y126.469 F10800.000
G1 F1200.000
G1 X41.242 Y125.799 E0.02103
G1 X42.583 Y125.799 E0.04205
G1 X42.583 Y124.458 E0.04205
G1 X49.140 Y124.458 E0.20558
G1 X49.140 Y129.711 E0.16471
G1 X51.189 Y129.711 E0.06426
G1 X51.189 Y124.400 E0.16651
G1 X52.389 Y124.400 E0.03763
G1 X52.389 Y123.200 E0.03763
G1 X61.569 Y123.200 E0.28783
G1 X61.569 Y124.400 E0.03763
G1 X63.589 Y124.400 E0.06334
G1 X63.589 Y123.201 E0.03760
G1 X71.624 Y123.219 E0.25192
G1 X71.624 Y124.396 E0.03692
G1 X72.870 Y124.396 E0.03909
G1 X72.870 Y126.826 E0.07618
G1 X74.890 Y126.826 E0.06334
G1 X74.890 Y125.626 E0.03763
G1 X76.090 Y125.626 E0.03763
G1 X76.090 Y124.426 E0.03763
G1 X77.290 Y124.426 E0.03763
G1 X77.290 Y123.200 E0.03843
G1 X80.477 Y123.200 E0.09991
G1 X80.477 Y124.426 E0.03843
G1 X81.677 Y124.426 E0.03763
G1 X81.677 Y125.626 E0.03763
G1 X83.697 Y125.626 E0.06334
G1 X83.697 Y124.426 E0.03763
G1 X85.006 Y124.426 E0.04103
G1 X85.006 Y123.200 E0.03843
G1 X95.408 Y123.200 E0.32616
G1 X95.408 Y125.962 E0.08658
G1 X94.208 Y125.962 E0.03763
G1 X94.208 Y130.519 E0.14288
G1 X95.408 Y130.519 E0.03763
G1 X95.408 Y133.576 E0.09587
G1 X95.373 Y133.576 E0.00109
G1 X95.373 Y135.584 E0.06296
G1 X97.393 Y135.584 E0.06334
G1 X97.393 Y134.384 E0.03763
G1 X121.590 Y134.384 E0.75868
G1 X121.590 Y137.289 E0.09107
G1 X120.392 Y137.289 E0.03756
G1 X120.392 Y138.489 E0.03763
G1 X116.584 Y138.489 E0.11940
G1 X116.584 Y144.761 E0.19665
G1 X115.384 Y144.761 E0.03763
G1 X115.384 Y145.961 E0.03763
G1 X111.212 Y145.961 E0.13081
G1 X111.212 Y138.489 E0.23427
G1 X106.584 Y138.489 E0.14511
G1 X106.584 Y144.761 E0.19665
G1 X105.384 Y144.761 E0.03763
G1 X105.384 Y145.961 E0.03763
G1 X101.159 Y145.961 E0.13247
G1 X101.159 Y144.798 E0.03647
G1 X99.139 Y144.798 E0.06334
G1 X99.139 Y145.961 E0.03647
G1 X91.259 Y145.961 E0.24707
G1 X91.259 Y144.798 E0.03647
G1 X87.894 Y144.798 E0.10551
G1 X87.894 Y145.961 E0.03647
G1 X73.633 Y145.961 E0.44713
G1 X73.633 Y144.761 E0.03763
G1 X71.613 Y144.761 E0.06334
G1 X71.613 Y145.961 E0.03763
G1 X62.459 Y145.961 E0.28703
M73 Q0 S114
G1 X62.459 Y144.761 E0.03763
G1 X60.439 Y144.761 E0.06334
M73 P0 R114
G1 X60.439 Y145.961 E0.03763
G1 X51.189 Y145.961 E0.29002
G1 X51.189 Y140.850 E0.16024
G1 X48.357 Y140.850 E0.08879
G1 X48.357 Y144.762 E0.12266
G1 X41.242 Y144.762 E0.22311
G1 X41.242 Y142.750 E0.06308
G1 X38.298 Y142.750 E0.09230
G1 X38.298 Y144.762 E0.06308
G1 X31.182 Y144.762 E0.22311
G1 X31.182 Y140.850 E0.12266
G1 X27.270 Y140.850 E0.12266
G1 X27.270 Y130.940 E0.31072
G1 X31.182 Y130.940 E0.12266
G1 X31.182 Y125.791 E0.16144
G1 X32.671 Y125.726 E0.04673
G1 X32.737 Y124.458 E0.03983
G1 X39.080 Y124.458 E0.19888
G1 X39.080 Y126.469 E0.06308
G1 X41.182 Y126.469 E0.06588
G1 X41.629 Y126.568 F10800.000
G1 F8640.000
G1 X41.242 Y125.799 E-0.15547
G1 X42.583 Y125.799 E-0.30969
G1 X42.583 Y124.522 E-0.29484
G1 E-0.04000 F2100.00000
G1 Z0.600 F10800.000
G1 X38.239 Y124.948
G1 Z0.200
G1 E0.80000 F2100.00000
G1 F1200.000
G1 X38.420 Y125.130 E0.00808
G1 X38.420 Y125.664 E0.01680
G1 X37.874 Y125.117 E0.02430
G1 X37.339 Y125.117 E0.01680
G1 X38.420 Y126.199 E0.04807
G1 X38.420 Y126.733 E0.01680
G1 X36.805 Y125.117 E0.07183
G1 X36.270 Y125.117 E0.01680
G1 X42.066 Y130.913 E0.25764
G1 X42.600 Y130.913 E0.01680
G1 X38.816 Y127.129 E0.16821
G1 X39.351 Y127.129 E0.01680
G1 X57.522 Y145.301 E0.80775
G1 X58.057 Y145.301 E0.01680
G1 X39.886 Y127.129 E0.80775
G1 X40.420 Y127.129 E0.01680
G1 X58.592 Y145.301 E0.80775
G1 X59.126 Y145.301 E0.01680
G1 X40.955 Y127.129 E0.80775
G1 X41.489 Y127.129 E0.01680
G1 X59.661 Y145.301 E0.80775
G1 X59.779 Y145.301 E0.00372
G1 X59.779 Y144.884 E0.01308
G1 X41.901 Y127.007 E0.79469
G1 X41.901 Y126.472 E0.01680
G1 X59.779 Y144.350 E0.79469
G1 X59.779 Y144.101 E0.00783
G1 X60.065 Y144.101 E0.00897
G1 X42.423 Y126.459 E0.78422
G1 X42.957 Y126.459 E0.01680
G1 X60.599 Y144.101 E0.78422
G1 X61.134 Y144.101 E0.01680
G1 X43.243 Y126.210 E0.79529
G1 X43.243 Y125.675 E0.01680
G1 X61.838 Y144.270 E0.82660
G1 F8640.000
G1 X59.511 Y141.943 E-0.76000
G1 E-0.04000 F2100.00000
G1 Z0.600 F10800.000
G1 X63.573 Y145.470
G1 Z0.200
G1 E0.80000 F2100.00000
G1 F1200.000
G1 X63.119 Y145.017 E0.02017
G1 X63.119 Y144.482 E0.01680
G1 X63.938 Y145.301 E0.03639
G1 X64.472 Y145.301 E0.01680
G1 X49.542 Y130.371 E0.66367
G1 X50.077 Y130.371 E0.01680
G1 X65.007 Y145.301 E0.66367
G1 X65.541 Y145.301 E0.01680
G1 X50.611 Y130.371 E0.66367
G1 X51.146 Y130.371 E0.01680
G1 X66.076 Y145.301 E0.66367
G1 X66.611 Y145.301 E0.01680
G1 X51.680 Y130.371 E0.66367
G1 X51.849 Y130.371 E0.00530
G1 X51.849 Y130.005 E0.01151
G1 X67.145 Y145.301 E0.67994
G1 X67.680 Y145.301 E0.01680
G1 X51.849 Y129.470 E0.70370
G1 X51.849 Y128.935 E0.01680
G1 X68.214 Y145.301 E0.72747
G1 X68.749 Y145.301 E0.01680
G1 X51.849 Y128.401 E0.75123
G1 X51.849 Y127.866 E0.01680
G1 X69.283 Y145.301 E0.77499
G1 X69.818 Y145.301 E0.01680
G1 X51.849 Y127.332 E0.79876
G1 X51.849 Y126.797 E0.01680
G1 X70.353 Y145.301 E0.82252
G1 X70.887 Y145.301 E0.01680
G1 X51.849 Y126.262 E0.84629
G1 X51.849 Y125.728 E0.01680
G1 X70.953 Y144.832 E0.84922
G1 X70.953 Y144.298 E0.01680
G1 X51.849 Y125.193 E0.84922
G1 X51.849 Y125.060 E0.00419
G1 X52.250 Y125.060 E0.01262
G1 X71.291 Y144.101 E0.84639
G1 X71.826 Y144.101 E0.01680
G1 X52.785 Y125.060 E0.84639
G1 X53.049 Y125.060 E0.00830
G1 X53.049 Y124.789 E0.00851
G1 X72.360 Y144.101 E0.85842
G1 X72.895 Y144.101 E0.01680
G1 X53.049 Y124.255 E0.88218
G1 X53.049 Y123.860 E0.01241
G1 X53.189 Y123.860 E0.00439
G1 X73.599 Y144.270 E0.90728
G1 X74.123 Y144.795 F10800.000
G1 F1200.000
G1 X74.629 Y145.301 E0.02249
G1 X75.164 Y145.301 E0.01680
G1 X53.723 Y123.860 E0.95307
G1 X54.258 Y123.860 E0.01680
G1 X75.699 Y145.301 E0.95307
G1 X76.233 Y145.301 E0.01680
G1 X54.793 Y123.860 E0.95307
G1 X55.327 Y123.860 E0.01680
G1 X76.768 Y145.301 E0.95307
G1 X77.302 Y145.301 E0.01680
G1 X55.862 Y123.860 E0.95307
G1 X56.396 Y123.860 E0.01680
G1 X77.837 Y145.301 E0.95307
G1 X78.372 Y145.301 E0.01680
G1 X56.931 Y123.860 E0.95307
G1 X57.465 Y123.860 E0.01680
G1 X78.906 Y145.301 E0.95307
G1 X79.441 Y145.301 E0.01680
G1 X58.000 Y123.860 E0.95307
M73 Q1 S113
M73 P1 R113
G1 X58.535 Y123.860 E0.01680
G1 X79.975 Y145.301 E0.95307
G1 X80.510 Y145.301 E0.01680
G1 X59.069 Y123.860 E0.95307
G1 X59.604 Y123.860 E0.01680
G1 X81.214 Y145.470 E0.96062
G1 F8640.000
G1 X78.887 Y143.143 E-0.76000
G1 E-0.04000 F2100.00000
G1 Z0.600 F10800.000
G1 X94.918 Y124.425
G1 Z0.200
G1 E0.80000 F2100.00000
G1 F1200.000
G1 X94.352 Y123.860 E0.02512
G1 X93.818 Y123.860 E0.01680
G1 X94.748 Y124.790 E0.04134
G1 X94.748 Y125.302 E0.01608
G1 X94.725 Y125.302 E0.00072
G1 X93.283 Y123.860 E0.06409
G1 X92.749 Y123.860 E0.01680
G1 X94.190 Y125.302 E0.06409
G1 X93.656 Y125.302 E0.01680
G1 X92.214 Y123.860 E0.06409
G1 X91.679 Y123.860 E0.01680
G1 X93.548 Y125.729 E0.08306
G1 X93.548 Y126.263 E0.01680
G1 X91.145 Y123.860 E0.10682
G1 X90.610 Y123.860 E0.01680
G1 X93.548 Y126.798 E0.13058
G1 X93.548 Y127.332 E0.01680
G1 X90.076 Y123.860 E0.15435
G1 X89.541 Y123.860 E0.01680
G1 X93.548 Y127.867 E0.17811
G1 X93.548 Y128.402 E0.01680
G1 X89.007 Y123.860 E0.20188
G1 X88.472 Y123.860 E0.01680
G1 X93.548 Y128.936 E0.22564
G1 X93.548 Y129.471 E0.01680
G1 X87.937 Y123.860 E0.24940
G1 X87.403 Y123.860 E0.01680
G1 X93.548 Y130.005 E0.27317
G1 X93.548 Y130.540 E0.01680
G1 X86.868 Y123.860 E0.29693
G1 X86.334 Y123.860 E0.01680
G1 X94.748 Y132.275 E0.37404
G1 X94.748 Y132.809 E0.01680
G1 X85.799 Y123.860 E0.39780
G1 X85.665 Y123.860 E0.00420
G1 X85.665 Y124.261 E0.01261
G1 X94.713 Y133.309 E0.40219
G1 X94.713 Y133.844 E0.01680
G1 X85.665 Y124.796 E0.40219
G1 X85.665 Y125.086 E0.00912
G1 X85.421 Y125.086 E0.00768
G1 X94.713 Y134.378 E0.41306
G1 X94.713 Y134.913 E0.01680
G1 X84.886 Y125.086 E0.43682
G1 X84.357 Y125.086 E0.01665
G1 X94.883 Y135.617 E0.46802
G1 F8640.000
G1 X92.556 Y133.289 E-0.76000
G1 E-0.04000 F2100.00000
G1 Z0.600 F10800.000
G1 X94.918 Y131.910
G1 Z0.200
G1 E0.80000 F2100.00000
G1 F1200.000
G1 X94.187 Y131.179 E0.03250
G1 X94.721 Y131.179 E0.01680
G1 X94.918 Y131.375 E0.00873
G1 F8640.000
G1 X94.721 Y131.179 E-0.06417
G1 X94.187 Y131.179 E-0.12344
G1 X94.918 Y131.910 E-0.23874
G1 E-0.37366 F2100.00000
G1 Z0.600 F10800.000
G1 X102.063 Y145.470
G1 Z0.200
G1 E0.80000 F2100.00000
G1 F1200.000
G1 X101.819 Y145.226 E0.01087
G1 X101.819 Y144.691 E0.01680
G1 X102.598 Y145.470 E0.03463
G1 F8640.000
G1 X101.819 Y144.691 E-0.25443
G1 X101.819 Y145.226 E-0.12344
G1 X102.063 Y145.470 E-0.07986
G1 E-0.34228 F2100.00000
G1 Z0.600 F10800.000
G1 X121.100 Y135.639
G1 Z0.200
G1 E0.80000 F2100.00000
G1 F1200.000
G1 X120.505 Y135.044 E0.02643
G1 X119.971 Y135.044 E0.01680
G1 X120.930 Y136.004 E0.04265
G1 X120.930 Y136.538 E0.01680
G1 X119.436 Y135.044 E0.06641
G1 X118.901 Y135.044 E0.01680
G1 X120.486 Y136.629 E0.07044
G1 X119.952 Y136.629 E0.01680
G1 X118.367 Y135.044 E0.07044
G1 X117.832 Y135.044 E0.01680
G1 X119.732 Y136.944 E0.08446
G1 X119.732 Y137.479 E0.01680
G1 X117.298 Y135.044 E0.10822
G1 X116.763 Y135.044 E0.01680
G1 X119.548 Y137.829 E0.12379
G1 X119.013 Y137.829 E0.01680
G1 X116.228 Y135.044 E0.12379
G1 X115.694 Y135.044 E0.01680
G1 X118.479 Y137.829 E0.12379
G1 X117.944 Y137.829 E0.01680
G1 X115.159 Y135.044 E0.12379
G1 X114.625 Y135.044 E0.01680
G1 X117.409 Y137.829 E0.12379
G1 X116.875 Y137.829 E0.01680
G1 X114.090 Y135.044 E0.12379
G1 X113.556 Y135.044 E0.01680
G1 X116.340 Y137.829 E0.12379
G1 X115.924 Y137.829 E0.01308
G1 X115.924 Y137.948 E0.00373
G1 X113.021 Y135.044 E0.12905
G1 X112.486 Y135.044 E0.01680
G1 X115.924 Y138.482 E0.15282
G1 X115.924 Y139.017 E0.01680
G1 X111.952 Y135.044 E0.17658
G1 X111.417 Y135.044 E0.01680
G1 X115.924 Y139.551 E0.20035
G1 X115.924 Y140.086 E0.01680
G1 X110.883 Y135.044 E0.22411
G1 X110.348 Y135.044 E0.01680
G1 X115.924 Y140.620 E0.24787
G1 X115.924 Y141.155 E0.01680
G1 X109.813 Y135.044 E0.27164
G1 X109.279 Y135.044 E0.01680
G1 X115.924 Y141.690 E0.29540
G1 X115.924 Y142.224 E0.01680
G1 X111.872 Y138.172 E0.18012
G1 X111.872 Y138.707 E0.01680
G1 X115.924 Y142.759 E0.18012
G1 X115.924 Y143.293 E0.01680
G1 X111.872 Y139.241 E0.18012
G1 X111.872 Y139.776 E0.01680
G1 X115.924 Y143.828 E0.18012
G1 X115.924 Y144.101 E0.00857
G1 X115.662 Y144.101 E0.00823
G1 X111.872 Y140.311 E0.16848
G1 X111.872 Y140.845 E0.01680
