; generated by PrusaSlicer 2.3.1+win64 on 2021-11-10 at 19:55:10 UTC

; 

; external perimeters extrusion width = 0.45mm
; perimeters extrusion width = 0.45mm
; infill extrusion width = 0.45mm
; solid infill extrusion width = 0.45mm
; top infill extrusion width = 0.40mm
; support material extrusion width = 0.35mm
; first layer extrusion width = 0.42mm

M73 P0 R16
M73 Q0 S16
M201 X1000 Y1000 Z1000 E5000 ; sets maximum accelerations, mm/sec^2
M203 X200 Y200 Z12 E120 ; sets maximum feedrates, mm/sec
M204 P1250 R1250 T1250 ; sets acceleration (P, T) and retract acceleration (R), mm/sec^2
M205 X8.00 Y8.00 Z0.40 E1.50 ; sets the jerk limits, mm/sec
M205 S0 T0 ; sets the minimum extruding and travel feed rate, mm/sec
M107
;TYPE:Custom
M862.3 P "MK3S" ; printer model check
M862.1 P0.4 ; nozzle diameter check
M115 U3.8.0 ; tell printer latest fw version
G90 ; use absolute coordinates
M83 ; extruder relative mode
M104 S215 ; set extruder temp
M140 S60 ; set bed temp
M190 S60 ; wait for bed temp
M109 S215 ; wait for extruder temp
G28 W ; home all without mesh bed level
G80 ; mesh bed leveling
G1 Y-3.0 F1000.0 ; go outside print area
G92 E0.0
G1 X60.0 E9.0 F1000.0 ; intro line
G1 X100.0 E12.5 F1000.0 ; intro line
G92 E0.0
M221 S95
G21 ; set units to millimeters
G90 ; use absolute coordinates
M83 ; use relative distances for extrusion
M900 K0.05 ; Filament gcode LA 1.5
M900 K30 ; Filament gcode LA 1.0
;LAYER_CHANGE
;Z:0.2
;HEIGHT:0.2
;BEFORE_LAYER_CHANGE
G92 E0.0
;0.2


G1 E-0.80000 F2100.000
G1 Z0.600 F10800.000
;AFTER_LAYER_CHANGE
;0.2
G1 X122.940 Y116.107
G1 Z0.200
G1 E0.80000 F2100.000
M204 S1000
;TYPE:Perimeter
;WIDTH:0.42
G1 F1200.000
G1 X122.548 Y117.490 E0.04507
G1 X122.398 Y117.795 E0.01066
G1 X122.195 Y118.068 E0.01064
G1 X121.942 Y118.304 E0.01087
G1 X121.592 Y118.541 E0.01325
G1 X121.207 Y118.733 E0.01348
G1 X120.791 Y118.876 E0.01379
G1 X120.600 Y118.921 E0.00615
G1 X119.919 Y119.013 E0.02154
G1 X119.674 Y119.072 E0.00791
G1 X119.250 Y119.245 E0.01435
G1 X118.857 Y119.507 E0.01481
G1 X118.534 Y119.831 E0.01435
G1 X118.385 Y120.033 E0.00787
G1 X118.258 Y120.247 E0.00778
G1 X118.022 Y120.815 E0.01932
G1 X117.935 Y120.980 E0.00585
G1 X117.695 Y121.332 E0.01333
G1 X117.578 Y121.467 E0.00562
G1 X117.265 Y121.755 E0.01333
G1 X117.120 Y121.861 E0.00562
G1 X116.760 Y122.065 E0.01298
G1 X116.383 Y122.207 E0.01263
G1 X115.989 Y122.291 E0.01263
G1 X115.588 Y122.314 E0.01260
G1 X114.980 Y122.254 E0.01915
G1 X114.618 Y122.277 E0.01137
G1 X113.734 Y122.590 E0.02940
G1 X113.468 Y122.664 E0.00865
G1 X112.894 Y122.771 E0.01832
G1 X112.311 Y122.812 E0.01832
G1 X112.040 Y122.807 E0.00851
G1 X111.357 Y122.737 E0.02153
G1 X110.994 Y122.785 E0.01145
G1 X110.418 Y122.811 E0.01808
G1 X109.836 Y122.771 E0.01831
G1 X109.262 Y122.664 E0.01831
G1 X108.996 Y122.590 E0.00865
G1 X108.112 Y122.277 E0.02940
G1 X107.742 Y122.254 E0.01163
G1 X107.357 Y122.303 E0.01214
G1 X106.941 Y122.311 E0.01304
G1 X106.531 Y122.255 E0.01298
G1 X106.357 Y122.211 E0.00562
G1 X105.970 Y122.065 E0.01298
G1 X105.610 Y121.861 E0.01298
G1 X105.465 Y121.755 E0.00562
G1 X105.152 Y121.467 E0.01333
G1 X105.035 Y121.332 E0.00562
G1 X104.795 Y120.980 E0.01333
G1 X104.708 Y120.815 E0.00585
G1 X104.472 Y120.247 E0.01932
G1 X104.345 Y120.032 E0.00780
G1 X104.193 Y119.827 E0.00801
G1 X103.873 Y119.507 E0.01419
G1 X103.480 Y119.245 E0.01481
G1 X103.056 Y119.072 E0.01435
G1 X102.811 Y119.013 E0.00791
G1 X102.130 Y118.921 E0.02154
G1 X101.939 Y118.876 E0.00615
G1 X101.523 Y118.733 E0.01379
G1 X101.138 Y118.541 E0.01348
G1 X100.662 Y118.199 E0.01837
G1 X100.427 Y117.936 E0.01106
G1 X100.251 Y117.646 E0.01064
G1 X100.120 Y117.304 E0.01148
G1 X97.833 Y109.249 E0.26254
G1 X97.758 Y108.879 E0.01184
G1 X97.750 Y108.501 E0.01184
G1 X97.767 Y108.346 E0.00491
G1 X97.858 Y107.979 E0.01184
G1 X98.006 Y107.646 E0.01143
G1 X98.211 Y107.345 E0.01143
G1 X98.472 Y107.078 E0.01168
G1 X98.599 Y106.978 E0.00509
G1 X98.936 Y106.781 E0.01223
G1 X99.080 Y106.720 E0.00491
G1 X99.444 Y106.621 E0.01184
G1 X99.834 Y106.587 E0.01225
G1 X123.099 Y106.597 E0.72948
M73 P1 R16
M73 Q1 S16
G1 X123.464 Y106.661 E0.01162
G1 X123.806 Y106.787 E0.01141
G1 X124.120 Y106.972 E0.01143
G1 X124.397 Y107.209 E0.01143
G1 X124.628 Y107.491 E0.01143
G1 X124.805 Y107.809 E0.01143
G1 X124.924 Y108.154 E0.01143
G1 X124.982 Y108.527 E0.01184
G1 X124.986 Y108.697 E0.00532
G1 X124.974 Y108.866 E0.00532
G1 X124.897 Y109.249 E0.01225
G1 X122.956 Y116.049 E0.22174
G1 X123.319 Y116.152 F10800.000
;TYPE:External perimeter
G1 F1200.000
G1 X122.901 Y117.626 E0.04802
G1 X122.721 Y117.992 E0.01280
G1 X122.478 Y118.320 E0.01280
G1 X122.178 Y118.600 E0.01288
G1 X121.782 Y118.867 E0.01496
G1 X121.353 Y119.081 E0.01504
G1 X120.896 Y119.238 E0.01515
G1 X120.669 Y119.292 E0.00731
G1 X119.989 Y119.384 E0.02151
G1 X119.790 Y119.432 E0.00641
G1 X119.428 Y119.580 E0.01228
G1 X119.097 Y119.800 E0.01245
G1 X118.821 Y120.077 E0.01228
G1 X118.700 Y120.241 E0.00639
G1 X118.596 Y120.416 E0.00636
G1 X118.363 Y120.976 E0.01902
G1 X118.259 Y121.175 E0.00705
G1 X117.995 Y121.562 E0.01469
G1 X117.849 Y121.730 E0.00697
G1 X117.504 Y122.047 E0.01469
G1 X117.325 Y122.178 E0.00697
G1 X116.920 Y122.407 E0.01456
G1 X116.490 Y122.570 E0.01444
G1 X116.040 Y122.666 E0.01444
G1 X115.580 Y122.693 E0.01442
G1 X114.974 Y122.633 E0.01912
G1 X114.694 Y122.650 E0.00877
G1 X113.848 Y122.950 E0.02816
G1 X113.553 Y123.031 E0.00957
G1 X112.942 Y123.145 E0.01951
G1 X112.321 Y123.189 E0.01951
G1 X112.017 Y123.184 E0.00952
G1 X111.362 Y123.117 E0.02066
G1 X111.028 Y123.161 E0.01058
G1 X110.414 Y123.188 E0.01926
G1 X109.788 Y123.145 E0.01966
G1 X109.177 Y123.031 E0.01951
G1 X108.882 Y122.950 E0.00957
G1 X108.036 Y122.650 E0.02816
G1 X107.754 Y122.633 E0.00886
G1 X107.385 Y122.679 E0.01166
G1 X106.920 Y122.688 E0.01458
G1 X106.459 Y122.626 E0.01456
G1 X106.244 Y122.572 E0.00697
G1 X105.810 Y122.407 E0.01456
G1 X105.405 Y122.178 E0.01456
G1 X105.226 Y122.047 E0.00697
G1 X104.881 Y121.730 E0.01469
G1 X104.735 Y121.562 E0.00697
G1 X104.471 Y121.175 E0.01469
G1 X104.367 Y120.976 E0.00705
G1 X104.134 Y120.416 E0.01902
G1 X104.030 Y120.241 E0.00637
G1 X103.906 Y120.074 E0.00653
G1 X103.633 Y119.800 E0.01213
G1 X103.302 Y119.580 E0.01244
G1 X102.940 Y119.432 E0.01228
G1 X102.741 Y119.384 E0.00641
G1 X102.061 Y119.292 E0.02151
G1 X101.834 Y119.238 E0.00731
G1 X101.377 Y119.081 E0.01515
G1 X100.948 Y118.867 E0.01504
G1 X100.548 Y118.597 E0.01511
G1 X100.398 Y118.469 E0.00619
G1 X100.123 Y118.161 E0.01295
G1 X99.911 Y117.813 E0.01280
G1 X99.761 Y117.423 E0.01310
G1 X97.543 Y109.563 E0.25608
G1 X97.469 Y109.348 E0.00711
G1 X97.382 Y108.921 E0.01368
G1 X97.372 Y108.485 E0.01368
G1 X97.395 Y108.279 E0.00648
G1 X97.500 Y107.856 E0.01368
G1 X97.676 Y107.462 E0.01353
G1 X97.918 Y107.105 E0.01353
G1 X98.219 Y106.797 E0.01350
G1 X98.386 Y106.666 E0.00666
G1 X98.766 Y106.443 E0.01382
G1 X98.957 Y106.363 E0.00648
G1 X99.378 Y106.249 E0.01368
G1 X99.817 Y106.210 E0.01382
G1 X123.132 Y106.220 E0.73103
G1 X123.563 Y106.296 E0.01372
G1 X123.968 Y106.445 E0.01352
G1 X124.340 Y106.664 E0.01353
G1 X124.668 Y106.944 E0.01353
G1 X124.941 Y107.278 E0.01353
G1 X125.151 Y107.655 E0.01353
G1 X125.292 Y108.063 E0.01353
G1 X125.359 Y108.494 E0.01368
G1 X125.363 Y108.705 E0.00663
G1 X125.349 Y108.916 E0.00663
G1 X125.261 Y109.348 E0.01382
G1 X123.335 Y116.095 E0.21998
G1 X122.931 Y116.251 F10800.000
G1 E-0.80000 F2100.000
G1 Z0.800 F10800.000
G1 X101.423 Y118.556
G1 Z0.200
G1 E0.80000 F2100.000
;TYPE:Solid infill
;WIDTH:0.423622
G1 F1200.000
G1 X100.655 Y117.767 E0.03486
G1 X100.506 Y117.521 E0.00912
G1 X100.388 Y117.215 E0.01038
G1 X100.297 Y116.892 E0.01062
G1 X102.003 Y118.599 E0.07641
G1 X102.182 Y118.642 E0.00581
G1 X102.648 Y118.705 E0.01491
G1 X100.083 Y116.140 E0.11483
G1 X99.870 Y115.388 E0.02474
G1 X103.380 Y118.899 E0.15716
G1 X103.613 Y118.994 E0.00795
G1 X104.053 Y119.287 E0.01674
G1 X104.408 Y119.642 E0.01588
G1 X104.581 Y119.876 E0.00921
G1 X104.725 Y120.120 E0.00897
G1 X104.813 Y120.332 E0.00728
G1 X106.411 Y121.929 E0.07150
G1 X106.585 Y121.977 E0.00572
G1 X107.046 Y122.026 E0.01467
G1 X99.657 Y114.637 E0.33080
G1 X99.443 Y113.885 E0.02474
G1 X107.551 Y121.993 E0.36298
G1 X107.732 Y121.970 E0.00578
G1 X108.089 Y121.992 E0.01131
G1 X99.230 Y113.133 E0.39661
G1 X99.016 Y112.381 E0.02474
G1 X108.887 Y122.251 E0.44186
G1 X109.325 Y122.388 E0.01455
G1 X109.616 Y122.442 E0.00934
G1 X98.803 Y111.630 E0.48405
M73 P2 R16
M73 Q2 S16
G1 X98.590 Y110.878 E0.02474
G1 X110.226 Y122.514 E0.52093
G1 X110.422 Y122.528 E0.00621
G1 X110.762 Y122.512 E0.01080
G1 X98.376 Y110.126 E0.55450
G1 X98.163 Y109.374 E0.02474
G1 X111.254 Y122.465 E0.58606
G1 X111.353 Y122.452 E0.00314
G1 X111.828 Y122.501 E0.01514
G1 X98.037 Y108.710 E0.61739
G1 X98.033 Y108.514 E0.00623
G1 X98.089 Y108.223 E0.00936
G1 X112.388 Y122.523 E0.64016
G1 X112.888 Y122.484 E0.01587
G1 X98.234 Y107.830 E0.65603
G1 X98.449 Y107.506 E0.01230
G1 X113.342 Y122.400 E0.66673
G1 X113.761 Y122.281 E0.01380
G1 X98.722 Y107.241 E0.67327
G1 X99.057 Y107.038 E0.01240
G1 X114.159 Y122.140 E0.67609
G1 X114.556 Y121.999 E0.01335
G1 X99.466 Y106.908 E0.67557
M73 P3 R16
M73 Q3 S16
G1 X99.966 Y106.870 E0.01587
G1 X115.075 Y121.980 E0.67643
G1 X115.594 Y122.031 E0.01649
G1 X115.661 Y122.027 E0.00213
G1 X100.504 Y106.870 E0.67853
G1 X101.043 Y106.870 E0.01705
G1 X116.142 Y121.970 E0.67596
G1 X116.303 Y121.935 E0.00521
G1 X116.552 Y121.841 E0.00842
G1 X101.582 Y106.871 E0.67019
G1 X102.120 Y106.871 E0.01705
G1 X116.906 Y121.657 E0.66193
G1 X117.086 Y121.536 E0.00684
G1 X117.210 Y121.422 E0.00534
G1 X102.659 Y106.871 E0.65141
G1 X103.197 Y106.871 E0.01705
G1 X117.477 Y121.150 E0.63924
G1 X117.695 Y120.830 E0.01227
G1 X103.736 Y106.872 E0.62489
G1 X104.275 Y106.872 E0.01705
G1 X117.863 Y120.460 E0.60832
M73 P4 R16
M73 Q4 S16
G1 X118.026 Y120.084 E0.01296
G1 X104.813 Y106.872 E0.59149
G1 X105.352 Y106.872 E0.01705
G1 X118.237 Y119.757 E0.57683
G1 X118.319 Y119.646 E0.00436
G1 X118.491 Y119.473 E0.00774
G1 X105.891 Y106.872 E0.56410
G1 X106.429 Y106.873 E0.01705
G1 X118.777 Y119.220 E0.55278
G1 X119.100 Y119.005 E0.01229
G1 X106.968 Y106.873 E0.54313
G1 X107.506 Y106.873 E0.01705
G1 X119.479 Y118.846 E0.53600
G1 X119.587 Y118.802 E0.00367
G1 X119.901 Y118.730 E0.01022
G1 X108.045 Y106.873 E0.53077
G1 X108.584 Y106.874 E0.01705
G1 X120.376 Y118.666 E0.52790
G1 X120.549 Y118.642 E0.00552
G1 X120.816 Y118.568 E0.00880
G1 X109.122 Y106.874 E0.52352
G1 X109.661 Y106.874 E0.01705
G1 X121.205 Y118.418 E0.51679
G1 X121.552 Y118.227 E0.01255
G1 X110.200 Y106.874 E0.50822
M73 P5 R16
M73 Q5 S16
G1 X110.738 Y106.875 E0.01705
G1 X121.859 Y117.995 E0.49784
M73 P5 R15
G1 X121.984 Y117.879 E0.00541
G1 X122.110 Y117.708 E0.00672
G1 X111.277 Y106.875 E0.48498
G1 X111.815 Y106.875 E0.01705
G1 X122.293 Y117.352 E0.46904
G1 X122.412 Y116.933 E0.01379
G1 X112.354 Y106.875 E0.45028
G1 X112.893 Y106.875 E0.01705
G1 X122.532 Y116.514 E0.43151
M73 Q5 S15
G1 X122.651 Y116.095 E0.01379
G1 X113.431 Y106.876 E0.41274
G1 X113.970 Y106.876 E0.01705
G1 X122.770 Y115.676 E0.39398
G1 X122.890 Y115.257 E0.01379
G1 X114.509 Y106.876 E0.37521
G1 X115.047 Y106.876 E0.01705
G1 X123.009 Y114.838 E0.35644
G1 X123.129 Y114.419 E0.01379
G1 X115.586 Y106.877 E0.33768
G1 X116.124 Y106.877 E0.01705
G1 X123.248 Y114.001 E0.31891
G1 X123.368 Y113.582 E0.01379
G1 X116.663 Y106.877 E0.30015
G1 X117.202 Y106.877 E0.01705
G1 X123.487 Y113.163 E0.28138
G1 X123.606 Y112.744 E0.01379
G1 X117.740 Y106.878 E0.26261
G1 X118.279 Y106.878 E0.01705
G1 X123.726 Y112.325 E0.24385
M73 P6 R15
M73 Q6 S15
G1 X123.845 Y111.906 E0.01379
G1 X118.818 Y106.878 E0.22508
G1 X119.356 Y106.878 E0.01705
G1 X123.965 Y111.487 E0.20631
G1 X124.084 Y111.068 E0.01379
G1 X119.895 Y106.878 E0.18755
G1 X120.433 Y106.879 E0.01705
G1 X124.204 Y110.649 E0.16878
G1 X124.323 Y110.230 E0.01379
G1 X120.972 Y106.879 E0.15001
G1 X121.511 Y106.879 E0.01705
G1 X124.442 Y109.811 E0.13125
G1 X124.562 Y109.392 E0.01379
G1 X122.049 Y106.879 E0.11248
G1 X122.588 Y106.880 E0.01705
G1 X124.667 Y108.959 E0.09308
G1 X124.703 Y108.690 E0.00857
G1 X124.682 Y108.435 E0.00811
G1 X123.138 Y106.891 E0.06912
G1 X123.390 Y106.935 E0.00811
G1 X123.684 Y107.044 E0.00993
G1 X123.955 Y107.203 E0.00995
G1 X124.183 Y107.398 E0.00949
G1 X124.734 Y107.949 E0.02465
G1 E-0.80000 F2100.000
G1 Z0.800 F10800.000
G1 X111.000 Y87.225
G1 Z0.200
G1 E0.80000 F2100.000
;TYPE:Perimeter
;WIDTH:0.42
G1 F1200.000
G1 X111.365 Y87.262 E0.01150
G1 X112.031 Y87.194 E0.02100
G1 X112.608 Y87.201 E0.01808
G1 X112.886 Y87.228 E0.00875
G1 X113.468 Y87.336 E0.01857
G1 X113.734 Y87.410 E0.00865
G1 X114.618 Y87.723 E0.02940
G1 X114.980 Y87.746 E0.01137
G1 X115.588 Y87.686 E0.01915
G1 X115.989 Y87.709 E0.01260
G1 X116.383 Y87.793 E0.01263
G1 X116.770 Y87.939 E0.01298
G1 X116.930 Y88.022 E0.00562
G1 X117.283 Y88.259 E0.01333
G1 X117.419 Y88.375 E0.00562
G1 X117.702 Y88.678 E0.01298
G1 X117.935 Y89.020 E0.01298
G1 X118.022 Y89.185 E0.00585
G1 X118.259 Y89.753 E0.01932
G1 X118.385 Y89.968 E0.00780
G1 X118.537 Y90.173 E0.00801
G1 X118.857 Y90.493 E0.01419
G1 X119.250 Y90.755 E0.01481
G1 X119.674 Y90.928 E0.01435
G1 X119.919 Y90.987 E0.00791
G1 X120.600 Y91.079 E0.02154
G1 X120.800 Y91.127 E0.00646
G1 X120.997 Y91.187 E0.00644
G1 X121.411 Y91.360 E0.01409
G1 X121.584 Y91.454 E0.00614
G1 X121.953 Y91.703 E0.01398
G1 X122.068 Y91.801 E0.00472
G1 X122.303 Y92.064 E0.01106
G1 X122.479 Y92.354 E0.01064
G1 X122.611 Y92.696 E0.01149
G1 X124.943 Y100.937 E0.26854
G1 X124.985 Y101.316 E0.01196
G1 X124.982 Y101.473 E0.00491
G1 X124.924 Y101.846 E0.01184
G1 X124.805 Y102.191 E0.01143
G1 X124.624 Y102.516 E0.01168
G1 X124.528 Y102.646 E0.00509
G1 X124.255 Y102.925 E0.01223
G1 X124.131 Y103.021 E0.00491
G1 X123.795 Y103.219 E0.01225
G1 X123.650 Y103.280 E0.00491
G1 X123.286 Y103.379 E0.01184
G1 X122.896 Y103.413 E0.01226
G1 X99.834 Y103.413 E0.72311
G1 X99.444 Y103.379 E0.01226
G1 X99.093 Y103.283 E0.01143
G1 X98.763 Y103.127 E0.01143
G1 X98.456 Y102.908 E0.01184
G1 X98.341 Y102.801 E0.00491
G1 X98.102 Y102.509 E0.01184
G1 X97.918 Y102.179 E0.01184
G1 X97.856 Y102.021 E0.00532
G1 X97.808 Y101.859 E0.00532
G1 X97.748 Y101.473 E0.01225
G1 X97.745 Y101.316 E0.00491
G1 X97.787 Y100.937 E0.01196
G1 X100.123 Y92.683 E0.26896
G1 X100.177 Y92.522 E0.00534
G1 X100.330 Y92.209 E0.01091
G1 X100.543 Y91.921 E0.01123
G1 X100.644 Y91.818 E0.00451
G1 X100.965 Y91.567 E0.01279
G1 X101.130 Y91.463 E0.00610
G1 X101.532 Y91.263 E0.01409
G1 X101.715 Y91.193 E0.00614
G1 X102.140 Y91.078 E0.01380
G1 X102.811 Y90.987 E0.02124
G1 X103.042 Y90.931 E0.00745
G1 X103.279 Y90.848 E0.00787
G1 X103.683 Y90.634 E0.01435
G1 X104.048 Y90.334 E0.01481
G1 X104.338 Y89.980 E0.01435
G1 X104.472 Y89.753 E0.00824
G1 X104.708 Y89.185 E0.01932
G1 X104.800 Y89.010 E0.00620
G1 X104.902 Y88.848 E0.00597
G1 X105.167 Y88.516 E0.01333
G1 X105.294 Y88.390 E0.00562
G1 X105.620 Y88.134 E0.01299
G1 X105.975 Y87.932 E0.01281
G1 X106.146 Y87.860 E0.00581
G1 X106.542 Y87.743 E0.01296
G1 X106.941 Y87.689 E0.01263
G1 X107.357 Y87.697 E0.01304
G1 X107.742 Y87.746 E0.01214
G1 X108.112 Y87.723 E0.01163
G1 X108.988 Y87.413 E0.02914
G1 X109.560 Y87.272 E0.01847
G1 X109.828 Y87.230 E0.00851
G1 X110.419 Y87.188 E0.01859
G1 X110.941 Y87.218 E0.01638
G1 X110.979 Y86.843 F10800.000
;TYPE:External perimeter
G1 F1200.000
G1 X111.365 Y86.883 E0.01217
G1 X112.014 Y86.816 E0.02047
G1 X112.629 Y86.824 E0.01926
G1 X112.939 Y86.854 E0.00977
G1 X113.553 Y86.969 E0.01960
G1 X113.848 Y87.050 E0.00957
G1 X114.694 Y87.350 E0.02816
G1 X114.974 Y87.367 E0.00877
G1 X115.580 Y87.307 E0.01912
G1 X116.040 Y87.334 E0.01442
G1 X116.490 Y87.430 E0.01444
G1 X116.924 Y87.594 E0.01456
G1 X117.122 Y87.697 E0.00697
G1 X117.511 Y87.958 E0.01469
G1 X117.680 Y88.102 E0.00697
G1 X117.997 Y88.441 E0.01456
G1 X118.259 Y88.825 E0.01456
G1 X118.363 Y89.024 E0.00705
G1 X118.596 Y89.584 E0.01902
G1 X118.700 Y89.759 E0.00637
G1 X118.824 Y89.926 E0.00653
G1 X119.097 Y90.200 E0.01213
G1 X119.428 Y90.420 E0.01244
G1 X119.790 Y90.568 E0.01228
G1 X119.989 Y90.616 E0.00641
G1 X120.669 Y90.708 E0.02151
G1 X120.899 Y90.762 E0.00742
