; generated by Slic3r Prusa Edition 1.40.1+ on 2018-11-02 at 13:17:09

; 

; external perimeters extrusion width = 0.45mm
; perimeters extrusion width = 0.45mm
; infill extrusion width = 0.45mm
; solid infill extrusion width = 0.45mm
; top infill extrusion width = 0.40mm
; support material extrusion width = 0.35mm

M107
M115 U3.1.0 ; tell printer latest fw version
M201 X9000 Y9000 Z500 E10000 ; sets maximum accelerations, mm/sec^2
M203 X500 Y500 Z12 E120 ; sets maximum feedrates, mm/sec
M204 S1500 T1500 ; sets acceleration (S) and retract acceleration (T)
M205 X10 Y10 Z0.2 E2.5 ; sets the jerk limits, mm/sec
M205 S0 T0 ; sets the minimum extruding and travel feed rate, mm/sec
M83  ; extruder relative mode
M104 S215 ; set extruder temp
M140 S60 ; set bed temp
M190 S60 ; wait for bed temp
M109 S215 ; wait for extruder temp
G28 W ; home all without mesh bed level
G80 ; mesh bed leveling
G1 Y-3.0 F1000.0 ; go outside print area
G92 E0.0
G1 X60.0 E9.0  F1000.0 ; intro line
G1 X100.0 E12.5  F1000.0 ; intro line
G92 E0.0
M900 K30; Filament gcode
G21 ; set units to millimeters
G90 ; use absolute coordinates
M83 ; use relative distances for extrusion
;BEFORE_LAYER_CHANGE
G92 E0.0
;0.2


G1 E-0.80000 F2100.00000
G1 Z0.600 F10800.000
;AFTER_LAYER_CHANGE
;0.2
G1 X122.118 Y105.436
G1 Z0.200
G1 E0.80000 F2100.00000
M204 S1000
G1 F900
G1 X122.087 Y105.640 E0.00790
G1
G1 X122.057 Y105.845 E0.00744
G1
G1 X122.053 Y105.885 E0.00133
G1
G1 X122.039 Y106.163 E0.00923
G1
G1 X122.026 Y106.442 E0.00859
G1
G1 X122.053 Y107.033 E0.01687
G1 X122.087 Y107.277 E0.00703
G1
G1 X122.118 Y107.482 E0.00790
G1 F8640
G1 X122.087 Y107.277 E-0.04777
G1 E-0.75223 F2100.00000
G1 Z0.800 F10800.000
G1 X121.773 Y108.508
G1 Z0.200
G1 E0.80000 F2100.00000
G1 F900
G1 X122.105 Y108.840 E0.01907
G1 X122.796 Y108.840 E0.02806
G1 X121.956 Y108.001 E0.04823
G1 X121.956 Y107.814 E0.00758
G1 X122.395 Y107.749 E0.01803
G1 X123.161 Y108.515 E0.04403
G1 X123.205 Y108.645 F10800.000
G1 F900
G1 X123.315 Y108.755 E0.00106
G1
G1 X123.425 Y108.865 E0.00142
G1
G1 X123.518 Y108.942 E0.00120
G1 X124.348 Y109.088 F10800.000
G1 F900
G1 X125.062 Y109.120 E0.02720
G1
G1 X125.731 Y109.088 E0.02779
G1 X126.561 Y108.942 F10800.000
G1 F900
G1 X126.874 Y108.645 E0.00294
G1 X127.756 Y109.024 F10800.000
G1 F900
G1 X127.191 Y108.458 E0.03248
G1 X127.499 Y108.076 E0.01996
G1 X128.227 Y108.804 E0.04184
G1 F8640
G1 X127.499 Y108.076 E-0.23786
G1 X127.191 Y108.458 E-0.11344
G1 X127.756 Y109.024 E-0.18467
G1 E-0.26404 F2100.00000
G1 Z0.800 F10800.000
G1 X127.898 Y107.633
G1 Z0.200
G1 E0.80000 F2100.00000
G1 F900
G1 X127.927 Y107.442 E0.00692
G1
G1 X127.955 Y107.251 E0.00635
G1
G1 X127.983 Y107.060 E0.00578
G1
G1 X128.000 Y106.750 E0.00839
G1
G1 X128.014 Y106.472 E0.00676
G1
G1 X127.983 Y105.857 E0.01350
G1
G1 X127.898 Y105.284 E0.01735
G1 F8640
G1 X127.983 Y105.857 E-0.13371
G1 E-0.66629 F2100.00000
G1 Z0.800 F10800.000
G1 X128.227 Y101.837
G1 Z0.200
G1 E0.80000 F2100.00000
G1 F900
G1 X127.550 Y101.160 E0.03387
G1 X126.949 Y101.160 E0.02124
G1 X128.044 Y102.255 E0.05474
G1 X128.044 Y102.856 E0.02124
G1 X126.348 Y101.160 E0.08478
G1 X125.747 Y101.160 E0.02124
G1 X128.044 Y103.457 E0.11481
G1 X128.044 Y104.058 E0.02124
G1 X125.146 Y101.160 E0.14485
G1 X124.545 Y101.160 E0.02124
G1 X128.044 Y104.659 E0.17488
G1 X128.044 Y104.954 E0.01041
G1 X127.777 Y104.993 E0.00953
G1 X123.944 Y101.160 E0.19159
G1 X123.343 Y101.160 E0.02124
G1 X125.813 Y103.630 E0.12347
G1 X125.613 Y103.570 E0.00739
G1 X125.102 Y103.520 E0.01814
G1 X122.742 Y101.160 E0.11797
G1 X122.141 Y101.160 E0.02124
G1 X124.543 Y103.562 E0.12007
G1 X124.464 Y103.570 E0.00280
G1 X124.070 Y103.690 E0.01457
G1 X121.956 Y101.576 E0.10564
G1 X121.956 Y102.177 E0.02124
G1 X123.654 Y103.875 E0.08488
G1 X123.403 Y104.010 E0.01007
G1 X123.285 Y104.107 E0.00541
G1 X121.956 Y102.778 E0.06641
G1 X121.956 Y103.379 E0.02124
G1 X122.955 Y104.378 E0.04993
G1 X122.684 Y104.708 E0.01509
G1 X121.956 Y103.980 E0.03639
G1 X121.956 Y104.581 E0.02124
G1 X122.589 Y105.214 E0.03163
G1 X122.980 Y105.605 F10800.000
G1 F900
G1 X123.186 Y105.220 E0.01479
G1 X123.463 Y104.882 E0.01479
G1 X123.801 Y104.605 E0.01479
G1 X124.186 Y104.399 E0.01479
G1 X124.604 Y104.272 E0.01479
G1 X125.034 Y104.229 E0.01460
G1 X125.474 Y104.272 E0.01498
G1 X125.893 Y104.399 E0.01480
G1 X126.278 Y104.605 E0.01479
G1 X126.616 Y104.882 E0.01479
G1 X126.893 Y105.220 E0.01479
G1 X127.099 Y105.605 E0.01479
G1 X127.226 Y106.024 E0.01479
G1 X127.269 Y106.459 E0.01479
G1 X127.226 Y106.894 E0.01479
G1 X127.099 Y107.312 E0.01479
G1 X126.893 Y107.697 E0.01479
G1 X126.616 Y108.035 E0.01479
G1 X126.278 Y108.312 E0.01479
G1 X125.893 Y108.519 E0.01479
G1 X125.474 Y108.645 E0.01479
G1 X125.039 Y108.688 E0.01479
G1 X124.605 Y108.645 E0.01479
G1 X124.186 Y108.519 E0.01479
G1 X123.801 Y108.312 E0.01479
G1 X123.463 Y108.035 E0.01479
G1 X123.186 Y107.697 E0.01479
G1 X122.980 Y107.312 E0.01479
G1 X122.853 Y106.894 E0.01479
G1 X122.810 Y106.459 E0.01479
G1 X122.853 Y106.024 E0.01479
G1 X122.962 Y105.663 E0.01276
G1 X122.736 Y105.288 F10800.000
G1 F8640
G1 X123.186 Y105.220 E-0.11454
G1 X123.463 Y104.882 E-0.10092
G1 X123.801 Y104.605 E-0.10092
G1 X124.186 Y104.399 E-0.10092
G1 X124.604 Y104.272 E-0.10090
G1 X125.034 Y104.229 E-0.09961
G1 X125.474 Y104.272 E-0.10220
G1 X125.640 Y104.322 E-0.04000
G1 E-0.04000 F2100.00000
G1 Z0.800 F10800.000
G1 X124.164 Y108.937
G1 Z0.200
G1 E0.80000 F2100.00000
G1 F900
G1 X124.133 Y109.146 E0.00713
G1 X121.651 Y109.146 E0.08404
G1 X121.651 Y100.854 E0.28065
G1 X128.349 Y100.854 E0.22674
G1 X128.349 Y109.146 E0.28065
G1 X125.946 Y109.146 E0.08137
G1 X125.915 Y108.937 E0.00713
G1 X126.049 Y108.896 E0.00476
G1 X126.505 Y108.653 E0.01751
G1 X126.905 Y108.324 E0.01751
G1 X127.233 Y107.925 E0.01751
G1 X127.477 Y107.468 E0.01751
G1 X127.627 Y106.973 E0.01751
G1 X127.678 Y106.459 E0.01751
G1 X127.627 Y105.944 E0.01751
G1 X127.477 Y105.449 E0.01751
G1 X127.233 Y104.993 E0.01751
G1 X126.905 Y104.593 E0.01751
G1 X126.505 Y104.265 E0.01751
G1 X126.049 Y104.021 E0.01751
G1 X125.554 Y103.871 E0.01753
G1 X125.033 Y103.820 E0.01770
G1 X124.524 Y103.871 E0.01730
G1 X124.030 Y104.021 E0.01750
G1 X123.574 Y104.265 E0.01751
G1 X123.174 Y104.593 E0.01751
G1 X122.846 Y104.993 E0.01751
G1 X122.602 Y105.449 E0.01751
G1 X122.452 Y105.944 E0.01751
G1 X122.401 Y106.459 E0.01751
G1 X122.452 Y106.973 E0.01751
G1 X122.602 Y107.468 E0.01751
G1 X122.846 Y107.925 E0.01751
G1 X123.174 Y108.324 E0.01751
G1 X123.574 Y108.653 E0.01751
G1 X124.030 Y108.896 E0.01751
G1 X124.107 Y108.920 E0.00273
G1 F8640
G1 X124.133 Y109.146 E-0.05250
G1 X121.651 Y109.146 E-0.57328
G1 X121.651 Y108.564 E-0.13421
G1 E-0.04000 F2100.00000
G1 Z0.800 F10800.000
G1 X121.244 Y109.553
G1 Z0.200
G1 E0.80000 F2100.00000
G1 F900
G1 X121.244 Y100.447 E0.30821
G1 X128.756 Y100.447 E0.25430
G1 X128.756 Y109.553 E0.30821
G1 X121.304 Y109.553 E0.25227
G1 X121.335 Y109.163 F10800.000
M106 S255
;BEFORE_LAYER_CHANGE
G92 E0.0
;0.4


G1 F8640
G1 X121.282 Y106.261 E-0.76000
G1 E-0.04000 F2100.00000
G1 Z0.800 F10800.000
;AFTER_LAYER_CHANGE
;0.4
M104 S210 ; set temperature
G1 X122.126 Y109.024
G1 Z0.400
G1 E0.80000 F2100.00000
M204 S2000
G1 F900
G1 X122.800 Y108.350 E0.03870
G1 X122.590 Y108.095 E0.01339
G1 X122.511 Y107.947 E0.00681
G1 X121.773 Y108.686 E0.04243
M204 S1000
G1 X122.118 Y107.482 F10800.000
G1 F900
G1 X122.087 Y107.277 E0.00790
G1
G1 X122.053 Y107.033 E0.00703
G1 X122.026 Y106.442 E0.01687
G1
G1 X122.039 Y106.163 E0.00859
G1
G1 X122.053 Y105.885 E0.00923
G1
G1 X122.057 Y105.845 E0.00133
G1
G1 X122.087 Y105.640 E0.00744
G1
G1 X122.118 Y105.436 E0.00790
G1 X123.205 Y108.645 F10800.000
G1 F900
G1 X123.315 Y108.755 E0.00106
G1
G1 X123.425 Y108.865 E0.00142
G1
G1 X123.518 Y108.942 E0.00120
G1 X124.348 Y109.088 F10800.000
G1 F900
G1 X125.062 Y109.120 E0.02720
G1
G1 X125.731 Y109.088 E0.02779
G1 X126.561 Y108.942 F10800.000
G1 F900
G1 X126.874 Y108.645 E0.00294
G1 X126.983 Y108.581 F10800.000
M204 S2000
G1 F900
G1 X127.658 Y107.906 E0.03877
G1 X128.044 Y107.964 E0.01585
G1 X128.044 Y108.211 E0.01006
G1 X127.232 Y109.024 E0.04667
M204 S1000
G1 X127.898 Y107.633 F10800.000
G1 F900
G1 X127.927 Y107.442 E0.00692
G1
G1 X127.955 Y107.251 E0.00635
G1
G1 X127.983 Y107.060 E0.00578
G1
G1 X128.000 Y106.750 E0.00839
G1
G1 X128.014 Y106.472 E0.00676
G1
G1 X127.983 Y105.857 E0.01350
G1
G1 X127.898 Y105.284 E0.01735
G1 X127.415 Y105.073 F10800.000
M204 S2000
G1 F900
G1 X128.044 Y104.444 E0.03101
G1 X128.044 Y103.851 E0.02065
G1 X127.301 Y104.594 E0.03661
G1 X127.122 Y104.376 E0.00983
G1 X127.015 Y104.288 E0.00484
G1 X128.044 Y103.258 E0.05073
G1 X128.044 Y102.666 E0.02065
G1 X126.689 Y104.021 E0.06677
G1 X126.305 Y103.812 E0.01523
G1 X128.044 Y102.073 E0.08569
G1 X128.044 Y101.480 E0.02065
G1 X125.875 Y103.649 E0.10688
G1 X125.612 Y103.569 E0.00960
G1 X125.384 Y103.548 E0.00798
G1 X127.772 Y101.160 E0.11770
G1 X127.179 Y101.160 E0.02065
G1 X124.803 Y103.536 E0.11711
G1 X124.464 Y103.570 E0.01189
G1 X124.051 Y103.696 E0.01503
G1 X126.587 Y101.160 E0.12498
G1 X125.994 Y101.160 E0.02065
G1 X122.038 Y105.115 E0.19495
G1 X121.956 Y105.103 E0.00290
G1 X121.956 Y104.605 E0.01736
G1 X125.401 Y101.160 E0.16980
G1 X124.809 Y101.160 E0.02065
G1 X121.956 Y104.012 E0.14059
G1 X121.956 Y103.420 E0.02065
G1 X124.216 Y101.160 E0.11138
G1 X123.623 Y101.160 E0.02065
G1 X121.956 Y102.827 E0.08217
G1 X121.956 Y102.234 E0.02065
G1 X123.031 Y101.160 E0.05296
G1 X122.438 Y101.160 E0.02065
G1 X121.773 Y101.825 E0.03278
M204 S1000
G1 X123.186 Y107.697 F10800.000
M204 S800
G1 F900
G1 X122.980 Y107.312 E0.01479
G1 X122.853 Y106.894 E0.01479
G1 X122.810 Y106.459 E0.01479
G1 X122.853 Y106.024 E0.01479
G1 X122.980 Y105.605 E0.01479
G1 X123.186 Y105.220 E0.01479
G1 X123.463 Y104.882 E0.01479
G1 X123.801 Y104.605 E0.01479
G1 X124.186 Y104.399 E0.01479
G1 X124.604 Y104.272 E0.01478
G1 X125.022 Y104.230 E0.01422
G1 X125.474 Y104.272 E0.01536
G1 X125.893 Y104.399 E0.01481
G1 X126.278 Y104.605 E0.01479
G1 X126.616 Y104.882 E0.01479
G1 X126.893 Y105.220 E0.01479
G1 X127.099 Y105.605 E0.01479
G1 X127.226 Y106.024 E0.01479
G1 X127.269 Y106.459 E0.01479
G1 X127.226 Y106.894 E0.01479
G1 X127.099 Y107.312 E0.01479
G1 X126.893 Y107.697 E0.01479
G1 X126.616 Y108.035 E0.01479
G1 X126.278 Y108.312 E0.01479
G1 X125.893 Y108.519 E0.01479
G1 X125.474 Y108.645 E0.01479
G1 X125.039 Y108.688 E0.01479
G1 X124.605 Y108.645 E0.01479
G1 X124.186 Y108.519 E0.01479
G1 X123.801 Y108.312 E0.01479
G1 X123.463 Y108.035 E0.01479
G1 X123.224 Y107.744 E0.01276
M204 S1000
G1 X122.787 Y107.724 F10800.000
G1 X124.164 Y108.937
M204 S800
G1 F900
G1 X124.133 Y109.146 E0.00713
G1 X121.651 Y109.146 E0.08404
G1 X121.651 Y100.854 E0.28065
G1 X128.349 Y100.854 E0.22674
G1 X128.349 Y109.146 E0.28065
G1 X125.946 Y109.146 E0.08137
G1 X125.915 Y108.937 E0.00713
G1 X126.049 Y108.896 E0.00476
G1 X126.505 Y108.653 E0.01751
G1 X126.905 Y108.324 E0.01751
G1 X127.233 Y107.925 E0.01751
G1 X127.477 Y107.468 E0.01751
G1 X127.627 Y106.973 E0.01751
G1 X127.678 Y106.459 E0.01751
G1 X127.627 Y105.944 E0.01751
G1 X127.477 Y105.449 E0.01751
G1 X127.233 Y104.993 E0.01751
G1 X126.905 Y104.593 E0.01751
G1 X126.505 Y104.265 E0.01751
G1 X126.049 Y104.021 E0.01751
G1 X125.553 Y103.870 E0.01757
G1 X125.020 Y103.821 E0.01809
G1 X124.524 Y103.871 E0.01690
G1 X124.030 Y104.021 E0.01748
G1 X123.574 Y104.265 E0.01751
G1 X123.174 Y104.593 E0.01751
G1 X122.846 Y104.993 E0.01751
G1 X122.602 Y105.449 E0.01751
G1 X122.452 Y105.944 E0.01751
G1 X122.401 Y106.459 E0.01751
G1 X122.452 Y106.973 E0.01751
G1 X122.602 Y107.468 E0.01751
G1 X122.846 Y107.925 E0.01751
G1 X123.174 Y108.324 E0.01751
G1 X123.574 Y108.653 E0.01751
G1 X124.030 Y108.896 E0.01751
G1 X124.107 Y108.920 E0.00273
M204 S1000
G1 X121.244 Y109.553 F10800.000
M204 S800
G1 F900
G1 X121.244 Y100.447 E0.30821
G1 X128.756 Y100.447 E0.25430
G1 X128.756 Y109.553 E0.30821
G1 X121.304 Y109.553 E0.25227
M204 S1000
G1 X121.335 Y109.163 F10800.000
;BEFORE_LAYER_CHANGE
G92 E0.0
;0.6


G1 F8640
G1 X121.282 Y106.261 E-0.76000
G1 E-0.04000 F2100.00000
G1 Z1.000 F10800.000
;AFTER_LAYER_CHANGE
;0.6
G1 X121.773 Y108.508
G1 Z0.600
G1 E0.80000 F2100.00000
M204 S2000
G1 F900
G1 X122.105 Y108.840 E0.01907
G1 X122.796 Y108.840 E0.02806
G1 X121.956 Y108.001 E0.04823
G1 X121.956 Y107.814 E0.00758
G1 X122.395 Y107.749 E0.01803
G1 X123.161 Y108.515 E0.04403
M204 S1000
G1 X123.205 Y108.645 F10800.000
G1 F900
G1 X123.315 Y108.755 E0.00106
G1
G1 X123.425 Y108.865 E0.00142
G1
G1 X123.518 Y108.942 E0.00120
G1 X124.348 Y109.088 F10800.000
G1 F900
G1 X125.062 Y109.120 E0.02720
G1
G1 X125.731 Y109.088 E0.02779
G1 X126.561 Y108.942 F10800.000
G1 F900
G1 X126.874 Y108.645 E0.00294
G1 X127.884 Y109.024 F10800.000
M204 S2000
G1 F900
G1 X127.248 Y108.388 E0.03381
G1 X127.488 Y108.095 E0.01424
G1 X127.526 Y108.026 E0.00296
G1 X128.227 Y108.727 E0.03732
M204 S1000
G1 X127.898 Y107.633 F10800.000
G1 F900
G1 X127.927 Y107.442 E0.00692
G1
G1 X127.955 Y107.251 E0.00635
G1
G1 X127.983 Y107.060 E0.00578
G1
G1 X128.000 Y106.750 E0.00839
G1
G1 X128.014 Y106.472 E0.00676
G1
G1 X127.983 Y105.857 E0.01350
G1
G1 X127.898 Y105.284 E0.01735
G1 X128.227 Y101.837 F10800.000
M204 S2000
G1 F900
G1 X127.550 Y101.160 E0.03387
G1 X126.949 Y101.160 E0.02124
G1 X128.044 Y102.255 E0.05474
G1 X128.044 Y102.856 E0.02124
G1 X126.348 Y101.160 E0.08478
G1 X125.747 Y101.160 E0.02124
G1 X128.044 Y103.457 E0.11481
G1 X128.044 Y104.058 E0.02124
G1 X125.146 Y101.160 E0.14484
G1 X124.545 Y101.160 E0.02124
G1 X128.044 Y104.659 E0.17488
G1 X128.044 Y104.954 E0.01041
G1 X127.777 Y104.993 E0.00953
G1 X123.944 Y101.160 E0.19158
G1 X123.343 Y101.160 E0.02124
G1 X125.813 Y103.630 E0.12347
G1 X125.610 Y103.569 E0.00750
G1 X125.105 Y103.523 E0.01791
G1 X122.742 Y101.160 E0.11812
G1 X122.141 Y101.160 E0.02124
G1 X124.543 Y103.562 E0.12007
G1 X124.463 Y103.571 E0.00286
G1 X124.070 Y103.690 E0.01451
G1 X121.956 Y101.576 E0.10564
G1 X121.956 Y102.177 E0.02124
G1 X123.654 Y103.875 E0.08488
G1 X123.403 Y104.010 E0.01007
G1 X123.285 Y104.107 E0.00541
G1 X121.956 Y102.778 E0.06641
G1 X121.956 Y103.379 E0.02124
G1 X122.955 Y104.378 E0.04993
G1 X122.684 Y104.708 E0.01509
G1 X121.956 Y103.980 E0.03639
G1 X121.956 Y104.581 E0.02124
G1 X122.589 Y105.214 E0.03163
M204 S1000
G1 X122.118 Y105.436 F10800.000
G1 F900
G1 X122.087 Y105.640 E0.00790
G1
G1 X122.057 Y105.845 E0.00744
G1
G1 X122.053 Y105.885 E0.00133
G1
G1 X122.039 Y106.163 E0.00923
G1
G1 X122.026 Y106.442 E0.00859
G1
G1 X122.053 Y107.033 E0.01687
G1 X122.087 Y107.277 E0.00703
G1
G1 X122.118 Y107.482 E0.00790
G1 X123.186 Y107.697 F10800.000
M204 S800
G1 F900
G1 X122.980 Y107.312 E0.01479
G1 X122.853 Y106.894 E0.01479
G1 X122.810 Y106.459 E0.01479
G1 X122.853 Y106.024 E0.01479
G1 X122.980 Y105.605 E0.01479
G1 X123.186 Y105.220 E0.01479
G1 X123.463 Y104.882 E0.01479
G1 X123.801 Y104.605 E0.01479
G1 X124.186 Y104.399 E0.01479
G1 X124.604 Y104.272 E0.01478
G1 X125.011 Y104.230 E0.01383
G1 X125.474 Y104.272 E0.01573
G1 X125.893 Y104.399 E0.01483
G1 X126.278 Y104.605 E0.01479
G1 X126.616 Y104.882 E0.01479
G1 X126.893 Y105.220 E0.01479
G1 X127.099 Y105.605 E0.01479
G1 X127.226 Y106.024 E0.01479
G1 X127.269 Y106.459 E0.01479
G1 X127.226 Y106.894 E0.01479
G1 X127.099 Y107.312 E0.01479
G1 X126.893 Y107.697 E0.01479
G1 X126.616 Y108.035 E0.01479
G1 X126.278 Y108.312 E0.01479
G1 X125.893 Y108.519 E0.01479
G1 X125.474 Y108.645 E0.01479
G1 X125.039 Y108.688 E0.01479
G1 X124.605 Y108.645 E0.01479
G1 X124.186 Y108.519 E0.01479
G1 X123.801 Y108.312 E0.01479
G1 X123.463 Y108.035 E0.01479
G1 X123.224 Y107.744 E0.01276
M204 S1000
G1 X122.787 Y107.724 F10800.000
G1 X124.164 Y108.937
M204 S800
G1 F900
G1 X124.133 Y109.146 E0.00713
G1 X121.651 Y109.146 E0.08404
G1 X121.651 Y100.854 E0.28065
G1 X128.349 Y100.854 E0.22674
G1 X128.349 Y109.146 E0.28065
G1 X125.946 Y109.146 E0.08137
G1 X125.915 Y108.937 E0.00713
G1 X126.049 Y108.896 E0.00476
G1 X126.505 Y108.653 E0.01751
G1 X126.905 Y108.324 E0.01751
G1 X127.233 Y107.925 E0.01751
G1 X127.477 Y107.468 E0.01751
G1 X127.627 Y106.973 E0.01751
G1 X127.678 Y106.459 E0.01751
G1 X127.627 Y105.944 E0.01751
