; generated by PrusaSlicer 2.2.0+win64 on 2020-10-09 at 18:03:10 UTC

; 

; external perimeters extrusion width = 0.45mm
; perimeters extrusion width = 0.45mm
; infill extrusion width = 0.45mm
; solid infill extrusion width = 0.45mm
; top infill extrusion width = 0.40mm
; first layer extrusion width = 0.42mm

M73 P0 R69
M73 Q0 S69
M201 X1000 Y1000 Z1000 E5000 ; sets maximum accelerations, mm/sec^2
M203 X200 Y200 Z12 E120 ; sets maximum feedrates, mm/sec
M204 P1250 R1250 T1250 ; sets acceleration (P, T) and retract acceleration (R), mm/sec^2
M205 X8.00 Y8.00 Z0.40 E1.50 ; sets the jerk limits, mm/sec
M205 S0 T0 ; sets the minimum extruding and travel feed rate, mm/sec
M107
M862.3 P "MK3S" ; printer model check
M862.1 P0.4 ; nozzle diameter check
M115 U3.8.0 ; tell printer latest fw version
G90 ; use absolute coordinates
M83 ; extruder relative mode
M104 S215 ; set extruder temp
M140 S60 ; set bed temp
M190 S60 ; wait for bed temp
M109 S215 ; wait for extruder temp
G28 W ; home all without mesh bed level
G80 ; mesh bed leveling
G1 Y-3.0 F1000.0 ; go outside print area
G92 E0.0
G1 X60.0 E9.0 F1000.0 ; intro line
M73 Q0 S69
M73 P0 R69
G1 X100.0 E12.5 F1000.0 ; intro line
G92 E0.0
M221 S95
G21 ; set units to millimeters
G90 ; use absolute coordinates
M83 ; use relative distances for extrusion
M900 K0.06 ; Filament gcode LA 1.5
M900 K30 ; Filament gcode LA 1.0
;BEFORE_LAYER_CHANGE
G92 E0.0
;0.2


G1 E-0.80000 F2100.00000
G1 Z0.600 F10800.000
;AFTER_LAYER_CHANGE
;0.2
G1 X65.197 Y92.609
G1 Z0.200
G1 E0.80000 F2100.00000
M204 S1000
G1 F1200.000
G1 X71.310 Y92.609 E0.19168
G1 X71.310 Y117.391 E0.77700
G1 X59.083 Y117.391 E0.38336
G1 X59.083 Y92.609 E0.77700
G1 X65.137 Y92.609 E0.18980
G1 E-0.80000 F2100.00000
G1 Z0.800 F10800.000
G1 X65.197 Y117.768
G1 Z0.200
G1 E0.80000 F2100.00000
G1 F1200.000
G1 X58.706 Y117.768 E0.20350
G1 X58.706 Y92.232 E0.80064
G1 X71.687 Y92.232 E0.40700
G1 X71.687 Y117.768 E0.80064
G1 X65.257 Y117.768 E0.20162
G1 X64.868 Y117.540 F10800.000
G1 E-0.80000 F2100.00000
G1 Z0.800 F10800.000
G1 X71.197 Y93.493
G1 Z0.200
G1 E0.80000 F2100.00000
G1 F1200.000
G1 X70.596 Y92.892 E0.02691
G1 X70.057 Y92.892 E0.01706
G1 X71.027 Y93.862 E0.04344
G1 X71.027 Y94.401 E0.01706
G1 X69.519 Y92.892 E0.06756
G1 X68.980 Y92.892 E0.01706
G1 X71.027 Y94.939 E0.09169
G1 X71.027 Y95.478 E0.01706
G1 X68.441 Y92.892 E0.11582
G1 X67.903 Y92.892 E0.01706
G1 X71.027 Y96.017 E0.13995
G1 X71.027 Y96.555 E0.01706
G1 X67.364 Y92.892 E0.16408
G1 X66.825 Y92.892 E0.01706
G1 X71.027 Y97.094 E0.18821
G1 X71.027 Y97.633 E0.01706
G1 X66.287 Y92.892 E0.21234
G1 X65.748 Y92.892 E0.01706
G1 X71.027 Y98.171 E0.23647
G1 X71.027 Y98.710 E0.01706
G1 X65.209 Y92.892 E0.26060
G1 X64.671 Y92.892 E0.01706
G1 X71.027 Y99.249 E0.28473
G1 X71.027 Y99.787 E0.01706
G1 X64.132 Y92.892 E0.30885
G1 X63.593 Y92.892 E0.01706
G1 X71.027 Y100.326 E0.33298
G1 X71.027 Y100.865 E0.01706
G1 X63.054 Y92.892 E0.35711
G1 X62.516 Y92.892 E0.01706
G1 X71.027 Y101.404 E0.38124
G1 X71.027 Y101.942 E0.01706
G1 X61.977 Y92.892 E0.40537
G1 X61.438 Y92.892 E0.01706
G1 X71.027 Y102.481 E0.42950
G1 X71.027 Y103.020 E0.01706
G1 X60.900 Y92.892 E0.45363
G1 X60.361 Y92.892 E0.01706
G1 X71.027 Y103.558 E0.47776
G1 X71.027 Y104.097 E0.01706
G1 X59.822 Y92.892 E0.50189
G1 X59.366 Y92.892 E0.01445
G1 X59.366 Y92.975 E0.00261
G1 X71.027 Y104.636 E0.52232
G1 X71.027 Y105.174 E0.01706
G1 X59.366 Y93.513 E0.52232
G1 X59.366 Y94.052 E0.01706
G1 X71.027 Y105.713 E0.52232
G1 X71.027 Y106.252 E0.01706
G1 X59.366 Y94.591 E0.52232
G1 X59.366 Y95.129 E0.01706
G1 X71.027 Y106.790 E0.52232
G1 X71.027 Y107.329 E0.01706
G1 X59.366 Y95.668 E0.52232
G1 X59.366 Y96.207 E0.01706
G1 X71.027 Y107.868 E0.52232
G1 X71.027 Y108.406 E0.01706
G1 X59.366 Y96.745 E0.52232
G1 X59.366 Y97.284 E0.01706
G1 X71.027 Y108.945 E0.52232
G1 X71.027 Y109.484 E0.01706
G1 X59.366 Y97.823 E0.52232
G1 X59.366 Y98.361 E0.01706
G1 X71.027 Y110.023 E0.52232
G1 X71.027 Y110.561 E0.01706
G1 X59.366 Y98.900 E0.52232
G1 X59.366 Y99.439 E0.01706
G1 X71.027 Y111.100 E0.52232
G1 X71.027 Y111.639 E0.01706
G1 X59.366 Y99.978 E0.52232
G1 X59.366 Y100.516 E0.01706
G1 X71.027 Y112.177 E0.52232
G1 X71.027 Y112.716 E0.01706
G1 X59.366 Y101.055 E0.52232
G1 X59.366 Y101.594 E0.01706
G1 X71.027 Y113.255 E0.52232
G1 X71.027 Y113.793 E0.01706
G1 X59.366 Y102.132 E0.52232
G1 X59.366 Y102.671 E0.01706
G1 X71.027 Y114.332 E0.52232
G1 X71.027 Y114.871 E0.01706
G1 X59.366 Y103.210 E0.52232
G1 X59.366 Y103.748 E0.01706
G1 X71.027 Y115.409 E0.52232
G1 X71.027 Y115.948 E0.01706
G1 X59.366 Y104.287 E0.52232
G1 X59.366 Y104.826 E0.01706
G1 X71.027 Y116.487 E0.52232
G1 X71.027 Y117.025 E0.01706
G1 X59.366 Y105.364 E0.52232
G1 X59.366 Y105.903 E0.01706
G1 X70.571 Y117.108 E0.50188
G1 X70.032 Y117.108 E0.01706
G1 X59.366 Y106.442 E0.47775
G1 X59.366 Y106.980 E0.01706
G1 X69.493 Y117.108 E0.45362
G1 X68.955 Y117.108 E0.01706
G1 X59.366 Y107.519 E0.42949
G1 X59.366 Y108.058 E0.01706
G1 X68.416 Y117.108 E0.40537
G1 X67.877 Y117.108 E0.01706
G1 X59.366 Y108.597 E0.38124
G1 X59.366 Y109.135 E0.01706
G1 X67.339 Y117.108 E0.35711
G1 X66.800 Y117.108 E0.01706
G1 X59.366 Y109.674 E0.33298
G1 X59.366 Y110.213 E0.01706
G1 X66.261 Y117.108 E0.30885
G1 X65.723 Y117.108 E0.01706
G1 X59.366 Y110.751 E0.28472
G1 X59.366 Y111.290 E0.01706
G1 X65.184 Y117.108 E0.26059
G1 X64.645 Y117.108 E0.01706
G1 X59.366 Y111.829 E0.23646
G1 X59.366 Y112.367 E0.01706
G1 X64.107 Y117.108 E0.21233
G1 X63.568 Y117.108 E0.01706
G1 X59.366 Y112.906 E0.18821
G1 X59.366 Y113.445 E0.01706
G1 X63.029 Y117.108 E0.16408
G1 X62.490 Y117.108 E0.01706
G1 X59.366 Y113.983 E0.13995
G1 X59.366 Y114.522 E0.01706
G1 X61.952 Y117.108 E0.11582
G1 X61.413 Y117.108 E0.01706
G1 X59.366 Y115.061 E0.09169
G1 X59.366 Y115.599 E0.01706
G1 X60.874 Y117.108 E0.06756
G1 X60.336 Y117.108 E0.01706
G1 X59.366 Y116.138 E0.04343
G1 X59.366 Y116.677 E0.01706
G1 X59.967 Y117.277 E0.02690
G1 E-0.80000 F2100.00000
G1 Z0.800 F10800.000
G1 X65.197 Y85.435
G1 Z0.200
G1 E0.80000 F2100.00000
G1 F1200.000
G1 X59.083 Y85.435 E0.19168
G1 X59.083 Y60.654 E0.77700
G1 X71.310 Y60.654 E0.38336
G1 X71.310 Y85.435 E0.77700
G1 X65.257 Y85.435 E0.18980
G1 X65.197 Y85.812 F10800.000
G1 F1200.000
G1 X58.706 Y85.812 E0.20350
G1 X58.706 Y60.277 E0.80064
G1 X71.687 Y60.277 E0.40700
G1 X71.687 Y85.812 E0.80064
M73 Q1 S68
G1 X65.257 Y85.812 E0.20162
G1 X64.868 Y85.584 F10800.000
G1 E-0.80000 F2100.00000
G1 Z0.800 F10800.000
G1 X71.197 Y61.538
G1 Z0.200
G1 E0.80000 F2100.00000
M73 P1 R68
G1 F1200.000
G1 X70.596 Y60.937 E0.02691
G1 X70.057 Y60.937 E0.01706
G1 X71.027 Y61.907 E0.04344
G1 X71.027 Y62.445 E0.01706
G1 X69.519 Y60.937 E0.06756
G1 X68.980 Y60.937 E0.01706
G1 X71.027 Y62.984 E0.09169
G1 X71.027 Y63.523 E0.01706
G1 X68.441 Y60.937 E0.11582
G1 X67.903 Y60.937 E0.01706
G1 X71.027 Y64.061 E0.13995
G1 X71.027 Y64.600 E0.01706
G1 X67.364 Y60.937 E0.16408
G1 X66.825 Y60.937 E0.01706
G1 X71.027 Y65.139 E0.18821
G1 X71.027 Y65.677 E0.01706
G1 X66.287 Y60.937 E0.21234
G1 X65.748 Y60.937 E0.01706
G1 X71.027 Y66.216 E0.23647
G1 X71.027 Y66.755 E0.01706
G1 X65.209 Y60.937 E0.26060
G1 X64.671 Y60.937 E0.01706
G1 X71.027 Y67.293 E0.28473
G1 X71.027 Y67.832 E0.01706
G1 X64.132 Y60.937 E0.30885
G1 X63.593 Y60.937 E0.01706
G1 X71.027 Y68.371 E0.33298
G1 X71.027 Y68.909 E0.01706
G1 X63.054 Y60.937 E0.35711
G1 X62.516 Y60.937 E0.01706
G1 X71.027 Y69.448 E0.38124
G1 X71.027 Y69.987 E0.01706
G1 X61.977 Y60.937 E0.40537
G1 X61.438 Y60.937 E0.01706
G1 X71.027 Y70.526 E0.42950
G1 X71.027 Y71.064 E0.01706
G1 X60.900 Y60.937 E0.45363
G1 X60.361 Y60.937 E0.01706
G1 X71.027 Y71.603 E0.47776
G1 X71.027 Y72.142 E0.01706
G1 X59.822 Y60.937 E0.50189
G1 X59.366 Y60.937 E0.01445
G1 X59.366 Y61.019 E0.00261
G1 X71.027 Y72.680 E0.52232
G1 X71.027 Y73.219 E0.01706
G1 X59.366 Y61.558 E0.52232
G1 X59.366 Y62.097 E0.01706
G1 X71.027 Y73.758 E0.52232
G1 X71.027 Y74.296 E0.01706
G1 X59.366 Y62.635 E0.52232
G1 X59.366 Y63.174 E0.01706
G1 X71.027 Y74.835 E0.52232
G1 X71.027 Y75.374 E0.01706
G1 X59.366 Y63.713 E0.52232
G1 X59.366 Y64.251 E0.01706
G1 X71.027 Y75.912 E0.52232
G1 X71.027 Y76.451 E0.01706
G1 X59.366 Y64.790 E0.52232
G1 X59.366 Y65.329 E0.01706
G1 X71.027 Y76.990 E0.52232
G1 X71.027 Y77.528 E0.01706
G1 X59.366 Y65.867 E0.52232
G1 X59.366 Y66.406 E0.01706
G1 X71.027 Y78.067 E0.52232
G1 X71.027 Y78.606 E0.01706
G1 X59.366 Y66.945 E0.52232
G1 X59.366 Y67.483 E0.01706
G1 X71.027 Y79.145 E0.52232
G1 X71.027 Y79.683 E0.01706
G1 X59.366 Y68.022 E0.52232
G1 X59.366 Y68.561 E0.01706
G1 X71.027 Y80.222 E0.52232
G1 X71.027 Y80.761 E0.01706
G1 X59.366 Y69.100 E0.52232
G1 X59.366 Y69.638 E0.01706
G1 X71.027 Y81.299 E0.52232
G1 X71.027 Y81.838 E0.01706
G1 X59.366 Y70.177 E0.52232
G1 X59.366 Y70.716 E0.01706
G1 X71.027 Y82.377 E0.52232
G1 X71.027 Y82.915 E0.01706
G1 X59.366 Y71.254 E0.52232
G1 X59.366 Y71.793 E0.01706
G1 X71.027 Y83.454 E0.52232
G1 X71.027 Y83.993 E0.01706
G1 X59.366 Y72.332 E0.52232
G1 X59.366 Y72.870 E0.01706
G1 X71.027 Y84.531 E0.52232
G1 X71.027 Y85.070 E0.01706
G1 X59.366 Y73.409 E0.52232
G1 X59.366 Y73.948 E0.01706
G1 X70.571 Y85.152 E0.50188
G1 X70.032 Y85.152 E0.01706
G1 X59.366 Y74.486 E0.47775
G1 X59.366 Y75.025 E0.01706
G1 X69.493 Y85.152 E0.45362
G1 X68.955 Y85.152 E0.01706
G1 X59.366 Y75.564 E0.42949
G1 X59.366 Y76.102 E0.01706
G1 X68.416 Y85.152 E0.40537
G1 X67.877 Y85.152 E0.01706
G1 X59.366 Y76.641 E0.38124
G1 X59.366 Y77.180 E0.01706
G1 X67.339 Y85.152 E0.35711
G1 X66.800 Y85.152 E0.01706
G1 X59.366 Y77.719 E0.33298
G1 X59.366 Y78.257 E0.01706
G1 X66.261 Y85.152 E0.30885
G1 X65.723 Y85.152 E0.01706
G1 X59.366 Y78.796 E0.28472
G1 X59.366 Y79.335 E0.01706
G1 X65.184 Y85.152 E0.26059
G1 X64.645 Y85.152 E0.01706
G1 X59.366 Y79.873 E0.23646
G1 X59.366 Y80.412 E0.01706
G1 X64.107 Y85.152 E0.21233
G1 X63.568 Y85.152 E0.01706
G1 X59.366 Y80.951 E0.18821
G1 X59.366 Y81.489 E0.01706
G1 X63.029 Y85.152 E0.16408
G1 X62.490 Y85.152 E0.01706
G1 X59.366 Y82.028 E0.13995
G1 X59.366 Y82.567 E0.01706
G1 X61.952 Y85.152 E0.11582
G1 X61.413 Y85.152 E0.01706
G1 X59.366 Y83.105 E0.09169
G1 X59.366 Y83.644 E0.01706
G1 X60.874 Y85.152 E0.06756
G1 X60.336 Y85.152 E0.01706
G1 X59.366 Y84.183 E0.04343
G1 X59.366 Y84.722 E0.01706
G1 X59.967 Y85.322 E0.02690
G1 E-0.80000 F2100.00000
G1 Z0.800 F10800.000
G1 X87.423 Y101.413
G1 Z0.200
G1 E0.80000 F2100.00000
G1 F1200.000
G1 X78.484 Y101.413 E0.28027
G1 X78.484 Y55.662 E1.43449
G1 X96.361 Y55.662 E0.56053
G1 X96.361 Y101.413 E1.43449
G1 X87.483 Y101.413 E0.27838
G1 X87.423 Y101.790 F10800.000
G1 F1200.000
G1 X78.107 Y101.790 E0.29209
G1 X78.107 Y55.285 E1.45814
G1 X96.739 Y55.285 E0.58418
G1 X96.739 Y101.790 E1.45814
G1 X87.483 Y101.790 E0.29021
G1 X87.090 Y101.568 F10800.000
G1 E-0.80000 F2100.00000
G1 Z0.800 F10800.000
G1 X96.248 Y56.541
G1 Z0.200
G1 E0.80000 F2100.00000
G1 F1200.000
G1 X95.652 Y55.945 E0.02660
G1 X95.116 Y55.945 E0.01689
G1 X96.079 Y56.908 E0.04292
G1 X96.079 Y57.444 E0.01689
G1 X94.580 Y55.945 E0.06682
G1 X94.044 Y55.945 E0.01689
G1 X96.079 Y57.980 E0.09071
G1 X96.079 Y58.516 E0.01689
G1 X93.507 Y55.945 E0.11460
G1 X92.971 Y55.945 E0.01689
G1 X96.079 Y59.052 E0.13849
G1 X96.079 Y59.588 E0.01689
G1 X92.435 Y55.945 E0.16238
G1 X91.899 Y55.945 E0.01689
G1 X96.079 Y60.124 E0.18627
G1 X96.079 Y60.660 E0.01689
G1 X91.363 Y55.945 E0.21016
G1 X90.827 Y55.945 E0.01689
G1 X96.079 Y61.196 E0.23405
G1 X96.079 Y61.732 E0.01689
G1 X90.291 Y55.945 E0.25794
G1 X89.755 Y55.945 E0.01689
G1 X96.079 Y62.268 E0.28184
G1 X96.079 Y62.804 E0.01689
G1 X89.219 Y55.945 E0.30573
G1 X88.683 Y55.945 E0.01689
G1 X96.079 Y63.340 E0.32962
G1 X96.079 Y63.876 E0.01689
G1 X88.147 Y55.945 E0.35351
G1 X87.611 Y55.945 E0.01689
G1 X96.079 Y64.412 E0.37740
M73 Q3 S67
G1 X96.079 Y64.948 E0.01689
G1 X87.075 Y55.945 E0.40129
M73 P3 R67
G1 X86.539 Y55.945 E0.01689
G1 X96.079 Y65.484 E0.42518
G1 X96.079 Y66.020 E0.01689
G1 X86.003 Y55.945 E0.44907
G1 X85.467 Y55.945 E0.01689
G1 X96.079 Y66.556 E0.47296
G1 X96.079 Y67.092 E0.01689
G1 X84.931 Y55.945 E0.49686
G1 X84.395 Y55.945 E0.01689
G1 X96.079 Y67.628 E0.52075
G1 X96.079 Y68.164 E0.01689
G1 X83.859 Y55.945 E0.54464
G1 X83.323 Y55.945 E0.01689
G1 X96.079 Y68.700 E0.56853
G1 X96.079 Y69.236 E0.01689
G1 X82.787 Y55.945 E0.59242
G1 X82.251 Y55.945 E0.01689
G1 X96.079 Y69.772 E0.61631
G1 X96.079 Y70.308 E0.01689
G1 X81.715 Y55.945 E0.64020
G1 X81.179 Y55.945 E0.01689
G1 X96.079 Y70.844 E0.66409
G1 X96.079 Y71.380 E0.01689
G1 X80.643 Y55.945 E0.68798
G1 X80.107 Y55.945 E0.01689
G1 X96.079 Y71.917 E0.71188
G1 X96.079 Y72.453 E0.01689
G1 X79.571 Y55.945 E0.73577
G1 X79.035 Y55.945 E0.01689
G1 X96.079 Y72.989 E0.75966
G1 X96.079 Y73.525 E0.01689
G1 X78.767 Y56.213 E0.77160
G1 X78.767 Y56.749 E0.01689
G1 X96.079 Y74.061 E0.77160
G1 X96.079 Y74.597 E0.01689
G1 X78.767 Y57.285 E0.77160
G1 X78.767 Y57.821 E0.01689
G1 X96.079 Y75.133 E0.77160
G1 X96.079 Y75.669 E0.01689
G1 X78.767 Y58.357 E0.77160
G1 X78.767 Y58.893 E0.01689
G1 X96.079 Y76.205 E0.77160
G1 X96.079 Y76.741 E0.01689
G1 X78.767 Y59.429 E0.77160
G1 X78.767 Y59.965 E0.01689
G1 X96.079 Y77.277 E0.77160
G1 X96.079 Y77.813 E0.01689
G1 X78.767 Y60.501 E0.77160
G1 X78.767 Y61.037 E0.01689
G1 X96.079 Y78.349 E0.77160
G1 X96.079 Y78.885 E0.01689
G1 X78.767 Y61.573 E0.77160
G1 X78.767 Y62.109 E0.01689
G1 X96.079 Y79.421 E0.77160
G1 X96.079 Y79.957 E0.01689
G1 X78.767 Y62.645 E0.77160
G1 X78.767 Y63.181 E0.01689
G1 X96.079 Y80.493 E0.77160
G1 X96.079 Y81.029 E0.01689
G1 X78.767 Y63.717 E0.77160
G1 X78.767 Y64.253 E0.01689
G1 X96.079 Y81.565 E0.77160
G1 X96.079 Y82.101 E0.01689
G1 X78.767 Y64.789 E0.77160
G1 X78.767 Y65.325 E0.01689
G1 X96.079 Y82.637 E0.77160
G1 X96.079 Y83.173 E0.01689
G1 X78.767 Y65.861 E0.77160
G1 X78.767 Y66.397 E0.01689
G1 X96.079 Y83.709 E0.77160
G1 X96.079 Y84.245 E0.01689
G1 X78.767 Y66.933 E0.77160
G1 X78.767 Y67.469 E0.01689
G1 X96.079 Y84.781 E0.77160
G1 X96.079 Y85.317 E0.01689
G1 X78.767 Y68.005 E0.77160
G1 X78.767 Y68.541 E0.01689
G1 X96.079 Y85.853 E0.77160
G1 X96.079 Y86.389 E0.01689
G1 X78.767 Y69.078 E0.77160
G1 X78.767 Y69.614 E0.01689
G1 X96.079 Y86.925 E0.77160
G1 X96.079 Y87.461 E0.01689
G1 X78.767 Y70.150 E0.77160
G1 X78.767 Y70.686 E0.01689
G1 X96.079 Y87.997 E0.77160
G1 X96.079 Y88.533 E0.01689
G1 X78.767 Y71.222 E0.77160
G1 X78.767 Y71.758 E0.01689
G1 X96.079 Y89.069 E0.77160
G1 X96.079 Y89.605 E0.01689
G1 X78.767 Y72.294 E0.77160
G1 X78.767 Y72.830 E0.01689
G1 X96.079 Y90.141 E0.77160
G1 X96.079 Y90.677 E0.01689
G1 X78.767 Y73.366 E0.77160
G1 X78.767 Y73.902 E0.01689
G1 X96.079 Y91.213 E0.77160
G1 X96.079 Y91.749 E0.01689
G1 X78.767 Y74.438 E0.77160
G1 X78.767 Y74.974 E0.01689
G1 X96.079 Y92.286 E0.77160
M73 Q4 S66
M73 P4 R66
G1 X96.079 Y92.822 E0.01689
G1 X78.767 Y75.510 E0.77160
G1 X78.767 Y76.046 E0.01689
G1 X96.079 Y93.358 E0.77160
G1 X96.079 Y93.894 E0.01689
G1 X78.767 Y76.582 E0.77160
G1 X78.767 Y77.118 E0.01689
G1 X96.079 Y94.430 E0.77160
G1 X96.079 Y94.966 E0.01689
G1 X78.767 Y77.654 E0.77160
G1 X78.767 Y78.190 E0.01689
G1 X96.079 Y95.502 E0.77160
G1 X96.079 Y96.038 E0.01689
G1 X78.767 Y78.726 E0.77160
G1 X78.767 Y79.262 E0.01689
G1 X96.079 Y96.574 E0.77160
G1 X96.079 Y97.110 E0.01689
G1 X78.767 Y79.798 E0.77160
G1 X78.767 Y80.334 E0.01689
G1 X96.079 Y97.646 E0.77160
G1 X96.079 Y98.182 E0.01689
G1 X78.767 Y80.870 E0.77160
G1 X78.767 Y81.406 E0.01689
G1 X96.079 Y98.718 E0.77160
G1 X96.079 Y99.254 E0.01689
G1 X78.767 Y81.942 E0.77160
G1 X78.767 Y82.478 E0.01689
G1 X96.079 Y99.790 E0.77160
G1 X96.079 Y100.326 E0.01689
G1 X78.767 Y83.014 E0.77160
G1 X78.767 Y83.550 E0.01689
G1 X96.079 Y100.862 E0.77160
G1 X96.079 Y101.130 E0.00845
G1 X95.811 Y101.130 E0.00844
G1 X78.767 Y84.086 E0.75966
G1 X78.767 Y84.622 E0.01689
G1 X95.275 Y101.130 E0.73577
G1 X94.739 Y101.130 E0.01689
G1 X78.767 Y85.158 E0.71188
G1 X78.767 Y85.694 E0.01689
G1 X94.203 Y101.130 E0.68799
G1 X93.667 Y101.130 E0.01689
G1 X78.767 Y86.230 E0.66409
G1 X78.767 Y86.766 E0.01689
G1 X93.131 Y101.130 E0.64020
G1 X92.595 Y101.130 E0.01689
G1 X78.767 Y87.302 E0.61631
G1 X78.767 Y87.838 E0.01689
G1 X92.059 Y101.130 E0.59242
G1 X91.523 Y101.130 E0.01689
