; generated by PrusaSlicer 2.2.0+win64 on 2020-10-09 at 17:55:09 UTC

; 

; external perimeters extrusion width = 0.45mm
; perimeters extrusion width = 0.45mm
; infill extrusion width = 0.45mm
; solid infill extrusion width = 0.45mm
; top infill extrusion width = 0.40mm
; support material extrusion width = 0.35mm
; first layer extrusion width = 0.42mm

M73 P0 R228
M73 Q0 S231
M201 X1000 Y1000 Z1000 E5000 ; sets maximum accelerations, mm/sec^2
M203 X200 Y200 Z12 E120 ; sets maximum feedrates, mm/sec
M204 P1250 R1250 T1250 ; sets acceleration (P, T) and retract acceleration (R), mm/sec^2
M205 X8.00 Y8.00 Z0.40 E1.50 ; sets the jerk limits, mm/sec
M205 S0 T0 ; sets the minimum extruding and travel feed rate, mm/sec
M107
M862.3 P "MK3S" ; printer model check
M862.1 P0.4 ; nozzle diameter check
M115 U3.8.0 ; tell printer latest fw version
G90 ; use absolute coordinates
M83 ; extruder relative mode
M104 S215 ; set extruder temp
M140 S60 ; set bed temp
M190 S60 ; wait for bed temp
M109 S215 ; wait for extruder temp
G28 W ; home all without mesh bed level
G80 ; mesh bed leveling
G1 Y-3.0 F1000.0 ; go outside print area
G92 E0.0
G1 X60.0 E9.0 F1000.0 ; intro line
M73 Q0 S231
M73 P0 R228
G1 X100.0 E12.5 F1000.0 ; intro line
G92 E0.0
M221 S95
G21 ; set units to millimeters
G90 ; use absolute coordinates
M83 ; use relative distances for extrusion
M900 K0.06 ; Filament gcode LA 1.5
M900 K30 ; Filament gcode LA 1.0
;BEFORE_LAYER_CHANGE
G92 E0.0
;0.2


G1 E-0.80000 F2100.00000
G1 Z0.600 F10800.000
;AFTER_LAYER_CHANGE
;0.2
G1 X162.569 Y67.229
G1 Z0.200
G1 E0.80000 F2100.00000
M204 S1000
G1 F1200.000
G1 X163.483 Y67.229 E0.02864
G1 X163.483 Y71.733 E0.14122
G1 X161.656 Y71.733 E0.05728
G1 X161.656 Y67.229 E0.14122
G1 X162.509 Y67.229 E0.02676
G1 E-0.80000 F2100.00000
G1 Z0.800 F10800.000
G1 X162.569 Y72.110
G1 Z0.200
G1 E0.80000 F2100.00000
G1 F1200.000
G1 X161.279 Y72.110 E0.04046
G1 X161.279 Y66.852 E0.16487
G1 X163.860 Y66.852 E0.08092
G1 X163.860 Y72.110 E0.16487
G1 X162.629 Y72.110 E0.03858
G1 X162.240 Y71.883 F10800.000
G1 E-0.80000 F2100.00000
G1 Z0.800 F10800.000
G1 X163.370 Y68.116
G1 Z0.200
G1 E0.80000 F2100.00000
G1 F1200.000
G1 X162.765 Y67.512 E0.02721
G1 X162.224 Y67.512 E0.01723
G1 X163.200 Y68.488 E0.04393
G1 X163.200 Y69.029 E0.01723
G1 X161.939 Y67.768 E0.05676
G1 X161.939 Y68.309 E0.01723
G1 X163.200 Y69.571 E0.05676
G1 X163.200 Y70.112 E0.01723
G1 X161.939 Y68.851 E0.05676
G1 X161.939 Y69.392 E0.01723
G1 X163.200 Y70.653 E0.05676
G1 X163.200 Y71.194 E0.01723
G1 X161.939 Y69.933 E0.05676
G1 X161.939 Y70.474 E0.01723
G1 X162.915 Y71.450 E0.04393
G1 X162.374 Y71.450 E0.01723
G1 X161.769 Y70.846 E0.02720
G1 E-0.80000 F2100.00000
G1 Z0.800 F10800.000
G1 X150.583 Y66.792
G1 Z0.200
G1 E0.80000 F2100.00000
G1 F1200.000
G1 X149.670 Y66.792 E0.02864
G1 X149.670 Y62.288 E0.14122
G1 X151.496 Y62.288 E0.05728
G1 X151.496 Y66.792 E0.14122
G1 X150.643 Y66.792 E0.02676
G1 X150.583 Y67.169 F10800.000
G1 F1200.000
G1 X149.293 Y67.169 E0.04046
G1 X149.293 Y61.911 E0.16487
G1 X151.874 Y61.911 E0.08092
G1 X151.874 Y67.169 E0.16487
G1 X150.643 Y67.169 E0.03858
G1 X150.254 Y66.942 F10800.000
G1 E-0.80000 F2100.00000
G1 Z0.800 F10800.000
G1 X151.383 Y63.175
G1 Z0.200
G1 E0.80000 F2100.00000
G1 F1200.000
G1 X150.779 Y62.571 E0.02721
G1 X150.238 Y62.571 E0.01723
G1 X151.214 Y63.547 E0.04393
G1 X151.214 Y64.088 E0.01723
G1 X149.952 Y62.827 E0.05676
G1 X149.952 Y63.368 E0.01723
G1 X151.214 Y64.629 E0.05676
G1 X151.214 Y65.171 E0.01723
G1 X149.952 Y63.909 E0.05676
G1 X149.952 Y64.451 E0.01723
G1 X151.214 Y65.712 E0.05676
G1 X151.214 Y66.253 E0.01723
G1 X149.952 Y64.992 E0.05676
G1 X149.952 Y65.533 E0.01723
G1 X150.928 Y66.509 E0.04393
G1 X150.387 Y66.509 E0.01723
G1 X149.783 Y65.905 E0.02720
G1 E-0.80000 F2100.00000
G1 Z0.800 F10800.000
G1 X150.474 Y55.043
G1 Z0.200
G1 E0.80000 F2100.00000
G1 F1200.000
G1 X149.561 Y55.043 E0.02864
G1 X149.561 Y50.539 E0.14122
G1 X151.387 Y50.539 E0.05728
G1 X151.387 Y55.043 E0.14122
G1 X150.534 Y55.043 E0.02676
G1 X150.474 Y55.421 F10800.000
G1 F1200.000
G1 X149.184 Y55.421 E0.04046
G1 X149.184 Y50.162 E0.16487
G1 X151.765 Y50.162 E0.08092
G1 X151.765 Y55.421 E0.16487
G1 X150.534 Y55.421 E0.03858
G1 X150.145 Y55.193 F10800.000
G1 E-0.80000 F2100.00000
G1 Z0.800 F10800.000
G1 X151.274 Y51.427
G1 Z0.200
G1 E0.80000 F2100.00000
G1 F1200.000
G1 X150.670 Y50.822 E0.02721
G1 X150.129 Y50.822 E0.01723
G1 X151.105 Y51.798 E0.04393
G1 X151.105 Y52.340 E0.01723
G1 X149.843 Y51.078 E0.05676
G1 X149.843 Y51.620 E0.01723
G1 X151.105 Y52.881 E0.05676
G1 X151.105 Y53.422 E0.01723
G1 X149.843 Y52.161 E0.05676
G1 X149.843 Y52.702 E0.01723
G1 X151.105 Y53.963 E0.05676
G1 X151.105 Y54.505 E0.01723
G1 X149.843 Y53.243 E0.05676
G1 X149.843 Y53.785 E0.01723
G1 X150.819 Y54.761 E0.04393
G1 X150.278 Y54.761 E0.01723
G1 X149.674 Y54.156 E0.02720
G1 E-0.80000 F2100.00000
G1 Z0.800 F10800.000
G1 X142.636 Y63.020
G1 Z0.200
G1 E0.80000 F2100.00000
G1 F1200.000
G1 X144.067 Y61.589 E0.05168
G1 X143.709 Y61.231 E0.01295
G1 X142.260 Y62.679 E0.05231
G1 X142.260 Y61.962 E0.01831
G1 X143.350 Y60.872 E0.03936
G1 X142.992 Y60.513 E0.01295
G1 X142.260 Y61.245 E0.02641
G1 X142.260 Y60.528 E0.01831
G1 X144.264 Y58.524 E0.07237
G1 X143.906 Y58.165 E0.01295
G1 X142.260 Y59.811 E0.05942
G1 X142.260 Y59.093 E0.01831
G1 X143.547 Y57.806 E0.04648
G1 X143.189 Y57.448 E0.01295
G1 X142.260 Y58.376 E0.03353
G1 X142.260 Y57.659 E0.01831
G1 X142.830 Y57.089 E0.02058
G1 X142.669 Y56.928 E0.00583
G1 X144.300 Y55.296 E0.05891
G1 X144.103 Y55.099 E0.00712
G1 X142.260 Y56.942 E0.06654
G1 X142.260 Y56.225 E0.01831
G1 X143.744 Y54.741 E0.05359
G1 X143.386 Y54.382 E0.01295
G1 X142.260 Y55.508 E0.04065
G1 X142.260 Y54.791 E0.01831
G1 X143.027 Y54.024 E0.02770
G1 X142.669 Y53.665 E0.01295
G1 X144.300 Y52.034 E0.05891
G1 X142.260 Y54.074 E0.07366
G1 X142.260 Y53.357 E0.01831
G1 X143.941 Y51.675 E0.06071
G1 X143.583 Y51.317 E0.01295
G1 X142.260 Y52.639 E0.04776
G1 X142.260 Y51.922 E0.01831
G1 X143.224 Y50.958 E0.03482
G1 X142.866 Y50.600 E0.01295
G1 X142.260 Y51.205 E0.02187
G1 X142.260 Y50.488 E0.01831
G1 X144.139 Y48.610 E0.06783
G1 X143.780 Y48.251 E0.01295
G1 X142.260 Y49.771 E0.05488
G1 X142.260 Y49.054 E0.01831
G1 X143.421 Y47.893 E0.04193
G1 X143.063 Y47.534 E0.01295
G1 X142.260 Y48.337 E0.02899
G1 X142.260 Y47.620 E0.01831
G1 X142.704 Y47.175 E0.01604
G1 X142.669 Y47.140 E0.00129
G1 X144.300 Y45.508 E0.05891
G1 X143.977 Y45.185 E0.01166
G1 X142.260 Y46.902 E0.06200
G1 X142.260 Y46.185 E0.01831
G1 X143.619 Y44.827 E0.04905
G1 X143.260 Y44.468 E0.01295
G1 X142.260 Y45.468 E0.03610
G1 X142.260 Y44.751 E0.01831
G1 X142.901 Y44.110 E0.02316
G1 X142.543 Y43.751 E0.01295
G1 X142.122 Y44.172 E0.01520
G1 E-0.80000 F2100.00000
G1 Z0.800 F10800.000
G1 X141.233 Y42.910
G1 Z0.200
G1 E0.80000 F2100.00000
G1 F1200.000
G1 X141.467 Y42.676 E0.00846
G1 X141.109 Y42.317 E0.01295
G1 X140.427 Y42.998 E0.02460
G1 X140.783 Y63.017 F10800.000
G1 F1200.000
G1 X141.918 Y61.881 E0.05035
G1 X141.918 Y60.815 E0.03344
G1 X140.119 Y62.614 E0.07978
G1 X140.119 Y61.548 E0.03344
G1 X141.918 Y59.748 E0.07978
G1 X141.918 Y58.682 E0.03344
G1 X140.119 Y60.481 E0.07978
G1 X140.119 Y59.415 E0.03344
G1 X141.918 Y57.615 E0.07978
G1 X141.918 Y56.549 E0.03344
G1 X140.119 Y58.348 E0.07978
G1 X140.119 Y57.282 E0.03344
G1 X141.918 Y55.482 E0.07978
G1 X141.918 Y54.416 E0.03344
G1 X140.119 Y56.215 E0.07978
G1 X140.119 Y55.148 E0.03344
G1 X141.918 Y53.349 E0.07978
G1 X141.918 Y52.283 E0.03344
G1 X140.119 Y54.082 E0.07978
G1 X140.119 Y53.015 E0.03344
G1 X141.918 Y51.216 E0.07978
G1 X141.918 Y50.150 E0.03344
G1 X140.119 Y51.949 E0.07978
G1 X140.119 Y50.882 E0.03344
G1 X141.918 Y49.083 E0.07978
G1 X141.918 Y48.016 E0.03344
G1 X140.119 Y49.816 E0.07978
G1 X140.119 Y48.749 E0.03344
G1 X141.918 Y46.950 E0.07978
G1 X141.918 Y45.883 E0.03344
G1 X140.119 Y47.683 E0.07978
G1 X140.119 Y46.616 E0.03344
G1 X141.918 Y44.817 E0.07978
G1 X141.918 Y43.750 E0.03344
G1 X140.119 Y45.550 E0.07978
G1 X140.119 Y44.483 E0.03344
G1 X141.445 Y43.157 E0.05879
G1 X141.350 Y43.129 E0.00308
G1 X141.038 Y43.092 E0.00985
G1 X140.650 Y43.137 E0.01225
G1 X140.266 Y43.270 E0.01275
G1 X139.949 Y43.586 E0.01403
G1 X139.915 Y43.511 F10800.000
G1 F1200.000
G1 X137.846 Y45.580 E0.07471
G1 X138.204 Y45.938 E0.01295
G1 X139.777 Y44.366 E0.05677
G1 X139.777 Y45.083 E0.01831
G1 X138.563 Y46.297 E0.04383
G1 X138.922 Y46.655 E0.01295
G1 X139.777 Y45.800 E0.03088
G1 X139.777 Y46.517 E0.01831
G1 X139.280 Y47.014 E0.01793
G1 X139.406 Y47.140 E0.00454
G1 X137.775 Y48.771 E0.05891
G1 X138.007 Y49.004 E0.00841
G1 X139.777 Y47.235 E0.06389
G1 X139.777 Y47.952 E0.01831
G1 X138.366 Y49.362 E0.05094
G1 X138.724 Y49.721 E0.01295
G1 X139.777 Y48.669 E0.03800
G1 X139.777 Y49.386 E0.01831
G1 X139.083 Y50.080 E0.02505
G1 X139.406 Y50.402 E0.01166
G1 X137.775 Y52.034 E0.05891
G1 X137.810 Y52.069 E0.00129
G1 X139.777 Y50.103 E0.07101
G1 X139.777 Y50.820 E0.01831
G1 X138.169 Y52.428 E0.05806
G1 X138.527 Y52.787 E0.01295
G1 X139.777 Y51.537 E0.04511
G1 X139.777 Y52.254 E0.01831
G1 X138.886 Y53.145 E0.03217
G1 X139.244 Y53.504 E0.01295
G1 X139.777 Y52.971 E0.01922
G1 X139.777 Y53.689 E0.01831
G1 X137.972 Y55.494 E0.06518
G1 X138.330 Y55.852 E0.01295
G1 X139.777 Y54.406 E0.05223
G1 X139.777 Y55.123 E0.01831
G1 X138.689 Y56.211 E0.03928
G1 X139.047 Y56.569 E0.01295
G1 X139.777 Y55.840 E0.02634
G1 X139.777 Y56.557 E0.01831
G1 X137.775 Y58.559 E0.07230
G1 X138.133 Y58.918 E0.01295
G1 X139.777 Y57.274 E0.05935
G1 X139.777 Y57.991 E0.01831
G1 X138.492 Y59.276 E0.04640
G1 X138.850 Y59.635 E0.01295
G1 X139.777 Y58.708 E0.03346
G1 X139.777 Y59.426 E0.01831
G1 X139.209 Y59.993 E0.02051
G1 X139.406 Y60.191 E0.00712
G1 X137.775 Y61.822 E0.05891
G1 X137.936 Y61.983 E0.00583
G1 X139.777 Y60.143 E0.06647
G1 X139.777 Y60.860 E0.01831
G1 X138.295 Y62.342 E0.05352
G1 X138.653 Y62.700 E0.01295
G1 X139.777 Y61.577 E0.04057
G1 X139.777 Y62.294 E0.01831
G1 X139.050 Y63.020 E0.02623
G1 E-0.80000 F2100.00000
G1 Z0.800 F10800.000
G1 X138.193 Y66.673
G1 Z0.200
G1 E0.80000 F2100.00000
G1 F1200.000
G1 X138.494 Y66.372 E0.01334
G1 X138.494 Y65.306 E0.03344
G1 X137.780 Y66.020 E0.03167
G1 X137.246 Y65.487 E0.02365
G1 X138.494 Y64.239 E0.05532
G1 X138.494 Y63.173 E0.03344
G1 X136.713 Y64.953 E0.07896
G1 X136.180 Y64.420 E0.02365
G1 X138.034 Y62.566 E0.08224
G1 X137.501 Y62.032 E0.02365
G1 X135.647 Y63.887 E0.08224
G1 X135.113 Y63.354 E0.02365
G1 X138.599 Y59.868 E0.15457
G1 X138.066 Y59.334 E0.02365
G1 X134.580 Y62.820 E0.15457
G1 X134.047 Y62.287 E0.02365
G1 X137.533 Y58.801 E0.15457
G1 X137.291 Y58.559 E0.01073
G1 X138.922 Y56.928 E0.07234
G1 X138.631 Y56.636 E0.01292
G1 X135.145 Y60.122 E0.15457
G1 X134.612 Y59.589 E0.02365
G1 X138.097 Y56.103 E0.15457
G1 X137.564 Y55.570 E0.02365
G1 X134.078 Y59.056 E0.15457
G1 X133.582 Y58.559 E0.02203
G1 X135.213 Y56.928 E0.07234
G1 X135.176 Y56.891 E0.00162
G1 X138.662 Y53.405 E0.15457
G1 X138.129 Y52.872 E0.02365
G1 X134.643 Y56.358 E0.15457
G1 X134.110 Y55.825 E0.02365
G1 X137.596 Y52.339 E0.15457
G1 X137.291 Y52.034 E0.01352
G1 X138.922 Y50.402 E0.07234
G1 X138.694 Y50.174 E0.01012
G1 X135.208 Y53.660 E0.15457
G1 X134.675 Y53.127 E0.02365
G1 X138.161 Y49.641 E0.15457
G1 X137.627 Y49.108 E0.02365
G1 X134.141 Y52.594 E0.15457
G1 X133.608 Y52.060 E0.02365
G1 X138.725 Y46.943 E0.22691
G1 X138.192 Y46.410 E0.02365
G1 X134.586 Y50.016 E0.15989
G1 E-0.80000 F2100.00000
G1 Z0.800 F10800.000
G1 X133.551 Y45.718
G1 Z0.200
G1 E0.80000 F2100.00000
G1 F1200.000
G1 X141.127 Y38.142 E0.33592
G1 X141.660 Y38.676 E0.02365
G1 X134.204 Y46.131 E0.33060
G1 X134.738 Y46.665 E0.02365
G1 X142.193 Y39.209 E0.33060
G1 X142.727 Y39.742 E0.02365
G1 X133.640 Y48.829 E0.40294
G1 X134.173 Y49.362 E0.02365
G1 X137.659 Y45.876 E0.15457
G1 X137.291 Y45.508 E0.01632
G1 X141.037 Y41.762 E0.16613
G1 X141.405 Y42.130 E0.01632
G1 X143.260 Y40.275 E0.08224
G1 X143.793 Y40.809 E0.02365
G1 X141.939 Y42.663 E0.08224
G1 X142.472 Y43.196 E0.02365
G1 X144.326 Y41.342 E0.08224
G1 X144.860 Y41.875 E0.02365
G1 X143.005 Y43.730 E0.08224
G1 X143.538 Y44.263 E0.02365
G1 X145.393 Y42.408 E0.08224
G1 X145.926 Y42.942 E0.02365
G1 X144.072 Y44.796 E0.08224
G1 X144.605 Y45.330 E0.02365
G1 X146.460 Y43.475 E0.08224
G1 X146.993 Y44.008 E0.02365
G1 X143.507 Y47.494 E0.15457
G1 X144.040 Y48.027 E0.02365
G1 X147.526 Y44.541 E0.15457
G1 X148.059 Y45.075 E0.02365
G1 X144.573 Y48.561 E0.15457
G1 X144.784 Y48.771 E0.00933
G1 X143.152 Y50.402 E0.07234
G1 X143.475 Y50.725 E0.01432
G1 X146.961 Y47.239 E0.15457
G1 X147.495 Y47.773 E0.02365
G1 X144.009 Y51.259 E0.15457
G1 X144.542 Y51.792 E0.02365
G1 X148.028 Y48.306 E0.15457
G1 X148.493 Y48.771 E0.02063
G1 X146.862 Y50.402 E0.07234
G1 X146.930 Y50.471 E0.00302
G1 X143.444 Y53.957 E0.15457
G1 X143.977 Y54.490 E0.02365
G1 X147.463 Y51.004 E0.15457
G1 X147.996 Y51.537 E0.02365
G1 X144.510 Y55.023 E0.15457
G1 X144.784 Y55.296 E0.01212
G1 X143.152 Y56.928 E0.07234
G1 X143.412 Y57.188 E0.01152
G1 X146.898 Y53.702 E0.15457
G1 X147.431 Y54.235 E0.02365
G1 X143.946 Y57.721 E0.15457
G1 X144.479 Y58.254 E0.02365
G1 X147.965 Y54.768 E0.15457
G1 X148.493 Y55.296 E0.02342
G1 X143.381 Y60.419 E0.22691
G1 X143.914 Y60.952 E0.02365
G1 X147.400 Y57.466 E0.15457
G1 X147.933 Y57.999 E0.02365
G1 X144.447 Y61.485 E0.15457
G1 X144.784 Y61.822 E0.01492
G1 X143.515 Y63.090 E0.05624
G1 X143.581 Y63.155 E0.00289
G1 X143.581 Y63.419 E0.00825
G1 X148.466 Y58.533 E0.21665
G1 X148.493 Y58.559 E0.00118
G1 X146.862 Y60.191 E0.07234
G1 X147.368 Y60.697 E0.02247
G1 X143.581 Y64.485 E0.16796
G1 X143.581 Y65.552 E0.03344
G1 X147.902 Y61.231 E0.19160
G1 X148.435 Y61.764 E0.02365
G1 X143.411 Y66.788 E0.22277
G1 E-0.80000 F2100.00000
G1 Z0.800 F10800.000
G1 X141.037 Y66.827
G1 Z0.200
G1 E0.80000 F2100.00000
G1 F1200.000
G1 X139.607 Y66.827 E0.04485
G1 X139.607 Y63.960 E0.08989
G1 X142.468 Y63.960 E0.08969
G1 X142.468 Y66.827 E0.08989
G1 X141.097 Y66.827 E0.04296
G1 X141.037 Y67.204 F10800.000
G1 F1200.000
G1 X139.230 Y67.204 E0.05667
G1 X139.230 Y63.583 E0.11354
G1 X142.845 Y63.583 E0.11334
G1 X142.845 Y67.204 E0.11354
G1 X141.097 Y67.204 E0.05479
G1 X140.726 Y66.953 F10800.000
G1 E-0.80000 F2100.00000
G1 Z0.800 F10800.000
G1 X142.354 Y64.838
G1 Z0.200
G1 E0.80000 F2100.00000
G1 F1200.000
G1 X141.759 Y64.243 E0.02648
G1 X141.224 Y64.243 E0.01683
G1 X142.185 Y65.204 E0.04274
G1 X142.185 Y65.739 E0.01683
G1 X140.689 Y64.243 E0.06654
G1 X140.154 Y64.243 E0.01683
G1 X142.185 Y66.274 E0.09034
G1 X142.185 Y66.544 E0.00851
G1 X141.920 Y66.544 E0.00832
G1 X139.890 Y64.514 E0.09034
G1 X139.890 Y65.049 E0.01683
G1 X141.385 Y66.544 E0.06653
G1 X140.850 Y66.544 E0.01683
G1 X139.890 Y65.584 E0.04273
G1 X139.890 Y66.119 E0.01683
G1 X140.485 Y66.714 E0.02648
G1 E-0.80000 F2100.00000
G1 Z0.800 F10800.000
G1 X127.806 Y63.906
G1 Z0.200
G1 E0.80000 F2100.00000
G1 F1200.000
G1 X126.811 Y63.708 E0.03179
G1 X125.968 Y63.145 E0.03179
G1 X125.405 Y62.302 E0.03179
G1 X125.207 Y61.307 E0.03179
G1 X125.405 Y60.313 E0.03179
G1 X125.968 Y59.470 E0.03179
G1 X126.811 Y58.906 E0.03179
G1 X127.806 Y58.708 E0.03179
G1 X128.800 Y58.906 E0.03179
G1 X129.643 Y59.470 E0.03179
G1 X130.207 Y60.313 E0.03179
G1 X130.404 Y61.307 E0.03179
G1 X130.207 Y62.302 E0.03179
G1 X129.643 Y63.145 E0.03179
G1 X128.800 Y63.708 E0.03179
G1 X127.865 Y63.894 E0.02991
G1 X127.806 Y63.521 F10800.000
G1 F1200.000
G1 X126.958 Y63.353 E0.02709
G1 X126.240 Y62.873 E0.02709
G1 X125.760 Y62.154 E0.02709
G1 X125.592 Y61.307 E0.02709
G1 X125.760 Y60.460 E0.02709
G1 X126.240 Y59.741 E0.02709
G1 X126.958 Y59.261 E0.02709
G1 X127.806 Y59.093 E0.02709
G1 X128.653 Y59.261 E0.02709
G1 X129.371 Y59.741 E0.02709
G1 X129.851 Y60.460 E0.02709
G1 X130.020 Y61.307 E0.02709
G1 X129.851 Y62.154 E0.02709
G1 X129.371 Y62.873 E0.02709
G1 X128.653 Y63.353 E0.02709
G1 X127.865 Y63.509 E0.02521
G1 X127.606 Y63.868 F10800.000
G1 E-0.80000 F2100.00000
G1 Z0.800 F10800.000
G1 X125.000 Y66.827
G1 Z0.200
G1 E0.80000 F2100.00000
G1 F1200.000
G1 X117.567 Y66.827 E0.23305
G1 X117.567 Y56.161 E0.33443
G1 X132.433 Y56.161 E0.46610
G1 X132.433 Y66.827 E0.33443
G1 X125.060 Y66.827 E0.23117
