; generated by PrusaSlicer 2.2.0+win64 on 2020-10-09 at 17:58:54 UTC

; 

; external perimeters extrusion width = 0.45mm
; perimeters extrusion width = 0.45mm
; infill extrusion width = 0.45mm
; solid infill extrusion width = 0.45mm
; top infill extrusion width = 0.40mm
; first layer extrusion width = 0.42mm

M73 P0 R90
M73 Q0 S91
M201 X1000 Y1000 Z1000 E5000 ; sets maximum accelerations, mm/sec^2
M203 X200 Y200 Z12 E120 ; sets maximum feedrates, mm/sec
M204 P1250 R1250 T1250 ; sets acceleration (P, T) and retract acceleration (R), mm/sec^2
M205 X8.00 Y8.00 Z0.40 E1.50 ; sets the jerk limits, mm/sec
M205 S0 T0 ; sets the minimum extruding and travel feed rate, mm/sec
M107
M862.3 P "MK3S" ; printer model check
M862.1 P0.4 ; nozzle diameter check
M115 U3.8.0 ; tell printer latest fw version
G90 ; use absolute coordinates
M83 ; extruder relative mode
M104 S215 ; set extruder temp
M140 S60 ; set bed temp
M190 S60 ; wait for bed temp
M109 S215 ; wait for extruder temp
G28 W ; home all without mesh bed level
G80 ; mesh bed leveling
G1 Y-3.0 F1000.0 ; go outside print area
G92 E0.0
G1 X60.0 E9.0 F1000.0 ; intro line
M73 Q0 S91
M73 P0 R90
G1 X100.0 E12.5 F1000.0 ; intro line
G92 E0.0
M221 S95
G21 ; set units to millimeters
G90 ; use absolute coordinates
M83 ; use relative distances for extrusion
M900 K0.06 ; Filament gcode LA 1.5
M900 K30 ; Filament gcode LA 1.0
;BEFORE_LAYER_CHANGE
G92 E0.0
;0.2


G1 E-0.80000 F2100.00000
G1 Z0.600 F10800.000
;AFTER_LAYER_CHANGE
;0.2
G1 X128.774 Y84.528
G1 Z0.200
G1 E0.80000 F2100.00000
M204 S1000
G1 F1200.000
G1 X128.774 Y52.478 E1.00493
G1 X128.804 Y49.538 E0.09218
G1 X146.216 Y49.538 E0.54594
G1 X146.242 Y52.418 E0.09032
G1 X146.241 Y98.734 E1.45218
G1 X146.214 Y100.690 E0.06133
G1 X128.800 Y100.691 E0.54600
G1 X128.774 Y97.855 E0.08893
G1 X128.774 Y84.588 E0.41596
G1 E-0.80000 F2100.00000
G1 Z0.800 F10800.000
G1 X137.421 Y101.072
G1 Z0.200
G1 E0.80000 F2100.00000
G1 F1200.000
G1 X128.951 Y101.072 E0.26559
G1 X128.457 Y101.048 E0.01551
G1 X128.429 Y100.859 E0.00598
G1 X128.409 Y100.287 E0.01797
G1 X128.397 Y97.856 E0.07623
G1 X128.397 Y52.476 E1.42283
G1 X128.414 Y49.693 E0.08728
G1 X128.454 Y49.174 E0.01631
G1 X129.411 Y49.156 E0.03000
G1 X146.078 Y49.158 E0.52258
G1 X146.558 Y49.181 E0.01509
G1 X146.587 Y49.362 E0.00575
G1 X146.607 Y49.941 E0.01817
G1 X146.619 Y52.417 E0.07764
G1 X146.618 Y98.735 E1.45225
G1 X146.609 Y100.213 E0.04635
G1 X146.584 Y100.892 E0.02131
G1 X146.547 Y101.051 E0.00512
G1 X146.445 Y101.063 E0.00321
G1 X137.481 Y101.072 E0.28104
G1 X137.221 Y100.726 F10800.000
G1 E-0.80000 F2100.00000
G1 Z0.800 F10800.000
G1 X146.111 Y50.423
G1 Z0.200
G1 E0.80000 F2100.00000
G1 F1200.000
G1 X145.506 Y49.818 E0.02702
G1 X144.969 Y49.818 E0.01695
G1 X145.945 Y50.793 E0.04357
G1 X145.950 Y51.335 E0.01711
G1 X144.432 Y49.818 E0.06776
G1 X143.895 Y49.818 E0.01695
G1 X145.954 Y51.877 E0.09195
G1 X145.959 Y52.419 E0.01711
G1 X143.358 Y49.818 E0.11614
G1 X142.821 Y49.818 E0.01695
G1 X145.959 Y52.956 E0.14011
G1 X145.959 Y53.493 E0.01695
G1 X142.284 Y49.818 E0.16408
G1 X141.748 Y49.818 E0.01695
G1 X145.959 Y54.030 E0.18805
G1 X145.959 Y54.567 E0.01695
G1 X141.211 Y49.818 E0.21203
G1 X140.674 Y49.818 E0.01695
G1 X145.959 Y55.104 E0.23600
G1 X145.959 Y55.641 E0.01695
G1 X140.137 Y49.819 E0.25997
G1 X139.600 Y49.819 E0.01695
G1 X145.959 Y56.178 E0.28394
G1 X145.959 Y56.715 E0.01695
G1 X139.063 Y49.819 E0.30791
G1 X138.526 Y49.819 E0.01695
G1 X145.959 Y57.252 E0.33188
G1 X145.959 Y57.789 E0.01695
G1 X137.989 Y49.819 E0.35585
G1 X137.453 Y49.819 E0.01695
G1 X145.959 Y58.326 E0.37982
G1 X145.959 Y58.863 E0.01695
G1 X136.916 Y49.819 E0.40379
G1 X136.379 Y49.819 E0.01695
G1 X145.959 Y59.400 E0.42777
G1 X145.959 Y59.937 E0.01695
G1 X135.842 Y49.819 E0.45174
G1 X135.305 Y49.819 E0.01695
G1 X145.959 Y60.474 E0.47571
G1 X145.959 Y61.011 E0.01695
G1 X134.768 Y49.820 E0.49968
G1 X134.231 Y49.820 E0.01695
G1 X145.959 Y61.547 E0.52365
G1 X145.959 Y62.084 E0.01695
G1 X133.694 Y49.820 E0.54762
G1 X133.157 Y49.820 E0.01695
G1 X145.959 Y62.621 E0.57159
G1 X145.959 Y63.158 E0.01695
G1 X132.621 Y49.820 E0.59556
G1 X132.084 Y49.820 E0.01695
G1 X145.959 Y63.695 E0.61954
G1 X145.959 Y64.232 E0.01695
G1 X131.547 Y49.820 E0.64351
G1 X131.010 Y49.820 E0.01695
G1 X145.959 Y64.769 E0.66748
G1 X145.959 Y65.306 E0.01695
G1 X130.473 Y49.820 E0.69145
G1 X129.936 Y49.820 E0.01695
G1 X145.959 Y65.843 E0.71542
G1 X145.959 Y66.380 E0.01695
G1 X129.399 Y49.821 E0.73939
G1 X129.084 Y49.821 E0.00996
G1 X129.082 Y50.040 E0.00693
G1 X145.959 Y66.917 E0.75357
G1 X145.959 Y67.454 E0.01695
G1 X129.076 Y50.572 E0.75381
G1 X129.071 Y51.103 E0.01678
G1 X145.959 Y67.991 E0.75405
G1 X145.959 Y68.528 E0.01695
G1 X129.066 Y51.635 E0.75429
G1 X129.060 Y52.166 E0.01678
G1 X145.959 Y69.065 E0.75453
G1 X145.959 Y69.602 E0.01695
G1 X129.057 Y52.700 E0.75467
G1 X129.057 Y53.237 E0.01695
G1 X145.959 Y70.139 E0.75467
G1 X145.959 Y70.676 E0.01695
G1 X129.057 Y53.774 E0.75467
G1 X129.057 Y54.311 E0.01695
G1 X145.959 Y71.213 E0.75466
G1 X145.959 Y71.750 E0.01695
G1 X129.057 Y54.848 E0.75466
G1 X129.057 Y55.385 E0.01695
G1 X145.959 Y72.287 E0.75466
G1 X145.959 Y72.824 E0.01695
G1 X129.057 Y55.922 E0.75466
G1 X129.057 Y56.459 E0.01695
G1 X145.959 Y73.361 E0.75466
G1 X145.959 Y73.898 E0.01695
G1 X129.057 Y56.996 E0.75466
G1 X129.057 Y57.533 E0.01695
G1 X145.959 Y74.435 E0.75466
G1 X145.959 Y74.972 E0.01695
G1 X129.057 Y58.070 E0.75466
G1 X129.057 Y58.607 E0.01695
G1 X145.959 Y75.509 E0.75466
G1 X145.959 Y76.046 E0.01695
G1 X129.057 Y59.144 E0.75466
M73 Q1 S90
M73 P1 R89
G1 X129.057 Y59.681 E0.01695
G1 X145.959 Y76.583 E0.75466
G1 X145.959 Y77.120 E0.01695
G1 X129.057 Y60.218 E0.75466
G1 X129.057 Y60.755 E0.01695
G1 X145.959 Y77.656 E0.75466
G1 X145.959 Y78.193 E0.01695
G1 X129.057 Y61.292 E0.75465
G1 X129.057 Y61.829 E0.01695
G1 X145.959 Y78.730 E0.75465
G1 X145.959 Y79.267 E0.01695
G1 X129.057 Y62.366 E0.75465
G1 X129.057 Y62.903 E0.01695
G1 X145.959 Y79.804 E0.75465
G1 X145.959 Y80.341 E0.01695
G1 X129.057 Y63.440 E0.75465
G1 X129.057 Y63.977 E0.01695
G1 X145.959 Y80.878 E0.75465
G1 X145.959 Y81.415 E0.01695
G1 X129.057 Y64.514 E0.75465
G1 X129.057 Y65.051 E0.01695
G1 X145.959 Y81.952 E0.75465
G1 X145.959 Y82.489 E0.01695
G1 X129.057 Y65.588 E0.75465
G1 X129.057 Y66.125 E0.01695
G1 X145.959 Y83.026 E0.75465
G1 X145.958 Y83.563 E0.01695
G1 X129.057 Y66.662 E0.75465
G1 X129.057 Y67.199 E0.01695
G1 X145.958 Y84.100 E0.75465
G1 X145.958 Y84.637 E0.01695
G1 X129.057 Y67.736 E0.75465
G1 X129.057 Y68.273 E0.01695
G1 X145.958 Y85.174 E0.75465
G1 X145.958 Y85.711 E0.01695
G1 X129.057 Y68.810 E0.75464
G1 X129.057 Y69.347 E0.01695
G1 X145.958 Y86.248 E0.75464
G1 X145.958 Y86.785 E0.01695
G1 X129.057 Y69.884 E0.75464
G1 X129.057 Y70.421 E0.01695
G1 X145.958 Y87.322 E0.75464
G1 X145.958 Y87.859 E0.01695
G1 X129.057 Y70.958 E0.75464
G1 X129.057 Y71.495 E0.01695
G1 X145.958 Y88.396 E0.75464
G1 X145.958 Y88.933 E0.01695
G1 X129.057 Y72.032 E0.75464
G1 X129.057 Y72.569 E0.01695
G1 X145.958 Y89.470 E0.75464
G1 X145.958 Y90.007 E0.01695
G1 X129.057 Y73.106 E0.75464
G1 X129.057 Y73.643 E0.01695
G1 X145.958 Y90.544 E0.75464
G1 X145.958 Y91.081 E0.01695
G1 X129.057 Y74.180 E0.75464
G1 X129.057 Y74.717 E0.01695
G1 X145.958 Y91.618 E0.75464
G1 X145.958 Y92.155 E0.01695
G1 X129.057 Y75.253 E0.75464
G1 X129.057 Y75.790 E0.01695
G1 X145.958 Y92.692 E0.75463
G1 X145.958 Y93.228 E0.01695
G1 X129.057 Y76.327 E0.75463
G1 X129.057 Y76.864 E0.01695
G1 X145.958 Y93.765 E0.75463
G1 X145.958 Y94.302 E0.01695
G1 X129.057 Y77.401 E0.75463
G1 X129.057 Y77.938 E0.01695
G1 X145.958 Y94.839 E0.75463
G1 X145.958 Y95.376 E0.01695
G1 X129.057 Y78.475 E0.75463
G1 X129.057 Y79.012 E0.01695
G1 X145.958 Y95.913 E0.75463
G1 X145.958 Y96.450 E0.01695
G1 X129.057 Y79.549 E0.75463
G1 X129.057 Y80.086 E0.01695
G1 X145.958 Y96.987 E0.75463
G1 X145.958 Y97.524 E0.01695
G1 X129.057 Y80.623 E0.75463
G1 X129.057 Y81.160 E0.01695
G1 X145.958 Y98.061 E0.75463
G1 X145.958 Y98.598 E0.01695
G1 X129.057 Y81.697 E0.75463
G1 X129.057 Y82.234 E0.01695
G1 X145.953 Y99.130 E0.75438
G1 X145.945 Y99.659 E0.01673
G1 X129.057 Y82.771 E0.75406
G1 X129.057 Y83.308 E0.01695
G1 X145.938 Y100.189 E0.75374
G1 X145.935 Y100.407 E0.00687
G1 X145.619 Y100.407 E0.00999
G1 X129.057 Y83.845 E0.73948
G1 X129.057 Y84.382 E0.01695
G1 X145.082 Y100.407 E0.71551
G1 X144.545 Y100.407 E0.01695
G1 X129.057 Y84.919 E0.69153
G1 X129.057 Y85.456 E0.01695
G1 X144.008 Y100.407 E0.66756
M73 Q2 S89
M73 P2 R88
G1 X143.471 Y100.407 E0.01695
G1 X129.057 Y85.993 E0.64358
G1 X129.057 Y86.530 E0.01695
G1 X142.934 Y100.407 E0.61961
G1 X142.397 Y100.407 E0.01695
G1 X129.057 Y87.067 E0.59563
G1 X129.057 Y87.604 E0.01695
G1 X141.860 Y100.407 E0.57166
G1 X141.323 Y100.407 E0.01695
G1 X129.057 Y88.141 E0.54768
G1 X129.057 Y88.678 E0.01695
G1 X140.786 Y100.407 E0.52371
G1 X140.249 Y100.407 E0.01695
G1 X129.057 Y89.215 E0.49974
G1 X129.057 Y89.752 E0.01695
G1 X139.713 Y100.407 E0.47576
G1 X139.176 Y100.407 E0.01695
G1 X129.057 Y90.289 E0.45179
G1 X129.057 Y90.826 E0.01695
G1 X138.639 Y100.407 E0.42781
G1 X138.102 Y100.407 E0.01695
G1 X129.057 Y91.363 E0.40384
G1 X129.057 Y91.900 E0.01695
G1 X137.565 Y100.407 E0.37986
G1 X137.028 Y100.408 E0.01695
G1 X129.057 Y92.437 E0.35589
G1 X129.057 Y92.974 E0.01695
G1 X136.491 Y100.408 E0.33191
G1 X135.954 Y100.408 E0.01695
G1 X129.057 Y93.511 E0.30794
G1 X129.057 Y94.048 E0.01695
G1 X135.417 Y100.408 E0.28396
G1 X134.880 Y100.408 E0.01695
G1 X129.057 Y94.585 E0.25999
G1 X129.057 Y95.122 E0.01695
G1 X134.343 Y100.408 E0.23601
G1 X133.806 Y100.408 E0.01695
G1 X129.057 Y95.659 E0.21204
G1 X129.057 Y96.196 E0.01695
G1 X133.269 Y100.408 E0.18806
G1 X132.732 Y100.408 E0.01695
G1 X129.057 Y96.733 E0.16409
G1 X129.057 Y97.270 E0.01695
G1 X132.195 Y100.408 E0.14011
G1 X131.658 Y100.408 E0.01695
G1 X129.057 Y97.807 E0.11614
G1 X129.062 Y98.348 E0.01710
G1 X131.121 Y100.408 E0.09196
G1 X130.584 Y100.408 E0.01695
G1 X129.067 Y98.890 E0.06777
G1 X129.072 Y99.432 E0.01711
G1 X130.048 Y100.408 E0.04357
G1 X129.511 Y100.408 E0.01695
G1 X128.905 Y99.803 E0.02703
G1 E-0.80000 F2100.00000
G1 Z0.800 F10800.000
G1 X112.591 Y100.695
G1 Z0.200
G1 E0.80000 F2100.00000
G1 F1200.000
G1 X103.969 Y100.691 E0.27034
G1 X103.943 Y97.855 E0.08893
G1 X103.943 Y52.478 E1.42277
G1 X103.973 Y49.538 E0.09218
G1 X121.385 Y49.538 E0.54594
G1 X121.411 Y52.418 E0.09032
G1 X121.410 Y98.734 E1.45218
G1 X121.383 Y100.690 E0.06133
G1 X112.651 Y100.695 E0.27378
G1 X112.591 Y101.072 F10800.000
G1 F1200.000
G1 X104.119 Y101.072 E0.26563
G1 X103.626 Y101.048 E0.01551
G1 X103.598 Y100.859 E0.00598
G1 X103.578 Y100.287 E0.01797
G1 X103.566 Y97.856 E0.07623
G1 X103.566 Y52.476 E1.42283
G1 X103.583 Y49.693 E0.08728
G1 X103.623 Y49.174 E0.01631
G1 X104.579 Y49.156 E0.03000
G1 X121.246 Y49.158 E0.52258
G1 X121.727 Y49.181 E0.01509
G1 X121.756 Y49.362 E0.00575
G1 X121.776 Y49.941 E0.01817
G1 X121.788 Y52.417 E0.07764
G1 X121.787 Y98.735 E1.45225
G1 X121.778 Y100.213 E0.04635
G1 X121.753 Y100.892 E0.02131
G1 X121.716 Y101.051 E0.00512
G1 X121.614 Y101.063 E0.00321
G1 X112.651 Y101.072 E0.28101
G1 X112.391 Y100.726 F10800.000
G1 E-0.80000 F2100.00000
G1 Z0.800 F10800.000
G1 X121.280 Y50.423
G1 Z0.200
G1 E0.80000 F2100.00000
G1 F1200.000
G1 X120.675 Y49.818 E0.02702
G1 X120.138 Y49.818 E0.01695
G1 X121.113 Y50.793 E0.04357
G1 X121.118 Y51.335 E0.01711
G1 X119.601 Y49.818 E0.06776
G1 X119.064 Y49.818 E0.01695
G1 X121.123 Y51.877 E0.09195
G1 X121.128 Y52.419 E0.01711
G1 X118.527 Y49.818 E0.11614
G1 X117.990 Y49.818 E0.01695
G1 X121.128 Y52.956 E0.14011
G1 X121.128 Y53.493 E0.01695
G1 X117.453 Y49.818 E0.16408
G1 X116.916 Y49.818 E0.01695
G1 X121.128 Y54.030 E0.18805
G1 X121.128 Y54.567 E0.01695
G1 X116.379 Y49.818 E0.21203
G1 X115.843 Y49.818 E0.01695
G1 X121.128 Y55.104 E0.23600
G1 X121.128 Y55.641 E0.01695
G1 X115.306 Y49.819 E0.25997
G1 X114.769 Y49.819 E0.01695
G1 X121.128 Y56.178 E0.28394
G1 X121.128 Y56.715 E0.01695
G1 X114.232 Y49.819 E0.30791
G1 X113.695 Y49.819 E0.01695
G1 X121.128 Y57.252 E0.33188
G1 X121.128 Y57.789 E0.01695
G1 X113.158 Y49.819 E0.35585
G1 X112.621 Y49.819 E0.01695
G1 X121.128 Y58.326 E0.37982
G1 X121.128 Y58.863 E0.01695
G1 X112.084 Y49.819 E0.40379
G1 X111.548 Y49.819 E0.01695
G1 X121.128 Y59.400 E0.42777
G1 X121.128 Y59.937 E0.01695
G1 X111.011 Y49.819 E0.45174
G1 X110.474 Y49.819 E0.01695
G1 X121.128 Y60.474 E0.47571
G1 X121.128 Y61.011 E0.01695
G1 X109.937 Y49.820 E0.49968
G1 X109.400 Y49.820 E0.01695
G1 X121.128 Y61.547 E0.52365
G1 X121.128 Y62.084 E0.01695
G1 X108.863 Y49.820 E0.54762
G1 X108.326 Y49.820 E0.01695
G1 X121.128 Y62.621 E0.57159
G1 X121.128 Y63.158 E0.01695
G1 X107.789 Y49.820 E0.59556
G1 X107.252 Y49.820 E0.01695
G1 X121.128 Y63.695 E0.61954
G1 X121.128 Y64.232 E0.01695
G1 X106.716 Y49.820 E0.64351
G1 X106.179 Y49.820 E0.01695
G1 X121.128 Y64.769 E0.66748
G1 X121.128 Y65.306 E0.01695
G1 X105.642 Y49.820 E0.69145
G1 X105.105 Y49.820 E0.01695
G1 X121.128 Y65.843 E0.71542
G1 X121.128 Y66.380 E0.01695
G1 X104.568 Y49.821 E0.73939
G1 X104.253 Y49.821 E0.00996
G1 X104.251 Y50.040 E0.00693
G1 X121.128 Y66.917 E0.75357
G1 X121.128 Y67.454 E0.01695
G1 X104.245 Y50.572 E0.75381
G1 X104.240 Y51.103 E0.01678
G1 X121.128 Y67.991 E0.75405
G1 X121.128 Y68.528 E0.01695
G1 X104.234 Y51.635 E0.75429
G1 X104.229 Y52.166 E0.01678
G1 X121.128 Y69.065 E0.75453
G1 X121.128 Y69.602 E0.01695
G1 X104.226 Y52.700 E0.75467
G1 X104.226 Y53.237 E0.01695
G1 X121.128 Y70.139 E0.75467
G1 X121.128 Y70.676 E0.01695
G1 X104.226 Y53.774 E0.75467
M73 Q3 S88
M73 P3 R87
G1 X104.226 Y54.311 E0.01695
G1 X121.128 Y71.213 E0.75466
G1 X121.128 Y71.750 E0.01695
G1 X104.226 Y54.848 E0.75466
G1 X104.226 Y55.385 E0.01695
G1 X121.128 Y72.287 E0.75466
G1 X121.128 Y72.824 E0.01695
G1 X104.226 Y55.922 E0.75466
G1 X104.226 Y56.459 E0.01695
G1 X121.128 Y73.361 E0.75466
G1 X121.128 Y73.898 E0.01695
G1 X104.226 Y56.996 E0.75466
G1 X104.226 Y57.533 E0.01695
G1 X121.128 Y74.435 E0.75466
G1 X121.128 Y74.972 E0.01695
G1 X104.226 Y58.070 E0.75466
G1 X104.226 Y58.607 E0.01695
G1 X121.127 Y75.509 E0.75466
G1 X121.127 Y76.046 E0.01695
G1 X104.226 Y59.144 E0.75466
G1 X104.226 Y59.681 E0.01695
G1 X121.127 Y76.583 E0.75466
G1 X121.127 Y77.120 E0.01695
G1 X104.226 Y60.218 E0.75466
G1 X104.226 Y60.755 E0.01695
G1 X121.127 Y77.656 E0.75466
G1 X121.127 Y78.193 E0.01695
G1 X104.226 Y61.292 E0.75465
G1 X104.226 Y61.829 E0.01695
G1 X121.127 Y78.730 E0.75465
G1 X121.127 Y79.267 E0.01695
G1 X104.226 Y62.366 E0.75465
G1 X104.226 Y62.903 E0.01695
G1 X121.127 Y79.804 E0.75465
G1 X121.127 Y80.341 E0.01695
G1 X104.226 Y63.440 E0.75465
G1 X104.226 Y63.977 E0.01695
G1 X121.127 Y80.878 E0.75465
G1 X121.127 Y81.415 E0.01695
G1 X104.226 Y64.514 E0.75465
G1 X104.226 Y65.051 E0.01695
G1 X121.127 Y81.952 E0.75465
G1 X121.127 Y82.489 E0.01695
G1 X104.226 Y65.588 E0.75465
G1 X104.226 Y66.125 E0.01695
G1 X121.127 Y83.026 E0.75465
G1 X121.127 Y83.563 E0.01695
G1 X104.226 Y66.662 E0.75465
G1 X104.226 Y67.199 E0.01695
G1 X121.127 Y84.100 E0.75465
G1 X121.127 Y84.637 E0.01695
G1 X104.226 Y67.736 E0.75465
G1 X104.226 Y68.273 E0.01695
G1 X121.127 Y85.174 E0.75465
G1 X121.127 Y85.711 E0.01695
G1 X104.226 Y68.810 E0.75464
G1 X104.226 Y69.347 E0.01695
G1 X121.127 Y86.248 E0.75464
G1 X121.127 Y86.785 E0.01695
G1 X104.226 Y69.884 E0.75464
G1 X104.226 Y70.421 E0.01695
G1 X121.127 Y87.322 E0.75464
G1 X121.127 Y87.859 E0.01695
G1 X104.226 Y70.958 E0.75464
G1 X104.226 Y71.495 E0.01695
G1 X121.127 Y88.396 E0.75464
G1 X121.127 Y88.933 E0.01695
G1 X104.226 Y72.032 E0.75464
G1 X104.226 Y72.569 E0.01695
G1 X121.127 Y89.470 E0.75464
G1 X121.127 Y90.007 E0.01695
G1 X104.226 Y73.106 E0.75464
G1 X104.226 Y73.643 E0.01695
G1 X121.127 Y90.544 E0.75464
G1 X121.127 Y91.081 E0.01695
G1 X104.226 Y74.180 E0.75464
G1 X104.226 Y74.717 E0.01695
G1 X121.127 Y91.618 E0.75464
G1 X121.127 Y92.155 E0.01695
G1 X104.226 Y75.253 E0.75464
G1 X104.226 Y75.790 E0.01695
G1 X121.127 Y92.692 E0.75463
G1 X121.127 Y93.228 E0.01695
G1 X104.226 Y76.327 E0.75463
G1 X104.226 Y76.864 E0.01695
G1 X121.127 Y93.765 E0.75463
G1 X121.127 Y94.302 E0.01695
