; generated by PrusaSlicer 2.3.1+win64 on 2021-08-05 at 21:10:26 UTC

; 

; external perimeters extrusion width = 0.45mm
; perimeters extrusion width = 0.45mm
; infill extrusion width = 0.45mm
; solid infill extrusion width = 0.45mm
; top infill extrusion width = 0.40mm
; support material extrusion width = 0.35mm
; first layer extrusion width = 0.42mm

M73 P0 R65
M73 Q0 S65
M201 X1000 Y1000 Z1000 E5000 ; sets maximum accelerations, mm/sec^2
M203 X200 Y200 Z12 E120 ; sets maximum feedrates, mm/sec
M204 P1250 R1250 T1250 ; sets acceleration (P, T) and retract acceleration (R), mm/sec^2
M205 X8.00 Y8.00 Z0.40 E1.50 ; sets the jerk limits, mm/sec
M205 S0 T0 ; sets the minimum extruding and travel feed rate, mm/sec
M107
;TYPE:Custom
M862.3 P "MK3S" ; printer model check
M862.1 P0.4 ; nozzle diameter check
M115 U3.8.0 ; tell printer latest fw version
G90 ; use absolute coordinates
M83 ; extruder relative mode
M104 S215 ; set extruder temp
M140 S60 ; set bed temp
M190 S60 ; wait for bed temp
M109 S215 ; wait for extruder temp
G28 W ; home all without mesh bed level
G80 ; mesh bed leveling
G1 Y-3.0 F1000.0 ; go outside print area
G92 E0.0
G1 X60.0 E9.0 F1000.0 ; intro line
G1 X100.0 E12.5 F1000.0 ; intro line
G92 E0.0
M221 S95
G21 ; set units to millimeters
G90 ; use absolute coordinates
M83 ; use relative distances for extrusion
M900 K0.05 ; Filament gcode LA 1.5
M900 K30 ; Filament gcode LA 1.0
;LAYER_CHANGE
;Z:0.2
;HEIGHT:0.2
;BEFORE_LAYER_CHANGE
G92 E0.0
;0.2


G1 E-0.80000 F2100.000
G1 Z0.600 F10800.000
;AFTER_LAYER_CHANGE
;0.2
G1 X165.941 Y59.520
G1 Z0.200
G1 E0.80000 F2100.000
M204 S1000
;TYPE:Perimeter
;WIDTH:0.42
G1 F1200.000
G1 X197.720 Y59.520 E0.99642
G1 X195.129 Y79.472 E0.63083
G1 X191.760 Y83.724 E0.17010
G1 X171.901 Y83.724 E0.62265
G1 X168.532 Y79.472 E0.17010
G1 X165.949 Y59.580 E0.62895
G1 X165.512 Y59.143 F10800.000
;TYPE:External perimeter
G1 F1200.000
G1 X198.150 Y59.143 E1.02333
G1 X195.490 Y79.624 E0.64757
G1 X191.942 Y84.101 E0.17909
G1 X171.719 Y84.101 E0.63408
G1 X168.172 Y79.624 E0.17909
G1 X165.520 Y59.203 E0.64568
G1 X165.873 Y59.314 F10800.000
G1 E-0.80000 F2100.000
G1 Z0.800 F10800.000
G1 X197.504 Y60.307
G1 Z0.200
G1 E0.80000 F2100.000
;TYPE:Solid infill
;WIDTH:0.420661
G1 F1200.000
G1 X197.000 Y59.803 E0.02238
G1 X196.466 Y59.803 E0.01678
G1 X197.291 Y60.628 E0.03666
G1 X197.230 Y61.101 E0.01498
G1 X195.932 Y59.803 E0.05766
G1 X195.398 Y59.803 E0.01678
G1 X197.168 Y61.574 E0.07866
G1 X197.107 Y62.047 E0.01498
G1 X194.863 Y59.803 E0.09966
G1 X194.329 Y59.803 E0.01678
G1 X197.046 Y62.519 E0.12066
G1 X196.984 Y62.992 E0.01498
G1 X193.795 Y59.803 E0.14167
G1 X193.261 Y59.803 E0.01678
G1 X196.923 Y63.465 E0.16267
G1 X196.861 Y63.938 E0.01498
G1 X192.727 Y59.803 E0.18367
G1 X192.192 Y59.803 E0.01678
G1 X196.800 Y64.411 E0.20467
G1 X196.739 Y64.883 E0.01498
G1 X191.658 Y59.803 E0.22567
G1 X191.124 Y59.803 E0.01678
G1 X196.677 Y65.356 E0.24667
G1 X196.616 Y65.829 E0.01498
G1 X190.590 Y59.803 E0.26768
G1 X190.055 Y59.803 E0.01678
G1 X196.554 Y66.302 E0.28868
G1 X196.493 Y66.775 E0.01498
G1 X189.521 Y59.803 E0.30968
G1 X188.987 Y59.803 E0.01678
G1 X196.432 Y67.247 E0.33068
G1 X196.370 Y67.720 E0.01498
G1 X188.453 Y59.803 E0.35168
G1 X187.919 Y59.803 E0.01678
G1 X196.309 Y68.193 E0.37268
G1 X196.247 Y68.666 E0.01498
G1 X187.384 Y59.803 E0.39369
G1 X186.850 Y59.803 E0.01678
G1 X196.186 Y69.139 E0.41469
G1 X196.125 Y69.611 E0.01498
G1 X186.316 Y59.803 E0.43569
G1 X185.782 Y59.803 E0.01678
G1 X196.063 Y70.084 E0.45669
G1 X196.002 Y70.557 E0.01498
G1 X185.248 Y59.803 E0.47769
G1 X184.713 Y59.803 E0.01678
M73 P0 R64
G1 X195.940 Y71.030 E0.49869
G1 X195.879 Y71.503 E0.01498
G1 X184.179 Y59.803 E0.51970
G1 X183.645 Y59.803 E0.01678
G1 X195.818 Y71.976 E0.54070
G1 X195.756 Y72.448 E0.01498
G1 X183.111 Y59.803 E0.56170
G1 X182.577 Y59.803 E0.01678
G1 X195.695 Y72.921 E0.58270
G1 X195.633 Y73.394 E0.01498
G1 X182.042 Y59.803 E0.60370
G1 X181.508 Y59.803 E0.01678
G1 X195.572 Y73.867 E0.62471
G1 X195.511 Y74.340 E0.01498
G1 X180.974 Y59.803 E0.64571
G1 X180.440 Y59.803 E0.01678
G1 X195.449 Y74.812 E0.66671
M73 Q0 S64
G1 X195.388 Y75.285 E0.01498
G1 X179.906 Y59.803 E0.68771
G1 X179.371 Y59.803 E0.01678
G1 X195.326 Y75.758 E0.70871
M73 Q1 S64
G1 X195.265 Y76.231 E0.01498
M73 P1 R64
G1 X178.837 Y59.803 E0.72971
G1 X178.303 Y59.803 E0.01678
G1 X195.204 Y76.704 E0.75072
G1 X195.142 Y77.176 E0.01498
G1 X177.769 Y59.803 E0.77172
G1 X177.235 Y59.803 E0.01678
G1 X195.081 Y77.649 E0.79272
G1 X195.019 Y78.122 E0.01498
G1 X176.700 Y59.803 E0.81372
G1 X176.166 Y59.803 E0.01678
G1 X194.958 Y78.595 E0.83472
G1 X194.897 Y79.068 E0.01498
G1 X175.632 Y59.803 E0.85572
G1 X175.098 Y59.803 E0.01678
G1 X194.768 Y79.473 E0.87373
G1 X194.531 Y79.771 E0.01194
G1 X174.564 Y59.803 E0.88697
G1 X174.029 Y59.803 E0.01678
G1 X194.295 Y80.069 E0.90021
G1 X194.059 Y80.367 E0.01194
G1 X173.495 Y59.803 E0.91344
G1 X172.961 Y59.803 E0.01678
G1 X193.823 Y80.665 E0.92668
G1 X193.587 Y80.963 E0.01194
G1 X172.427 Y59.803 E0.93992
G1 X171.892 Y59.803 E0.01678
G1 X193.351 Y81.261 E0.95316
G1 X193.114 Y81.559 E0.01194
G1 X171.358 Y59.803 E0.96640
G1 X170.824 Y59.803 E0.01678
G1 X192.878 Y81.857 E0.97964
G1 X192.642 Y82.155 E0.01194
G1 X170.290 Y59.803 E0.99288
G1 X169.756 Y59.803 E0.01678
G1 X192.406 Y82.453 E1.00612
G1 X192.170 Y82.751 E0.01194
G1 X169.221 Y59.803 E1.01935
G1 X168.687 Y59.803 E0.01678
G1 X191.934 Y83.049 E1.03259
G1 X191.697 Y83.347 E0.01194
G1 X168.153 Y59.803 E1.04583
G1 X167.619 Y59.803 E0.01678
G1 X191.257 Y83.441 E1.05000
G1 X190.723 Y83.441 E0.01678
G1 X167.085 Y59.803 E1.05000
G1 X166.550 Y59.803 E0.01678
G1 X190.189 Y83.441 E1.05000
G1 X189.654 Y83.441 E0.01678
G1 X166.300 Y60.087 E1.03740
G1 X166.380 Y60.700 E0.01945
G1 X189.120 Y83.441 E1.01013
M73 P2 R64
M73 Q2 S64
G1 X188.586 Y83.441 E0.01678
G1 X166.459 Y61.314 E0.98286
G1 X166.539 Y61.928 E0.01945
G1 X188.052 Y83.441 E0.95559
G1 X187.518 Y83.441 E0.01678
G1 X166.619 Y62.542 E0.92832
G1 X166.698 Y63.156 E0.01945
G1 X186.983 Y83.441 E0.90104
G1 X186.449 Y83.441 E0.01678
G1 X166.778 Y63.770 E0.87377
G1 X166.858 Y64.384 E0.01945
G1 X185.915 Y83.441 E0.84650
G1 X185.381 Y83.441 E0.01678
G1 X166.938 Y64.998 E0.81923
M73 P2 R63
G1 X167.017 Y65.612 E0.01945
G1 X184.847 Y83.441 E0.79196
G1 X184.312 Y83.441 E0.01678
G1 X167.097 Y66.226 E0.76469
G1 X167.177 Y66.840 E0.01945
G1 X183.778 Y83.441 E0.73742
G1 X183.244 Y83.441 E0.01678
G1 X167.257 Y67.454 E0.71015
G1 X167.336 Y68.068 E0.01945
G1 X182.710 Y83.441 E0.68288
G1 X182.176 Y83.441 E0.01678
G1 X167.416 Y68.682 E0.65561
G1 X167.496 Y69.296 E0.01945
G1 X181.641 Y83.441 E0.62834
M73 Q2 S63
G1 X181.107 Y83.441 E0.01678
G1 X167.576 Y69.910 E0.60107
G1 X167.655 Y70.523 E0.01945
G1 X180.573 Y83.441 E0.57380
G1 X180.039 Y83.441 E0.01678
G1 X167.735 Y71.137 E0.54652
G1 X167.815 Y71.751 E0.01945
G1 X179.504 Y83.441 E0.51925
G1 X178.970 Y83.441 E0.01678
G1 X167.894 Y72.365 E0.49198
G1 X167.974 Y72.979 E0.01945
G1 X178.436 Y83.441 E0.46471
G1 X177.902 Y83.441 E0.01678
G1 X168.054 Y73.593 E0.43744
G1 X168.134 Y74.207 E0.01945
G1 X177.368 Y83.441 E0.41017
G1 X176.833 Y83.441 E0.01678
G1 X168.213 Y74.821 E0.38290
G1 X168.293 Y75.435 E0.01945
G1 X176.299 Y83.441 E0.35563
G1 X175.765 Y83.441 E0.01678
G1 X168.373 Y76.049 E0.32836
G1 X168.453 Y76.663 E0.01945
G1 X175.231 Y83.441 E0.30109
G1 X174.697 Y83.441 E0.01678
G1 X168.532 Y77.277 E0.27382
G1 X168.612 Y77.891 E0.01945
G1 X174.162 Y83.441 E0.24655
G1 X173.628 Y83.441 E0.01678
G1 X168.692 Y78.505 E0.21928
G1 X168.771 Y79.119 E0.01945
G1 X173.094 Y83.441 E0.19200
G1 X172.560 Y83.441 E0.01678
G1 X169.004 Y79.886 E0.15793
G1 E-0.80000 F2100.000
G1 Z0.800 F10800.000
G1 X165.941 Y92.898
G1 Z0.200
G1 E0.80000 F2100.000
;TYPE:Perimeter
;WIDTH:0.42
G1 F1200.000
G1 X197.720 Y92.898 E0.99642
G1 X195.129 Y112.850 E0.63083
G1 X191.760 Y117.102 E0.17010
G1 X171.901 Y117.102 E0.62265
G1 X168.532 Y112.850 E0.17010
G1 X165.949 Y92.958 E0.62895
G1 X165.512 Y92.521 F10800.000
;TYPE:External perimeter
G1 F1200.000
G1 X198.150 Y92.521 E1.02333
G1 X195.490 Y113.002 E0.64757
G1 X191.942 Y117.479 E0.17909
G1 X171.719 Y117.479 E0.63408
M73 P3 R63
M73 Q3 S63
G1 X168.172 Y113.002 E0.17909
G1 X165.520 Y92.581 E0.64568
G1 X165.873 Y92.692 F10800.000
G1 E-0.80000 F2100.000
G1 Z0.800 F10800.000
G1 X197.504 Y93.685
G1 Z0.200
G1 E0.80000 F2100.000
;TYPE:Solid infill
;WIDTH:0.420661
G1 F1200.000
G1 X197.000 Y93.181 E0.02238
G1 X196.466 Y93.181 E0.01678
G1 X197.291 Y94.006 E0.03666
G1 X197.230 Y94.479 E0.01498
G1 X195.932 Y93.181 E0.05766
G1 X195.398 Y93.181 E0.01678
G1 X197.168 Y94.952 E0.07866
G1 X197.107 Y95.425 E0.01498
G1 X194.863 Y93.181 E0.09966
G1 X194.329 Y93.181 E0.01678
G1 X197.046 Y95.897 E0.12066
G1 X196.984 Y96.370 E0.01498
G1 X193.795 Y93.181 E0.14167
G1 X193.261 Y93.181 E0.01678
G1 X196.923 Y96.843 E0.16267
G1 X196.861 Y97.316 E0.01498
G1 X192.727 Y93.181 E0.18367
G1 X192.192 Y93.181 E0.01678
G1 X196.800 Y97.789 E0.20467
G1 X196.739 Y98.261 E0.01498
G1 X191.658 Y93.181 E0.22567
G1 X191.124 Y93.181 E0.01678
G1 X196.677 Y98.734 E0.24667
G1 X196.616 Y99.207 E0.01498
G1 X190.590 Y93.181 E0.26768
G1 X190.055 Y93.181 E0.01678
G1 X196.554 Y99.680 E0.28868
G1 X196.493 Y100.153 E0.01498
G1 X189.521 Y93.181 E0.30968
G1 X188.987 Y93.181 E0.01678
G1 X196.432 Y100.625 E0.33068
G1 X196.370 Y101.098 E0.01498
G1 X188.453 Y93.181 E0.35168
G1 X187.919 Y93.181 E0.01678
G1 X196.309 Y101.571 E0.37268
G1 X196.247 Y102.044 E0.01498
G1 X187.384 Y93.181 E0.39369
G1 X186.850 Y93.181 E0.01678
G1 X196.186 Y102.517 E0.41469
G1 X196.125 Y102.989 E0.01498
G1 X186.316 Y93.181 E0.43569
G1 X185.782 Y93.181 E0.01678
G1 X196.063 Y103.462 E0.45669
G1 X196.002 Y103.935 E0.01498
G1 X185.248 Y93.181 E0.47769
G1 X184.713 Y93.181 E0.01678
G1 X195.940 Y104.408 E0.49869
G1 X195.879 Y104.881 E0.01498
G1 X184.179 Y93.181 E0.51970
G1 X183.645 Y93.181 E0.01678
G1 X195.818 Y105.353 E0.54070
G1 X195.756 Y105.826 E0.01498
G1 X183.111 Y93.181 E0.56170
G1 X182.577 Y93.181 E0.01678
G1 X195.695 Y106.299 E0.58270
G1 X195.633 Y106.772 E0.01498
G1 X182.042 Y93.181 E0.60370
G1 X181.508 Y93.181 E0.01678
G1 X195.572 Y107.245 E0.62471
G1 X195.511 Y107.717 E0.01498
G1 X180.974 Y93.181 E0.64571
G1 X180.440 Y93.181 E0.01678
G1 X195.449 Y108.190 E0.66671
G1 X195.388 Y108.663 E0.01498
G1 X179.906 Y93.181 E0.68771
G1 X179.371 Y93.181 E0.01678
G1 X195.326 Y109.136 E0.70871
G1 X195.265 Y109.609 E0.01498
G1 X178.837 Y93.181 E0.72971
G1 X178.303 Y93.181 E0.01678
G1 X195.204 Y110.082 E0.75072
G1 X195.142 Y110.554 E0.01498
G1 X177.769 Y93.181 E0.77172
G1 X177.235 Y93.181 E0.01678
G1 X195.081 Y111.027 E0.79272
G1 X195.019 Y111.500 E0.01498
G1 X176.700 Y93.181 E0.81372
G1 X176.166 Y93.181 E0.01678
G1 X194.958 Y111.973 E0.83472
G1 X194.897 Y112.446 E0.01498
G1 X175.632 Y93.181 E0.85572
M73 P3 R62
G1 X175.098 Y93.181 E0.01678
G1 X194.768 Y112.851 E0.87373
G1 X194.531 Y113.149 E0.01194
G1 X174.564 Y93.181 E0.88697
G1 X174.029 Y93.181 E0.01678
G1 X194.295 Y113.447 E0.90021
G1 X194.059 Y113.745 E0.01194
G1 X173.495 Y93.181 E0.91344
G1 X172.961 Y93.181 E0.01678
G1 X193.823 Y114.043 E0.92668
M73 P4 R62
M73 Q4 S62
G1 X193.587 Y114.341 E0.01194
G1 X172.427 Y93.181 E0.93992
G1 X171.892 Y93.181 E0.01678
G1 X193.351 Y114.639 E0.95316
G1 X193.114 Y114.937 E0.01194
G1 X171.358 Y93.181 E0.96640
G1 X170.824 Y93.181 E0.01678
G1 X192.878 Y115.235 E0.97964
G1 X192.642 Y115.533 E0.01194
G1 X170.290 Y93.181 E0.99288
G1 X169.756 Y93.181 E0.01678
G1 X192.406 Y115.831 E1.00612
G1 X192.170 Y116.129 E0.01194
G1 X169.221 Y93.181 E1.01935
G1 X168.687 Y93.181 E0.01678
G1 X191.934 Y116.427 E1.03259
G1 X191.697 Y116.725 E0.01194
G1 X168.153 Y93.181 E1.04583
G1 X167.619 Y93.181 E0.01678
G1 X191.257 Y116.819 E1.05000
G1 X190.723 Y116.819 E0.01678
G1 X167.085 Y93.181 E1.05000
G1 X166.550 Y93.181 E0.01678
G1 X190.189 Y116.819 E1.05000
G1 X189.654 Y116.819 E0.01678
G1 X166.300 Y93.464 E1.03740
G1 X166.380 Y94.078 E0.01945
G1 X189.120 Y116.819 E1.01013
G1 X188.586 Y116.819 E0.01678
G1 X166.459 Y94.692 E0.98286
G1 X166.539 Y95.306 E0.01945
G1 X188.052 Y116.819 E0.95559
G1 X187.518 Y116.819 E0.01678
G1 X166.619 Y95.920 E0.92832
G1 X166.698 Y96.534 E0.01945
G1 X186.983 Y116.819 E0.90104
G1 X186.449 Y116.819 E0.01678
G1 X166.778 Y97.148 E0.87377
G1 X166.858 Y97.762 E0.01945
G1 X185.915 Y116.819 E0.84650
G1 X185.381 Y116.819 E0.01678
G1 X166.938 Y98.376 E0.81923
G1 X167.017 Y98.990 E0.01945
G1 X184.847 Y116.819 E0.79196
G1 X184.312 Y116.819 E0.01678
G1 X167.097 Y99.604 E0.76469
G1 X167.177 Y100.218 E0.01945
G1 X183.778 Y116.819 E0.73742
G1 X183.244 Y116.819 E0.01678
G1 X167.257 Y100.832 E0.71015
G1 X167.336 Y101.446 E0.01945
M73 P5 R62
G1 X182.710 Y116.819 E0.68288
M73 Q5 S62
G1 X182.176 Y116.819 E0.01678
G1 X167.416 Y102.060 E0.65561
G1 X167.496 Y102.674 E0.01945
G1 X181.641 Y116.819 E0.62834
G1 X181.107 Y116.819 E0.01678
G1 X167.576 Y103.287 E0.60107
G1 X167.655 Y103.901 E0.01945
G1 X180.573 Y116.819 E0.57380
G1 X180.039 Y116.819 E0.01678
G1 X167.735 Y104.515 E0.54652
G1 X167.815 Y105.129 E0.01945
G1 X179.504 Y116.819 E0.51925
G1 X178.970 Y116.819 E0.01678
G1 X167.894 Y105.743 E0.49198
G1 X167.974 Y106.357 E0.01945
G1 X178.436 Y116.819 E0.46471
G1 X177.902 Y116.819 E0.01678
G1 X168.054 Y106.971 E0.43744
G1 X168.134 Y107.585 E0.01945
G1 X177.368 Y116.819 E0.41017
G1 X176.833 Y116.819 E0.01678
G1 X168.213 Y108.199 E0.38290
G1 X168.293 Y108.813 E0.01945
G1 X176.299 Y116.819 E0.35563
G1 X175.765 Y116.819 E0.01678
G1 X168.373 Y109.427 E0.32836
G1 X168.453 Y110.041 E0.01945
G1 X175.231 Y116.819 E0.30109
G1 X174.697 Y116.819 E0.01678
G1 X168.532 Y110.655 E0.27382
G1 X168.612 Y111.269 E0.01945
G1 X174.162 Y116.819 E0.24655
M73 P5 R61
G1 X173.628 Y116.819 E0.01678
G1 X168.692 Y111.883 E0.21928
G1 X168.771 Y112.497 E0.01945
G1 X173.094 Y116.819 E0.19200
G1 X172.560 Y116.819 E0.01678
G1 X169.004 Y113.264 E0.15793
G1 E-0.80000 F2100.000
G1 Z0.800 F10800.000
G1 X165.941 Y126.276
G1 Z0.200
G1 E0.80000 F2100.000
;TYPE:Perimeter
;WIDTH:0.42
G1 F1200.000
G1 X197.720 Y126.276 E0.99642
G1 X195.129 Y146.228 E0.63083
G1 X191.760 Y150.480 E0.17010
G1 X171.901 Y150.480 E0.62265
G1 X168.532 Y146.228 E0.17010
G1 X165.949 Y126.336 E0.62895
G1 X165.512 Y125.899 F10800.000
;TYPE:External perimeter
G1 F1200.000
G1 X198.150 Y125.899 E1.02333
M73 Q5 S61
G1 X195.490 Y146.380 E0.64757
G1 X191.942 Y150.857 E0.17909
G1 X171.719 Y150.857 E0.63408
G1 X168.172 Y146.380 E0.17909
G1 X165.520 Y125.958 E0.64568
G1 X165.873 Y126.070 F10800.000
G1 E-0.80000 F2100.000
G1 Z0.800 F10800.000
G1 X197.504 Y127.063
G1 Z0.200
G1 E0.80000 F2100.000
;TYPE:Solid infill
;WIDTH:0.420661
G1 F1200.000
G1 X197.000 Y126.559 E0.02238
G1 X196.466 Y126.559 E0.01678
G1 X197.291 Y127.384 E0.03666
G1 X197.230 Y127.857 E0.01498
G1 X195.932 Y126.559 E0.05766
G1 X195.398 Y126.559 E0.01678
G1 X197.168 Y128.330 E0.07866
G1 X197.107 Y128.803 E0.01498
G1 X194.863 Y126.559 E0.09966
G1 X194.329 Y126.559 E0.01678
G1 X197.046 Y129.275 E0.12066
G1 X196.984 Y129.748 E0.01498
G1 X193.795 Y126.559 E0.14167
G1 X193.261 Y126.559 E0.01678
G1 X196.923 Y130.221 E0.16267
G1 X196.861 Y130.694 E0.01498
G1 X192.727 Y126.559 E0.18367
G1 X192.192 Y126.559 E0.01678
G1 X196.800 Y131.167 E0.20467
G1 X196.739 Y131.639 E0.01498
G1 X191.658 Y126.559 E0.22567
G1 X191.124 Y126.559 E0.01678
G1 X196.677 Y132.112 E0.24667
G1 X196.616 Y132.585 E0.01498
G1 X190.590 Y126.559 E0.26768
G1 X190.055 Y126.559 E0.01678
G1 X196.554 Y133.058 E0.28868
G1 X196.493 Y133.531 E0.01498
G1 X189.521 Y126.559 E0.30968
G1 X188.987 Y126.559 E0.01678
G1 X196.432 Y134.003 E0.33068
G1 X196.370 Y134.476 E0.01498
G1 X188.453 Y126.559 E0.35168
G1 X187.919 Y126.559 E0.01678
G1 X196.309 Y134.949 E0.37268
G1 X196.247 Y135.422 E0.01498
G1 X187.384 Y126.559 E0.39369
G1 X186.850 Y126.559 E0.01678
G1 X196.186 Y135.895 E0.41469
G1 X196.125 Y136.367 E0.01498
G1 X186.316 Y126.559 E0.43569
G1 X185.782 Y126.559 E0.01678
G1 X196.063 Y136.840 E0.45669
G1 X196.002 Y137.313 E0.01498
G1 X185.248 Y126.559 E0.47769
G1 X184.713 Y126.559 E0.01678
G1 X195.940 Y137.786 E0.49869
G1 X195.879 Y138.259 E0.01498
G1 X184.179 Y126.559 E0.51970
