; generated by PrusaSlicer 2.3.1+win64 on 2021-08-06 at 19:22:43 UTC

; 

; external perimeters extrusion width = 0.45mm
; perimeters extrusion width = 0.45mm
; infill extrusion width = 0.45mm
; solid infill extrusion width = 0.45mm
; top infill extrusion width = 0.40mm
; support material extrusion width = 0.35mm
; first layer extrusion width = 0.42mm

M73 P0 R95
M73 Q0 S95
M201 X1000 Y1000 Z1000 E5000 ; sets maximum accelerations, mm/sec^2
M203 X200 Y200 Z12 E120 ; sets maximum feedrates, mm/sec
M204 P1250 R1250 T1250 ; sets acceleration (P, T) and retract acceleration (R), mm/sec^2
M205 X8.00 Y8.00 Z0.40 E1.50 ; sets the jerk limits, mm/sec
M205 S0 T0 ; sets the minimum extruding and travel feed rate, mm/sec
M107
;TYPE:Custom
M862.3 P "MK3S" ; printer model check
M862.1 P0.4 ; nozzle diameter check
M115 U3.8.0 ; tell printer latest fw version
G90 ; use absolute coordinates
M83 ; extruder relative mode
M104 S215 ; set extruder temp
M140 S60 ; set bed temp
M190 S60 ; wait for bed temp
M109 S215 ; wait for extruder temp
G28 W ; home all without mesh bed level
G80 ; mesh bed leveling
G1 Y-3.0 F1000.0 ; go outside print area
G92 E0.0
G1 X60.0 E9.0 F1000.0 ; intro line
M73 P0 R94
M73 Q0 S94
G1 X100.0 E12.5 F1000.0 ; intro line
G92 E0.0
M221 S95
G21 ; set units to millimeters
G90 ; use absolute coordinates
M83 ; use relative distances for extrusion
M900 K0.05 ; Filament gcode LA 1.5
M900 K30 ; Filament gcode LA 1.0
;LAYER_CHANGE
;Z:0.2
;HEIGHT:0.2
;BEFORE_LAYER_CHANGE
G92 E0.0
;0.2


G1 E-0.80000 F2100.000
G1 Z0.600 F10800.000
;AFTER_LAYER_CHANGE
;0.2
G1 X172.785 Y34.587
G1 Z0.200
G1 E0.80000 F2100.000
M204 S1000
;TYPE:Perimeter
;WIDTH:0.42
G1 F1200.000
G1 X180.541 Y34.595 E0.24318
G1 X190.475 Y34.636 E0.31147
G1 X190.502 Y37.332 E0.08454
G1 X188.813 Y60.895 E0.74071
G1 X187.384 Y60.797 E0.04490
G1 X180.347 Y69.404 E0.34858
G1 X180.352 Y69.857 E0.01423
G1 X177.015 Y69.784 E0.10464
G1 X177.016 Y75.412 E0.17646
G1 X175.110 Y75.412 E0.05975
G1 X175.110 Y69.742 E0.17778
G1 X170.893 Y69.650 E0.13223
G1 X166.677 Y69.744 E0.13223
G1 X166.676 Y75.412 E0.17773
G1 X164.771 Y75.412 E0.05975
G1 X164.772 Y69.786 E0.17640
G1 X161.435 Y69.861 E0.10464
G1 X161.440 Y69.407 E0.01423
G1 X154.399 Y60.803 E0.34858
G1 X152.971 Y60.901 E0.04490
G1 X151.273 Y37.339 E0.74071
G1 X151.300 Y34.642 E0.08454
G1 X161.233 Y34.598 E0.31147
G1 X172.725 Y34.587 E0.36033
G1 X172.726 Y34.210 F10800.000
;TYPE:External perimeter
G1 F1200.000
G1 X180.542 Y34.218 E0.24508
G1 X190.849 Y34.260 E0.32315
G1 X190.880 Y37.344 E0.09668
G1 X189.162 Y61.297 E0.75298
G1 X187.553 Y61.187 E0.05057
G1 X180.725 Y69.536 E0.33818
G1 X180.733 Y70.243 E0.02216
G1 X177.392 Y70.170 E0.10477
G1 X177.393 Y75.789 E0.17620
G1 X174.733 Y75.789 E0.08339
G1 X174.733 Y70.111 E0.17804
G1 X170.893 Y70.027 E0.12041
G1 X167.054 Y70.113 E0.12041
G1 X167.054 Y75.789 E0.17799
G1 X164.394 Y75.789 E0.08339
G1 X164.394 Y70.172 E0.17613
G1 X161.054 Y70.246 E0.10477
G1 X161.061 Y69.540 E0.02216
G1 X154.231 Y61.193 E0.33818
G1 X152.622 Y61.303 E0.05057
G1 X150.896 Y37.350 E0.75298
G1 X150.926 Y34.267 E0.09668
G1 X161.232 Y34.221 E0.32315
G1 X172.666 Y34.210 E0.35849
G1 X172.926 Y34.557 F10800.000
G1 E-0.80000 F2100.000
G1 Z0.800 F10800.000
G1 X190.371 Y35.525
G1 Z0.200
G1 E0.80000 F2100.000
;TYPE:Solid infill
;WIDTH:0.422946
G1 F1200.000
G1 X189.762 Y34.916 E0.02723
G1 X189.222 Y34.913 E0.01705
G1 X190.205 Y35.896 E0.04393
G1 X190.211 Y36.439 E0.01716
G1 X188.682 Y34.911 E0.06829
G1 X188.143 Y34.909 E0.01705
G1 X190.216 Y36.982 E0.09265
G1 X190.206 Y37.510 E0.01667
G1 X187.603 Y34.907 E0.11632
G1 X187.063 Y34.904 E0.01705
G1 X190.170 Y38.011 E0.13883
G1 X190.134 Y38.513 E0.01589
G1 X186.524 Y34.902 E0.16134
G1 X185.984 Y34.900 E0.01705
G1 X190.098 Y39.014 E0.18385
G1 X190.062 Y39.516 E0.01589
G1 X185.444 Y34.898 E0.20636
G1 X184.905 Y34.896 E0.01705
G1 X190.026 Y40.017 E0.22887
G1 X189.990 Y40.519 E0.01589
G1 X184.365 Y34.893 E0.25138
G1 X183.825 Y34.891 E0.01705
G1 X189.954 Y41.020 E0.27389
G1 X189.918 Y41.522 E0.01589
G1 X183.286 Y34.889 E0.29640
G1 X182.746 Y34.887 E0.01705
G1 X189.883 Y42.023 E0.31891
G1 X189.847 Y42.525 E0.01589
G1 X182.207 Y34.884 E0.34142
G1 X181.667 Y34.882 E0.01705
G1 X189.811 Y43.026 E0.36393
G1 X189.775 Y43.527 E0.01589
G1 X181.127 Y34.880 E0.38644
G1 X180.588 Y34.878 E0.01705
G1 X189.739 Y44.029 E0.40895
G1 X189.703 Y44.530 E0.01589
G1 X180.050 Y34.878 E0.43136
G1 X179.513 Y34.878 E0.01698
G1 X189.667 Y45.032 E0.45377
G1 X189.631 Y45.533 E0.01589
G1 X178.975 Y34.878 E0.47617
G1 X178.438 Y34.878 E0.01698
G1 X189.595 Y46.035 E0.49858
G1 X189.559 Y46.536 E0.01589
G1 X177.901 Y34.878 E0.52099
G1 X177.363 Y34.878 E0.01698
G1 X189.523 Y47.038 E0.54339
G1 X189.487 Y47.539 E0.01589
G1 X176.826 Y34.878 E0.56580
G1 X176.289 Y34.878 E0.01698
G1 X189.451 Y48.041 E0.58821
G1 X189.415 Y48.542 E0.01589
G1 X175.751 Y34.878 E0.61061
G1 X175.214 Y34.879 E0.01698
G1 X189.379 Y49.044 E0.63302
G1 X189.343 Y49.545 E0.01589
G1 X174.677 Y34.879 E0.65542
G1 X174.139 Y34.879 E0.01698
G1 X189.307 Y50.047 E0.67783
G1 X189.271 Y50.548 E0.01589
G1 X173.602 Y34.879 E0.70024
G1 X173.064 Y34.879 E0.01698
G1 X189.235 Y51.050 E0.72264
G1 X189.199 Y51.551 E0.01589
G1 X172.527 Y34.879 E0.74505
G1 X171.990 Y34.879 E0.01698
G1 X189.163 Y52.053 E0.76746
G1 X189.127 Y52.554 E0.01589
G1 X171.452 Y34.879 E0.78986
G1 X170.915 Y34.879 E0.01698
G1 X189.091 Y53.056 E0.81227
G1 X189.055 Y53.557 E0.01589
G1 X170.378 Y34.879 E0.83467
G1 X169.840 Y34.879 E0.01698
G1 X189.020 Y54.059 E0.85708
G1 X188.984 Y54.560 E0.01589
G1 X169.303 Y34.880 E0.87949
G1 X168.766 Y34.880 E0.01698
G1 X188.948 Y55.062 E0.90189
G1 X188.912 Y55.563 E0.01589
G1 X168.228 Y34.880 E0.92430
G1 X167.691 Y34.880 E0.01698
G1 X188.876 Y56.064 E0.94670
M73 P1 R94
M73 Q1 S94
G1 X188.840 Y56.566 E0.01589
G1 X167.154 Y34.880 E0.96911
G1 X166.616 Y34.880 E0.01698
G1 X188.804 Y57.067 E0.99152
G1 X188.768 Y57.569 E0.01589
G1 X166.079 Y34.880 E1.01392
M73 P1 R93
M73 Q1 S93
G1 X165.542 Y34.880 E0.01698
G1 X188.732 Y58.070 E1.03633
G1 X188.696 Y58.572 E0.01589
G1 X165.004 Y34.880 E1.05874
G1 X164.467 Y34.880 E0.01698
G1 X188.660 Y59.073 E1.08114
G1 X188.624 Y59.575 E0.01589
G1 X163.930 Y34.880 E1.10355
G1 X163.392 Y34.880 E0.01698
G1 X188.588 Y60.076 E1.12595
G1 X188.552 Y60.578 E0.01589
G1 X162.855 Y34.881 E1.14836
G1 X162.318 Y34.881 E0.01698
G1 X187.992 Y60.556 E1.14737
G1 X187.416 Y60.516 E0.01827
G1 X161.780 Y34.881 E1.14560
G1 X161.243 Y34.881 E0.01698
G1 X187.082 Y60.720 E1.15471
G1 X186.840 Y61.016 E0.01207
G1 X160.708 Y34.883 E1.16782
G1 X160.173 Y34.886 E0.01691
G1 X186.599 Y61.311 E1.18092
G1 X186.357 Y61.607 E0.01207
G1 X159.638 Y34.888 E1.19403
G1 X159.103 Y34.890 E0.01691
G1 X186.115 Y61.903 E1.20714
G1 X185.873 Y62.198 E0.01207
G1 X158.567 Y34.893 E1.22024
G1 X158.032 Y34.895 E0.01691
G1 X185.631 Y62.494 E1.23335
G1 X185.390 Y62.790 E0.01207
G1 X157.497 Y34.897 E1.24646
G1 X156.962 Y34.900 E0.01691
G1 X185.148 Y63.085 E1.25956
G1 X184.906 Y63.381 E0.01207
G1 X156.427 Y34.902 E1.27267
G1 X155.892 Y34.905 E0.01691
G1 X184.664 Y63.677 E1.28577
G1 X184.423 Y63.972 E0.01207
G1 X155.357 Y34.907 E1.29888
G1 X154.822 Y34.909 E0.01691
G1 X184.181 Y64.268 E1.31199
G1 X183.939 Y64.564 E0.01207
G1 X154.287 Y34.912 E1.32509
G1 X153.752 Y34.914 E0.01691
G1 X183.697 Y64.859 E1.33820
G1 X183.455 Y65.155 E0.01207
G1 X153.217 Y34.917 E1.35130
G1 X152.682 Y34.919 E0.01691
G1 X183.214 Y65.451 E1.36441
G1 X182.972 Y65.746 E0.01207
G1 X152.147 Y34.921 E1.37752
M73 P2 R93
M73 Q2 S93
G1 X151.612 Y34.924 E0.01691
G1 X182.730 Y66.042 E1.39062
G1 X182.488 Y66.338 E0.01207
G1 X151.575 Y35.424 E1.38147
G1 X151.570 Y35.956 E0.01682
G1 X182.247 Y66.633 E1.37090
G1 X182.005 Y66.929 E0.01207
G1 X151.564 Y36.489 E1.36033
M73 P2 R92
M73 Q2 S92
G1 X151.559 Y37.021 E0.01682
G1 X181.763 Y67.225 E1.34975
G1 X181.521 Y67.520 E0.01207
G1 X151.574 Y37.573 E1.33830
G1 X151.615 Y38.152 E0.01835
G1 X181.279 Y67.816 E1.32563
G1 X181.038 Y68.112 E0.01207
G1 X151.657 Y38.731 E1.31296
G1 X151.699 Y39.310 E0.01835
G1 X180.796 Y68.407 E1.30029
G1 X180.554 Y68.703 E0.01207
G1 X151.741 Y39.889 E1.28762
G1 X151.782 Y40.469 E0.01835
G1 X180.312 Y68.999 E1.27495
G1 X180.071 Y69.294 E0.01207
G1 X151.824 Y41.048 E1.26228
G1 X151.866 Y41.627 E0.01835
G1 X179.801 Y69.562 E1.24839
G1 X179.252 Y69.550 E0.01737
G1 X151.908 Y42.206 E1.22197
G1 X151.949 Y42.785 E0.01835
G1 X178.702 Y69.538 E1.19555
G1 X178.153 Y69.526 E0.01737
G1 X151.991 Y43.364 E1.16913
G1 X152.033 Y43.944 E0.01835
G1 X177.603 Y69.514 E1.14270
G1 X177.054 Y69.502 E0.01737
G1 X152.074 Y44.523 E1.11628
G1 X152.116 Y45.102 E0.01835
G1 X176.732 Y69.718 E1.10005
G1 X176.732 Y70.256 E0.01698
G1 X152.158 Y45.681 E1.09819
G1 X152.200 Y46.260 E0.01835
G1 X176.732 Y70.793 E1.09633
G1 X176.733 Y71.331 E0.01698
G1 X175.392 Y69.991 E0.05988
G1 X175.393 Y70.528 E0.01698
G1 X176.733 Y71.868 E0.05988
G1 X176.733 Y72.406 E0.01698
G1 X175.393 Y71.066 E0.05988
G1 X175.393 Y71.603 E0.01698
G1 X176.733 Y72.943 E0.05988
G1 X176.733 Y73.481 E0.01698
G1 X175.393 Y72.141 E0.05988
G1 X175.393 Y72.678 E0.01698
G1 X176.733 Y74.018 E0.05988
G1 X176.733 Y74.556 E0.01698
G1 X175.393 Y73.216 E0.05988
G1 X175.393 Y73.753 E0.01698
G1 X176.733 Y75.093 E0.05988
G1 X176.733 Y75.129 E0.00115
G1 X176.232 Y75.129 E0.01583
G1 X175.393 Y74.291 E0.03749
G1 X175.393 Y74.828 E0.01698
G1 X175.864 Y75.299 E0.02105
G1 E-0.80000 F2100.000
G1 Z0.800 F10800.000
G1 X175.029 Y69.627
G1 Z0.200
G1 E0.80000 F2100.000
G1 F1200.000
G1 X152.241 Y46.839 E1.01836
G1 X152.283 Y47.419 E0.01835
G1 X174.306 Y69.442 E0.98418
G1 X173.757 Y69.430 E0.01737
G1 X152.325 Y47.998 E0.95776
G1 X152.366 Y48.577 E0.01835
G1 X173.207 Y69.418 E0.93134
G1 X172.658 Y69.406 E0.01737
G1 X152.408 Y49.156 E0.90492
G1 X152.450 Y49.735 E0.01835
G1 X172.108 Y69.394 E0.87850
G1 X171.559 Y69.382 E0.01737
G1 X152.492 Y50.314 E0.85208
G1 X152.533 Y50.894 E0.01835
G1 X171.009 Y69.370 E0.82566
G1 X170.479 Y69.376 E0.01677
G1 X152.575 Y51.473 E0.80008
M73 P3 R92
M73 Q3 S92
G1 X152.617 Y52.052 E0.01835
G1 X169.953 Y69.388 E0.77472
G1 X169.427 Y69.400 E0.01662
G1 X152.659 Y52.631 E0.74936
G1 X152.700 Y53.210 E0.01835
G1 X168.901 Y69.411 E0.72400
G1 X168.376 Y69.423 E0.01662
G1 X152.742 Y53.789 E0.69864
G1 X152.784 Y54.368 E0.01835
G1 X167.850 Y69.435 E0.67329
G1 X167.324 Y69.447 E0.01662
G1 X152.825 Y54.948 E0.64793
G1 X152.867 Y55.527 E0.01835
G1 X166.799 Y69.458 E0.62257
G1 X166.394 Y69.467 E0.01278
G1 X166.394 Y69.591 E0.00392
G1 X152.909 Y56.106 E0.60264
G1 X152.951 Y56.685 E0.01835
G1 X166.394 Y70.129 E0.60077
G1 X166.394 Y70.666 E0.01698
G1 X152.992 Y57.264 E0.59890
M73 P3 R91
G1 X153.034 Y57.843 E0.01835
G1 X164.696 Y69.505 E0.52114
M73 Q3 S91
G1 X164.170 Y69.517 E0.01662
G1 X153.076 Y58.423 E0.49578
G1 X153.117 Y59.002 E0.01835
G1 X163.644 Y69.529 E0.47042
G1 X163.118 Y69.540 E0.01662
G1 X156.492 Y62.914 E0.29612
G1 X158.913 Y65.872 E0.12078
G1 X162.593 Y69.552 E0.16445
G1 X162.067 Y69.564 E0.01662
G1 X160.127 Y67.623 E0.08672
G1 E-0.80000 F2100.000
G1 Z0.800 F10800.000
G1 X166.564 Y71.373
G1 Z0.200
G1 E0.80000 F2100.000
G1 F1200.000
G1 X165.054 Y69.864 E0.06745
G1 X165.054 Y70.401 E0.01698
G1 X166.394 Y71.741 E0.05987
G1 X166.394 Y72.278 E0.01698
G1 X165.054 Y70.939 E0.05987
G1 X165.054 Y71.476 E0.01698
G1 X166.394 Y72.816 E0.05987
G1 X166.394 Y73.353 E0.01698
G1 X165.054 Y72.013 E0.05987
G1 X165.054 Y72.551 E0.01698
G1 X166.394 Y73.890 E0.05987
G1 X166.394 Y74.428 E0.01698
G1 X165.054 Y73.088 E0.05987
G1 X165.054 Y73.625 E0.01698
G1 X166.394 Y74.965 E0.05987
G1 X166.394 Y75.130 E0.00519
G1 X166.021 Y75.129 E0.01179
G1 X165.054 Y74.163 E0.04320
G1 X165.054 Y74.700 E0.01698
G1 X165.653 Y75.299 E0.02676
G1 E-0.80000 F2100.000
G1 Z0.800 F10800.000
G1 X154.276 Y60.698
G1 Z0.200
G1 E0.80000 F2100.000
G1 F1200.000
G1 X153.159 Y59.581 E0.04992
G1 X153.201 Y60.160 E0.01835
G1 X153.773 Y60.733 E0.02559
G1 E-0.80000 F2100.000
G1 Z0.800 F10800.000
G1 X105.508 Y75.363
G1 Z0.200
G1 E0.80000 F2100.000
;TYPE:Perimeter
;WIDTH:0.42
G1 F1200.000
G1 X105.418 Y75.362 E0.00282
G1 X105.391 Y72.666 E0.08454
G1 X107.080 Y49.103 E0.74071
G1 X108.509 Y49.200 E0.04490
G1 X115.547 Y40.594 E0.34858
G1 X115.542 Y40.140 E0.01423
G1 X118.878 Y40.214 E0.10464
G1 X118.877 Y34.586 E0.17646
G1 X120.783 Y34.586 E0.05975
G1 X120.784 Y40.256 E0.17778
G1 X125.000 Y40.348 E0.13223
G1 X129.216 Y40.254 E0.13223
G1 X129.217 Y34.586 E0.17773
G1 X131.122 Y34.586 E0.05975
G1 X131.122 Y40.212 E0.17640
G1 X134.458 Y40.137 E0.10464
G1 X134.453 Y40.591 E0.01423
G1 X141.494 Y49.195 E0.34858
G1 X142.922 Y49.097 E0.04490
G1 X144.620 Y72.659 E0.74071
G1 X144.594 Y75.356 E0.08454
G1 X134.660 Y75.400 E0.31147
G1 X125.006 Y75.412 E0.30270
G1 X115.352 Y75.403 E0.30270
G1 X105.568 Y75.363 E0.30677
G1 X105.566 Y75.740 F10800.000
;TYPE:External perimeter
G1 F1200.000
G1 X105.045 Y75.738 E0.01636
G1 X105.014 Y72.654 E0.09668
G1 X106.731 Y48.701 E0.75298
G1 X108.340 Y48.811 E0.05057
G1 X115.168 Y40.462 E0.33818
G1 X115.160 Y39.755 E0.02216
G1 X118.501 Y39.828 E0.10477
G1 X118.500 Y34.209 E0.17620
G1 X121.160 Y34.208 E0.08339
G1 X121.161 Y39.887 E0.17804
G1 X125.000 Y39.971 E0.12041
G1 X128.839 Y39.885 E0.12041
G1 X128.840 Y34.208 E0.17799
G1 X131.499 Y34.209 E0.08339
G1 X131.499 Y39.826 E0.17613
G1 X134.839 Y39.752 E0.10477
G1 X134.832 Y40.458 E0.02216
G1 X141.662 Y48.805 E0.33818
G1 X143.272 Y48.695 E0.05057
G1 X144.997 Y72.648 E0.75298
G1 X144.967 Y75.731 E0.09668
G1 X134.661 Y75.777 E0.32315
G1 X125.006 Y75.789 E0.30273
G1 X115.351 Y75.780 E0.30273
G1 X105.626 Y75.740 E0.30490
G1 X105.368 Y75.393 F10800.000
G1 X106.302 Y75.253
;TYPE:Solid infill
;WIDTH:0.422946
G1 F1200.000
G1 X105.694 Y74.644 E0.02719
G1 X105.688 Y74.101 E0.01716
G1 X106.671 Y75.085 E0.04393
G1 X107.211 Y75.087 E0.01705
G1 X105.683 Y73.559 E0.06829
G1 X105.677 Y73.016 E0.01716
G1 X107.750 Y75.089 E0.09265
G1 X108.290 Y75.091 E0.01705
G1 X105.687 Y72.488 E0.11633
G1 X105.723 Y71.987 E0.01589
G1 X108.830 Y75.093 E0.13883
G1 X109.369 Y75.096 E0.01705
G1 X105.759 Y71.485 E0.16134
G1 X105.795 Y70.984 E0.01589
G1 X109.909 Y75.098 E0.18385
G1 X110.449 Y75.100 E0.01705
G1 X105.831 Y70.482 E0.20636
G1 X105.867 Y69.981 E0.01589
G1 X110.988 Y75.102 E0.22887
G1 X111.528 Y75.105 E0.01705
G1 X105.903 Y69.479 E0.25138
G1 X105.939 Y68.978 E0.01589
G1 X112.068 Y75.107 E0.27389
G1 X112.607 Y75.109 E0.01705
G1 X105.975 Y68.476 E0.29640
G1 X106.011 Y67.975 E0.01589
G1 X113.147 Y75.111 E0.31891
G1 X113.687 Y75.113 E0.01705
G1 X106.047 Y67.473 E0.34142
G1 X106.083 Y66.972 E0.01589
G1 X114.226 Y75.116 E0.36393
G1 X114.766 Y75.118 E0.01705
G1 X106.119 Y66.470 E0.38644
G1 X106.155 Y65.969 E0.01589
G1 X115.306 Y75.120 E0.40895
G1 X115.844 Y75.121 E0.01700
G1 X106.190 Y65.467 E0.43139
G1 X106.226 Y64.966 E0.01589
G1 X116.382 Y75.121 E0.45382
G1 X116.920 Y75.122 E0.01700
G1 X106.262 Y64.465 E0.47625
G1 X106.298 Y63.963 E0.01589
G1 X117.458 Y75.122 E0.49869
G1 X117.996 Y75.123 E0.01700
G1 X106.334 Y63.462 E0.52112
G1 X106.370 Y62.960 E0.01589
G1 X118.534 Y75.123 E0.54355
G1 X119.072 Y75.124 E0.01700
G1 X106.406 Y62.459 E0.56599
G1 X106.442 Y61.957 E0.01589
G1 X119.609 Y75.124 E0.58842
G1 X120.147 Y75.125 E0.01700
G1 X106.478 Y61.456 E0.61086
G1 X106.514 Y60.954 E0.01589
G1 X120.685 Y75.125 E0.63329
G1 X121.223 Y75.126 E0.01700
G1 X106.550 Y60.453 E0.65572
G1 X106.586 Y59.951 E0.01589
G1 X121.761 Y75.126 E0.67816
G1 X122.299 Y75.127 E0.01700
G1 X106.622 Y59.450 E0.70059
G1 X106.658 Y58.948 E0.01589
G1 X122.837 Y75.128 E0.72302
G1 X123.375 Y75.128 E0.01700
G1 X106.694 Y58.447 E0.74546
G1 X106.730 Y57.945 E0.01589
G1 X123.913 Y75.129 E0.76789
M73 P4 R91
M73 Q4 S91
G1 X124.451 Y75.129 E0.01700
G1 X106.766 Y57.444 E0.79032
G1 X106.802 Y56.942 E0.01589
G1 X124.989 Y75.130 E0.81276
G1 X125.526 Y75.129 E0.01696
G1 X106.838 Y56.441 E0.83514
G1 X106.874 Y55.939 E0.01589
G1 X126.063 Y75.128 E0.85752
G1 X126.599 Y75.128 E0.01696
G1 X106.910 Y55.438 E0.87989
G1 X106.946 Y54.936 E0.01589
G1 X127.136 Y75.127 E0.90227
G1 X127.673 Y75.126 E0.01696
G1 X106.982 Y54.435 E0.92465
G1 X107.018 Y53.933 E0.01589
G1 X128.210 Y75.125 E0.94703
