; generated by PrusaSlicer 2.2.0+win64 on 2021-04-06 at 22:17:14 UTC

; 

; external perimeters extrusion width = 0.45mm
; perimeters extrusion width = 0.45mm
; infill extrusion width = 0.45mm
; solid infill extrusion width = 0.45mm
; top infill extrusion width = 0.40mm
; first layer extrusion width = 0.42mm

M73 P0 R51
M73 Q0 S52
M201 X1000 Y1000 Z1000 E5000 ; sets maximum accelerations, mm/sec^2
M203 X200 Y200 Z12 E120 ; sets maximum feedrates, mm/sec
M204 P1250 R1250 T1250 ; sets acceleration (P, T) and retract acceleration (R), mm/sec^2
M205 X8.00 Y8.00 Z0.40 E1.50 ; sets the jerk limits, mm/sec
M205 S0 T0 ; sets the minimum extruding and travel feed rate, mm/sec
M107
M862.3 P "MK3S" ; printer model check
M862.1 P0.4 ; nozzle diameter check
M115 U3.8.0 ; tell printer latest fw version
G90 ; use absolute coordinates
M83 ; extruder relative mode
M104 S215 ; set extruder temp
M140 S60 ; set bed temp
M190 S60 ; wait for bed temp
M109 S215 ; wait for extruder temp
G28 W ; home all without mesh bed level
G80 ; mesh bed leveling
G1 Y-3.0 F1000.0 ; go outside print area
G92 E0.0
G1 X60.0 E9.0 F1000.0 ; intro line
M73 Q0 S52
M73 P0 R51
G1 X100.0 E12.5 F1000.0 ; intro line
G92 E0.0
M221 S95
G21 ; set units to millimeters
G90 ; use absolute coordinates
M83 ; use relative distances for extrusion
M900 K0.05 ; Filament gcode LA 1.5
M900 K30 ; Filament gcode LA 1.0
;BEFORE_LAYER_CHANGE
G92 E0.0
;0.2


G1 E-0.80000 F2100.00000
G1 Z0.600 F10800.000
;AFTER_LAYER_CHANGE
;0.2
G1 X109.160 Y139.013
G1 Z0.200
G1 E0.80000 F2100.00000
M204 S1000
G1 F1200.000
G1 X104.334 Y139.013 E0.15131
G1 X104.334 Y100.642 E1.20310
G1 X104.465 Y100.386 E0.00899
G1 X121.734 Y77.295 E0.90409
G1 X121.734 Y61.087 E0.50820
G1 X145.260 Y61.087 E0.73764
G1 X145.260 Y76.513 E0.48367
G1 X122.805 Y76.513 E0.70407
G1 X109.160 Y100.344 E0.86101
G1 X109.160 Y138.953 E1.21056
G1 X109.537 Y139.390 F10800.000
G1 F1200.000
G1 X103.957 Y139.390 E0.17496
G1 X103.957 Y100.551 E1.21778
G1 X104.144 Y100.186 E0.01285
G1 X121.357 Y77.170 E0.90115
G1 X121.357 Y60.710 E0.51609
G1 X145.637 Y60.710 E0.76128
G1 X145.637 Y76.890 E0.50731
G1 X123.024 Y76.890 E0.70904
G1 X109.537 Y100.444 E0.85101
G1 X109.537 Y139.330 E1.21924
G1 X109.206 Y139.166 F10800.000
G1 E-0.80000 F2100.00000
G1 Z0.800 F10800.000
G1 X104.448 Y138.134
G1 Z0.200
G1 E0.80000 F2100.00000
G1 F1200.000
G1 X105.043 Y138.730 E0.02652
G1 X105.579 Y138.730 E0.01685
G1 X104.617 Y137.769 E0.04279
G1 X104.617 Y137.233 E0.01685
G1 X106.114 Y138.730 E0.06662
G1 X106.649 Y138.730 E0.01685
G1 X104.617 Y136.698 E0.09045
G1 X104.617 Y136.163 E0.01685
G1 X107.185 Y138.730 E0.11428
G1 X107.720 Y138.730 E0.01685
G1 X104.617 Y135.627 E0.13811
G1 X104.617 Y135.092 E0.01685
G1 X108.255 Y138.730 E0.16194
G1 X108.791 Y138.730 E0.01685
G1 X104.617 Y134.557 E0.18577
G1 X104.617 Y134.021 E0.01685
G1 X108.877 Y138.282 E0.18964
G1 X108.877 Y137.746 E0.01685
G1 X104.617 Y133.486 E0.18964
G1 X104.617 Y132.951 E0.01685
G1 X108.877 Y137.211 E0.18964
G1 X108.877 Y136.676 E0.01685
G1 X104.617 Y132.415 E0.18964
G1 X104.617 Y131.880 E0.01685
G1 X108.877 Y136.140 E0.18964
G1 X108.877 Y135.605 E0.01685
G1 X104.617 Y131.345 E0.18964
G1 X104.617 Y130.809 E0.01685
G1 X108.877 Y135.070 E0.18964
G1 X108.877 Y134.534 E0.01685
G1 X104.617 Y130.274 E0.18964
G1 X104.617 Y129.739 E0.01685
G1 X108.877 Y133.999 E0.18964
G1 X108.877 Y133.464 E0.01685
G1 X104.617 Y129.203 E0.18964
G1 X104.617 Y128.668 E0.01685
G1 X108.877 Y132.928 E0.18964
G1 X108.877 Y132.393 E0.01685
G1 X104.617 Y128.133 E0.18964
G1 X104.617 Y127.597 E0.01685
G1 X108.877 Y131.858 E0.18964
G1 X108.877 Y131.322 E0.01685
G1 X104.617 Y127.062 E0.18964
G1 X104.617 Y126.527 E0.01685
G1 X108.877 Y130.787 E0.18964
G1 X108.877 Y130.252 E0.01685
G1 X104.617 Y125.991 E0.18964
G1 X104.617 Y125.456 E0.01685
G1 X108.877 Y129.716 E0.18964
G1 X108.877 Y129.181 E0.01685
G1 X104.617 Y124.921 E0.18964
G1 X104.617 Y124.385 E0.01685
G1 X108.877 Y128.646 E0.18964
G1 X108.877 Y128.110 E0.01685
G1 X104.617 Y123.850 E0.18964
G1 X104.617 Y123.315 E0.01685
G1 X108.877 Y127.575 E0.18964
G1 X108.877 Y127.040 E0.01685
G1 X104.617 Y122.779 E0.18964
G1 X104.617 Y122.244 E0.01685
G1 X108.877 Y126.504 E0.18964
G1 X108.877 Y125.969 E0.01685
G1 X104.617 Y121.709 E0.18964
G1 X104.617 Y121.173 E0.01685
G1 X108.877 Y125.434 E0.18964
G1 X108.877 Y124.898 E0.01685
G1 X104.617 Y120.638 E0.18964
G1 X104.617 Y120.103 E0.01685
G1 X108.877 Y124.363 E0.18964
G1 X108.877 Y123.828 E0.01685
G1 X104.617 Y119.567 E0.18964
G1 X104.617 Y119.032 E0.01685
G1 X108.877 Y123.292 E0.18964
G1 X108.877 Y122.757 E0.01685
G1 X104.617 Y118.497 E0.18964
G1 X104.617 Y117.961 E0.01685
G1 X108.877 Y122.222 E0.18964
G1 X108.877 Y121.686 E0.01685
G1 X104.617 Y117.426 E0.18964
G1 X104.617 Y116.891 E0.01685
G1 X108.877 Y121.151 E0.18964
G1 X108.877 Y120.616 E0.01685
G1 X104.617 Y116.355 E0.18964
G1 X104.617 Y115.820 E0.01685
G1 X108.877 Y120.080 E0.18964
G1 X108.877 Y119.545 E0.01685
G1 X104.617 Y115.285 E0.18964
G1 X104.617 Y114.749 E0.01685
G1 X108.877 Y119.010 E0.18964
G1 X108.877 Y118.474 E0.01685
G1 X104.617 Y114.214 E0.18964
G1 X104.617 Y113.679 E0.01685
G1 X108.877 Y117.939 E0.18964
G1 X108.877 Y117.404 E0.01685
G1 X104.617 Y113.143 E0.18964
G1 X104.617 Y112.608 E0.01685
G1 X108.877 Y116.868 E0.18964
G1 X108.877 Y116.333 E0.01685
G1 X104.617 Y112.073 E0.18964
G1 X104.617 Y111.537 E0.01685
G1 X108.877 Y115.798 E0.18964
G1 X108.877 Y115.262 E0.01685
G1 X104.617 Y111.002 E0.18964
G1 X104.617 Y110.467 E0.01685
G1 X108.877 Y114.727 E0.18964
G1 X108.877 Y114.192 E0.01685
G1 X104.617 Y109.931 E0.18964
G1 X104.617 Y109.396 E0.01685
G1 X108.877 Y113.656 E0.18964
G1 X108.877 Y113.121 E0.01685
G1 X104.617 Y108.861 E0.18964
G1 X104.617 Y108.325 E0.01685
G1 X108.877 Y112.586 E0.18964
G1 X108.877 Y112.050 E0.01685
G1 X104.617 Y107.790 E0.18964
G1 X104.617 Y107.255 E0.01685
G1 X108.877 Y111.515 E0.18964
G1 X108.877 Y110.980 E0.01685
G1 X104.617 Y106.719 E0.18964
G1 X104.617 Y106.184 E0.01685
G1 X108.877 Y110.444 E0.18964
G1 X108.877 Y109.909 E0.01685
G1 X104.617 Y105.649 E0.18964
G1 X104.617 Y105.113 E0.01685
G1 X108.877 Y109.374 E0.18964
G1 X108.877 Y108.838 E0.01685
G1 X104.617 Y104.578 E0.18964
G1 X104.617 Y104.043 E0.01685
G1 X108.877 Y108.303 E0.18964
G1 X108.877 Y107.768 E0.01685
G1 X104.617 Y103.507 E0.18964
G1 X104.617 Y102.972 E0.01685
G1 X108.877 Y107.232 E0.18964
G1 X108.877 Y106.697 E0.01685
G1 X104.617 Y102.437 E0.18964
G1 X104.617 Y101.901 E0.01685
G1 X108.877 Y106.162 E0.18964
G1 X108.877 Y105.626 E0.01685
G1 X104.617 Y101.366 E0.18964
G1 X104.617 Y100.831 E0.01685
G1 X108.877 Y105.091 E0.18964
G1 X108.877 Y104.556 E0.01685
G1 X104.771 Y100.449 E0.18278
G1 X105.000 Y100.143 E0.01204
G1 X108.877 Y104.020 E0.17258
G1 X108.877 Y103.485 E0.01685
G1 X105.230 Y99.837 E0.16238
G1 X105.459 Y99.531 E0.01204
G1 X108.877 Y102.949 E0.15219
G1 X108.877 Y102.414 E0.01685
G1 X105.688 Y99.224 E0.14199
G1 X105.917 Y98.918 E0.01204
G1 X108.877 Y101.879 E0.13180
G1 X108.877 Y101.343 E0.01685
G1 X106.146 Y98.612 E0.12160
G1 X106.375 Y98.305 E0.01204
G1 X108.877 Y100.808 E0.11140
G1 X108.877 Y100.273 E0.01685
G1 X106.604 Y97.999 E0.10121
G1 X106.833 Y97.693 E0.01204
G1 X109.071 Y99.931 E0.09962
G1 X109.266 Y99.590 E0.01235
G1 X107.062 Y97.387 E0.09810
G1 X107.291 Y97.080 E0.01204
G1 X109.461 Y99.250 E0.09658
G1 X109.656 Y98.910 E0.01235
G1 X107.520 Y96.774 E0.09506
G1 X107.749 Y96.468 E0.01204
G1 X109.851 Y98.569 E0.09354
G1 X110.045 Y98.229 E0.01235
G1 X107.978 Y96.161 E0.09202
G1 X108.207 Y95.855 E0.01204
G1 X110.240 Y97.888 E0.09050
G1 X110.435 Y97.548 E0.01235
G1 X108.436 Y95.549 E0.08898
G1 X108.665 Y95.243 E0.01204
G1 X110.630 Y97.207 E0.08746
G1 X110.825 Y96.867 E0.01235
G1 X108.894 Y94.936 E0.08594
G1 X109.123 Y94.630 E0.01204
G1 X111.020 Y96.527 E0.08442
G1 X111.215 Y96.186 E0.01235
G1 X109.353 Y94.324 E0.08290
G1 X109.582 Y94.018 E0.01204
G1 X111.410 Y95.846 E0.08138
G1 X111.605 Y95.505 E0.01235
G1 X109.811 Y93.711 E0.07986
G1 X110.040 Y93.405 E0.01204
G1 X111.800 Y95.165 E0.07834
G1 X111.995 Y94.825 E0.01235
G1 X110.269 Y93.099 E0.07682
G1 X110.498 Y92.792 E0.01204
G1 X112.189 Y94.484 E0.07530
G1 X112.384 Y94.144 E0.01235
G1 X110.727 Y92.486 E0.07378
G1 X110.956 Y92.180 E0.01204
G1 X112.579 Y93.803 E0.07226
G1 X112.774 Y93.463 E0.01235
G1 X111.185 Y91.874 E0.07074
G1 X111.414 Y91.567 E0.01204
G1 X112.969 Y93.122 E0.06922
G1 X113.164 Y92.782 E0.01235
G1 X111.643 Y91.261 E0.06770
G1 X111.872 Y90.955 E0.01204
G1 X113.359 Y92.442 E0.06618
G1 X113.554 Y92.101 E0.01235
G1 X112.101 Y90.648 E0.06466
G1 X112.330 Y90.342 E0.01204
G1 X113.749 Y91.761 E0.06315
G1 X113.944 Y91.420 E0.01235
G1 X112.559 Y90.036 E0.06163
G1 X112.788 Y89.730 E0.01204
G1 X114.139 Y91.080 E0.06011
G1 X114.334 Y90.739 E0.01235
G1 X113.017 Y89.423 E0.05859
G1 X113.246 Y89.117 E0.01204
G1 X114.528 Y90.399 E0.05707
G1 X114.723 Y90.059 E0.01235
G1 X113.476 Y88.811 E0.05555
G1 X113.705 Y88.504 E0.01204
G1 X114.918 Y89.718 E0.05403
G1 X115.113 Y89.378 E0.01235
G1 X113.934 Y88.198 E0.05251
G1 X114.163 Y87.892 E0.01204
G1 X115.308 Y89.037 E0.05099
G1 X115.503 Y88.697 E0.01235
G1 X114.392 Y87.586 E0.04947
G1 X114.621 Y87.279 E0.01204
G1 X115.698 Y88.357 E0.04795
G1 X115.893 Y88.016 E0.01235
G1 X114.850 Y86.973 E0.04643
G1 X115.079 Y86.667 E0.01204
G1 X116.088 Y87.676 E0.04491
G1 X116.283 Y87.335 E0.01235
G1 X115.308 Y86.361 E0.04339
G1 X115.537 Y86.054 E0.01204
G1 X116.478 Y86.995 E0.04187
G1 X116.673 Y86.654 E0.01235
G1 X115.766 Y85.748 E0.04035
G1 X115.995 Y85.442 E0.01204
G1 X116.867 Y86.314 E0.03883
G1 X117.062 Y85.974 E0.01235
G1 X116.224 Y85.135 E0.03731
G1 X116.453 Y84.829 E0.01204
G1 X117.257 Y85.633 E0.03579
G1 X117.452 Y85.293 E0.01235
G1 X116.682 Y84.523 E0.03427
G1 X116.911 Y84.217 E0.01204
G1 X117.647 Y84.952 E0.03275
G1 X117.842 Y84.612 E0.01235
G1 X117.140 Y83.910 E0.03123
G1 X117.369 Y83.604 E0.01204
G1 X118.037 Y84.271 E0.02971
G1 X118.232 Y83.931 E0.01235
G1 X117.599 Y83.298 E0.02819
G1 X117.828 Y82.991 E0.01204
G1 X118.427 Y83.591 E0.02667
G1 X118.622 Y83.250 E0.01235
G1 X118.057 Y82.685 E0.02515
G1 X118.286 Y82.379 E0.01204
G1 X118.817 Y82.910 E0.02363
G1 X119.011 Y82.569 E0.01235
G1 X118.515 Y82.073 E0.02211
G1 X118.744 Y81.766 E0.01204
G1 X119.206 Y82.229 E0.02059
G1 X119.401 Y81.888 E0.01235
G1 X118.973 Y81.460 E0.01907
G1 X119.202 Y81.154 E0.01204
G1 X119.596 Y81.548 E0.01755
G1 X119.791 Y81.208 E0.01235
G1 X119.431 Y80.847 E0.01603
G1 X119.660 Y80.541 E0.01204
G1 X120.110 Y80.992 E0.02005
G1 X120.147 Y80.205 F10800.000
G1 F1200.000
G1 X120.607 Y79.505 E0.03390
G1 X121.067 Y78.805 E0.02735
G1 X121.526 Y78.105 E0.02080
G1 X121.986 Y77.405 E0.01171
G1 X122.231 Y76.854 E0.00843
G1 X121.848 Y76.043 F10800.000
G1 F1200.000
G1 X122.420 Y76.616 E0.02543
G1 X122.615 Y76.276 E0.01229
G1 X122.017 Y75.679 E0.02653
G1 X122.017 Y75.145 E0.01677
G1 X123.102 Y76.230 E0.04818
G1 X123.636 Y76.230 E0.01677
G1 X122.017 Y74.611 E0.07189
G1 X122.017 Y74.077 E0.01677
G1 X124.170 Y76.230 E0.09560
G1 X124.704 Y76.230 E0.01677
G1 X122.017 Y73.543 E0.11931
G1 X122.017 Y73.009 E0.01677
G1 X125.238 Y76.230 E0.14302
G1 X125.772 Y76.230 E0.01677
G1 X122.017 Y72.475 E0.16673
M73 Q2 S51
G1 X122.017 Y71.941 E0.01677
G1 X126.306 Y76.230 E0.19044
G1 X126.840 Y76.230 E0.01677
G1 X122.017 Y71.407 E0.21415
M73 P2 R50
G1 X122.017 Y70.873 E0.01677
G1 X127.374 Y76.230 E0.23786
G1 X127.908 Y76.230 E0.01677
G1 X122.017 Y70.339 E0.26157
G1 X122.017 Y69.805 E0.01677
G1 X128.442 Y76.230 E0.28528
G1 X128.976 Y76.230 E0.01677
G1 X122.017 Y69.271 E0.30899
G1 X122.017 Y68.737 E0.01677
G1 X129.510 Y76.230 E0.33270
G1 X130.044 Y76.230 E0.01677
G1 X122.017 Y68.203 E0.35641
G1 X122.017 Y67.669 E0.01677
G1 X130.578 Y76.230 E0.38012
G1 X131.112 Y76.230 E0.01677
G1 X122.017 Y67.135 E0.40383
G1 X122.017 Y66.601 E0.01677
G1 X131.646 Y76.230 E0.42754
G1 X132.180 Y76.230 E0.01677
G1 X122.017 Y66.067 E0.45125
G1 X122.017 Y65.533 E0.01677
G1 X132.714 Y76.230 E0.47496
G1 X133.248 Y76.230 E0.01677
G1 X122.017 Y64.999 E0.49867
G1 X122.017 Y64.465 E0.01677
G1 X133.782 Y76.230 E0.52238
G1 X134.316 Y76.230 E0.01677
G1 X122.017 Y63.931 E0.54609
G1 X122.017 Y63.397 E0.01677
G1 X134.850 Y76.230 E0.56980
G1 X135.384 Y76.230 E0.01677
G1 X122.017 Y62.863 E0.59351
G1 X122.017 Y62.329 E0.01677
G1 X135.918 Y76.230 E0.61722
G1 X136.452 Y76.230 E0.01677
G1 X122.017 Y61.795 E0.64093
G1 X122.017 Y61.370 E0.01335
G1 X122.126 Y61.370 E0.00341
G1 X136.986 Y76.230 E0.65982
G1 X137.520 Y76.230 E0.01677
G1 X122.660 Y61.370 E0.65982
G1 X123.194 Y61.370 E0.01677
G1 X138.054 Y76.230 E0.65982
G1 X138.588 Y76.230 E0.01677
G1 X123.728 Y61.370 E0.65982
G1 X124.262 Y61.370 E0.01677
G1 X139.122 Y76.230 E0.65982
G1 X139.656 Y76.230 E0.01677
G1 X124.796 Y61.370 E0.65982
G1 X125.330 Y61.370 E0.01677
G1 X140.190 Y76.230 E0.65982
G1 X140.724 Y76.230 E0.01677
G1 X125.864 Y61.370 E0.65982
G1 X126.398 Y61.370 E0.01677
G1 X141.258 Y76.230 E0.65982
G1 X141.792 Y76.230 E0.01677
G1 X126.932 Y61.370 E0.65982
G1 X127.466 Y61.370 E0.01677
G1 X142.326 Y76.230 E0.65982
G1 X142.860 Y76.230 E0.01677
G1 X128.000 Y61.370 E0.65982
G1 X128.534 Y61.370 E0.01677
G1 X143.394 Y76.230 E0.65982
G1 X143.928 Y76.230 E0.01677
G1 X129.068 Y61.370 E0.65982
G1 X129.602 Y61.370 E0.01677
G1 X144.462 Y76.230 E0.65982
G1 X144.977 Y76.230 E0.01618
G1 X144.977 Y76.212 E0.00058
G1 X130.136 Y61.370 E0.65900
G1 X130.670 Y61.370 E0.01677
G1 X144.977 Y75.678 E0.63529
G1 X144.977 Y75.144 E0.01677
G1 X131.204 Y61.370 E0.61158
G1 X131.738 Y61.370 E0.01677
G1 X144.977 Y74.610 E0.58787
G1 X144.977 Y74.076 E0.01677
G1 X132.272 Y61.370 E0.56416
G1 X132.806 Y61.370 E0.01677
G1 X144.977 Y73.542 E0.54045
G1 X144.977 Y73.008 E0.01677
G1 X133.340 Y61.370 E0.51674
G1 X133.874 Y61.370 E0.01677
G1 X144.977 Y72.474 E0.49303
G1 X144.977 Y71.940 E0.01677
G1 X134.408 Y61.370 E0.46932
G1 X134.942 Y61.370 E0.01677
G1 X144.977 Y71.406 E0.44561
G1 X144.977 Y70.872 E0.01677
G1 X135.476 Y61.370 E0.42190
G1 X136.010 Y61.370 E0.01677
G1 X144.977 Y70.338 E0.39819
G1 X144.977 Y69.804 E0.01677
G1 X136.544 Y61.370 E0.37448
G1 X137.078 Y61.370 E0.01677
G1 X144.977 Y69.270 E0.35077
G1 X144.977 Y68.736 E0.01677
G1 X137.612 Y61.370 E0.32706
G1 X138.146 Y61.370 E0.01677
G1 X144.977 Y68.202 E0.30335
G1 X144.977 Y67.668 E0.01677
G1 X138.680 Y61.370 E0.27964
G1 X139.214 Y61.370 E0.01677
G1 X144.977 Y67.134 E0.25593
G1 X144.977 Y66.600 E0.01677
G1 X139.748 Y61.370 E0.23222
G1 X140.282 Y61.370 E0.01677
G1 X144.977 Y66.066 E0.20851
G1 X144.977 Y65.532 E0.01677
G1 X140.816 Y61.370 E0.18480
G1 X141.350 Y61.370 E0.01677
G1 X144.977 Y64.998 E0.16109
G1 X144.977 Y64.464 E0.01677
G1 X141.884 Y61.370 E0.13738
G1 X142.418 Y61.370 E0.01677
G1 X144.977 Y63.930 E0.11367
G1 X144.977 Y63.396 E0.01677
G1 X142.952 Y61.370 E0.08996
G1 X143.486 Y61.370 E0.01677
G1 X144.977 Y62.862 E0.06625
G1 X144.977 Y62.328 E0.01677
G1 X144.020 Y61.370 E0.04254
G1 X144.553 Y61.370 E0.01677
G1 X145.147 Y61.964 E0.02636
M106 S255
;BEFORE_LAYER_CHANGE
G92 E0.0
;0.4


G1 E-0.80000 F2100.00000
G1 Z0.800 F10800.000
;AFTER_LAYER_CHANGE
;0.4
M104 S210 ; set temperature
G1 X109.115 Y139.168
G1 Z0.400
G1 E0.80000 F2100.00000
M204 S800
G1 F3600.000
G1 X104.379 Y139.168 E0.16030
G1 X104.379 Y100.653 E1.30370
G1 X104.940 Y99.560 E0.04158
G1 X121.579 Y77.310 E0.94043
G1 X121.579 Y61.132 E0.54761
G1 X145.415 Y61.132 E0.80681
G1 X145.415 Y76.468 E0.51910
G1 X122.779 Y76.468 E0.76621
G1 X109.115 Y100.332 E0.93080
G1 X109.115 Y139.108 E1.31252
M204 S1000
G1 E-0.80000 F2100.00000
G1 Z1.000 F10800.000
G1 X123.015 Y76.875
G1 Z0.400
G1 E0.80000 F2100.00000
M204 S800
G1 X109.522 Y100.440 E0.91915
G1 X109.522 Y139.575 E1.32467
G1 X103.972 Y139.575 E0.18786
G1 X103.972 Y100.554 E1.32080
G1 X104.593 Y99.343 E0.04607
G1 X121.172 Y77.175 E0.93700
G1 X121.172 Y60.725 E0.55681
G1 X145.822 Y60.725 E0.83437
G1 X145.822 Y76.875 E0.54666
G1 X123.075 Y76.875 E0.76997
M204 S1000
G1 X122.619 Y76.819 F10800.000
G1 X123.059 Y76.346
M204 S1250
G1 F10999.352
G1 X137.967 Y61.437 E0.71723
G1 X138.546 Y61.437 E0.01968
G1 X123.820 Y76.163 E0.70841
G1 X124.399 Y76.163 E0.01968
G1 X139.124 Y61.437 E0.70841
