; generated by PrusaSlicer 2.2.0+win64 on 2021-04-06 at 21:34:52 UTC

; 

; external perimeters extrusion width = 0.45mm
; perimeters extrusion width = 0.45mm
; infill extrusion width = 0.45mm
; solid infill extrusion width = 0.45mm
; top infill extrusion width = 0.40mm
; first layer extrusion width = 0.42mm

M73 P0 R57
M73 Q0 S59
M201 X1000 Y1000 Z1000 E5000 ; sets maximum accelerations, mm/sec^2
M203 X200 Y200 Z12 E120 ; sets maximum feedrates, mm/sec
M204 P1250 R1250 T1250 ; sets acceleration (P, T) and retract acceleration (R), mm/sec^2
M205 X8.00 Y8.00 Z0.40 E1.50 ; sets the jerk limits, mm/sec
M205 S0 T0 ; sets the minimum extruding and travel feed rate, mm/sec
M107
M862.3 P "MK3S" ; printer model check
M862.1 P0.4 ; nozzle diameter check
M115 U3.8.0 ; tell printer latest fw version
G90 ; use absolute coordinates
M83 ; extruder relative mode
M104 S215 ; set extruder temp
M140 S60 ; set bed temp
M190 S60 ; wait for bed temp
M109 S215 ; wait for extruder temp
G28 W ; home all without mesh bed level
G80 ; mesh bed leveling
G1 Y-3.0 F1000.0 ; go outside print area
G92 E0.0
G1 X60.0 E9.0 F1000.0 ; intro line
M73 Q0 S59
M73 P0 R57
G1 X100.0 E12.5 F1000.0 ; intro line
G92 E0.0
M221 S95
G21 ; set units to millimeters
G90 ; use absolute coordinates
M83 ; use relative distances for extrusion
M900 K0.05 ; Filament gcode LA 1.5
M900 K30 ; Filament gcode LA 1.0
;BEFORE_LAYER_CHANGE
G92 E0.0
;0.2


G1 E-0.80000 F2100.00000
G1 Z0.600 F10800.000
;AFTER_LAYER_CHANGE
;0.2
G1 X109.154 Y153.513
G1 Z0.200
G1 E0.80000 F2100.00000
M204 S1000
G1 F1200.000
G1 X104.328 Y153.513 E0.15131
G1 X104.328 Y81.142 E2.26915
G1 X104.459 Y80.886 E0.00899
G1 X121.728 Y57.795 E0.90408
G1 X121.728 Y41.587 E0.50820
G1 X145.254 Y41.587 E0.73764
G1 X145.254 Y57.013 E0.48367
G1 X122.798 Y57.013 E0.70407
G1 X109.154 Y80.844 E0.86101
G1 X109.154 Y84.232 E0.10624
G1 X104.799 Y84.232 E0.13654
G1 X104.775 Y88.406 E0.13088
G1 X109.154 Y88.406 E0.13729
G1 X109.154 Y153.453 E2.03949
G1 X109.531 Y153.890 F10800.000
G1 F1200.000
G1 X103.951 Y153.890 E0.17496
G1 X103.951 Y81.051 E2.28382
G1 X104.138 Y80.686 E0.01285
G1 X121.351 Y57.670 E0.90115
G1 X121.351 Y41.210 E0.51609
G1 X145.631 Y41.210 E0.76128
G1 X145.631 Y57.390 E0.50731
G1 X123.017 Y57.390 E0.70904
G1 X109.531 Y80.944 E0.85101
G1 X109.531 Y84.609 E0.11492
G1 X105.174 Y84.609 E0.13661
G1 X105.154 Y88.029 E0.10723
G1 X109.531 Y88.029 E0.13722
G1 X109.531 Y153.830 E2.06313
G1 X109.180 Y153.698 F10800.000
G1 E-0.80000 F2100.00000
G1 Z0.800 F10800.000
G1 X105.206 Y153.400
G1 Z0.200
G1 E0.80000 F2100.00000
G1 F1200.000
G1 X104.610 Y152.805 E0.02648
G1 X104.610 Y152.270 E0.01683
G1 X105.571 Y153.230 E0.04273
G1 X106.106 Y153.230 E0.01683
G1 X104.610 Y151.735 E0.06654
G1 X104.610 Y151.200 E0.01683
G1 X106.641 Y153.230 E0.09034
G1 X107.176 Y153.230 E0.01683
G1 X104.610 Y150.664 E0.11414
G1 X104.610 Y150.129 E0.01683
G1 X107.711 Y153.230 E0.13795
G1 X108.246 Y153.230 E0.01683
G1 X104.610 Y149.594 E0.16175
G1 X104.610 Y149.059 E0.01683
G1 X108.781 Y153.230 E0.18555
G1 X108.871 Y153.230 E0.00281
G1 X108.871 Y152.785 E0.01402
G1 X104.610 Y148.524 E0.18953
G1 X104.610 Y147.989 E0.01683
G1 X108.871 Y152.250 E0.18953
G1 X108.871 Y151.714 E0.01683
G1 X104.610 Y147.454 E0.18953
G1 X104.610 Y146.919 E0.01683
G1 X108.871 Y151.179 E0.18953
G1 X108.871 Y150.644 E0.01683
G1 X104.610 Y146.384 E0.18953
G1 X104.610 Y145.849 E0.01683
G1 X108.871 Y150.109 E0.18953
G1 X108.871 Y149.574 E0.01683
G1 X104.610 Y145.314 E0.18953
G1 X104.610 Y144.779 E0.01683
G1 X108.871 Y149.039 E0.18953
G1 X108.871 Y148.504 E0.01683
G1 X104.610 Y144.244 E0.18953
G1 X104.610 Y143.709 E0.01683
G1 X108.871 Y147.969 E0.18953
G1 X108.871 Y147.434 E0.01683
G1 X104.610 Y143.174 E0.18953
G1 X104.610 Y142.639 E0.01683
G1 X108.871 Y146.899 E0.18953
G1 X108.871 Y146.364 E0.01683
G1 X104.610 Y142.104 E0.18953
G1 X104.610 Y141.569 E0.01683
G1 X108.871 Y145.829 E0.18953
G1 X108.871 Y145.294 E0.01683
G1 X104.610 Y141.034 E0.18953
G1 X104.610 Y140.499 E0.01683
G1 X108.871 Y144.759 E0.18953
G1 X108.871 Y144.224 E0.01683
G1 X104.610 Y139.964 E0.18953
G1 X104.610 Y139.429 E0.01683
G1 X108.871 Y143.689 E0.18953
G1 X108.871 Y143.154 E0.01683
G1 X104.610 Y138.894 E0.18953
G1 X104.610 Y138.359 E0.01683
G1 X108.871 Y142.619 E0.18953
G1 X108.871 Y142.084 E0.01683
G1 X104.610 Y137.823 E0.18953
G1 X104.610 Y137.288 E0.01683
G1 X108.871 Y141.549 E0.18953
G1 X108.871 Y141.014 E0.01683
G1 X104.610 Y136.753 E0.18953
G1 X104.610 Y136.218 E0.01683
G1 X108.871 Y140.479 E0.18953
G1 X108.871 Y139.944 E0.01683
G1 X104.610 Y135.683 E0.18953
G1 X104.610 Y135.148 E0.01683
G1 X108.871 Y139.409 E0.18953
G1 X108.871 Y138.874 E0.01683
G1 X104.610 Y134.613 E0.18953
G1 X104.610 Y134.078 E0.01683
G1 X108.871 Y138.338 E0.18953
G1 X108.871 Y137.803 E0.01683
G1 X104.610 Y133.543 E0.18953
G1 X104.610 Y133.008 E0.01683
G1 X108.871 Y137.268 E0.18953
G1 X108.871 Y136.733 E0.01683
G1 X104.610 Y132.473 E0.18953
G1 X104.610 Y131.938 E0.01683
G1 X108.871 Y136.198 E0.18953
G1 X108.871 Y135.663 E0.01683
G1 X104.610 Y131.403 E0.18953
G1 X104.610 Y130.868 E0.01683
G1 X108.871 Y135.128 E0.18953
G1 X108.871 Y134.593 E0.01683
G1 X104.610 Y130.333 E0.18953
G1 X104.610 Y129.798 E0.01683
G1 X108.871 Y134.058 E0.18953
G1 X108.871 Y133.523 E0.01683
G1 X104.610 Y129.263 E0.18953
G1 X104.610 Y128.728 E0.01683
G1 X108.871 Y132.988 E0.18953
G1 X108.871 Y132.453 E0.01683
G1 X104.610 Y128.193 E0.18953
G1 X104.610 Y127.658 E0.01683
G1 X108.871 Y131.918 E0.18953
G1 X108.871 Y131.383 E0.01683
G1 X104.610 Y127.123 E0.18953
G1 X104.610 Y126.588 E0.01683
G1 X108.871 Y130.848 E0.18953
G1 X108.871 Y130.313 E0.01683
G1 X104.610 Y126.053 E0.18953
G1 X104.610 Y125.518 E0.01683
G1 X108.871 Y129.778 E0.18953
G1 X108.871 Y129.243 E0.01683
G1 X104.610 Y124.983 E0.18953
G1 X104.610 Y124.447 E0.01683
G1 X108.871 Y128.708 E0.18953
G1 X108.871 Y128.173 E0.01683
G1 X104.610 Y123.912 E0.18953
G1 X104.610 Y123.377 E0.01683
G1 X108.871 Y127.638 E0.18953
G1 X108.871 Y127.103 E0.01683
G1 X104.610 Y122.842 E0.18953
G1 X104.610 Y122.307 E0.01683
G1 X108.871 Y126.568 E0.18953
G1 X108.871 Y126.033 E0.01683
G1 X104.610 Y121.772 E0.18953
G1 X104.610 Y121.237 E0.01683
G1 X108.871 Y125.497 E0.18953
G1 X108.871 Y124.962 E0.01683
G1 X104.610 Y120.702 E0.18953
G1 X104.610 Y120.167 E0.01683
G1 X108.871 Y124.427 E0.18953
G1 X108.871 Y123.892 E0.01683
G1 X104.610 Y119.632 E0.18953
G1 X104.610 Y119.097 E0.01683
G1 X108.871 Y123.357 E0.18953
G1 X108.871 Y122.822 E0.01683
G1 X104.610 Y118.562 E0.18953
G1 X104.610 Y118.027 E0.01683
G1 X108.871 Y122.287 E0.18953
G1 X108.871 Y121.752 E0.01683
G1 X104.610 Y117.492 E0.18953
G1 X104.610 Y116.957 E0.01683
G1 X108.871 Y121.217 E0.18953
G1 X108.871 Y120.682 E0.01683
G1 X104.610 Y116.422 E0.18953
G1 X104.610 Y115.887 E0.01683
G1 X108.871 Y120.147 E0.18953
G1 X108.871 Y119.612 E0.01683
G1 X104.610 Y115.352 E0.18953
G1 X104.610 Y114.817 E0.01683
G1 X108.871 Y119.077 E0.18953
G1 X108.871 Y118.542 E0.01683
G1 X104.610 Y114.282 E0.18953
G1 X104.610 Y113.747 E0.01683
G1 X108.871 Y118.007 E0.18953
G1 X108.871 Y117.472 E0.01683
G1 X104.610 Y113.212 E0.18953
G1 X104.610 Y112.677 E0.01683
G1 X108.871 Y116.937 E0.18953
G1 X108.871 Y116.402 E0.01683
G1 X104.610 Y112.142 E0.18953
G1 X104.610 Y111.606 E0.01683
G1 X108.871 Y115.867 E0.18953
G1 X108.871 Y115.332 E0.01683
G1 X104.610 Y111.071 E0.18953
G1 X104.610 Y110.536 E0.01683
G1 X108.871 Y114.797 E0.18953
M73 Q1 S58
G1 X108.871 Y114.262 E0.01683
G1 X104.610 Y110.001 E0.18953
G1 X104.610 Y109.466 E0.01683
M73 P1 R56
G1 X108.871 Y113.727 E0.18953
G1 X108.871 Y113.192 E0.01683
G1 X104.610 Y108.931 E0.18953
G1 X104.610 Y108.396 E0.01683
G1 X108.871 Y112.657 E0.18953
G1 X108.871 Y112.121 E0.01683
G1 X104.610 Y107.861 E0.18953
G1 X104.610 Y107.326 E0.01683
G1 X108.871 Y111.586 E0.18953
G1 X108.871 Y111.051 E0.01683
G1 X104.610 Y106.791 E0.18953
G1 X104.610 Y106.256 E0.01683
G1 X108.871 Y110.516 E0.18953
G1 X108.871 Y109.981 E0.01683
G1 X104.610 Y105.721 E0.18953
G1 X104.610 Y105.186 E0.01683
G1 X108.871 Y109.446 E0.18953
G1 X108.871 Y108.911 E0.01683
G1 X104.610 Y104.651 E0.18953
G1 X104.610 Y104.116 E0.01683
G1 X108.871 Y108.376 E0.18953
G1 X108.871 Y107.841 E0.01683
G1 X104.610 Y103.581 E0.18953
G1 X104.610 Y103.046 E0.01683
G1 X108.871 Y107.306 E0.18953
G1 X108.871 Y106.771 E0.01683
G1 X104.610 Y102.511 E0.18953
G1 X104.610 Y101.976 E0.01683
G1 X108.871 Y106.236 E0.18953
G1 X108.871 Y105.701 E0.01683
G1 X104.610 Y101.441 E0.18953
G1 X104.610 Y100.906 E0.01683
G1 X108.871 Y105.166 E0.18953
G1 X108.871 Y104.631 E0.01683
G1 X104.610 Y100.371 E0.18953
G1 X104.610 Y99.836 E0.01683
G1 X108.871 Y104.096 E0.18953
G1 X108.871 Y103.561 E0.01683
G1 X104.610 Y99.301 E0.18953
G1 X104.610 Y98.765 E0.01683
G1 X108.871 Y103.026 E0.18953
G1 X108.871 Y102.491 E0.01683
G1 X104.610 Y98.230 E0.18953
G1 X104.610 Y97.695 E0.01683
G1 X108.871 Y101.956 E0.18953
G1 X108.871 Y101.421 E0.01683
G1 X104.610 Y97.160 E0.18953
G1 X104.610 Y96.625 E0.01683
G1 X108.871 Y100.886 E0.18953
G1 X108.871 Y100.351 E0.01683
G1 X104.610 Y96.090 E0.18953
G1 X104.610 Y95.555 E0.01683
G1 X108.871 Y99.816 E0.18953
G1 X108.871 Y99.280 E0.01683
G1 X104.610 Y95.020 E0.18953
G1 X104.610 Y94.485 E0.01683
G1 X108.871 Y98.745 E0.18953
G1 X108.871 Y98.210 E0.01683
G1 X104.610 Y93.950 E0.18953
G1 X104.610 Y93.415 E0.01683
G1 X108.871 Y97.675 E0.18953
G1 X108.871 Y97.140 E0.01683
G1 X104.610 Y92.880 E0.18953
G1 X104.610 Y92.345 E0.01683
G1 X108.871 Y96.605 E0.18953
G1 X108.871 Y96.070 E0.01683
G1 X104.610 Y91.810 E0.18953
G1 X104.610 Y91.275 E0.01683
G1 X108.871 Y95.535 E0.18953
G1 X108.871 Y95.000 E0.01683
G1 X104.610 Y90.740 E0.18953
G1 X104.610 Y90.205 E0.01683
G1 X108.871 Y94.465 E0.18953
G1 X108.871 Y93.930 E0.01683
G1 X104.610 Y89.670 E0.18953
G1 X104.610 Y89.135 E0.01683
G1 X108.871 Y93.395 E0.18953
G1 X108.871 Y92.860 E0.01683
G1 X104.889 Y88.879 E0.17712
G1 X104.902 Y88.689 E0.00597
G1 X105.235 Y88.689 E0.01047
G1 X108.871 Y92.325 E0.16175
G1 X108.871 Y91.790 E0.01683
G1 X105.770 Y88.689 E0.13795
G1 X106.305 Y88.689 E0.01683
G1 X108.871 Y91.255 E0.11415
G1 X108.871 Y90.720 E0.01683
G1 X106.840 Y88.689 E0.09034
G1 X107.375 Y88.689 E0.01683
G1 X108.871 Y90.185 E0.06654
G1 X108.871 Y89.650 E0.01683
G1 X107.910 Y88.689 E0.04274
G1 X108.445 Y88.689 E0.01683
G1 X109.040 Y89.284 E0.02648
G1 E-0.80000 F2100.00000
G1 Z0.800 F10800.000
G1 X104.551 Y88.595
G1 Z0.200
G1 E0.80000 F2100.00000
G1 F1200.000
G1 X104.564 Y84.044 E0.03588
G1 X104.441 Y83.168 F10800.000
G1 F1200.000
G1 X105.222 Y83.949 E0.03467
G1 X105.756 Y83.949 E0.01673
G1 X104.610 Y82.804 E0.05081
G1 X104.610 Y82.271 E0.01673
G1 X106.289 Y83.949 E0.07447
G1 X106.823 Y83.949 E0.01673
G1 X104.610 Y81.737 E0.09813
G1 X104.613 Y81.206 E0.01666
G1 X107.356 Y83.949 E0.12170
G1 X107.890 Y83.949 E0.01673
G1 X104.818 Y80.878 E0.13625
G1 X105.046 Y80.573 E0.01195
G1 X108.423 Y83.949 E0.14978
G1 X108.871 Y83.949 E0.01404
G1 X108.871 Y83.864 E0.00269
G1 X105.275 Y80.267 E0.15951
G1 X105.503 Y79.962 E0.01195
G1 X108.871 Y83.330 E0.14939
G1 X108.871 Y82.797 E0.01673
G1 X105.731 Y79.657 E0.13926
G1 X105.959 Y79.352 E0.01195
G1 X108.871 Y82.263 E0.12914
G1 X108.871 Y81.730 E0.01673
G1 X106.188 Y79.047 E0.11901
G1 X106.416 Y78.741 E0.01195
G1 X108.871 Y81.196 E0.10889
G1 X108.871 Y80.769 E0.01341
G1 X108.909 Y80.701 E0.00243
G1 X106.644 Y78.436 E0.10047
G1 X106.872 Y78.131 E0.01195
G1 X109.103 Y80.362 E0.09896
G1 X109.298 Y80.023 E0.01226
G1 X107.101 Y77.826 E0.09745
G1 X107.329 Y77.521 E0.01195
G1 X109.492 Y79.684 E0.09595
G1 X109.686 Y79.344 E0.01226
G1 X107.557 Y77.215 E0.09444
G1 X107.785 Y76.910 E0.01195
G1 X109.880 Y79.005 E0.09293
G1 X110.075 Y78.666 E0.01226
G1 X108.014 Y76.605 E0.09142
G1 X108.242 Y76.300 E0.01195
G1 X110.269 Y78.327 E0.08991
G1 X110.463 Y77.987 E0.01226
G1 X108.470 Y75.995 E0.08840
G1 X108.698 Y75.689 E0.01195
G1 X110.657 Y77.648 E0.08689
G1 X110.852 Y77.309 E0.01226
G1 X108.927 Y75.384 E0.08538
G1 X109.155 Y75.079 E0.01195
G1 X111.046 Y76.970 E0.08387
G1 X111.240 Y76.631 E0.01226
G1 X109.383 Y74.774 E0.08236
G1 X109.611 Y74.469 E0.01195
G1 X111.434 Y76.291 E0.08085
G1 X111.628 Y75.952 E0.01226
G1 X109.840 Y74.163 E0.07935
G1 X110.068 Y73.858 E0.01195
G1 X111.823 Y75.613 E0.07784
G1 X112.017 Y75.274 E0.01226
G1 X110.296 Y73.553 E0.07633
G1 X110.524 Y73.248 E0.01195
G1 X112.211 Y74.934 E0.07482
G1 X112.405 Y74.595 E0.01226
G1 X110.753 Y72.943 E0.07331
G1 X110.981 Y72.637 E0.01195
G1 X112.600 Y74.256 E0.07180
G1 X112.794 Y73.917 E0.01226
G1 X111.209 Y72.332 E0.07029
G1 X111.437 Y72.027 E0.01195
G1 X112.988 Y73.578 E0.06878
G1 X113.182 Y73.238 E0.01226
G1 X111.666 Y71.722 E0.06727
G1 X111.894 Y71.417 E0.01195
G1 X113.377 Y72.899 E0.06576
G1 X113.571 Y72.560 E0.01226
G1 X112.122 Y71.111 E0.06425
G1 X112.350 Y70.806 E0.01195
G1 X113.765 Y72.221 E0.06275
G1 X113.959 Y71.881 E0.01226
G1 X112.579 Y70.501 E0.06124
G1 X112.807 Y70.196 E0.01195
G1 X114.153 Y71.542 E0.05973
G1 X114.348 Y71.203 E0.01226
G1 X113.035 Y69.890 E0.05822
G1 X113.263 Y69.585 E0.01195
G1 X114.542 Y70.864 E0.05671
G1 X114.736 Y70.525 E0.01226
G1 X113.492 Y69.280 E0.05520
G1 X113.720 Y68.975 E0.01195
G1 X114.930 Y70.185 E0.05369
G1 X115.125 Y69.846 E0.01226
G1 X113.948 Y68.670 E0.05218
G1 X114.176 Y68.364 E0.01195
G1 X115.319 Y69.507 E0.05067
G1 X115.513 Y69.168 E0.01226
G1 X114.405 Y68.059 E0.04916
G1 X114.633 Y67.754 E0.01195
G1 X115.707 Y68.828 E0.04765
G1 X115.902 Y68.489 E0.01226
G1 X114.861 Y67.449 E0.04614
G1 X115.089 Y67.144 E0.01195
G1 X116.096 Y68.150 E0.04464
G1 X116.290 Y67.811 E0.01226
G1 X115.318 Y66.838 E0.04313
G1 X115.546 Y66.533 E0.01195
G1 X116.484 Y67.471 E0.04162
G1 X116.678 Y67.132 E0.01226
G1 X115.774 Y66.228 E0.04011
G1 X116.002 Y65.923 E0.01195
G1 X116.873 Y66.793 E0.03860
G1 X117.067 Y66.454 E0.01226
G1 X116.231 Y65.618 E0.03709
G1 X116.459 Y65.312 E0.01195
G1 X117.261 Y66.115 E0.03558
G1 X117.455 Y65.775 E0.01226
G1 X116.687 Y65.007 E0.03407
G1 X116.915 Y64.702 E0.01195
G1 X117.650 Y65.436 E0.03256
G1 X117.844 Y65.097 E0.01226
G1 X117.144 Y64.397 E0.03105
G1 X117.372 Y64.092 E0.01195
G1 X118.038 Y64.758 E0.02954
G1 X118.232 Y64.418 E0.01226
G1 X117.600 Y63.786 E0.02804
G1 X117.828 Y63.481 E0.01195
G1 X118.427 Y64.079 E0.02653
G1 X118.621 Y63.740 E0.01226
G1 X118.057 Y63.176 E0.02502
G1 X118.285 Y62.871 E0.01195
G1 X118.815 Y63.401 E0.02351
G1 X119.009 Y63.062 E0.01226
G1 X118.513 Y62.566 E0.02200
G1 X118.741 Y62.260 E0.01195
G1 X119.203 Y62.722 E0.02049
G1 X119.398 Y62.383 E0.01226
G1 X118.970 Y61.955 E0.01898
G1 X119.198 Y61.650 E0.01195
G1 X119.592 Y62.044 E0.01747
G1 X119.786 Y61.705 E0.01226
G1 X119.426 Y61.345 E0.01596
G1 X119.654 Y61.040 E0.01195
G1 X120.105 Y61.490 E0.01997
G1 X120.141 Y60.705 F10800.000
G1 F1200.000
G1 X120.600 Y60.005 E0.03390
G1 X121.060 Y59.305 E0.02735
G1 X121.520 Y58.605 E0.02080
G1 X121.979 Y57.905 E0.01171
G1 X122.224 Y57.354 E0.00844
G1 X121.841 Y56.543 F10800.000
G1 F1200.000
G1 X122.413 Y57.116 E0.02543
G1 X122.608 Y56.776 E0.01229
G1 X122.010 Y56.179 E0.02653
G1 X122.010 Y55.645 E0.01677
G1 X123.096 Y56.730 E0.04818
G1 X123.630 Y56.730 E0.01677
G1 X122.010 Y55.111 E0.07189
G1 X122.010 Y54.577 E0.01677
G1 X124.164 Y56.730 E0.09560
G1 X124.698 Y56.730 E0.01677
G1 X122.010 Y54.043 E0.11931
G1 X122.010 Y53.509 E0.01677
G1 X125.232 Y56.730 E0.14302
G1 X125.766 Y56.730 E0.01677
G1 X122.010 Y52.975 E0.16673
G1 X122.010 Y52.441 E0.01677
G1 X126.300 Y56.730 E0.19044
G1 X126.834 Y56.730 E0.01677
G1 X122.010 Y51.907 E0.21415
G1 X122.010 Y51.373 E0.01677
G1 X127.368 Y56.730 E0.23786
G1 X127.902 Y56.730 E0.01677
G1 X122.010 Y50.839 E0.26157
G1 X122.010 Y50.305 E0.01677
G1 X128.436 Y56.730 E0.28528
G1 X128.970 Y56.730 E0.01677
G1 X122.010 Y49.771 E0.30899
G1 X122.010 Y49.237 E0.01677
G1 X129.503 Y56.730 E0.33270
G1 X130.037 Y56.730 E0.01677
G1 X122.010 Y48.703 E0.35641
G1 X122.010 Y48.169 E0.01677
G1 X130.571 Y56.730 E0.38012
G1 X131.105 Y56.730 E0.01677
G1 X122.010 Y47.635 E0.40383
G1 X122.010 Y47.101 E0.01677
G1 X131.639 Y56.730 E0.42754
G1 X132.173 Y56.730 E0.01677
G1 X122.010 Y46.567 E0.45125
G1 X122.010 Y46.033 E0.01677
