; generated by PrusaSlicer 2.1.1+win64 on 2020-04-08 at 16:44:29 UTC

; 

; external perimeters extrusion width = 0.45mm
; perimeters extrusion width = 0.45mm
; infill extrusion width = 0.45mm
; solid infill extrusion width = 0.45mm
; top infill extrusion width = 0.40mm
; first layer extrusion width = 0.42mm

M73 P0 R75
M73 Q0 S75
M201 X1000 Y1000 Z1000 E5000 ; sets maximum accelerations, mm/sec^2
M203 X200 Y200 Z12 E120 ; sets maximum feedrates, mm/sec
M204 P1250 R1250 T1250 ; sets acceleration (P, T) and retract acceleration (R), mm/sec^2
M205 X8.00 Y8.00 Z0.40 E1.50 ; sets the jerk limits, mm/sec
M205 S0 T0 ; sets the minimum extruding and travel feed rate, mm/sec
M107
M862.3 P "MK3S" ; printer model check
M862.1 P0.4 ; nozzle diameter check
M115 U3.8.0 ; tell printer latest fw version
G90 ; use absolute coordinates
M83 ; extruder relative mode
M104 S230 ; set extruder temp
M140 S85 ; set bed temp
M190 S85 ; wait for bed temp
M109 S230 ; wait for extruder temp
G28 W ; home all without mesh bed level
G80 ; mesh bed leveling
G1 Y-3.0 F1000.0 ; go outside print area
G92 E0.0
G1 X60.0 E9.0 F1000.0 ; intro line
M73 Q0 S75
M73 P0 R75
G1 X100.0 E12.5 F1000.0 ; intro line
G92 E0.0
M221 S95
G21 ; set units to millimeters
G90 ; use absolute coordinates
M83 ; use relative distances for extrusion
M900 K45 ; Filament gcode
;BEFORE_LAYER_CHANGE
G92 E0.0
;0.2


G1 E-1.40000 F2100.00000
G1 Z0.200 F10800.000
;AFTER_LAYER_CHANGE
;0.2
G1 Z0.400
G1 X142.737 Y120.960
G1 Z0.200
G1 E1.40000 F2100.00000
M204 S1000
G1 F1200
G1 X140.591 Y117.243 E0.13459
G1 X142.737 Y113.525 E0.13459
G1 X147.029 Y113.525 E0.13459
G1 X149.176 Y117.243 E0.13459
G1 X147.029 Y120.960 E0.13459
G1 X142.797 Y120.960 E0.13271
G1 X142.391 Y121.160 F10800.000
G1 E-1.40000 F2100.00000
G1 Z0.400 F10800.000
G1 X138.759 Y147.656
G1 Z0.200
G1 E1.40000 F2100.00000
G1 F1200
G1 X136.395 Y143.562 E0.14824
G1 X138.759 Y139.468 E0.14824
G1 X143.487 Y139.468 E0.14824
G1 X145.851 Y143.562 E0.14824
G1 X143.487 Y147.656 E0.14824
G1 X138.819 Y147.656 E0.14636
G1 X138.976 Y147.279 F10800.000
G1 F1200
G1 X136.830 Y143.562 E0.13459
G1 X138.976 Y139.845 E0.13459
G1 X143.269 Y139.845 E0.13459
G1 X145.415 Y143.562 E0.13459
G1 X143.269 Y147.279 E0.13459
G1 X139.036 Y147.279 E0.13271
G1 X138.630 Y147.479 F10800.000
G1 E-1.40000 F2100.00000
G1 Z0.400 F10800.000
G1 X137.518 Y148.075
G1 Z0.200
G1 E1.40000 F2100.00000
G1 F1200
G1 X128.196 Y148.075 E0.29227
G1 X128.196 Y117.723 E0.95166
G1 X125.294 Y116.047 E0.10510
G1 X128.194 Y111.024 E0.18185
G1 X129.962 Y114.087 E0.11089
G1 X134.690 Y114.087 E0.14824
G1 X137.054 Y109.993 E0.14824
G1 X135.172 Y106.734 E0.11798
G1 X135.295 Y106.611 E0.00544
G1 X146.327 Y112.981 E0.39940
G1 X146.282 Y113.148 E0.00544
G1 X142.519 Y113.148 E0.11798
G1 X140.155 Y117.243 E0.14824
G1 X142.519 Y121.337 E0.14824
G1 X147.247 Y121.337 E0.14824
G1 X149.468 Y117.491 E0.13926
G1 X149.636 Y117.536 E0.00544
G1 X149.636 Y138.137 E0.64595
G1 X143.898 Y148.075 E0.35979
G1 X137.578 Y148.075 E0.19816
G1 E-1.40000 F2100.00000
G1 Z0.400 F10800.000
G1 X149.468 Y116.995
G1 Z0.200
G1 E1.40000 F2100.00000
G1 F1200
G1 X147.730 Y113.984 E0.10900
G1 X147.853 Y113.862 E0.00544
G1 X149.636 Y114.891 E0.06456
G1 X149.636 Y116.950 E0.06456
G1 X149.526 Y116.979 E0.00356
G1 E-1.40000 F2100.00000
G1 Z0.400 F10800.000
G1 X133.725 Y105.898
G1 Z0.200
G1 E1.40000 F2100.00000
G1 F1200
G1 X131.153 Y105.898 E0.08063
G1 X131.880 Y104.640 E0.04557
G1 X133.770 Y105.731 E0.06842
G1 X133.740 Y105.840 E0.00356
G1 E-1.40000 F2100.00000
G1 Z0.400 F10800.000
G1 X137.518 Y148.452
G1 Z0.200
G1 E1.40000 F2100.00000
G1 F1200
G1 X127.819 Y148.452 E0.30409
G1 X127.819 Y117.941 E0.95666
G1 X124.779 Y116.185 E0.11009
G1 X128.194 Y110.270 E0.21415
G1 X130.180 Y113.710 E0.12455
G1 X134.472 Y113.710 E0.13459
G1 X136.618 Y109.993 E0.13459
G1 X134.472 Y106.275 E0.13459
G1 X130.500 Y106.275 E0.12455
G1 X131.742 Y104.124 E0.07787
G1 X150.013 Y114.673 E0.66150
G1 X150.013 Y138.238 E0.73887
G1 X144.116 Y148.452 E0.36979
G1 X137.578 Y148.452 E0.20499
G1 X137.245 Y148.160 F10800.000
G1 E-1.40000 F2100.00000
G1 Z0.400 F10800.000
G1 X130.219 Y106.485
G1 Z0.200
G1 E1.40000 F2100.00000
G1 F1200
G1 X128.235 Y109.921 E0.04706
G1 E-1.40000 F2100.00000
G1 Z0.400 F10800.000
G1 X129.312 Y113.188
G1 Z0.200
G1 E1.40000 F2100.00000
G1 F1200
G1 X128.018 Y111.894 E0.05796
G1 X127.821 Y112.235 E0.01248
G1 X149.353 Y133.767 E0.96423
G1 X149.353 Y134.306 E0.01705
G1 X127.624 Y112.577 E0.97305
G1 X127.427 Y112.918 E0.01248
G1 X149.353 Y134.844 E0.98188
G1 X149.353 Y135.383 E0.01705
G1 X127.229 Y113.260 E0.99071
G1 X127.032 Y113.601 E0.01248
G1 X149.353 Y135.922 E0.99954
G1 X149.353 Y136.460 E0.01705
G1 X126.835 Y113.943 E1.00836
G1 X126.638 Y114.284 E0.01248
G1 X149.353 Y136.999 E1.01719
G1 X149.353 Y137.537 E0.01705
G1 X126.441 Y114.625 E1.02602
G1 X126.244 Y114.967 E0.01248
G1 X149.348 Y138.071 E1.03461
G1 X149.150 Y138.412 E0.01248
G1 X126.047 Y115.308 E1.03461
G1 X125.850 Y115.650 E0.01248
G1 X127.240 Y117.040 E0.06228
G1 E-1.40000 F2100.00000
G1 Z0.400 F10800.000
G1 X130.324 Y114.200
G1 Z0.200
G1 E1.40000 F2100.00000
G1 F1200
G1 X149.353 Y133.229 E0.85211
G1 X149.353 Y132.690 E0.01705
G1 X131.033 Y114.370 E0.82040
G1 X131.571 Y114.370 E0.01705
G1 X149.353 Y132.152 E0.79628
G1 X149.353 Y131.613 E0.01705
G1 X132.110 Y114.370 E0.77216
G1 X132.648 Y114.370 E0.01705
G1 X149.353 Y131.075 E0.74805
G1 X149.353 Y130.536 E0.01705
G1 X133.187 Y114.370 E0.72393
G1 X133.725 Y114.370 E0.01705
G1 X149.353 Y129.997 E0.69981
G1 X149.353 Y129.459 E0.01705
G1 X134.264 Y114.370 E0.67569
G1 X134.803 Y114.370 E0.01705
G1 X149.522 Y129.090 E0.65918
G1 E-1.40000 F2100.00000
G1 Z0.400 F10800.000
G1 X149.078 Y138.878
G1 Z0.200
G1 E1.40000 F2100.00000
G1 F1200
G1 X128.479 Y118.279 E0.92242
G1 X128.479 Y118.818 E0.01705
G1 X148.756 Y139.095 E0.90803
G1 X148.559 Y139.436 E0.01248
G1 X128.479 Y119.356 E0.89920
G1 X128.479 Y119.895 E0.01705
G1 X148.362 Y139.778 E0.89037
M73 Q1 S74
G1 X148.165 Y140.119 E0.01248
G1 X128.479 Y120.434 E0.88154
M73 P1 R74
G1 X128.479 Y120.972 E0.01705
G1 X147.968 Y140.461 E0.87272
G1 X147.771 Y140.802 E0.01248
G1 X128.479 Y121.511 E0.86389
G1 X128.479 Y122.049 E0.01705
G1 X147.573 Y141.143 E0.85506
G1 X147.376 Y141.485 E0.01248
G1 X128.479 Y122.588 E0.84623
G1 X128.479 Y123.126 E0.01705
G1 X147.179 Y141.826 E0.83741
G1 X146.982 Y142.168 E0.01248
G1 X128.479 Y123.665 E0.82858
G1 X128.479 Y124.203 E0.01705
G1 X146.785 Y142.509 E0.81975
G1 X146.588 Y142.851 E0.01248
G1 X144.181 Y140.443 E0.10780
G1 E-1.40000 F2100.00000
G1 Z0.400 F10800.000
G1 X144.916 Y141.718
G1 Z0.200
G1 E1.40000 F2100.00000
G1 F1200
G1 X146.515 Y143.316 E0.07159
G1 X146.123 Y143.656 F10800.000
G1 F1200
G1 X143.680 Y147.886 E0.07655
G1 E-1.40000 F2100.00000
G1 Z0.400 F10800.000
G1 X138.774 Y147.962
G1 Z0.200
G1 E1.40000 F2100.00000
G1 F1200
G1 X128.479 Y137.667 E0.46100
G1 X128.479 Y138.206 E0.01705
G1 X138.065 Y147.792 E0.42928
G1 X137.527 Y147.792 E0.01705
G1 X128.479 Y138.744 E0.40517
G1 X128.479 Y139.283 E0.01705
G1 X136.988 Y147.792 E0.38105
G1 X136.450 Y147.792 E0.01705
G1 X128.479 Y139.822 E0.35693
G1 X128.479 Y140.360 E0.01705
G1 X135.911 Y147.792 E0.33281
G1 X135.373 Y147.792 E0.01705
G1 X128.479 Y140.899 E0.30870
G1 X128.479 Y141.437 E0.01705
G1 X134.834 Y147.792 E0.28458
G1 X134.296 Y147.792 E0.01705
G1 X128.479 Y141.976 E0.26046
G1 X128.479 Y142.514 E0.01705
G1 X133.757 Y147.792 E0.23635
G1 X133.218 Y147.792 E0.01705
G1 X128.479 Y143.053 E0.21223
G1 X128.479 Y143.591 E0.01705
G1 X132.680 Y147.792 E0.18811
G1 X132.141 Y147.792 E0.01705
G1 X128.479 Y144.130 E0.16399
G1 X128.479 Y144.669 E0.01705
G1 X131.603 Y147.792 E0.13988
G1 X131.064 Y147.792 E0.01705
G1 X128.479 Y145.207 E0.11576
G1 X128.479 Y145.746 E0.01705
G1 X130.526 Y147.792 E0.09164
G1 X129.987 Y147.792 E0.01705
G1 X128.479 Y146.284 E0.06752
G1 X128.479 Y146.823 E0.01705
G1 X129.449 Y147.792 E0.04341
G1 X128.910 Y147.792 E0.01705
G1 X128.310 Y147.192 E0.02689
G1 E-1.40000 F2100.00000
G1 Z0.400 F10800.000
G1 X136.639 Y144.212
G1 Z0.200
G1 E1.40000 F2100.00000
G1 F1200
G1 X128.479 Y136.052 E0.36542
G1 X128.479 Y135.513 E0.01705
G1 X136.237 Y143.270 E0.34738
G1 X136.434 Y142.929 E0.01248
G1 X128.479 Y134.975 E0.35621
G1 X128.479 Y134.436 E0.01705
G1 X136.631 Y142.588 E0.36504
G1 X136.828 Y142.246 E0.01248
G1 X128.479 Y133.897 E0.37386
G1 X128.479 Y133.359 E0.01705
G1 X137.025 Y141.905 E0.38269
G1 X137.222 Y141.563 E0.01248
G1 X128.479 Y132.820 E0.39152
G1 X128.479 Y132.282 E0.01705
G1 X137.419 Y141.222 E0.40035
G1 X137.616 Y140.880 E0.01248
G1 X128.479 Y131.743 E0.40917
G1 X128.479 Y131.205 E0.01705
G1 X137.814 Y140.539 E0.41800
G1 X138.011 Y140.198 E0.01248
G1 X128.479 Y130.666 E0.42683
G1 X128.479 Y130.128 E0.01705
G1 X138.208 Y139.856 E0.43566
G1 X138.405 Y139.515 E0.01248
G1 X128.479 Y129.589 E0.44448
G1 X128.479 Y129.050 E0.01705
G1 X138.614 Y139.185 E0.45383
G1 X139.152 Y139.185 E0.01705
G1 X128.479 Y128.512 E0.47794
G1 X128.479 Y127.973 E0.01705
G1 X139.691 Y139.185 E0.50206
G1 X140.229 Y139.185 E0.01705
G1 X128.479 Y127.435 E0.52618
G1 X128.479 Y126.896 E0.01705
G1 X140.768 Y139.185 E0.55029
G1 X141.306 Y139.185 E0.01705
G1 X128.479 Y126.358 E0.57441
G1 X128.479 Y125.819 E0.01705
G1 X141.845 Y139.185 E0.59853
G1 X142.383 Y139.185 E0.01705
G1 X128.479 Y125.281 E0.62265
G1 X128.479 Y124.742 E0.01705
G1 X143.092 Y139.354 E0.65436
G1 E-1.40000 F2100.00000
G1 Z0.400 F10800.000
G1 X137.375 Y145.486
G1 Z0.200
G1 E1.40000 F2100.00000
G1 F1200
G1 X128.479 Y136.590 E0.39836
G1 X128.479 Y137.129 E0.01705
G1 X138.111 Y146.760 E0.43131
G1 E-1.40000 F2100.00000
G1 Z0.400 F10800.000
G1 X141.763 Y120.253
G1 Z0.200
G1 E1.40000 F2100.00000
G1 F1200
G1 X135.229 Y113.719 E0.29259
G1 X135.032 Y114.061 E0.01248
G1 X149.353 Y128.382 E0.64131
G1 X149.353 Y127.843 E0.01705
G1 X143.130 Y121.620 E0.27868
G1 X143.668 Y121.620 E0.01705
G1 X149.353 Y127.305 E0.25456
G1 X149.353 Y126.766 E0.01705
G1 X144.207 Y121.620 E0.23044
G1 X144.745 Y121.620 E0.01705
G1 X149.353 Y126.228 E0.20633
G1 X149.353 Y125.689 E0.01705
G1 X145.284 Y121.620 E0.18221
G1 X145.822 Y121.620 E0.01705
G1 X149.353 Y125.150 E0.15809
G1 X149.353 Y124.612 E0.01705
G1 X146.361 Y121.620 E0.13398
G1 X146.900 Y121.620 E0.01705
G1 X149.353 Y124.073 E0.10986
G1 X149.353 Y123.535 E0.01705
G1 X147.421 Y121.602 E0.08653
G1 X147.618 Y121.261 E0.01248
G1 X149.353 Y122.996 E0.07770
G1 X149.353 Y122.458 E0.01705
G1 X147.815 Y120.920 E0.06887
G1 X148.012 Y120.578 E0.01248
G1 X149.353 Y121.919 E0.06005
G1 X149.353 Y121.381 E0.01705
G1 X148.209 Y120.237 E0.05122
G1 X148.406 Y119.895 E0.01248
G1 X149.353 Y120.842 E0.04239
G1 X149.353 Y120.303 E0.01705
G1 X148.603 Y119.554 E0.03356
G1 X148.800 Y119.212 E0.01248
G1 X149.353 Y119.765 E0.02474
G1 X149.353 Y119.226 E0.01705
G1 X148.998 Y118.871 E0.01591
G1 X149.195 Y118.530 E0.01248
G1 X149.522 Y118.857 E0.01468
G1 E-1.40000 F2100.00000
G1 Z0.400 F10800.000
G1 X149.522 Y115.859
G1 Z0.200
G1 E1.40000 F2100.00000
G1 F1200
G1 X148.151 Y114.488 E0.07090
G1 X148.857 Y114.572 F10800.000
G1 F1200
G1 X149.522 Y115.238 E0.03440
G1 E-1.40000 F2100.00000
G1 Z0.400 F10800.000
G1 X147.786 Y113.662
G1 Z0.200
G1 E1.40000 F2100.00000
G1 F1200
G1 X146.533 Y112.939 E0.01177
G1 E-1.40000 F2100.00000
G1 Z0.400 F10800.000
G1 X145.316 Y113.035
G1 Z0.200
G1 E1.40000 F2100.00000
G1 F1200
G1 X144.115 Y111.834 E0.05378
G1 E-1.40000 F2100.00000
G1 Z0.400 F10800.000
G1 X144.239 Y113.035
G1 Z0.200
G1 E1.40000 F2100.00000
G1 F1200
G1 X141.566 Y110.363 E0.11967
G1 E-1.40000 F2100.00000
G1 Z0.400 F10800.000
G1 X142.841 Y111.099
G1 Z0.200
G1 E1.40000 F2100.00000
G1 F1200
G1 X144.777 Y113.035 E0.08673
G1 E-1.40000 F2100.00000
G1 Z0.400 F10800.000
G1 X143.700 Y113.035
G1 Z0.200
G1 E1.40000 F2100.00000
G1 F1200
G1 X140.292 Y109.627 E0.15262
G1 E-1.40000 F2100.00000
G1 Z0.400 F10800.000
G1 X139.018 Y108.891
G1 Z0.200
G1 E1.40000 F2100.00000
G1 F1200
G1 X143.162 Y113.035 E0.18556
G1 X142.623 Y113.035 F10800.000
G1 F1200
G1 X137.744 Y108.156 E0.21851
G1 E-1.40000 F2100.00000
G1 Z0.400 F10800.000
G1 X136.469 Y107.420
G1 Z0.200
G1 E1.40000 F2100.00000
G1 F1200
G1 X142.319 Y113.269 E0.26194
G1 X142.122 Y113.611 F10800.000
G1 F1200
G1 X135.480 Y106.969 E0.29744
G1 X135.228 Y106.412 F10800.000
G1 F1200
G1 X133.976 Y105.689 E0.01177
G1 E-1.40000 F2100.00000
G1 Z0.400 F10800.000
G1 X132.716 Y105.785
G1 Z0.200
G1 E1.40000 F2100.00000
G1 F1200
G1 X131.973 Y105.043 E0.03501
G1 X131.766 Y105.403 E0.01385
G1 X132.148 Y105.785 E0.01805
G1 E-1.40000 F2100.00000
G1 Z0.400 F10800.000
G1 X136.118 Y108.146
G1 Z0.200
G1 E1.40000 F2100.00000
G1 F1200
G1 X141.924 Y113.952 E0.26003
G1 X141.727 Y114.294 F10800.000
G1 F1200
G1 X137.317 Y109.883 E0.19749
G1 X137.380 Y109.993 E0.00400
G1 X137.200 Y110.305 E0.01141
G1 X141.406 Y114.511 E0.18835
G1 X141.209 Y114.852 E0.01248
G1 X137.003 Y110.646 E0.18835
G1 X136.806 Y110.988 E0.01248
G1 X141.012 Y115.194 E0.18835
G1 X140.815 Y115.535 E0.01248
G1 X136.609 Y111.329 E0.18835
G1 X136.412 Y111.671 E0.01248
G1 X140.618 Y115.877 E0.18835
G1 X140.420 Y116.218 E0.01248
G1 X136.214 Y112.012 E0.18835
G1 X136.017 Y112.354 E0.01248
G1 X140.223 Y116.559 E0.18835
G1 X140.026 Y116.901 E0.01248
G1 X135.820 Y112.695 E0.18835
G1 X135.623 Y113.036 E0.01248
G1 X140.291 Y117.705 E0.20904
G1 E-1.40000 F2100.00000
G1 Z0.400 F10800.000
G1 X141.027 Y118.979
G1 Z0.200
G1 E1.40000 F2100.00000
G1 F1200
G1 X135.302 Y113.254 E0.25638
G1 E-1.40000 F2100.00000
G1 Z0.400 F10800.000
G1 X135.845 Y94.079
G1 Z0.200
G1 E1.40000 F2100.00000
G1 F1200
G1 X134.917 Y94.003 E0.02918
G1 X134.715 Y93.964 E0.00646
G1 X134.117 Y93.751 E0.01988
G1 X133.930 Y93.663 E0.00648
G1 X133.015 Y93.033 E0.03485
G1 X132.417 Y92.314 E0.02931
G1 X132.133 Y91.791 E0.01867
G1 X131.880 Y90.930 E0.02814
G1 X131.816 Y90.593 E0.01076
G1 X131.816 Y89.804 E0.02472
G1 X131.889 Y89.423 E0.01219
G1 X132.019 Y89.147 E0.00956
G1 X132.388 Y88.117 E0.03429
G1 X133.026 Y87.355 E0.03115
G1 X133.320 Y87.141 E0.01141
G1 X134.388 Y86.534 E0.03851
G1 X134.740 Y86.444 E0.01140
G1 X135.485 Y86.323 E0.02364
G1 X135.698 Y86.310 E0.00671
G1 X136.641 Y86.428 E0.02980
G1 X137.295 Y86.671 E0.02187
G1 X137.590 Y86.833 E0.01057
G1 X138.328 Y87.361 E0.02845
G1 X138.946 Y88.086 E0.02985
G1 X139.270 Y88.724 E0.02244
G1 X139.513 Y89.558 E0.02722
G1 X139.561 Y90.275 E0.02253
G1 X139.540 Y90.607 E0.01045
G1 X139.425 Y91.218 E0.01949
G1 X139.319 Y91.547 E0.01083
G1 X138.866 Y92.420 E0.03083
G1 X138.359 Y93.015 E0.02452
G1 X138.189 Y93.156 E0.00692
G1 X137.162 Y93.794 E0.03791
G1 X136.929 Y93.873 E0.00773
G1 X136.189 Y94.035 E0.02376
G1 X135.904 Y94.072 E0.00899
G1 X135.836 Y93.700 F10800.000
G1 F1200
G1 X134.968 Y93.628 E0.02731
G1 X134.814 Y93.599 E0.00492
G1 X134.261 Y93.402 E0.01840
G1 X134.119 Y93.335 E0.00494
G1 X133.271 Y92.752 E0.03225
G1 X132.731 Y92.102 E0.02652
G1 X132.483 Y91.646 E0.01625
G1 X132.247 Y90.841 E0.02631
G1 X132.193 Y90.557 E0.00907
G1 X132.193 Y89.840 E0.02247
G1 X132.250 Y89.540 E0.00957
G1 X132.368 Y89.291 E0.00864
G1 X132.720 Y88.308 E0.03275
G1 X133.285 Y87.633 E0.02759
G1 X133.525 Y87.459 E0.00930
G1 X134.531 Y86.887 E0.03627
G1 X134.818 Y86.813 E0.00929
G1 X135.527 Y86.698 E0.02252
G1 X135.686 Y86.688 E0.00502
G1 X136.551 Y86.797 E0.02732
G1 X137.138 Y87.015 E0.01962
G1 X137.389 Y87.153 E0.00900
G1 X138.071 Y87.641 E0.02631
G1 X138.630 Y88.297 E0.02700
G1 X138.918 Y88.863 E0.01993
G1 X139.139 Y89.624 E0.02483
G1 X139.183 Y90.276 E0.02048
G1 X139.165 Y90.560 E0.00895
G1 X139.059 Y91.125 E0.01801
G1 X138.970 Y91.401 E0.00909
G1 X138.551 Y92.208 E0.02850
G1 X138.093 Y92.745 E0.02215
G1 X137.968 Y92.849 E0.00509
G1 X137.000 Y93.451 E0.03574
G1 X136.828 Y93.510 E0.00571
G1 X136.124 Y93.663 E0.02257
G1 X135.896 Y93.693 E0.00722
G1 X135.639 Y94.048 F10800.000
G1 E-1.40000 F2100.00000
G1 Z0.400 F10800.000
G1 X161.197 Y90.239
G1 Z0.200
G1 E1.40000 F2100.00000
G1 F1200
G1 X160.268 Y89.912 E0.03087
G1 X159.963 Y89.744 E0.01091
G1 X159.332 Y89.272 E0.02471
G1 X158.722 Y88.534 E0.03004
G1 X158.451 Y88.019 E0.01823
G1 X158.164 Y87.046 E0.03182
G1 X158.136 Y86.823 E0.00704
G1 X158.173 Y85.797 E0.03218
