; generated by PrusaSlicer 2.5.0+win64 on 2022-12-22 at 18:36:20 UTC


;
;
; 

; external perimeters extrusion width = 0.45mm
; perimeters extrusion width = 0.45mm
; infill extrusion width = 0.45mm
; solid infill extrusion width = 0.45mm
; top infill extrusion width = 0.40mm
; first layer extrusion width = 0.42mm

; external perimeters extrusion width = 0.45mm
; perimeters extrusion width = 0.45mm
; infill extrusion width = 0.45mm
; solid infill extrusion width = 0.45mm
; top infill extrusion width = 0.40mm
; first layer extrusion width = 0.42mm

M73 P0 R26
M73 Q0 S26
M201 X1000 Y1000 Z200 E5000 ; sets maximum accelerations, mm/sec^2
M203 X200 Y200 Z12 E120 ; sets maximum feedrates, mm / sec
M204 P1250 R1250 T1250 ; sets acceleration (P, T) and retract acceleration (R), mm/sec^2
M205 X8.00 Y8.00 Z0.40 E4.50 ; sets the jerk limits, mm/sec
M205 S0 T0 ; sets the minimum extruding and travel feed rate, mm/sec
M107
;TYPE:Custom
M862.3 P "MK3S" ; printer model check
M862.1 P0.4 ; nozzle diameter check
M115 U3.11.0 ; tell printer latest fw version
G90 ; use absolute coordinates
M83 ; extruder relative mode
M104 S215 ; set extruder temp
M140 S60 ; set bed temp
M190 S60 ; wait for bed temp
M109 S215 ; wait for extruder temp
G28 W ; home all without mesh bed level
G80 ; mesh bed leveling

G1 Z0.2 F720
G1 Y-3 F1000 ; go outside print area
G92 E0
G1 X60 E9 F1000 ; intro line
G1 X100 E12.5 F1000 ; intro line

G92 E0
M221 S95

; Don't change E values below. Excessive value can damage the printer.

G21 ; set units to millimeters
G90 ; use absolute coordinates
M83 ; use relative distances for extrusion
M900 K0.05 ; Filament gcode LA 1.5
M900 K30 ; Filament gcode LA 1.0
M107
;LAYER_CHANGE
;Z:0.2
;HEIGHT:0.2
;BEFORE_LAYER_CHANGE
G92 E0.0
;0.2


G1 E-.8 F2100
M73 P0 R25
G1 Z.4 F900
;AFTER_LAYER_CHANGE
;0.2
G1 X125.369 Y103.647 F13200
G1 Z.2 F900
G1 E.8 F2100
M204 S800
;TYPE:Skirt/Brim
;WIDTH:0.42
G1 F600
G1 X127.076 Y102.432 E.06572
G1 X129.446 Y101.949 E.07582
G1 X130.928 Y101.76 E.04686
M73 Q0 S25
G1 X132.3 Y101.66 E.04313
G1 X134.85 Y101.661 E.07995
G1 X137.546 Y101.928 E.08495
G1 X140.05 Y102.431 E.08008
G1 X141.342 Y103.134 E.04612
G1 X142.181 Y105.043 E.06537
G1 X142.8 Y130.886 E.81053
G1 X142.407 Y132.304 E.04612
G1 X141.341 Y133.317 E.04612
G1 X140.033 Y133.64 E.04225
G1 X127.176 Y133.58 E.40312
G1 X125.76 Y133.181 E.04612
G1 X124.752 Y132.11 E.04612
G1 X124.434 Y130.826 E.04147
G1 X124.946 Y105.056 E.80817
G1 X125.351 Y103.705 E.04424
M204 S1000
M73 P1 R25
M73 Q1 S25
G1 X125.723 Y103.825 F13200
M204 S800
G1 F600
G1 X125.742 Y103.765 E.00195
G1 X127.162 Y102.799 E.05384
G1 X129.512 Y102.32 E.07522
G1 X130.957 Y102.136 E.04566
G1 X132.31 Y102.037 E.04252
G1 X134.84 Y102.037 E.07935
G1 X137.499 Y102.302 E.08375
G1 X139.965 Y102.798 E.07888
G1 X141.15 Y103.475 E.04278
G1 X141.804 Y105.053 E.05354
G1 X142.422 Y130.886 E.81022
G1 X142.031 Y132.193 E.04278
G1 X140.985 Y133.07 E.04278
G1 X140.034 Y133.263 E.03042
G1 X127.178 Y133.203 E.40312
G1 X125.872 Y132.805 E.04278
G1 X125.001 Y131.756 E.04278
G1 X124.812 Y130.826 E.02974
G1 X125.323 Y105.064 E.80792
G1 X125.705 Y103.882 E.03895
M204 S1000
; printing object Cap.stl id:0 copy 0
;WIPE_START
G1 F10560
G1 X125.742 Y103.765 E-.02307
G1 X127.162 Y102.799 E-.32442
G1 X129.301 Y102.363 E-.41251
;WIPE_END
G1 E-.04 F2100
G1 Z.6 F900
G1 X133.565 Y122.307 F13200
G1 Z.2 F900
G1 E.8 F2100
M204 S800
;TYPE:External perimeter
;WIDTH:0.419999
G1 F360
G1 X139.305 Y125.621 E.20783
G1 X139.632 Y129.067 E.10853
G1 X139.635 Y130.386 E.04135
G1 X138.495 Y130.157 E.03647
G1 X136.777 Y128.129 E.08335
G1 X136.708 Y128.077 E.00271
G1 X133.639 Y126.76 E.10469
G1 X133.491 Y126.76 E.00466
G1 X130.423 Y128.077 E.10469
G1 X130.353 Y128.129 E.00271
G1 X128.639 Y130.153 E.08318
G1 X127.599 Y130.337 E.03311
G1 X127.599 Y129.046 E.04047
G1 X127.927 Y125.562 E.10973
G1 X133.513 Y122.337 E.20225
M204 S1000
;WIPE_START
M73 P2 R25
M73 Q2 S25
G1 F10560
G1 X137.013 Y124.321 E-.76
;WIPE_END
G1 E-.04 F2100
G1 Z.6 F900
G1 X137.366 Y124.632 F13200
G1 Z.2 F900
G1 E.8 F2100
M204 S800
;TYPE:Solid infill
;WIDTH:0.421688
G1 F1200
G1 X139.091 Y126.357 E.07681
G1 X139.147 Y126.948 E.01872
G1 X136.563 Y124.364 E.11511
G1 X135.295 Y123.632 E.04609
G1 X139.203 Y127.54 E.17405
G1 X139.259 Y128.132 E.01872
G1 X134.028 Y122.901 E.233
G1 X133.565 Y122.633 E.01683
G1 X133.349 Y122.758 E.00784
G1 X139.315 Y128.723 E.26571
G1 X139.353 Y129.297 E.01809
G1 X133.01 Y122.954 E.28251
G1 X132.67 Y123.15 E.01235
G1 X139.353 Y129.832 E.29763
G1 X139.353 Y130.041 E.00656
G1 X138.943 Y129.959 E.01315
G1 X132.331 Y123.346 E.29453
G1 X131.991 Y123.542 E.01235
G1 X135.854 Y127.405 E.17206
G1 X134.914 Y127.001 E.03223
G1 X131.651 Y123.738 E.14531
G1 X131.312 Y123.934 E.01235
G1 X133.974 Y126.596 E.11857
G1 X133.742 Y126.497 E.00795
G1 X133.565 Y126.46 E.0057
G1 X133.353 Y126.511 E.00686
G1 X130.972 Y124.13 E.10606
G1 X130.633 Y124.326 E.01235
G1 X132.979 Y126.673 E.1045
G1 X132.604 Y126.834 E.01284
G1 X130.293 Y124.522 E.10294
G1 X129.953 Y124.719 E.01235
G1 X132.23 Y126.995 E.10139
G1 X131.855 Y127.156 E.01284
G1 X129.614 Y124.915 E.09983
G1 X129.274 Y125.111 E.01235
G1 X131.481 Y127.317 E.09827
G1 X131.106 Y127.478 E.01284
G1 X128.935 Y125.307 E.09672
G1 X128.595 Y125.503 E.01235
G1 X130.732 Y127.639 E.09516
G1 X130.357 Y127.8 E.01284
G1 X128.256 Y125.699 E.0936
G1 X128.195 Y125.734 E.00221
G1 X128.157 Y126.136 E.01271
G1 X130.059 Y128.038 E.08473
G1 X129.814 Y128.328 E.01197
G1 X128.111 Y126.625 E.07584
G1 X128.065 Y127.115 E.01549
G1 X129.568 Y128.618 E.06696
G1 X129.322 Y128.908 E.01197
G1 X128.018 Y127.604 E.05807
G1 X127.972 Y128.094 E.01549
G1 X129.077 Y129.198 E.04919
G1 X128.831 Y129.488 E.01197
G1 X127.926 Y128.584 E.0403
G1 X127.881 Y129.074 E.01552
G1 X128.585 Y129.778 E.03136
G1 X128.489 Y129.893 E.00471
G1 X128.213 Y129.941 E.00883
G1 X127.712 Y129.44 E.02232
M204 S1000
;WIPE_START
G1 F10560
G1 X128.213 Y129.941 E-.13389
G1 X128.489 Y129.893 E-.05294
G1 X128.585 Y129.778 E-.02827
G1 X127.881 Y129.074 E-.18812
G1 X127.926 Y128.584 E-.09311
G1 X128.831 Y129.488 E-.24175
G1 X128.906 Y129.4 E-.02192
;WIPE_END
G1 E-.04 F2100
G1 Z.6 F900
G1 X134.039 Y118.893 F13200
G1 Z.2 F900
G1 E.8 F2100
M204 S800
;TYPE:Perimeter
;WIDTH:0.419999
G1 F720
G1 X133.764 Y118.796 E.00914
G1 X133.366 Y118.796 E.01247
G1 X132.905 Y118.958 E.01531
G1 X129.241 Y121.074 E.13268
G1 X129.241 Y106.349 E.46167
G1 X130.165 Y106.184 E.02946
G1 X131.294 Y106.04 E.03567
G1 X132.427 Y105.954 E.03565
G1 X133.582 Y105.925 E.03622
G1 X134.702 Y105.954 E.03512
G1 X135.836 Y106.04 E.03567
G1 X136.965 Y106.184 E.03567
G1 X137.886 Y106.349 E.02935
G1 X137.889 Y121.073 E.46167
G1 X134.225 Y118.958 E.13266
G1 X134.095 Y118.912 E.0043
M204 S1000
G1 X133.912 Y119.241 F13200
M204 S800
G1 F720
G1 X133.707 Y119.169 E.00682
G1 X133.423 Y119.169 E.00891
G1 X133.094 Y119.284 E.01094
G1 X128.863 Y121.727 E.15315
G1 X128.863 Y106.04 E.49186
G1 X130.108 Y105.811 E.03968
G1 X131.256 Y105.665 E.03627
G1 X132.408 Y105.577 E.03625
G1 X133.583 Y105.548 E.03682
G1 X134.721 Y105.577 E.03572
G1 X135.875 Y105.665 E.03627
G1 X137.022 Y105.811 E.03626
G1 X138.263 Y106.039 E.03958
M73 Q3 S25
G1 X138.266 Y121.726 E.49188
G1 X134.036 Y119.284 E.15314
M73 P3 R25
G1 X133.969 Y119.261 E.00224
M204 S1000
G1 X133.76 Y119.587 F13200
M204 S800
G1 F720
G1 X133.565 Y119.535 E.00632
G1 X133.282 Y119.611 E.00918
G1 X128.486 Y122.38 E.17363
G1 X128.486 Y105.74 E.52173
G1 X128.894 Y105.645 E.01311
G1 X130.051 Y105.438 E.03686
G1 X131.217 Y105.289 E.03686
G1 X132.389 Y105.2 E.03686
G1 X133.583 Y105.171 E.03742
G1 X134.74 Y105.2 E.03631
G1 X135.913 Y105.289 E.03687
G1 X137.079 Y105.438 E.03686
G1 X138.224 Y105.643 E.03646
G1 X138.64 Y105.739 E.01341
G1 X138.643 Y122.38 E.52175
G1 X133.817 Y119.603 E.17457
M204 S1000
G1 X133.659 Y119.938 F13200
M204 S800
;TYPE:External perimeter
G1 F360
G1 X133.625 Y119.922 E.00117
G1 X133.471 Y119.938 E.00487
G1 X128.109 Y123.033 E.19411
G1 X128.109 Y105.44 E.5516
G1 X128.818 Y105.276 E.02281
G1 X129.994 Y105.065 E.03746
G1 X131.179 Y104.914 E.03746
G1 X132.371 Y104.823 E.03746
G1 X133.583 Y104.794 E.03802
G1 X134.759 Y104.823 E.0369
G1 X135.951 Y104.914 E.03746
G1 X137.136 Y105.065 E.03746
G1 X138.312 Y105.276 E.03746
G1 X139.017 Y105.44 E.0227
G1 X139.021 Y123.033 E.55162
G1 X133.711 Y119.968 E.19222
M204 S1000
G1 X133.637 Y119.908 F13200
;WIPE_START
M73 P4 R25
M73 Q4 S25
G1 F10560
G1 X133.625 Y119.922 E-.01838
G1 X133.471 Y119.938 E-.02933
G1 X130.206 Y121.823 E-.7123
;WIPE_END
G1 E-.04 F2100
G1 Z.6 F900
G1 X136.847 Y106.283 F13200
G1 Z.2 F900
G1 E.8 F2100
M204 S800
;TYPE:Solid infill
;WIDTH:0.420152
G1 F1200
G1 X137.604 Y107.04 E.03358
G1 X137.604 Y107.573 E.01674
G1 X136.431 Y106.401 E.052
G1 X135.82 Y106.323 E.01933
G1 X137.604 Y108.107 E.07913
G1 X137.604 Y108.64 E.01674
G1 X135.242 Y106.278 E.10478
G1 X134.666 Y106.236 E.01812
G1 X137.604 Y109.174 E.13034
G1 X137.604 Y109.707 E.01674
G1 X134.118 Y106.222 E.15463
G1 X133.576 Y106.213 E.01701
G1 X137.604 Y110.241 E.17869
G1 X137.604 Y110.775 E.01674
M73 P4 R24
G1 X133.053 Y106.224 E.20188
G1 X132.531 Y106.234 E.0164
G1 X137.604 Y111.308 E.22508
G1 X137.605 Y111.842 E.01674
G1 X132.03 Y106.267 E.24728
G1 X131.534 Y106.305 E.01559
G1 X137.605 Y112.375 E.26927
G1 X137.605 Y112.909 E.01674
G1 X131.052 Y106.356 E.29069
G1 X130.578 Y106.416 E.01496
G1 X137.605 Y113.443 E.31169
G1 X137.605 Y113.976 E.01674
M73 Q4 S24
G1 X130.11 Y106.481 E.33249
G1 X129.657 Y106.562 E.01442
G1 X137.605 Y114.51 E.35256
G1 X137.605 Y115.043 E.01674
G1 X129.523 Y106.961 E.35851
G1 X129.523 Y107.495 E.01673
G1 X137.605 Y115.577 E.35851
G1 X137.605 Y116.11 E.01674
G1 X129.523 Y108.028 E.35852
G1 X129.523 Y108.562 E.01673
G1 X137.605 Y116.644 E.35852
G1 X137.606 Y117.178 E.01674
G1 X129.523 Y109.095 E.35852
G1 X129.523 Y109.629 E.01673
G1 X137.606 Y117.711 E.35853
G1 X137.606 Y118.245 E.01674
G1 X129.523 Y110.162 E.35853
G1 X129.523 Y110.696 E.01673
G1 X137.606 Y118.778 E.35854
G1 X137.606 Y119.312 E.01674
G1 X129.523 Y111.229 E.35854
G1 X129.523 Y111.763 E.01673
G1 X137.606 Y119.846 E.35855
G1 X137.606 Y120.379 E.01674
G1 X129.523 Y112.296 E.35855
G1 X129.523 Y112.83 E.01673
G1 X136.827 Y120.134 E.324
G1 X135.565 Y119.405 E.04572
G1 X129.523 Y113.363 E.268
G1 X129.523 Y113.897 E.01673
G1 X134.316 Y118.69 E.21262
G1 X134.077 Y118.582 E.00822
G1 X133.807 Y118.516 E.00873
G1 X133.593 Y118.5 E.00673
G1 X129.523 Y114.43 E.18053
G1 X129.523 Y114.964 E.01673
G1 X133.124 Y118.565 E.15973
G1 X132.748 Y118.722 E.01279
G1 X129.523 Y115.497 E.14305
G1 X129.523 Y116.031 E.01673
G1 X132.41 Y118.917 E.12804
G1 X132.072 Y119.113 E.01225
M73 Q5 S24
G1 X129.523 Y116.564 E.11304
G1 X129.523 Y117.098 E.01673
M73 P5 R24
G1 X131.733 Y119.308 E.09804
G1 X131.395 Y119.503 E.01225
G1 X129.523 Y117.631 E.08303
G1 X129.523 Y118.165 E.01673
G1 X131.057 Y119.698 E.06803
G1 X130.719 Y119.894 E.01225
G1 X129.523 Y118.698 E.05303
G1 X129.523 Y119.232 E.01673
G1 X130.381 Y120.089 E.03802
G1 X130.042 Y120.284 E.01225
G1 X129.523 Y119.765 E.02302
G1 X129.523 Y120.299 E.01673
G1 X129.828 Y120.604 E.01353
M204 S1000
; stop printing object Cap.stl id:0 copy 0
M106 S84.15
;LAYER_CHANGE
;Z:0.35
;HEIGHT:0.15
;BEFORE_LAYER_CHANGE
G92 E0.0
;0.35


;WIPE_START
G1 F10560
G1 X129.523 Y120.299 E-.08148
G1 X129.523 Y119.765 E-.10079
G1 X130.042 Y120.284 E-.13865
G1 X130.381 Y120.089 E-.07378
G1 X129.523 Y119.232 E-.22902
G1 X129.523 Y118.698 E-.10079
G1 X129.656 Y118.831 E-.03549
;WIPE_END
G1 E-.04 F2100
G1 Z.6 F900
;AFTER_LAYER_CHANGE
;0.35
M104 S210 ; set temperature
; printing object Cap.stl id:0 copy 0
G1 X133.565 Y122.093 F13200
G1 Z.35 F900
G1 E.8 F2100
M204 S800
;TYPE:External perimeter
;WIDTH:0.449999
G1 F1800
G1 X139.482 Y125.509 E.17802
G1 X139.816 Y129.104 E.09406
G1 X139.82 Y130.539 E.0374
G1 X138.395 Y130.254 E.03787
G1 X136.667 Y128.213 E.06968
G1 X136.59 Y128.156 E.0025
G1 X133.647 Y126.893 E.08344
G1 X133.483 Y126.893 E.00429
G1 X130.54 Y128.156 E.08344
G1 X130.463 Y128.213 E.0025
G1 X128.737 Y130.251 E.06961
G1 X127.414 Y130.485 E.03501
G1 X127.414 Y129.09 E.03635
G1 X127.752 Y125.449 E.09527
G1 X133.513 Y122.123 E.17334
M204 S1000
;WIPE_START
G1 F10560
G1 X137.012 Y124.108 E-.76
;WIPE_END
G1 E-.04 F2100
G1 Z.75 F900
G1 X139.695 Y129.534 F13200
G1 Z.35 F900
G1 E.8 F2100
;TYPE:Solid infill
;WIDTH:0.45554
G1 F3048
G1 X139.145 Y130.084 E.02053
G1 X138.646 Y129.984 E.01343
G1 X139.504 Y129.127 E.032
G1 X139.453 Y128.579 E.01453
G1 X138.335 Y129.697 E.04174
G1 X138.06 Y129.373 E.01122
G1 X139.402 Y128.032 E.05009
G1 X139.351 Y127.484 E.01453
G1 X137.786 Y129.049 E.05844
G1 X137.511 Y128.725 E.01122
G1 X139.3 Y126.936 E.06678
G1 X139.249 Y126.388 E.01453
G1 X137.237 Y128.4 E.07513
G1 X136.962 Y128.076 E.01122
G1 X139.198 Y125.84 E.08348
G1 X139.185 Y125.7 E.00373
G1 X138.903 Y125.537 E.0086
G1 X136.612 Y127.827 E.08552
G1 X136.194 Y127.647 E.01203
G1 X138.523 Y125.318 E.08698
G1 X138.144 Y125.099 E.01157
G1 X135.775 Y127.467 E.08843
G1 X135.357 Y127.287 E.01203
G1 X137.764 Y124.879 E.08989
G1 X137.385 Y124.66 E.01157
G1 X134.938 Y127.107 E.09135
G1 X134.52 Y126.927 E.01203
G1 X137.005 Y124.441 E.0928
G1 X136.626 Y124.222 E.01157
G1 X134.101 Y126.747 E.09426
G1 X133.761 Y126.601 E.00976
G1 X133.668 Y126.581 E.00253
G1 X136.246 Y124.003 E.09627
G1 X135.866 Y123.784 E.01157
G1 X132.808 Y126.842 E.11419
G1 X131.756 Y127.296 E.03025
G1 X135.487 Y123.565 E.13931
G1 X135.107 Y123.345 E.01157
G1 X128.473 Y129.98 E.24771
G1 X127.746 Y130.108 E.0195
G1 X134.728 Y123.126 E.26069
G1 X134.348 Y122.907 E.01157
G1 X127.727 Y129.528 E.24722
G1 X127.745 Y128.912 E.01629
G1 X133.969 Y122.688 E.23238
G1 X133.589 Y122.469 E.01157
G1 X127.806 Y128.252 E.21591
G1 X127.868 Y127.592 E.0175
G1 X132.238 Y123.221 E.16318
G1 X130.821 Y124.039 E.04318
G1 X127.929 Y126.932 E.108
G1 X127.99 Y126.272 E.0175
G1 X129.918 Y124.343 E.072
;WIPE_START
G1 F10560
G1 X127.99 Y126.272 E-.5152
G1 X127.929 Y126.932 E-.12523
G1 X128.376 Y126.484 E-.11957
;WIPE_END
G1 E-.04 F2100
G1 Z.75 F900
G1 X134.188 Y119.101 F13200
G1 Z.35 F900
G1 E.8 F2100
M204 S800
;TYPE:Perimeter
;WIDTH:0.449999
G1 F3048
G1 X134.032 Y119.031 E.00445
G1 X133.565 Y118.954 E.01234
G1 X133.098 Y119.031 E.01233
G1 X132.834 Y119.15 E.00755
G1 X129.178 Y121.261 E.11
G1 X129.178 Y106.297 E.3899
G1 X130.156 Y106.122 E.02589
G1 X131.287 Y105.977 E.02972
G1 X132.423 Y105.891 E.02967
G1 X133.626 Y105.863 E.03136
G1 X134.705 Y105.891 E.02813
G1 X135.843 Y105.977 E.02972
G1 X136.974 Y106.122 E.02972
G1 X137.949 Y106.296 E.02581
G1 X137.952 Y121.261 E.38991
G1 X134.242 Y119.126 E.11152
M204 S1000
G1 X133.95 Y119.464 F13200
M204 S800
G1 F3048
G1 X133.722 Y119.384 E.00628
G1 X133.408 Y119.384 E.0082
G1 X133.043 Y119.512 E.01007
G1 X128.76 Y121.985 E.12886
G1 X128.76 Y105.957 E.41761
G1 X130.092 Y105.708 E.03532
G1 X131.245 Y105.562 E.03027
G1 X132.402 Y105.474 E.03024
G1 X133.627 Y105.446 E.03191
G1 X134.727 Y105.473 E.02866
G1 X135.885 Y105.562 E.03027
G1 X137.038 Y105.708 E.03027
G1 X138.367 Y105.957 E.03523
G1 X138.37 Y121.984 E.41762
G1 X134.087 Y119.512 E.12885
G1 X134.006 Y119.484 E.00223
M204 S1000
G1 X133.842 Y119.857 F13200
M204 S800
G1 F3048
G1 X133.765 Y119.823 E.0022
G1 X133.471 Y119.797 E.00771
G1 X133.252 Y119.874 E.00604
G1 X128.342 Y122.708 E.14771
G1 X128.342 Y105.625 E.44511
G1 X128.865 Y105.504 E.01398
G1 X130.029 Y105.295 E.03083
G1 X131.203 Y105.146 E.03082
G1 X132.382 Y105.056 E.0308
G1 X133.627 Y105.028 E.03247
G1 X134.748 Y105.056 E.0292
G1 X135.927 Y105.146 E.03083
G1 X137.101 Y105.295 E.03082
G1 X138.265 Y105.504 E.03082
G1 X138.785 Y105.625 E.01389
G1 X138.788 Y122.708 E.44513
G1 X133.896 Y119.884 E.14718
M204 S1000
G1 X133.669 Y120.236 F13200
M204 S800
;TYPE:External perimeter
G1 F1800
G1 X133.632 Y120.219 E.00108
G1 X133.461 Y120.236 E.00448
G1 X127.924 Y123.432 E.16657
G1 X127.924 Y105.293 E.47262
G1 X128.781 Y105.095 E.0229
G1 X129.966 Y104.882 E.03138
G1 X131.16 Y104.73 E.03138
G1 X132.361 Y104.639 E.03137
G1 X133.628 Y104.61 E.03302
G1 X134.769 Y104.639 E.02974
G1 X135.97 Y104.73 E.03138
G1 X137.164 Y104.882 E.03138
