; generated by PrusaSlicer 2.3.1+win64 on 2021-08-06 at 19:04:13 UTC

; 

; external perimeters extrusion width = 0.45mm
; perimeters extrusion width = 0.45mm
; infill extrusion width = 0.45mm
; solid infill extrusion width = 0.45mm
; top infill extrusion width = 0.40mm
; support material extrusion width = 0.35mm
; first layer extrusion width = 0.42mm

M73 P0 R2
M73 Q0 S2
M201 X1000 Y1000 Z1000 E5000 ; sets maximum accelerations, mm/sec^2
M203 X200 Y200 Z12 E120 ; sets maximum feedrates, mm/sec
M204 P1250 R1250 T1250 ; sets acceleration (P, T) and retract acceleration (R), mm/sec^2
M205 X8.00 Y8.00 Z0.40 E1.50 ; sets the jerk limits, mm/sec
M205 S0 T0 ; sets the minimum extruding and travel feed rate, mm/sec
M107
;TYPE:Custom
M862.3 P "MK3S" ; printer model check
M862.1 P0.4 ; nozzle diameter check
M115 U3.8.0 ; tell printer latest fw version
G90 ; use absolute coordinates
M83 ; extruder relative mode
M104 S215 ; set extruder temp
M140 S60 ; set bed temp
M190 S60 ; wait for bed temp
M109 S215 ; wait for extruder temp
G28 W ; home all without mesh bed level
G80 ; mesh bed leveling
G1 Y-3.0 F1000.0 ; go outside print area
G92 E0.0
G1 X60.0 E9.0 F1000.0 ; intro line
M73 P2 R2
M73 Q2 S2
G1 X100.0 E12.5 F1000.0 ; intro line
G92 E0.0
M221 S95
G21 ; set units to millimeters
G90 ; use absolute coordinates
M83 ; use relative distances for extrusion
M900 K0.05 ; Filament gcode LA 1.5
M900 K30 ; Filament gcode LA 1.0
;LAYER_CHANGE
;Z:0.2
;HEIGHT:0.2
;BEFORE_LAYER_CHANGE
G92 E0.0
;0.2


M73 P4 R2
M73 Q4 S2
G1 E-0.80000 F2100.000
G1 Z0.600 F10800.000
;AFTER_LAYER_CHANGE
;0.2
G1 X115.207 Y110.906
M73 P5 R2
M73 Q5 S2
G1 Z0.200
G1 E0.80000 F2100.000
M204 S1000
;TYPE:Perimeter
;WIDTH:0.42
G1 F1200.000
G1 X112.587 Y110.906 E0.08214
G1 X112.587 Y99.094 E0.37035
G1 X137.413 Y99.094 E0.77840
M73 P6 R2
M73 Q6 S2
G1 X137.413 Y110.906 E0.37035
M73 Q7 S2
G1 X115.267 Y110.906 E0.69437
M73 P7 R2
G1 X115.267 Y111.283 F10800.000
;TYPE:External perimeter
G1 F1200.000
G1 X112.210 Y111.283 E0.09585
M73 Q8 S2
G1 X112.210 Y98.717 E0.39400
M73 P8 R2
G1 X137.790 Y98.717 E0.80204
M73 P9 R2
M73 Q9 S2
G1 X137.790 Y111.283 E0.39400
G1 X115.327 Y111.283 E0.70431
M73 P10 R2
M73 Q10 S2
G1 X115.011 Y110.975 F10800.000
G1 E-0.80000 F2100.000
G1 Z0.800 F10800.000
G1 X137.300 Y99.981
M73 Q11 S2
G1 Z0.200
G1 E0.80000 F2100.000
;TYPE:Solid infill
;WIDTH:0.425608
G1 F1200.000
G1 X136.695 Y99.377 E0.02720
G1 X136.154 Y99.377 E0.01722
G1 X137.130 Y100.353 E0.04392
G1 X137.130 Y100.894 E0.01722
G1 X135.613 Y99.377 E0.06828
M73 P11 R2
G1 X135.072 Y99.377 E0.01722
G1 X137.130 Y101.435 E0.09263
G1 X137.130 Y101.976 E0.01722
G1 X134.531 Y99.377 E0.11699
G1 X133.989 Y99.377 E0.01722
G1 X137.130 Y102.518 E0.14134
G1 X137.130 Y103.059 E0.01722
G1 X133.448 Y99.377 E0.16569
G1 X132.907 Y99.377 E0.01722
M73 Q12 S2
G1 X137.130 Y103.600 E0.19005
G1 X137.130 Y104.141 E0.01722
G1 X132.366 Y99.377 E0.21440
M73 P12 R2
G1 X131.825 Y99.377 E0.01722
G1 X137.130 Y104.682 E0.23876
G1 X137.130 Y105.224 E0.01722
G1 X131.283 Y99.377 E0.26311
M73 Q13 S2
G1 X130.742 Y99.377 E0.01722
G1 X137.130 Y105.765 E0.28747
M73 P13 R2
G1 X137.130 Y106.306 E0.01722
G1 X130.201 Y99.377 E0.31182
G1 X129.660 Y99.377 E0.01722
G1 X137.130 Y106.847 E0.33618
M73 Q14 S2
G1 X137.130 Y107.389 E0.01722
G1 X129.118 Y99.377 E0.36053
M73 P14 R2
G1 X128.577 Y99.377 E0.01722
G1 X137.130 Y107.930 E0.38489
M73 Q15 S2
G1 X137.130 Y108.471 E0.01722
G1 X128.036 Y99.377 E0.40924
M73 P15 R2
G1 X127.495 Y99.377 E0.01722
G1 X137.130 Y109.012 E0.43360
M73 Q16 S2
G1 X137.130 Y109.553 E0.01722
G1 X126.954 Y99.377 E0.45795
M73 P16 R2
G1 X126.412 Y99.377 E0.01722
G1 X137.130 Y110.095 E0.48231
M73 Q17 S2
G1 X137.130 Y110.623 E0.01682
G1 X137.118 Y110.623 E0.00040
G1 X125.871 Y99.377 E0.50609
M73 P17 R2
G1 X125.330 Y99.377 E0.01722
G1 X136.576 Y110.623 E0.50609
M73 P18 R2
M73 Q18 S2
G1 X136.035 Y110.623 E0.01722
G1 X124.789 Y99.377 E0.50609
G1 X124.248 Y99.377 E0.01722
G1 X135.494 Y110.623 E0.50609
M73 P19 R2
M73 Q19 S2
G1 X134.953 Y110.623 E0.01722
G1 X123.706 Y99.377 E0.50609
M73 Q20 S2
G1 X123.165 Y99.377 E0.01722
G1 X134.412 Y110.623 E0.50609
M73 P20 R2
G1 X133.870 Y110.623 E0.01722
G1 X122.624 Y99.377 E0.50609
M73 P21 R2
M73 Q21 S2
G1 X122.083 Y99.377 E0.01722
G1 X133.329 Y110.623 E0.50609
G1 X132.788 Y110.623 E0.01722
G1 X121.542 Y99.377 E0.50609
M73 P22 R2
M73 Q22 S2
G1 X121.000 Y99.377 E0.01722
G1 X132.247 Y110.623 E0.50609
M73 Q23 S2
G1 X131.705 Y110.623 E0.01722
G1 X120.459 Y99.377 E0.50609
M73 P23 R2
G1 X119.918 Y99.377 E0.01722
G1 X131.164 Y110.623 E0.50609
M73 Q24 S2
G1 X130.623 Y110.623 E0.01722
G1 X119.377 Y99.377 E0.50609
M73 P24 R2
G1 X118.836 Y99.377 E0.01722
G1 X130.082 Y110.623 E0.50609
M73 P25 R2
M73 Q25 S2
G1 X129.541 Y110.623 E0.01722
G1 X118.294 Y99.377 E0.50609
G1 X117.753 Y99.377 E0.01722
G1 X128.999 Y110.623 E0.50609
M73 P26 R2
M73 Q26 S2
G1 X128.458 Y110.623 E0.01722
G1 X117.212 Y99.377 E0.50609
M73 Q27 S2
G1 X116.671 Y99.377 E0.01722
G1 X127.917 Y110.623 E0.50609
M73 P27 R2
G1 X127.376 Y110.623 E0.01722
G1 X116.130 Y99.377 E0.50609
M73 P28 R2
M73 Q28 S2
G1 X115.588 Y99.377 E0.01722
G1 X126.835 Y110.623 E0.50609
G1 X126.293 Y110.623 E0.01722
G1 X115.047 Y99.377 E0.50609
M73 P29 R2
M73 Q29 S2
G1 X114.506 Y99.377 E0.01722
G1 X125.752 Y110.623 E0.50609
M73 Q30 S2
G1 X125.211 Y110.623 E0.01722
G1 X113.965 Y99.377 E0.50609
M73 P30 R2
G1 X113.424 Y99.377 E0.01722
G1 X124.670 Y110.623 E0.50609
M73 P31 R2
M73 Q31 S2
G1 X124.129 Y110.623 E0.01722
G1 X112.870 Y99.377 E0.50638
G1 X112.870 Y99.906 E0.01682
G1 X123.587 Y110.623 E0.48230
M73 P32 R2
M73 Q32 S2
G1 X123.046 Y110.623 E0.01722
G1 X112.870 Y100.447 E0.45795
G1 X112.870 Y100.988 E0.01722
G1 X122.505 Y110.623 E0.43359
M73 P33 R2
M73 Q33 S2
G1 X121.964 Y110.623 E0.01722
G1 X112.870 Y101.529 E0.40924
G1 X112.870 Y102.070 E0.01722
G1 X121.423 Y110.623 E0.38488
M73 P34 R2
M73 Q34 S2
G1 X120.881 Y110.623 E0.01722
G1 X112.870 Y102.612 E0.36053
G1 X112.870 Y103.153 E0.01722
G1 X120.340 Y110.623 E0.33618
M73 Q35 S2
G1 X119.799 Y110.623 E0.01722
M73 P35 R2
G1 X112.870 Y103.694 E0.31182
G1 X112.870 Y104.235 E0.01722
G1 X119.258 Y110.623 E0.28747
G1 X118.717 Y110.623 E0.01722
G1 X112.870 Y104.776 E0.26311
M73 P36 R2
M73 Q36 S2
G1 X112.870 Y105.318 E0.01722
G1 X118.175 Y110.623 E0.23876
G1 X117.634 Y110.623 E0.01722
G1 X112.870 Y105.859 E0.21440
M73 P36 R1
G1 X112.870 Y106.400 E0.01722
G1 X117.093 Y110.623 E0.19005
M73 Q36 S1
G1 X116.552 Y110.623 E0.01722
G1 X112.870 Y106.941 E0.16569
M73 P37 R1
M73 Q37 S1
G1 X112.870 Y107.482 E0.01722
G1 X116.011 Y110.623 E0.14134
G1 X115.469 Y110.623 E0.01722
G1 X112.870 Y108.024 E0.11698
G1 X112.870 Y108.565 E0.01722
G1 X114.928 Y110.623 E0.09263
G1 X114.387 Y110.623 E0.01722
G1 X112.870 Y109.106 E0.06827
G1 X112.870 Y109.647 E0.01722
G1 X113.846 Y110.623 E0.04392
G1 X113.305 Y110.623 E0.01722
G1 X112.700 Y110.019 E0.02720
M106 S84.15
;LAYER_CHANGE
;Z:0.4
;HEIGHT:0.2
;BEFORE_LAYER_CHANGE
G92 E0.0
;0.4


G1 E-0.80000 F2100.000
G1 Z0.800 F10800.000
;AFTER_LAYER_CHANGE
;0.4
M104 S210 ; set temperature
G1 X112.632 Y104.494
M73 Q38 S1
G1 Z0.400
G1 E0.80000 F2100.000
M204 S800
;TYPE:Perimeter
;WIDTH:0.45
G1 F3600.000
G1 X112.632 Y99.139 E0.18126
M73 P38 R1
G1 X137.368 Y99.139 E0.83728
G1 X137.368 Y110.861 E0.39677
G1 X112.632 Y110.861 E0.83728
M73 Q39 S1
G1 X112.632 Y104.554 E0.21348
M204 S1000
M73 P39 R1
G1 X112.225 Y104.554 F10800.000
M204 S800
;TYPE:External perimeter
G1 F2100.000
G1 X112.225 Y98.732 E0.19707
G1 X137.775 Y98.732 E0.86484
G1 X137.775 Y111.268 E0.42433
M73 Q40 S1
G1 X112.225 Y111.268 E0.86484
M73 P40 R1
G1 X112.225 Y104.614 E0.22522
M204 S1000
G1 X112.454 Y104.226 F10800.000
G1 E-0.80000 F2100.000
G1 Z1.000 F10800.000
G1 X136.414 Y110.739
M73 P41 R1
M73 Q41 S1
G1 Z0.400
G1 E0.80000 F2100.000
M204 S1250
;TYPE:Solid infill
;WIDTH:0.454075
G1 F3641
G1 X137.063 Y110.090 E0.03135
G1 X137.063 Y109.509 E0.01988
G1 X136.016 Y110.556 E0.05060
G1 X135.435 Y110.556 E0.01988
G1 X137.063 Y108.928 E0.07872
G1 X137.063 Y108.346 E0.01988
G1 X134.853 Y110.556 E0.10683
G1 X134.272 Y110.556 E0.01988
G1 X137.063 Y107.765 E0.13494
G1 X137.063 Y107.183 E0.01988
G1 X133.690 Y110.556 E0.16306
G1 X133.109 Y110.556 E0.01988
G1 X137.063 Y106.602 E0.19117
G1 X137.063 Y106.020 E0.01988
G1 X132.527 Y110.556 E0.21928
G1 X131.946 Y110.556 E0.01988
G1 X137.063 Y105.439 E0.24739
M73 Q42 S1
G1 X137.063 Y104.857 E0.01988
G1 X131.364 Y110.556 E0.27551
M73 P42 R1
G1 X130.783 Y110.556 E0.01988
G1 X137.063 Y104.276 E0.30362
G1 X137.063 Y103.694 E0.01988
G1 X130.201 Y110.556 E0.33173
G1 X129.620 Y110.556 E0.01988
G1 X137.063 Y103.113 E0.35985
G1 X137.063 Y102.531 E0.01988
G1 X129.038 Y110.556 E0.38796
G1 X128.457 Y110.556 E0.01988
G1 X137.063 Y101.950 E0.41607
M73 Q43 S1
G1 X137.063 Y101.369 E0.01988
G1 X127.876 Y110.556 E0.44418
M73 P43 R1
G1 X127.294 Y110.556 E0.01988
G1 X137.063 Y100.787 E0.47230
G1 X137.063 Y100.206 E0.01988
G1 X126.713 Y110.556 E0.50041
G1 X126.131 Y110.556 E0.01988
G1 X137.063 Y99.624 E0.52852
G1 X137.063 Y99.444 E0.00615
G1 X136.661 Y99.444 E0.01373
G1 X125.550 Y110.556 E0.53721
M73 Q44 S1
G1 X124.968 Y110.556 E0.01988
G1 X136.079 Y99.444 E0.53721
M73 P44 R1
G1 X135.498 Y99.444 E0.01988
G1 X124.387 Y110.556 E0.53721
G1 X123.805 Y110.556 E0.01988
G1 X134.917 Y99.444 E0.53721
G1 X134.335 Y99.444 E0.01988
G1 X123.224 Y110.556 E0.53721
M73 Q45 S1
G1 X122.642 Y110.556 E0.01988
G1 X133.754 Y99.444 E0.53721
M73 P45 R1
G1 X133.172 Y99.444 E0.01988
G1 X122.061 Y110.556 E0.53721
G1 X121.479 Y110.556 E0.01988
G1 X132.591 Y99.444 E0.53721
G1 X132.009 Y99.444 E0.01988
G1 X120.898 Y110.556 E0.53721
G1 X120.317 Y110.556 E0.01988
G1 X131.428 Y99.444 E0.53721
M73 P46 R1
M73 Q46 S1
G1 X130.846 Y99.444 E0.01988
G1 X119.735 Y110.556 E0.53721
G1 X119.154 Y110.556 E0.01988
G1 X130.265 Y99.444 E0.53721
G1 X129.683 Y99.444 E0.01988
G1 X118.572 Y110.556 E0.53721
G1 X117.991 Y110.556 E0.01988
G1 X129.102 Y99.444 E0.53721
M73 Q47 S1
G1 X128.520 Y99.444 E0.01988
G1 X117.409 Y110.556 E0.53721
M73 P47 R1
G1 X116.828 Y110.556 E0.01988
G1 X127.939 Y99.444 E0.53721
G1 X127.358 Y99.444 E0.01988
G1 X116.246 Y110.556 E0.53721
G1 X115.665 Y110.556 E0.01988
G1 X126.776 Y99.444 E0.53721
M73 Q48 S1
G1 X126.195 Y99.444 E0.01988
G1 X115.083 Y110.556 E0.53721
M73 P48 R1
G1 X114.502 Y110.556 E0.01988
G1 X125.613 Y99.444 E0.53721
G1 X125.032 Y99.444 E0.01988
G1 X113.920 Y110.556 E0.53721
G1 X113.339 Y110.556 E0.01988
G1 X124.450 Y99.444 E0.53721
G1 X123.869 Y99.444 E0.01988
G1 X112.937 Y110.376 E0.52852
M73 P49 R1
M73 Q49 S1
G1 X112.937 Y109.794 E0.01988
G1 X123.287 Y99.444 E0.50041
G1 X122.706 Y99.444 E0.01988
G1 X112.937 Y109.213 E0.47229
G1 X112.937 Y108.631 E0.01988
G1 X122.124 Y99.444 E0.44418
G1 X121.543 Y99.444 E0.01988
G1 X112.937 Y108.050 E0.41607
G1 X112.937 Y107.468 E0.01988
G1 X120.961 Y99.444 E0.38795
M73 P50 R1
M73 Q50 S1
G1 X120.380 Y99.444 E0.01988
G1 X112.937 Y106.887 E0.35984
G1 X112.937 Y106.306 E0.01988
G1 X119.799 Y99.444 E0.33173
G1 X119.217 Y99.444 E0.01988
G1 X112.937 Y105.724 E0.30362
G1 X112.937 Y105.143 E0.01988
G1 X118.636 Y99.444 E0.27550
G1 X118.054 Y99.444 E0.01988
G1 X112.937 Y104.561 E0.24739
G1 X112.937 Y103.980 E0.01988
G1 X117.473 Y99.444 E0.21928
M73 Q51 S1
G1 X116.891 Y99.444 E0.01988
G1 X112.937 Y103.398 E0.19116
M73 P51 R1
G1 X112.937 Y102.817 E0.01988
G1 X116.310 Y99.444 E0.16305
G1 X115.728 Y99.444 E0.01988
G1 X112.937 Y102.235 E0.13494
G1 X112.937 Y101.654 E0.01988
G1 X115.147 Y99.444 E0.10683
G1 X114.565 Y99.444 E0.01988
G1 X112.937 Y101.072 E0.07871
G1 X112.937 Y100.491 E0.01988
G1 X113.984 Y99.444 E0.05060
G1 X113.402 Y99.444 E0.01988
G1 X112.754 Y100.093 E0.03134
M204 S1000
M106 S170.85
;LAYER_CHANGE
;Z:0.6
;HEIGHT:0.2
;BEFORE_LAYER_CHANGE
G92 E0.0
;0.6


G1 E-0.80000 F2100.000
G1 Z1.000 F10800.000
;AFTER_LAYER_CHANGE
;0.6
G1 X132.236 Y110.861
G1 Z0.600
G1 E0.80000 F2100.000
M204 S800
;TYPE:Perimeter
;WIDTH:0.45
G1 F3600.000
G1 X112.632 Y110.861 E0.66358
M73 P52 R1
M73 Q52 S1
G1 X112.632 Y99.139 E0.39677
G1 X137.368 Y99.139 E0.83728
G1 X137.368 Y110.861 E0.39677
G1 X132.296 Y110.861 E0.17166
M204 S1000
M73 Q53 S1
G1 X132.296 Y111.268 F10800.000
M204 S800
;TYPE:External perimeter
G1 F2100.000
G1 X112.225 Y111.268 E0.67939
M73 P53 R1
G1 X112.225 Y98.732 E0.42433
G1 X137.775 Y98.732 E0.86484
M73 P54 R1
M73 Q54 S1
G1 X137.775 Y111.268 E0.42433
G1 X132.356 Y111.268 E0.18341
M204 S1000
G1 X131.981 Y111.022 F10800.000
G1 E-0.80000 F2100.000
G1 Z1.200 F10800.000
G1 X113.586 Y110.739
G1 Z0.600
G1 E0.80000 F2100.000
M204 S1250
;TYPE:Solid infill
;WIDTH:0.454076
M73 Q55 S1
G1 F3659
G1 X112.937 Y110.091 E0.03134
G1 X112.937 Y109.509 E0.01988
G1 X113.984 Y110.556 E0.05060
G1 X114.565 Y110.556 E0.01988
M73 P55 R1
G1 X112.937 Y108.928 E0.07871
G1 X112.937 Y108.346 E0.01988
G1 X115.147 Y110.556 E0.10682
G1 X115.728 Y110.556 E0.01988
G1 X112.937 Y107.765 E0.13494
G1 X112.937 Y107.183 E0.01988
G1 X116.310 Y110.556 E0.16305
G1 X116.891 Y110.556 E0.01988
G1 X112.937 Y106.602 E0.19116
G1 X112.937 Y106.020 E0.01988
G1 X117.473 Y110.556 E0.21928
G1 X118.054 Y110.556 E0.01988
G1 X112.937 Y105.439 E0.24739
G1 X112.937 Y104.857 E0.01988
G1 X118.636 Y110.556 E0.27550
G1 X119.217 Y110.556 E0.01988
M73 Q56 S1
G1 X112.937 Y104.276 E0.30362
M73 P56 R1
G1 X112.937 Y103.694 E0.01988
G1 X119.799 Y110.556 E0.33173
G1 X120.380 Y110.556 E0.01988
G1 X112.937 Y103.113 E0.35984
G1 X112.937 Y102.532 E0.01988
G1 X120.961 Y110.556 E0.38795
G1 X121.543 Y110.556 E0.01988
G1 X112.937 Y101.950 E0.41607
G1 X112.937 Y101.369 E0.01988
G1 X122.124 Y110.556 E0.44418
M73 Q57 S1
G1 X122.706 Y110.556 E0.01988
G1 X112.937 Y100.787 E0.47229
M73 P57 R1
G1 X112.937 Y100.206 E0.01988
G1 X123.287 Y110.556 E0.50041
G1 X123.869 Y110.556 E0.01988
G1 X112.937 Y99.624 E0.52852
G1 X112.937 Y99.444 E0.00615
G1 X113.339 Y99.444 E0.01373
G1 X124.450 Y110.556 E0.53722
G1 X125.032 Y110.556 E0.01988
G1 X113.920 Y99.444 E0.53722
M73 P58 R1
M73 Q58 S1
G1 X114.502 Y99.444 E0.01988
G1 X125.613 Y110.556 E0.53722
G1 X126.195 Y110.556 E0.01988
G1 X115.083 Y99.444 E0.53722
G1 X115.665 Y99.444 E0.01988
G1 X126.776 Y110.556 E0.53722
G1 X127.358 Y110.556 E0.01988
G1 X116.246 Y99.444 E0.53722
M73 Q59 S1
G1 X116.828 Y99.444 E0.01988
G1 X127.939 Y110.556 E0.53722
M73 P59 R1
G1 X128.520 Y110.556 E0.01988
G1 X117.409 Y99.444 E0.53722
G1 X117.991 Y99.444 E0.01988
G1 X129.102 Y110.556 E0.53722
G1 X129.683 Y110.556 E0.01988
G1 X118.572 Y99.444 E0.53722
G1 X119.154 Y99.444 E0.01988
G1 X130.265 Y110.556 E0.53722
M73 P60 R1
M73 Q60 S1
G1 X130.846 Y110.556 E0.01988
G1 X119.735 Y99.444 E0.53722
G1 X120.316 Y99.444 E0.01988
G1 X131.428 Y110.556 E0.53722
G1 X132.009 Y110.556 E0.01988
G1 X120.898 Y99.444 E0.53722
G1 X121.479 Y99.444 E0.01988
G1 X132.591 Y110.556 E0.53722
M73 Q61 S1
G1 X133.172 Y110.556 E0.01988
M73 P61 R1
G1 X122.061 Y99.444 E0.53722
G1 X122.642 Y99.444 E0.01988
G1 X133.754 Y110.556 E0.53722
G1 X134.335 Y110.556 E0.01988
G1 X123.224 Y99.444 E0.53722
G1 X123.805 Y99.444 E0.01988
G1 X134.917 Y110.556 E0.53722
M73 Q62 S1
G1 X135.498 Y110.556 E0.01988
G1 X124.387 Y99.444 E0.53722
M73 P62 R1
G1 X124.968 Y99.444 E0.01988
G1 X136.079 Y110.556 E0.53722
G1 X136.661 Y110.556 E0.01988
G1 X125.550 Y99.444 E0.53722
G1 X126.131 Y99.444 E0.01988
G1 X137.063 Y110.376 E0.52853
G1 X137.063 Y109.794 E0.01988
G1 X126.713 Y99.444 E0.50041
M73 P63 R1
M73 Q63 S1
G1 X127.294 Y99.444 E0.01988
G1 X137.063 Y109.213 E0.47230
G1 X137.063 Y108.631 E0.01988
G1 X127.876 Y99.444 E0.44419
G1 X128.457 Y99.444 E0.01988
G1 X137.063 Y108.050 E0.41607
G1 X137.063 Y107.469 E0.01988
G1 X129.038 Y99.444 E0.38796
G1 X129.620 Y99.444 E0.01988
G1 X137.063 Y106.887 E0.35985
M73 Q64 S1
G1 X137.063 Y106.306 E0.01988
M73 P64 R1
G1 X130.201 Y99.444 E0.33173
G1 X130.783 Y99.444 E0.01988
G1 X137.063 Y105.724 E0.30362
G1 X137.063 Y105.143 E0.01988
G1 X131.364 Y99.444 E0.27551
G1 X131.946 Y99.444 E0.01988
G1 X137.063 Y104.561 E0.24740
G1 X137.063 Y103.980 E0.01988
G1 X132.527 Y99.444 E0.21928
G1 X133.109 Y99.444 E0.01988
G1 X137.063 Y103.398 E0.19117
G1 X137.063 Y102.817 E0.01988
G1 X133.690 Y99.444 E0.16306
M73 Q65 S1
G1 X134.272 Y99.444 E0.01988
