; generated by PrusaSlicer 2.3.1+win64 on 2021-08-06 at 16:53:38 UTC

; 

; external perimeters extrusion width = 0.45mm
; perimeters extrusion width = 0.45mm
; infill extrusion width = 0.45mm
; solid infill extrusion width = 0.45mm
; top infill extrusion width = 0.40mm
; support material extrusion width = 0.35mm
; first layer extrusion width = 0.42mm

M73 P0 R5
M73 Q0 S5
M201 X1000 Y1000 Z1000 E5000 ; sets maximum accelerations, mm/sec^2
M203 X200 Y200 Z12 E120 ; sets maximum feedrates, mm/sec
M204 P1250 R1250 T1250 ; sets acceleration (P, T) and retract acceleration (R), mm/sec^2
M205 X8.00 Y8.00 Z0.40 E1.50 ; sets the jerk limits, mm/sec
M205 S0 T0 ; sets the minimum extruding and travel feed rate, mm/sec
M107
;TYPE:Custom
M862.3 P "MK3S" ; printer model check
M862.1 P0.4 ; nozzle diameter check
M115 U3.8.0 ; tell printer latest fw version
G90 ; use absolute coordinates
M83 ; extruder relative mode
M104 S215 ; set extruder temp
M140 S60 ; set bed temp
M190 S60 ; wait for bed temp
M109 S215 ; wait for extruder temp
G28 W ; home all without mesh bed level
G80 ; mesh bed leveling
G1 Y-3.0 F1000.0 ; go outside print area
G92 E0.0
G1 X60.0 E9.0 F1000.0 ; intro line
M73 P1 R5
M73 Q1 S5
G1 X100.0 E12.5 F1000.0 ; intro line
G92 E0.0
M221 S95
G21 ; set units to millimeters
G90 ; use absolute coordinates
M83 ; use relative distances for extrusion
M900 K0.05 ; Filament gcode LA 1.5
M900 K30 ; Filament gcode LA 1.0
;LAYER_CHANGE
;Z:0.2
;HEIGHT:0.2
;BEFORE_LAYER_CHANGE
G92 E0.0
;0.2


M73 P2 R5
M73 Q2 S5
G1 E-0.80000 F2100.000
G1 Z0.600 F10800.000
;AFTER_LAYER_CHANGE
;0.2
G1 X137.371 Y110.906
G1 Z0.200
G1 E0.80000 F2100.000
M204 S1000
;TYPE:Perimeter
;WIDTH:0.42
G1 F1200.000
G1 X112.537 Y110.906 E0.77865
M73 Q3 S5
G1 X112.537 Y99.094 E0.37035
M73 P3 R5
G1 X137.463 Y99.094 E0.78153
G1 X137.463 Y110.906 E0.37035
G1 X137.431 Y110.906 E0.00100
G1 X137.431 Y111.283 F10800.000
;TYPE:External perimeter
G1 F1200.000
G1 X112.160 Y111.283 E0.79235
M73 P4 R5
M73 Q4 S5
G1 X112.160 Y98.717 E0.39400
G1 X137.840 Y98.717 E0.80518
M73 Q5 S5
G1 X137.840 Y111.283 E0.39400
M73 P5 R5
G1 X137.491 Y111.283 E0.01094
G1 X137.087 Y111.079 F10800.000
G1 E-0.80000 F2100.000
G1 Z0.800 F10800.000
G1 X113.415 Y110.793
G1 Z0.200
G1 E0.80000 F2100.000
;TYPE:Solid infill
;WIDTH:0.42102
G1 F1200.000
G1 X112.820 Y110.198 E0.02644
G1 X112.820 Y109.663 E0.01681
G1 X113.780 Y110.623 E0.04267
G1 X114.314 Y110.623 E0.01681
G1 X112.820 Y109.129 E0.06644
G1 X112.820 Y108.594 E0.01681
G1 X114.849 Y110.623 E0.09022
G1 X115.384 Y110.623 E0.01681
G1 X112.820 Y108.059 E0.11399
G1 X112.820 Y107.525 E0.01681
G1 X115.918 Y110.623 E0.13777
G1 X116.453 Y110.623 E0.01681
G1 X112.820 Y106.990 E0.16154
G1 X112.820 Y106.455 E0.01681
G1 X116.988 Y110.623 E0.18532
G1 X117.523 Y110.623 E0.01681
G1 X112.820 Y105.920 E0.20909
M73 Q6 S5
G1 X112.820 Y105.386 E0.01681
G1 X118.057 Y110.623 E0.23286
M73 P6 R5
G1 X118.592 Y110.623 E0.01681
G1 X112.820 Y104.851 E0.25664
G1 X112.820 Y104.316 E0.01681
G1 X119.127 Y110.623 E0.28041
G1 X119.661 Y110.623 E0.01681
G1 X112.820 Y103.782 E0.30419
G1 X112.820 Y103.247 E0.01681
G1 X120.196 Y110.623 E0.32796
G1 X120.731 Y110.623 E0.01681
G1 X112.820 Y102.712 E0.35174
M73 P7 R4
M73 Q7 S5
G1 X112.820 Y102.177 E0.01681
G1 X121.266 Y110.623 E0.37551
M73 Q7 S4
G1 X121.800 Y110.623 E0.01681
G1 X112.820 Y101.643 E0.39928
G1 X112.820 Y101.108 E0.01681
G1 X122.335 Y110.623 E0.42306
G1 X122.870 Y110.623 E0.01681
G1 X112.820 Y100.573 E0.44683
M73 Q8 S4
G1 X112.820 Y100.039 E0.01681
G1 X123.404 Y110.623 E0.47061
M73 P8 R4
G1 X123.939 Y110.623 E0.01681
G1 X112.820 Y99.504 E0.49438
G1 X112.820 Y99.377 E0.00399
G1 X113.228 Y99.377 E0.01282
G1 X124.474 Y110.623 E0.50003
G1 X125.009 Y110.623 E0.01681
G1 X113.762 Y99.377 E0.50003
M73 P9 R4
M73 Q9 S4
G1 X114.297 Y99.377 E0.01681
G1 X125.543 Y110.623 E0.50003
G1 X126.078 Y110.623 E0.01681
G1 X114.832 Y99.377 E0.50003
G1 X115.366 Y99.377 E0.01681
G1 X126.613 Y110.623 E0.50003
M73 Q10 S4
G1 X127.147 Y110.623 E0.01681
G1 X115.901 Y99.377 E0.50003
M73 P10 R4
G1 X116.436 Y99.377 E0.01681
G1 X127.682 Y110.623 E0.50003
G1 X128.217 Y110.623 E0.01681
G1 X116.971 Y99.377 E0.50003
G1 X117.505 Y99.377 E0.01681
G1 X128.752 Y110.623 E0.50003
M73 P11 R4
M73 Q11 S4
G1 X129.286 Y110.623 E0.01681
G1 X118.040 Y99.377 E0.50003
G1 X118.575 Y99.377 E0.01681
G1 X129.821 Y110.623 E0.50003
G1 X130.356 Y110.623 E0.01681
G1 X119.109 Y99.377 E0.50003
M73 Q12 S4
G1 X119.644 Y99.377 E0.01681
G1 X130.890 Y110.623 E0.50003
M73 P12 R4
G1 X131.425 Y110.623 E0.01681
G1 X120.179 Y99.377 E0.50003
G1 X120.714 Y99.377 E0.01681
G1 X131.960 Y110.623 E0.50003
G1 X132.495 Y110.623 E0.01681
G1 X121.248 Y99.377 E0.50003
M73 P13 R4
M73 Q13 S4
G1 X121.783 Y99.377 E0.01681
G1 X133.029 Y110.623 E0.50003
G1 X133.564 Y110.623 E0.01681
G1 X122.318 Y99.377 E0.50003
G1 X122.852 Y99.377 E0.01681
G1 X134.099 Y110.623 E0.50003
M73 Q14 S4
G1 X134.633 Y110.623 E0.01681
G1 X123.387 Y99.377 E0.50003
M73 P14 R4
G1 X123.922 Y99.377 E0.01681
G1 X135.168 Y110.623 E0.50003
G1 X135.703 Y110.623 E0.01681
G1 X124.457 Y99.377 E0.50003
G1 X124.991 Y99.377 E0.01681
G1 X136.238 Y110.623 E0.50003
M73 P15 R4
M73 Q15 S4
G1 X136.772 Y110.623 E0.01681
G1 X125.526 Y99.377 E0.50003
G1 X126.061 Y99.377 E0.01681
G1 X137.180 Y110.496 E0.49438
G1 X137.180 Y109.962 E0.01681
G1 X126.595 Y99.377 E0.47061
M73 Q16 S4
G1 X127.130 Y99.377 E0.01681
G1 X137.180 Y109.427 E0.44684
M73 P16 R4
G1 X137.180 Y108.892 E0.01681
G1 X127.665 Y99.377 E0.42306
G1 X128.200 Y99.377 E0.01681
G1 X137.180 Y108.357 E0.39929
G1 X137.180 Y107.823 E0.01681
G1 X128.734 Y99.377 E0.37551
M73 Q17 S4
G1 X129.269 Y99.377 E0.01681
G1 X137.180 Y107.288 E0.35174
M73 P17 R4
G1 X137.180 Y106.753 E0.01681
G1 X129.804 Y99.377 E0.32796
G1 X130.338 Y99.377 E0.01681
G1 X137.180 Y106.219 E0.30419
G1 X137.180 Y105.684 E0.01681
G1 X130.873 Y99.377 E0.28042
G1 X131.408 Y99.377 E0.01681
G1 X137.180 Y105.149 E0.25664
G1 X137.180 Y104.614 E0.01681
G1 X131.943 Y99.377 E0.23287
M73 Q18 S4
G1 X132.477 Y99.377 E0.01681
G1 X137.180 Y104.080 E0.20909
M73 P18 R4
G1 X137.180 Y103.545 E0.01681
G1 X133.012 Y99.377 E0.18532
G1 X133.547 Y99.377 E0.01681
G1 X137.180 Y103.010 E0.16154
G1 X137.180 Y102.476 E0.01681
G1 X134.081 Y99.377 E0.13777
G1 X134.616 Y99.377 E0.01681
G1 X137.180 Y101.941 E0.11400
G1 X137.180 Y101.406 E0.01681
G1 X135.151 Y99.377 E0.09022
G1 X135.686 Y99.377 E0.01681
G1 X137.180 Y100.871 E0.06645
G1 X137.180 Y100.337 E0.01681
G1 X136.220 Y99.377 E0.04267
G1 X136.755 Y99.377 E0.01681
G1 X137.350 Y99.972 E0.02644
M106 S84.15
;LAYER_CHANGE
;Z:0.4
;HEIGHT:0.2
;BEFORE_LAYER_CHANGE
G92 E0.0
;0.4


G1 E-0.80000 F2100.000
G1 Z0.800 F10800.000
;AFTER_LAYER_CHANGE
;0.4
M104 S210 ; set temperature
G1 X117.231 Y99.139
G1 Z0.400
G1 E0.80000 F2100.000
M204 S800
;TYPE:Perimeter
;WIDTH:0.45
G1 F3600.000
G1 X137.418 Y99.139 E0.68330
M73 Q19 S4
G1 X137.418 Y110.861 E0.39677
M73 P19 R4
G1 X112.582 Y110.861 E0.84066
G1 X112.582 Y99.139 E0.39677
G1 X117.171 Y99.139 E0.15533
M204 S1000
G1 X117.171 Y98.732 F10800.000
M204 S800
;TYPE:External perimeter
G1 F2100.000
G1 X137.825 Y98.732 E0.69911
G1 X137.825 Y111.268 E0.42433
G1 X112.175 Y111.268 E0.86822
M73 Q20 S4
G1 X112.175 Y98.732 E0.42433
M73 P20 R4
G1 X117.111 Y98.732 E0.16708
M204 S1000
G1 X117.490 Y98.974 F10800.000
G1 E-0.80000 F2100.000
G1 Z1.000 F10800.000
G1 X136.462 Y110.739
G1 Z0.400
G1 E0.80000 F2100.000
M204 S1250
;TYPE:Solid infill
;WIDTH:0.455216
G1 F3671
G1 X137.113 Y110.088 E0.03155
G1 X137.113 Y109.505 E0.01999
G1 X136.062 Y110.556 E0.05094
G1 X135.479 Y110.556 E0.01999
G1 X137.113 Y108.922 E0.07921
G1 X137.113 Y108.339 E0.01999
G1 X134.896 Y110.556 E0.10748
G1 X134.313 Y110.556 E0.01999
G1 X137.113 Y107.756 E0.13575
G1 X137.113 Y107.173 E0.01999
G1 X133.730 Y110.556 E0.16402
G1 X133.147 Y110.556 E0.01999
G1 X137.113 Y106.590 E0.19229
G1 X137.113 Y106.006 E0.01999
G1 X132.563 Y110.556 E0.22055
G1 X131.980 Y110.556 E0.01999
G1 X137.113 Y105.423 E0.24882
G1 X137.113 Y104.840 E0.01999
G1 X131.397 Y110.556 E0.27709
G1 X130.814 Y110.556 E0.01999
G1 X137.113 Y104.257 E0.30536
G1 X137.113 Y103.674 E0.01999
G1 X130.231 Y110.556 E0.33363
M73 Q21 S4
G1 X129.648 Y110.556 E0.01999
G1 X137.113 Y103.091 E0.36190
M73 P21 R4
G1 X137.113 Y102.508 E0.01999
G1 X129.065 Y110.556 E0.39017
G1 X128.482 Y110.556 E0.01999
G1 X137.113 Y101.925 E0.41844
G1 X137.113 Y101.342 E0.01999
G1 X127.899 Y110.556 E0.44671
G1 X127.316 Y110.556 E0.01999
G1 X137.113 Y100.759 E0.47498
G1 X137.113 Y100.176 E0.01999
G1 X126.733 Y110.556 E0.50325
G1 X126.150 Y110.556 E0.01999
G1 X137.113 Y99.593 E0.53152
G1 X137.113 Y99.444 E0.00508
G1 X136.678 Y99.444 E0.01491
G1 X125.567 Y110.556 E0.53870
G1 X124.984 Y110.556 E0.01999
G1 X136.095 Y99.444 E0.53870
G1 X135.512 Y99.444 E0.01999
G1 X124.400 Y110.556 E0.53870
M73 Q22 S4
G1 X123.817 Y110.556 E0.01999
G1 X134.929 Y99.444 E0.53870
M73 P22 R4
G1 X134.346 Y99.444 E0.01999
G1 X123.234 Y110.556 E0.53870
G1 X122.651 Y110.556 E0.01999
G1 X133.762 Y99.444 E0.53870
G1 X133.179 Y99.444 E0.01999
G1 X122.068 Y110.556 E0.53870
G1 X121.485 Y110.556 E0.01999
G1 X132.596 Y99.444 E0.53870
G1 X132.013 Y99.444 E0.01999
G1 X120.902 Y110.556 E0.53870
G1 X120.319 Y110.556 E0.01999
G1 X131.430 Y99.444 E0.53870
G1 X130.847 Y99.444 E0.01999
G1 X119.736 Y110.556 E0.53870
G1 X119.153 Y110.556 E0.01999
G1 X130.264 Y99.444 E0.53870
M73 Q23 S4
G1 X129.681 Y99.444 E0.01999
G1 X118.570 Y110.556 E0.53870
M73 P23 R4
G1 X117.987 Y110.556 E0.01999
G1 X129.098 Y99.444 E0.53870
G1 X128.515 Y99.444 E0.01999
G1 X117.404 Y110.556 E0.53870
G1 X116.820 Y110.556 E0.01999
G1 X127.932 Y99.444 E0.53870
G1 X127.349 Y99.444 E0.01999
G1 X116.237 Y110.556 E0.53870
G1 X115.654 Y110.556 E0.01999
G1 X126.766 Y99.444 E0.53870
G1 X126.183 Y99.444 E0.01999
G1 X115.071 Y110.556 E0.53870
G1 X114.488 Y110.556 E0.01999
G1 X125.599 Y99.444 E0.53870
G1 X125.016 Y99.444 E0.01999
G1 X113.905 Y110.556 E0.53870
M73 Q24 S4
G1 X113.322 Y110.556 E0.01999
G1 X124.433 Y99.444 E0.53870
M73 P24 R4
G1 X123.850 Y99.444 E0.01999
G1 X112.887 Y110.407 E0.53151
G1 X112.887 Y109.824 E0.01999
G1 X123.267 Y99.444 E0.50324
G1 X122.684 Y99.444 E0.01999
G1 X112.887 Y109.241 E0.47497
G1 X112.887 Y108.658 E0.01999
G1 X122.101 Y99.444 E0.44670
G1 X121.518 Y99.444 E0.01999
G1 X112.887 Y108.075 E0.41843
G1 X112.887 Y107.492 E0.01999
G1 X120.935 Y99.444 E0.39016
G1 X120.352 Y99.444 E0.01999
G1 X112.887 Y106.909 E0.36189
G1 X112.887 Y106.326 E0.01999
G1 X119.769 Y99.444 E0.33363
G1 X119.186 Y99.444 E0.01999
G1 X112.887 Y105.743 E0.30536
G1 X112.887 Y105.160 E0.01999
M73 Q25 S4
G1 X118.603 Y99.444 E0.27709
G1 X118.019 Y99.444 E0.01999
G1 X112.887 Y104.576 E0.24882
M73 P25 R4
G1 X112.887 Y103.993 E0.01999
G1 X117.436 Y99.444 E0.22055
G1 X116.853 Y99.444 E0.01999
G1 X112.887 Y103.410 E0.19228
G1 X112.887 Y102.827 E0.01999
G1 X116.270 Y99.444 E0.16401
G1 X115.687 Y99.444 E0.01999
G1 X112.887 Y102.244 E0.13574
G1 X112.887 Y101.661 E0.01999
G1 X115.104 Y99.444 E0.10747
G1 X114.521 Y99.444 E0.01999
G1 X112.887 Y101.078 E0.07920
G1 X112.887 Y100.495 E0.01999
G1 X113.938 Y99.444 E0.05093
G1 X113.355 Y99.444 E0.01999
G1 X112.704 Y100.095 E0.03155
M204 S1000
M106 S170.85
;LAYER_CHANGE
;Z:0.6
;HEIGHT:0.2
;BEFORE_LAYER_CHANGE
G92 E0.0
;0.6


G1 E-0.80000 F2100.000
G1 Z1.000 F10800.000
;AFTER_LAYER_CHANGE
;0.6
G1 X123.284 Y110.861
G1 Z0.600
G1 E0.80000 F2100.000
M204 S800
;TYPE:Perimeter
;WIDTH:0.45
G1 F3600.000
G1 X112.582 Y110.861 E0.36226
G1 X112.582 Y99.139 E0.39677
G1 X137.418 Y99.139 E0.84066
G1 X137.418 Y110.861 E0.39677
M73 Q26 S4
G1 X123.344 Y110.861 E0.47637
M204 S1000
M73 P26 R4
G1 X123.344 Y111.268 F10800.000
M204 S800
;TYPE:External perimeter
G1 F2100.000
G1 X112.175 Y111.268 E0.37807
G1 X112.175 Y98.732 E0.42433
G1 X137.825 Y98.732 E0.86822
G1 X137.825 Y111.268 E0.42433
G1 X123.404 Y111.268 E0.48812
M204 S1000
G1 X123.068 Y110.978 F10800.000
G1 E-0.80000 F2100.000
G1 Z1.200 F10800.000
G1 X137.296 Y100.095
M73 Q27 S4
G1 Z0.600
M73 P27 R4
G1 E0.80000 F2100.000
M204 S1250
;TYPE:Solid infill
;WIDTH:0.455216
G1 F3657
G1 X136.645 Y99.444 E0.03155
G1 X136.062 Y99.444 E0.01999
G1 X137.113 Y100.495 E0.05094
G1 X137.113 Y101.078 E0.01999
G1 X135.479 Y99.444 E0.07921
G1 X134.896 Y99.444 E0.01999
G1 X137.113 Y101.661 E0.10748
G1 X137.113 Y102.244 E0.01999
G1 X134.313 Y99.444 E0.13575
G1 X133.730 Y99.444 E0.01999
G1 X137.113 Y102.827 E0.16402
G1 X137.113 Y103.410 E0.01999
G1 X133.147 Y99.444 E0.19229
G1 X132.563 Y99.444 E0.01999
G1 X137.113 Y103.994 E0.22055
G1 X137.113 Y104.577 E0.01999
G1 X131.980 Y99.444 E0.24882
G1 X131.397 Y99.444 E0.01999
G1 X137.113 Y105.160 E0.27709
G1 X137.113 Y105.743 E0.01999
G1 X130.814 Y99.444 E0.30536
G1 X130.231 Y99.444 E0.01999
G1 X137.113 Y106.326 E0.33363
M73 P27 R3
G1 X137.113 Y106.909 E0.01999
G1 X129.648 Y99.444 E0.36190
G1 X129.065 Y99.444 E0.01999
G1 X137.113 Y107.492 E0.39017
M73 Q27 S3
G1 X137.113 Y108.075 E0.01999
G1 X128.482 Y99.444 E0.41844
M73 Q28 S3
G1 X127.899 Y99.444 E0.01999
G1 X137.113 Y108.658 E0.44671
M73 P28 R3
G1 X137.113 Y109.241 E0.01999
G1 X127.316 Y99.444 E0.47498
G1 X126.733 Y99.444 E0.01999
G1 X137.113 Y109.824 E0.50325
G1 X137.113 Y110.407 E0.01999
G1 X126.150 Y99.444 E0.53151
G1 X125.567 Y99.444 E0.01999
G1 X136.678 Y110.556 E0.53870
G1 X136.095 Y110.556 E0.01999
G1 X124.984 Y99.444 E0.53870
G1 X124.400 Y99.444 E0.01999
G1 X135.512 Y110.556 E0.53870
G1 X134.929 Y110.556 E0.01999
G1 X123.817 Y99.444 E0.53870
G1 X123.234 Y99.444 E0.01999
G1 X134.346 Y110.556 E0.53870
G1 X133.762 Y110.556 E0.01999
G1 X122.651 Y99.444 E0.53870
M73 P29 R3
M73 Q29 S3
G1 X122.068 Y99.444 E0.01999
G1 X133.179 Y110.556 E0.53870
G1 X132.596 Y110.556 E0.01999
G1 X121.485 Y99.444 E0.53870
G1 X120.902 Y99.444 E0.01999
G1 X132.013 Y110.556 E0.53870
G1 X131.430 Y110.556 E0.01999
G1 X120.319 Y99.444 E0.53870
G1 X119.736 Y99.444 E0.01999
G1 X130.847 Y110.556 E0.53870
G1 X130.264 Y110.556 E0.01999
G1 X119.153 Y99.444 E0.53870
G1 X118.570 Y99.444 E0.01999
G1 X129.681 Y110.556 E0.53870
G1 X129.098 Y110.556 E0.01999
G1 X117.987 Y99.444 E0.53870
G1 X117.404 Y99.444 E0.01999
G1 X128.515 Y110.556 E0.53870
M73 P30 R3
M73 Q30 S3
G1 X127.932 Y110.556 E0.01999
G1 X116.820 Y99.444 E0.53870
G1 X116.237 Y99.444 E0.01999
G1 X127.349 Y110.556 E0.53870
G1 X126.766 Y110.556 E0.01999
G1 X115.654 Y99.444 E0.53870
G1 X115.071 Y99.444 E0.01999
G1 X126.183 Y110.556 E0.53870
G1 X125.599 Y110.556 E0.01999
G1 X114.488 Y99.444 E0.53870
G1 X113.905 Y99.444 E0.01999
G1 X125.016 Y110.556 E0.53870
G1 X124.433 Y110.556 E0.01999
G1 X113.322 Y99.444 E0.53870
G1 X112.887 Y99.444 E0.01490
G1 X112.887 Y99.593 E0.00509
G1 X123.850 Y110.556 E0.53151
G1 X123.267 Y110.556 E0.01999
M73 Q31 S3
G1 X112.887 Y100.176 E0.50324
M73 P31 R3
G1 X112.887 Y100.759 E0.01999
G1 X122.684 Y110.556 E0.47497
G1 X122.101 Y110.556 E0.01999
G1 X112.887 Y101.342 E0.44670
G1 X112.887 Y101.925 E0.01999
G1 X121.518 Y110.556 E0.41843
G1 X120.935 Y110.556 E0.01999
G1 X112.887 Y102.508 E0.39016
G1 X112.887 Y103.091 E0.01999
G1 X120.352 Y110.556 E0.36189
G1 X119.769 Y110.556 E0.01999
G1 X112.887 Y103.674 E0.33363
G1 X112.887 Y104.257 E0.01999
G1 X119.186 Y110.556 E0.30536
G1 X118.603 Y110.556 E0.01999
G1 X112.887 Y104.840 E0.27709
G1 X112.887 Y105.424 E0.01999
G1 X118.019 Y110.556 E0.24882
G1 X117.436 Y110.556 E0.01999
G1 X112.887 Y106.007 E0.22055
G1 X112.887 Y106.590 E0.01999
G1 X116.853 Y110.556 E0.19228
G1 X116.270 Y110.556 E0.01999
G1 X112.887 Y107.173 E0.16401
M73 Q32 S3
G1 X112.887 Y107.756 E0.01999
G1 X115.687 Y110.556 E0.13574
G1 X115.104 Y110.556 E0.01999
G1 X112.887 Y108.339 E0.10747
M73 P32 R3
G1 X112.887 Y108.922 E0.01999
G1 X114.521 Y110.556 E0.07920
G1 X113.938 Y110.556 E0.01999
G1 X112.887 Y109.505 E0.05093
G1 X112.887 Y110.088 E0.01999
G1 X113.538 Y110.739 E0.03155
M204 S1000
M106 S255
;LAYER_CHANGE
;Z:0.8
;HEIGHT:0.2
;BEFORE_LAYER_CHANGE
G92 E0.0
;0.8


G1 E-0.80000 F2100.000
G1 Z1.200 F10800.000
;AFTER_LAYER_CHANGE
;0.8
G1 X135.156 Y99.139
G1 Z0.800
G1 E0.80000 F2100.000
M204 S800
;TYPE:Perimeter
;WIDTH:0.45
G1 F900
G1 X137.418 Y99.139 E0.07657
G1 X137.418 Y110.861 E0.39677
G1 X112.582 Y110.861 E0.84066
