; generated by PrusaSlicer 2.3.1+win64 on 2021-08-06 at 16:48:52 UTC

; 

; external perimeters extrusion width = 0.45mm
; perimeters extrusion width = 0.45mm
; infill extrusion width = 0.45mm
; solid infill extrusion width = 0.45mm
; top infill extrusion width = 0.40mm
; support material extrusion width = 0.35mm
; first layer extrusion width = 0.42mm

M73 P0 R29
M73 Q0 S29
M201 X1000 Y1000 Z1000 E5000 ; sets maximum accelerations, mm/sec^2
M203 X200 Y200 Z12 E120 ; sets maximum feedrates, mm/sec
M204 P1250 R1250 T1250 ; sets acceleration (P, T) and retract acceleration (R), mm/sec^2
M205 X8.00 Y8.00 Z0.40 E1.50 ; sets the jerk limits, mm/sec
M205 S0 T0 ; sets the minimum extruding and travel feed rate, mm/sec
M107
;TYPE:Custom
M862.3 P "MK3S" ; printer model check
M862.1 P0.4 ; nozzle diameter check
M115 U3.8.0 ; tell printer latest fw version
G90 ; use absolute coordinates
M83 ; extruder relative mode
M104 S215 ; set extruder temp
M140 S60 ; set bed temp
M190 S60 ; wait for bed temp
M109 S215 ; wait for extruder temp
G28 W ; home all without mesh bed level
G80 ; mesh bed leveling
G1 Y-3.0 F1000.0 ; go outside print area
G92 E0.0
G1 X60.0 E9.0 F1000.0 ; intro line
G1 X100.0 E12.5 F1000.0 ; intro line
G92 E0.0
M221 S95
G21 ; set units to millimeters
G90 ; use absolute coordinates
M83 ; use relative distances for extrusion
M900 K0.05 ; Filament gcode LA 1.5
M900 K30 ; Filament gcode LA 1.0
;LAYER_CHANGE
;Z:0.2
;HEIGHT:0.2
;BEFORE_LAYER_CHANGE
G92 E0.0
;0.2


M73 P0 R28
M73 Q0 S28
G1 E-0.80000 F2100.000
G1 Z0.600 F10800.000
;AFTER_LAYER_CHANGE
;0.2
G1 X131.420 Y108.946
G1 Z0.200
G1 E0.80000 F2100.000
M204 S1000
;TYPE:Perimeter
;WIDTH:0.42
G1 F1200.000
G1 X132.077 Y109.055 E0.02089
G1 X132.397 Y109.138 E0.01035
G1 X133.059 Y109.375 E0.02207
G1 X133.681 Y109.686 E0.02180
G1 X134.254 Y110.064 E0.02150
G1 X134.527 Y110.280 E0.01095
G1 X135.035 Y110.766 E0.02205
G1 X135.483 Y111.310 E0.02207
G1 X135.669 Y111.583 E0.01036
G1 X136.007 Y112.189 E0.02177
G1 X136.150 Y112.508 E0.01094
G1 X136.380 Y113.182 E0.02232
G1 X136.459 Y113.502 E0.01035
G1 X136.564 Y114.198 E0.02207
G1 X136.585 Y114.902 E0.02207
G1 X136.565 Y115.232 E0.01035
G1 X136.460 Y115.928 E0.02207
G1 X136.273 Y116.606 E0.02207
G1 X136.016 Y117.233 E0.02125
G1 X135.673 Y117.848 E0.02207
G1 X135.264 Y118.411 E0.02180
G1 X134.791 Y118.920 E0.02180
G1 X134.269 Y119.364 E0.02150
G1 X133.984 Y119.566 E0.01095
G1 X133.367 Y119.922 E0.02232
G1 X133.067 Y120.061 E0.01036
G1 X132.414 Y120.295 E0.02177
G1 X132.076 Y120.384 E0.01094
G1 X131.383 Y120.499 E0.02205
G1 X130.688 Y120.531 E0.02180
G1 X129.986 Y120.478 E0.02207
G1 X129.321 Y120.347 E0.02125
G1 X128.643 Y120.127 E0.02235
G1 X128.340 Y119.997 E0.01035
G1 X127.720 Y119.663 E0.02207
G1 X127.151 Y119.263 E0.02180
G1 X126.635 Y118.798 E0.02180
G1 X126.172 Y118.268 E0.02207
G1 X125.978 Y118.001 E0.01035
G1 X125.616 Y117.396 E0.02208
G1 X125.337 Y116.770 E0.02150
G1 X125.223 Y116.440 E0.01094
G1 X125.054 Y115.749 E0.02232
G1 X125.005 Y115.422 E0.01035
G1 X124.963 Y114.711 E0.02235
G1 X124.973 Y114.381 E0.01035
G1 X125.057 Y113.682 E0.02207
G1 X125.221 Y113.006 E0.02180
G1 X125.462 Y112.364 E0.02150
G1 X125.612 Y112.049 E0.01094
G1 X125.973 Y111.445 E0.02205
G1 X126.392 Y110.903 E0.02150
G1 X126.629 Y110.646 E0.01094
G1 X127.152 Y110.175 E0.02205
G1 X127.712 Y109.780 E0.02150
G1 X128.014 Y109.605 E0.01094
G1 X128.652 Y109.309 E0.02205
G1 X129.304 Y109.097 E0.02150
G1 X129.644 Y109.018 E0.01094
G1 X130.341 Y108.924 E0.02205
G1 X131.027 Y108.913 E0.02150
G1 X131.360 Y108.937 E0.01050
G1 X131.387 Y108.561 F10800.000
;TYPE:External perimeter
G1 F1200.000
G1 X132.155 Y108.685 E0.02439
G1 X132.508 Y108.777 E0.01141
G1 X133.208 Y109.028 E0.02331
G1 X133.870 Y109.359 E0.02322
G1 X134.475 Y109.758 E0.02272
G1 X134.775 Y109.996 E0.01201
G1 X135.312 Y110.509 E0.02330
G1 X135.785 Y111.084 E0.02331
G1 X135.990 Y111.385 E0.01142
G1 X136.345 Y112.020 E0.02282
G1 X136.501 Y112.369 E0.01201
G1 X136.743 Y113.076 E0.02340
G1 X136.829 Y113.429 E0.01141
G1 X136.940 Y114.165 E0.02331
G1 X136.962 Y114.908 E0.02331
G1 X136.940 Y115.271 E0.01141
G1 X136.829 Y116.006 E0.02331
G1 X136.632 Y116.723 E0.02331
G1 X136.353 Y117.402 E0.02302
G1 X135.991 Y118.052 E0.02331
G1 X135.556 Y118.651 E0.02321
G1 X135.052 Y119.193 E0.02322
G1 X134.500 Y119.662 E0.02272
G1 X134.187 Y119.884 E0.01201
G1 X133.541 Y120.257 E0.02340
G1 X133.211 Y120.410 E0.01142
G1 X132.526 Y120.656 E0.02282
G1 X132.155 Y120.753 E0.01201
G1 X131.422 Y120.875 E0.02330
G1 X130.682 Y120.908 E0.02321
G1 X129.941 Y120.853 E0.02331
G1 X129.221 Y120.711 E0.02302
G1 X128.511 Y120.480 E0.02341
G1 X128.176 Y120.337 E0.01141
G1 X127.521 Y119.985 E0.02331
G1 X126.916 Y119.559 E0.02321
G1 X126.366 Y119.063 E0.02321
G1 X125.877 Y118.503 E0.02331
G1 X125.663 Y118.209 E0.01141
G1 X125.281 Y117.571 E0.02331
G1 X124.986 Y116.909 E0.02272
G1 X124.861 Y116.547 E0.01201
G1 X124.684 Y115.822 E0.02340
G1 X124.630 Y115.462 E0.01141
G1 X124.585 Y114.716 E0.02341
G1 X124.596 Y114.352 E0.01141
G1 X124.685 Y113.614 E0.02331
G1 X124.860 Y112.895 E0.02322
G1 X125.115 Y112.216 E0.02272
G1 X125.280 Y111.871 E0.01201
G1 X125.661 Y111.233 E0.02330
G1 X126.104 Y110.659 E0.02272
G1 X126.364 Y110.377 E0.01201
G1 X126.916 Y109.880 E0.02330
G1 X127.508 Y109.463 E0.02272
G1 X127.839 Y109.270 E0.01201
G1 X128.514 Y108.958 E0.02330
G1 X129.203 Y108.733 E0.02272
G1 X129.576 Y108.647 E0.01201
G1 X130.313 Y108.547 E0.02330
G1 X131.037 Y108.536 E0.02272
G1 X131.328 Y108.557 E0.00913
G1 X131.548 Y108.927 F10800.000
G1 E-0.80000 F2100.000
G1 Z0.800 F10800.000
G1 X127.838 Y119.599
G1 Z0.200
G1 E0.80000 F2100.000
;TYPE:Solid infill
;WIDTH:0.423944
G1 F1200.000
G1 X126.821 Y118.581 E0.04558
G1 X126.393 Y118.092 E0.02061
G1 X126.214 Y117.845 E0.00966
G1 X125.868 Y117.266 E0.02137
G1 X125.726 Y116.947 E0.01105
G1 X128.564 Y119.785 E0.12715
G1 X128.743 Y119.862 E0.00618
G1 X129.389 Y120.072 E0.02152
G1 X125.436 Y116.119 E0.17712
G1 X125.332 Y115.694 E0.01385
G1 X125.294 Y115.437 E0.00821
G1 X130.056 Y120.200 E0.21337
G1 X130.638 Y120.243 E0.01851
G1 X125.255 Y114.860 E0.24120
G1 X125.263 Y114.330 E0.01680
G1 X131.160 Y120.226 E0.26420
G1 X131.353 Y120.218 E0.00612
G1 X131.642 Y120.170 E0.00929
G1 X125.321 Y113.849 E0.28321
G1 X125.415 Y113.404 E0.01440
G1 X132.098 Y120.086 E0.29940
G1 X132.511 Y119.960 E0.01368
G1 X125.532 Y112.982 E0.31266
G1 X125.679 Y112.590 E0.01326
G1 X132.907 Y119.818 E0.32384
G1 X133.276 Y119.648 E0.01287
G1 X125.845 Y112.217 E0.33293
G1 X126.044 Y111.877 E0.01248
G1 X133.618 Y119.451 E0.33932
G1 X133.949 Y119.244 E0.01239
G1 X126.252 Y111.547 E0.34487
M73 P1 R28
M73 Q1 S28
G1 X126.487 Y111.242 E0.01217
G1 X134.252 Y119.007 E0.34791
G1 X134.543 Y118.760 E0.01211
G1 X126.733 Y110.950 E0.34993
G1 X126.828 Y110.847 E0.00442
G1 X127.008 Y110.685 E0.00767
G1 X134.808 Y118.486 E0.34951
G1 X135.065 Y118.204 E0.01209
G1 X127.291 Y110.430 E0.34830
G1 X127.603 Y110.203 E0.01222
G1 X135.292 Y117.892 E0.34449
G1 X135.506 Y117.567 E0.01232
G1 X127.923 Y109.984 E0.33974
G1 X128.274 Y109.796 E0.01261
G1 X135.699 Y117.221 E0.33268
G1 X135.867 Y116.850 E0.01290
G1 X128.642 Y109.625 E0.32372
G1 X129.037 Y109.481 E0.01331
G1 X136.019 Y116.463 E0.31283
G1 X136.135 Y116.041 E0.01388
G1 X129.448 Y109.354 E0.29963
G1 X129.902 Y109.269 E0.01463
G1 X136.225 Y115.591 E0.28330
G1 X136.288 Y115.116 E0.01519
G1 X130.378 Y109.206 E0.26482
G1 X130.908 Y109.198 E0.01681
G1 X136.292 Y114.581 E0.24122
G1 X136.281 Y114.224 E0.01133
G1 X136.247 Y113.998 E0.00725
G1 X131.494 Y109.245 E0.21296
G1 X132.156 Y109.367 E0.02132
G1 X136.128 Y113.339 E0.17796
G1 X135.844 Y112.517 E0.02755
G1 X132.978 Y109.651 E0.12842
G1 X133.540 Y109.932 E0.01989
G1 X134.088 Y110.293 E0.02080
G1 X134.341 Y110.494 E0.01025
G1 X135.653 Y111.787 E0.05834
G1 E-0.80000 F2100.000
G1 Z0.800 F10800.000
G1 X117.877 Y102.603
G1 Z0.200
G1 E0.80000 F2100.000
;TYPE:External perimeter
;WIDTH:0.42
G1 F1200.000
G1 X117.072 Y102.310 E0.02685
G1 X116.029 Y101.707 E0.03777
G1 X115.106 Y100.933 E0.03777
G1 X114.344 Y100.024 E0.03720
G1 X113.730 Y98.967 E0.03833
G1 X113.318 Y97.835 E0.03778
G1 X113.108 Y96.649 E0.03777
G1 X113.108 Y95.444 E0.03777
G1 X113.318 Y94.258 E0.03777
G1 X113.730 Y93.126 E0.03777
G1 X114.332 Y92.083 E0.03777
G1 X115.106 Y91.160 E0.03777
G1 X116.029 Y90.385 E0.03777
G1 X117.072 Y89.783 E0.03777
G1 X118.204 Y89.371 E0.03777
G1 X119.391 Y89.162 E0.03777
G1 X120.577 Y89.162 E0.03720
G1 X121.781 Y89.371 E0.03833
G1 X122.914 Y89.783 E0.03778
G1 X123.957 Y90.385 E0.03777
G1 X124.880 Y91.160 E0.03777
G1 X125.654 Y92.083 E0.03777
G1 X126.256 Y93.126 E0.03777
G1 X126.662 Y94.241 E0.03720
G1 X126.877 Y95.444 E0.03833
G1 X126.877 Y96.649 E0.03778
G1 X126.668 Y97.835 E0.03777
G1 X126.256 Y98.967 E0.03777
G1 X125.654 Y100.010 E0.03777
G1 X124.880 Y100.933 E0.03777
G1 X123.957 Y101.707 E0.03777
G1 X122.914 Y102.310 E0.03777
G1 X121.799 Y102.716 E0.03720
G1 X120.596 Y102.931 E0.03833
G1 X119.391 Y102.931 E0.03778
G1 X118.204 Y102.722 E0.03777
G1 X117.933 Y102.623 E0.00904
G1 X117.582 Y102.873 F10800.000
G1 E-0.80000 F2100.000
G1 Z0.800 F10800.000
G1 X126.939 Y95.389
G1 Z0.200
G1 E0.80000 F2100.000
G1 F1200.000
G1 X126.948 Y96.655 E0.03970
G1 X126.737 Y97.853 E0.03816
G1 X126.321 Y98.997 E0.03816
G1 X125.712 Y100.051 E0.03816
G1 X124.928 Y100.985 E0.03825
G1 X123.997 Y101.766 E0.03807
G1 X122.944 Y102.374 E0.03816
G1 X121.800 Y102.790 E0.03816
G1 X120.601 Y103.002 E0.03816
G1 X119.384 Y103.002 E0.03816
G1 X118.186 Y102.790 E0.03816
G1 X117.042 Y102.374 E0.03816
G1 X115.988 Y101.766 E0.03816
G1 X115.056 Y100.983 E0.03816
G1 X114.272 Y100.049 E0.03825
G1 X113.665 Y98.997 E0.03807
G1 X113.250 Y97.855 E0.03811
G1 X113.038 Y96.655 E0.03820
G1 X113.038 Y95.438 E0.03816
G1 X113.249 Y94.239 E0.03816
G1 X113.665 Y93.096 E0.03816
G1 X114.274 Y92.042 E0.03816
G1 X115.058 Y91.108 E0.03825
G1 X115.988 Y90.327 E0.03807
G1 X117.041 Y89.720 E0.03811
G1 X118.184 Y89.303 E0.03816
G1 X119.384 Y89.091 E0.03821
G1 X120.600 Y89.091 E0.03810
G1 X121.800 Y89.303 E0.03821
G1 X122.944 Y89.719 E0.03816
G1 X123.997 Y90.327 E0.03816
G1 X124.932 Y91.112 E0.03825
G1 X125.712 Y92.042 E0.03807
G1 X126.321 Y93.096 E0.03816
G1 X126.736 Y94.238 E0.03811
G1 X126.929 Y95.330 E0.03476
G1 X126.613 Y95.620 F10800.000
M106 S84.15
;LAYER_CHANGE
;Z:0.4
;HEIGHT:0.2
;BEFORE_LAYER_CHANGE
G92 E0.0
;0.4


G1 E-0.80000 F2100.000
G1 Z0.800 F10800.000
;AFTER_LAYER_CHANGE
;0.4
M104 S210 ; set temperature
G1 X125.649 Y112.099
G1 Z0.400
G1 E0.80000 F2100.000
M204 S800
;TYPE:Perimeter
;WIDTH:0.45
G1 F1500.000
G1 X125.829 Y111.753 E0.01319
G1 X126.005 Y111.478 E0.01107
G1 X126.404 Y110.960 E0.02213
G1 X126.662 Y110.677 E0.01295
G1 X127.180 Y110.210 E0.02361
G1 X127.706 Y109.838 E0.02181
G1 X128.036 Y109.644 E0.01295
G1 X128.669 Y109.351 E0.02361
G1 X129.281 Y109.150 E0.02181
G1 X129.654 Y109.062 E0.01295
G1 X130.345 Y108.969 E0.02361
G1 X130.989 Y108.957 E0.02181
G1 X131.371 Y108.983 E0.01295
G1 X132.068 Y109.099 E0.02391
G1 X132.383 Y109.181 E0.01104
G1 X133.042 Y109.417 E0.02367
G1 X133.658 Y109.725 E0.02335
G1 X134.242 Y110.110 E0.02367
G1 X134.497 Y110.314 E0.01104
G1 X135.002 Y110.797 E0.02367
G1 X135.446 Y111.337 E0.02367
G1 X135.636 Y111.614 E0.01136
G1 X135.808 Y111.902 E0.01136
G1 X136.111 Y112.532 E0.02367
G1 X136.337 Y113.194 E0.02367
G1 X136.414 Y113.511 E0.01104
G1 X136.519 Y114.202 E0.02367
G1 X136.540 Y114.901 E0.02367
G1 X136.520 Y115.227 E0.01104
G1 X136.416 Y115.918 E0.02367
G1 X136.230 Y116.592 E0.02367
G1 X135.975 Y117.213 E0.02271
G1 X135.635 Y117.824 E0.02367
G1 X135.229 Y118.382 E0.02335
G1 X134.760 Y118.888 E0.02335
G1 X134.227 Y119.340 E0.02367
G1 X133.960 Y119.527 E0.01104
G1 X133.346 Y119.882 E0.02399
G1 X133.050 Y120.019 E0.01107
G1 X132.435 Y120.241 E0.02213
G1 X132.065 Y120.340 E0.01295
G1 X131.378 Y120.455 E0.02358
G1 X130.689 Y120.486 E0.02335
G1 X129.991 Y120.433 E0.02367
G1 X129.660 Y120.378 E0.01136
G1 X129.333 Y120.304 E0.01136
G1 X128.659 Y120.085 E0.02399
G1 X128.359 Y119.956 E0.01104
G1 X127.744 Y119.625 E0.02367
G1 X127.180 Y119.228 E0.02335
G1 X126.667 Y118.767 E0.02335
G1 X126.207 Y118.240 E0.02367
G1 X126.015 Y117.976 E0.01104
G1 X125.656 Y117.375 E0.02369
G1 X125.393 Y116.787 E0.02181
G1 X125.266 Y116.426 E0.01295
G1 X125.101 Y115.748 E0.02361
G1 X125.022 Y115.109 E0.02181
G1 X125.017 Y114.384 E0.02454
G1 X125.101 Y113.690 E0.02367
G1 X125.264 Y113.020 E0.02335
G1 X125.507 Y112.374 E0.02335
G1 X125.622 Y112.152 E0.00845
M204 S1000
G1 X125.260 Y111.965 F10800.000
M204 S800
;TYPE:External perimeter
G1 F1500.000
G1 X125.476 Y111.549 E0.01584
G1 X125.671 Y111.244 E0.01229
G1 X126.091 Y110.698 E0.02331
G1 X126.375 Y110.388 E0.01421
G1 X126.925 Y109.892 E0.02509
G1 X127.485 Y109.496 E0.02320
G1 X127.847 Y109.283 E0.01421
G1 X128.519 Y108.971 E0.02509
G1 X129.171 Y108.758 E0.02320
G1 X129.579 Y108.662 E0.01421
G1 X130.314 Y108.562 E0.02509
G1 X130.999 Y108.550 E0.02320
G1 X131.418 Y108.578 E0.01421
G1 X132.152 Y108.700 E0.02520
G1 X132.503 Y108.791 E0.01228
G1 X133.202 Y109.042 E0.02511
G1 X133.862 Y109.372 E0.02500
G1 X134.482 Y109.781 E0.02511
G1 X134.765 Y110.007 E0.01228
G1 X135.301 Y110.520 E0.02511
G1 X135.773 Y111.093 E0.02511
G1 X135.979 Y111.395 E0.01239
G1 X136.167 Y111.709 E0.01239
G1 X136.488 Y112.378 E0.02511
G1 X136.728 Y113.080 E0.02511
G1 X136.814 Y113.432 E0.01228
G1 X136.925 Y114.166 E0.02511
G1 X136.947 Y114.907 E0.02511
G1 X136.925 Y115.270 E0.01228
G1 X136.815 Y116.003 E0.02511
G1 X136.617 Y116.718 E0.02511
G1 X136.340 Y117.395 E0.02477
G1 X135.979 Y118.043 E0.02511
G1 X135.544 Y118.641 E0.02500
G1 X135.042 Y119.182 E0.02500
G1 X134.476 Y119.662 E0.02511
G1 X134.180 Y119.871 E0.01228
G1 X133.534 Y120.243 E0.02523
G1 X133.205 Y120.396 E0.01229
G1 X132.557 Y120.630 E0.02331
G1 X132.151 Y120.739 E0.01421
G1 X131.420 Y120.860 E0.02508
G1 X130.683 Y120.893 E0.02500
G1 X129.943 Y120.838 E0.02511
G1 X129.582 Y120.778 E0.01239
G1 X129.225 Y120.696 E0.01239
G1 X128.516 Y120.466 E0.02523
G1 X128.182 Y120.324 E0.01228
G1 X127.529 Y119.972 E0.02511
G1 X126.925 Y119.547 E0.02500
G1 X126.376 Y119.053 E0.02500
G1 X125.888 Y118.494 E0.02511
G1 X125.675 Y118.201 E0.01228
G1 X125.294 Y117.563 E0.02512
M73 Q2 S28
G1 X125.014 Y116.938 E0.02320
G1 X124.875 Y116.542 E0.01421
G1 X124.700 Y115.822 E0.02509
G1 X124.616 Y115.141 E0.02320
G1 X124.600 Y114.719 E0.01432
G1 X124.611 Y114.353 E0.01236
G1 X124.700 Y113.617 E0.02511
G1 X124.875 Y112.899 E0.02500
G1 X125.134 Y112.208 E0.02500
G1 X125.233 Y112.018 E0.00724
M204 S1000
G1 X125.659 Y111.935 F10800.000
G1 E-0.80000 F2100.000
G1 Z1.000 F10800.000
G1 X133.630 Y119.577
M73 P2 R28
G1 Z0.400
G1 E0.80000 F2100.000
M204 S1250
;TYPE:Solid infill
;WIDTH:0.462495
G1 F1720
G1 X134.658 Y118.549 E0.05072
G1 X134.993 Y118.188 E0.01720
G1 X135.377 Y117.659 E0.02279
G1 X135.700 Y117.081 E0.02312
G1 X135.816 Y116.798 E0.01065
G1 X132.845 Y119.769 E0.14656
G1 X132.343 Y119.950 E0.01861
G1 X131.974 Y120.046 E0.01331
G1 X136.098 Y115.922 E0.20347
G1 X136.213 Y115.214 E0.02505
G1 X131.273 Y120.154 E0.24374
G1 X130.657 Y120.177 E0.02153
G1 X136.225 Y114.608 E0.27476
G1 X136.214 Y114.230 E0.01320
G1 X136.187 Y114.053 E0.00625
G1 X130.105 Y120.136 E0.30012
G1 X129.601 Y120.045 E0.01783
G1 X136.107 Y113.540 E0.32098
G1 X135.975 Y113.078 E0.01674
G1 X129.135 Y119.918 E0.33747
G1 X128.693 Y119.767 E0.01630
G1 X135.823 Y112.637 E0.35177
G1 X135.630 Y112.237 E0.01551
G1 X128.293 Y119.574 E0.36200
G1 X127.907 Y119.366 E0.01528
G1 X135.422 Y111.852 E0.37077
G1 X135.183 Y111.497 E0.01491
G1 X127.558 Y119.121 E0.37618
G1 X127.370 Y118.989 E0.00803
G1 X127.227 Y118.860 E0.00673
G1 X134.915 Y111.171 E0.37933
G1 X134.778 Y111.005 E0.00752
G1 X134.630 Y110.863 E0.00716
G1 X126.915 Y118.579 E0.38067
G1 X126.634 Y118.265 E0.01466
G1 X134.327 Y110.573 E0.37952
G1 X133.994 Y110.312 E0.01475
G1 X126.366 Y117.940 E0.37634
G1 X126.134 Y117.579 E0.01498
G1 X133.637 Y110.077 E0.37018
G1 X133.255 Y109.865 E0.01523
G1 X125.915 Y117.205 E0.36217
G1 X125.731 Y116.795 E0.01566
G1 X132.853 Y109.673 E0.35139
G1 X132.416 Y109.517 E0.01619
G1 X125.568 Y116.365 E0.33787
