; generated by PrusaSlicer 2.2.0+win64 on 2020-09-04 at 18:11:59 UTC

; 

; external perimeters extrusion width = 0.45mm
; perimeters extrusion width = 0.45mm
; infill extrusion width = 0.45mm
; solid infill extrusion width = 0.45mm
; top infill extrusion width = 0.40mm
; support material extrusion width = 0.35mm
; first layer extrusion width = 0.42mm

M73 P0 R101
M73 Q0 S102
M201 X1000 Y1000 Z1000 E5000 ; sets maximum accelerations, mm/sec^2
M203 X200 Y200 Z12 E120 ; sets maximum feedrates, mm/sec
M204 P1250 R1250 T1250 ; sets acceleration (P, T) and retract acceleration (R), mm/sec^2
M205 X8.00 Y8.00 Z0.40 E1.50 ; sets the jerk limits, mm/sec
M205 S0 T0 ; sets the minimum extruding and travel feed rate, mm/sec
M107
M862.3 P "MK3S" ; printer model check
M862.1 P0.4 ; nozzle diameter check
M115 U3.8.0 ; tell printer latest fw version
G90 ; use absolute coordinates
M83 ; extruder relative mode
M104 S215 ; set extruder temp
M140 S60 ; set bed temp
M190 S60 ; wait for bed temp
M109 S215 ; wait for extruder temp
G28 W ; home all without mesh bed level
G80 ; mesh bed leveling
G1 Y-3.0 F1000.0 ; go outside print area
G92 E0.0
G1 X60.0 E9.0 F1000.0 ; intro line
M73 Q0 S102
M73 P0 R101
G1 X100.0 E12.5 F1000.0 ; intro line
G92 E0.0
M221 S95
G21 ; set units to millimeters
G90 ; use absolute coordinates
M83 ; use relative distances for extrusion
M900 K0.06 ; Filament gcode LA 1.5
M900 K30 ; Filament gcode LA 1.0
;BEFORE_LAYER_CHANGE
G92 E0.0
;0.2


G1 E-0.80000 F2100.00000
G1 Z0.600 F10800.000
;AFTER_LAYER_CHANGE
;0.2
G1 X150.299 Y102.349
G1 Z0.200
G1 E0.80000 F2100.00000
M204 S1000
G1 F1200.000
G1 X132.935 Y119.713 E0.76994
G1 X133.468 Y120.246 E0.02365
G1 X150.712 Y103.002 E0.76462
G1 X151.245 Y103.536 E0.02365
G1 X134.002 Y120.779 E0.76462
G1 X134.256 Y121.034 E0.01128
G1 X132.625 Y122.665 E0.07234
G1 X132.903 Y122.944 E0.01236
G1 X153.410 Y102.437 E0.90929
G1 X153.943 Y102.971 E0.02365
G1 X133.437 Y123.477 E0.90929
G1 X133.970 Y124.011 E0.02365
G1 X154.477 Y103.504 E0.90929
G1 X155.010 Y104.037 E0.02365
G1 X134.503 Y124.544 E0.90929
G1 X135.037 Y125.077 E0.02365
G1 X155.543 Y104.571 E0.90929
G1 X156.076 Y105.104 E0.02365
G1 X135.570 Y125.610 E0.90929
G1 X136.103 Y126.144 E0.02365
G1 X156.610 Y105.637 E0.90929
G1 X157.143 Y106.170 E0.02365
G1 X136.636 Y126.677 E0.90929
G1 X137.170 Y127.210 E0.02365
G1 X157.676 Y106.704 E0.90929
G1 X158.209 Y107.237 E0.02365
G1 X136.072 Y129.375 E0.98163
G1 X136.605 Y129.908 E0.02365
G1 X158.743 Y107.770 E0.98163
G1 X159.276 Y108.303 E0.02365
G1 X151.820 Y115.759 E0.33060
G1 X151.500 Y115.439 E0.01421
G1 X145.905 Y121.034 E0.24809
G1 X146.225 Y121.354 E0.01421
G1 X137.138 Y130.441 E0.40294
G1 X137.671 Y130.975 E0.02365
G1 X146.758 Y121.888 E0.40294
G1 X147.292 Y122.421 E0.02365
G1 X138.205 Y131.508 E0.40294
G1 X138.738 Y132.041 E0.02365
G1 X147.825 Y122.954 E0.40294
G1 X148.358 Y123.487 E0.02365
G1 X137.640 Y134.206 E0.47527
G1 X138.173 Y134.739 E0.02365
G1 X148.892 Y124.021 E0.47527
G1 X149.425 Y124.554 E0.02365
G1 X138.706 Y135.272 E0.47527
G1 X139.240 Y135.806 E0.02365
G1 X149.958 Y125.087 E0.47527
G1 X150.491 Y125.620 E0.02365
G1 X139.773 Y136.339 E0.47527
G1 X140.306 Y136.872 E0.02365
G1 X149.393 Y127.785 E0.40294
G1 X149.868 Y128.260 E0.02107
G1 X151.500 Y126.629 E0.07234
G1 X151.558 Y126.687 E0.00257
G1 X140.839 Y137.405 E0.47527
G1 X141.373 Y137.939 E0.02365
G1 X152.091 Y127.220 E0.47527
G1 X152.624 Y127.754 E0.02365
G1 X141.786 Y138.592 E0.48059
G1 E-0.80000 F2100.00000
G1 Z0.800 F10800.000
G1 X148.568 Y134.220
G1 Z0.200
G1 E0.80000 F2100.00000
G1 F1200.000
G1 X146.839 Y135.949 E0.06244
G1 X147.197 Y136.307 E0.01295
G1 X148.828 Y134.676 E0.05891
G1 X149.187 Y135.035 E0.01295
G1 X147.556 Y136.666 E0.05891
G1 X147.914 Y137.024 E0.01295
G1 X149.546 Y135.393 E0.05891
G1 X149.868 Y135.716 E0.01166
G1 X151.500 Y134.085 E0.05891
G1 X151.536 Y134.120 E0.00129
G1 X146.544 Y139.112 E0.18026
G1 E-0.80000 F2100.00000
G1 Z0.800 F10800.000
G1 X149.771 Y142.339
G1 Z0.200
G1 E0.80000 F2100.00000
G1 F1200.000
G1 X154.763 Y137.347 E0.18026
G1 X154.404 Y136.989 E0.01295
G1 X149.510 Y141.883 E0.17673
G1 X149.151 Y141.524 E0.01295
G1 X154.045 Y136.630 E0.17673
G1 X153.687 Y136.272 E0.01295
G1 X148.793 Y141.166 E0.17673
G1 X148.434 Y140.807 E0.01295
G1 X151.022 Y138.219 E0.09346
G1 X150.837 Y138.256 E0.00483
G1 X150.655 Y138.265 E0.00464
G1 X150.298 Y138.226 E0.00918
G1 X148.076 Y140.449 E0.08025
G1 X147.717 Y140.090 E0.01295
G1 X149.775 Y138.032 E0.07431
G1 X149.505 Y137.879 E0.00794
G1 X149.372 Y137.718 E0.00531
G1 X147.359 Y139.732 E0.07269
G1 X147.000 Y139.373 E0.01295
G1 X149.215 Y137.158 E0.07997
G1 X149.223 Y137.094 E0.00166
G1 X149.322 Y136.854 E0.00663
G1 X149.381 Y136.770 E0.00261
G1 X149.590 Y136.577 E0.00728
G1 X149.695 Y136.520 E0.00305
G1 X149.910 Y136.463 E0.00566
G1 X151.894 Y134.479 E0.07166
G1 X152.253 Y134.837 E0.01295
G1 X150.685 Y136.405 E0.05660
G1 X150.892 Y136.425 E0.00530
G1 X151.268 Y136.539 E0.01005
G1 X152.611 Y135.196 E0.04850
G1 X152.970 Y135.555 E0.01295
G1 X151.709 Y136.815 E0.04551
G1 X151.836 Y136.960 E0.00491
G1 X151.886 Y137.053 E0.00270
G1 X151.950 Y137.291 E0.00630
G1 X153.426 Y135.815 E0.05330
G1 E-0.80000 F2100.00000
G1 Z0.800 F10800.000
G1 X153.205 Y127.172
G1 Z0.200
G1 E0.80000 F2100.00000
G1 F1200.000
G1 X165.675 Y114.703 E0.55293
G1 X165.142 Y114.169 E0.02365
G1 X152.792 Y126.519 E0.54761
G1 X152.259 Y125.986 E0.02365
G1 X164.609 Y113.636 E0.54761
G1 X164.075 Y113.103 E0.02365
G1 X156.620 Y120.559 E0.33060
G1 X156.086 Y120.025 E0.02365
G1 X163.542 Y112.570 E0.33060
G1 X163.009 Y112.036 E0.02365
G1 X155.553 Y119.492 E0.33060
G1 X155.020 Y118.959 E0.02365
G1 X162.476 Y111.503 E0.33060
G1 X161.942 Y110.970 E0.02365
G1 X154.487 Y118.426 E0.33060
G1 X153.953 Y117.892 E0.02365
G1 X161.409 Y110.437 E0.33060
G1 X160.876 Y109.903 E0.02365
G1 X153.420 Y117.359 E0.33060
G1 X152.887 Y116.826 E0.02365
G1 X160.343 Y109.370 E0.33060
G1 X159.809 Y108.837 E0.02365
G1 X152.234 Y116.412 E0.33592
G1 X170.030 Y122.080 F10800.000
G1 F1200.000
G1 X155.004 Y137.105 E0.66625
G1 X154.471 Y136.572 E0.02365
G1 X169.377 Y121.667 E0.66093
G1 X168.843 Y121.133 E0.02365
G1 X153.938 Y136.039 E0.66093
G1 X153.405 Y135.506 E0.02365
G1 X169.941 Y118.969 E0.73327
G1 X169.408 Y118.436 E0.02365
G1 X152.871 Y134.972 E0.73327
G1 X152.338 Y134.439 E0.02365
G1 X168.875 Y117.902 E0.73327
G1 X168.342 Y117.369 E0.02365
G1 X151.805 Y133.906 E0.73327
G1 X151.500 Y133.601 E0.01352
G1 X149.868 Y135.232 E0.07234
G1 X149.640 Y135.004 E0.01012
G1 X167.808 Y116.836 E0.80561
G1 X167.275 Y116.303 E0.02365
G1 X149.107 Y134.471 E0.80561
G1 X148.574 Y133.937 E0.02365
G1 X166.742 Y115.769 E0.80561
M73 Q1 S101
M73 P1 R100
G1 X166.209 Y115.236 E0.02365
G1 X142.439 Y139.005 E1.05397
G1 X142.973 Y139.538 E0.02365
G1 X146.458 Y136.053 E0.15457
G1 X146.992 Y136.586 E0.02365
G1 X143.506 Y140.072 E0.15457
G1 X144.039 Y140.605 E0.02365
G1 X147.525 Y137.119 E0.15457
G1 X147.753 Y137.347 E0.01012
G1 X146.122 Y138.979 E0.07234
G1 X146.427 Y139.284 E0.01352
G1 X144.572 Y141.138 E0.08224
G1 X145.106 Y141.672 E0.02365
G1 X146.960 Y139.817 E0.08224
G1 X147.493 Y140.350 E0.02365
G1 X145.639 Y142.205 E0.08224
G1 X145.675 Y142.241 E0.00162
G1 X142.413 Y145.504 E0.14467
G1 X142.909 Y146.001 E0.02203
G1 X148.027 Y140.883 E0.22691
G1 X148.560 Y141.417 E0.02365
G1 X143.443 Y146.534 E0.22691
G1 X143.976 Y147.067 E0.02365
G1 X149.093 Y141.950 E0.22691
G1 X149.627 Y142.483 E0.02365
G1 X141.247 Y150.863 E0.37158
G1 X141.780 Y151.397 E0.02365
G1 X165.549 Y127.627 E1.05397
G1 X166.082 Y128.161 E0.02365
G1 X142.313 Y151.930 E1.05397
G1 X142.413 Y152.030 E0.00442
G1 X140.781 Y153.661 E0.07234
G1 X141.215 Y154.095 E0.01923
G1 X166.616 Y128.694 E1.12631
G1 X167.112 Y129.191 E0.02202
G1 X160.587 Y135.716 E0.28935
G1 X160.623 Y135.753 E0.00162
G1 X141.748 Y154.628 E0.83696
G1 X142.282 Y155.161 E0.02365
G1 X161.157 Y136.286 E0.83696
G1 X161.690 Y136.819 E0.02365
G1 X141.183 Y157.326 E0.90929
G1 X141.717 Y157.859 E0.02365
G1 X160.592 Y138.984 E0.83696
G1 X161.125 Y139.517 E0.02365
G1 X142.250 Y158.392 E0.83696
G1 X142.783 Y158.925 E0.02365
G1 X161.658 Y140.050 E0.83696
G1 X162.192 Y140.584 E0.02365
G1 X143.317 Y159.459 E0.83696
G1 X143.850 Y159.992 E0.02365
G1 X162.725 Y141.117 E0.83696
G1 X163.258 Y141.650 E0.02365
G1 X142.752 Y162.157 E0.90929
G1 X143.285 Y162.690 E0.02365
G1 X163.792 Y142.183 E0.90929
G1 X163.850 Y142.241 E0.00257
G1 X160.587 Y145.504 E0.14467
G1 X161.062 Y145.979 E0.02107
G1 X143.818 Y163.223 E0.76462
G1 X144.352 Y163.756 E0.02365
G1 X161.595 Y146.513 E0.76462
G1 X162.129 Y147.046 E0.02365
G1 X144.885 Y164.290 E0.76462
G1 X145.418 Y164.823 E0.02365
G1 X157.768 Y152.473 E0.54761
G1 X158.301 Y153.006 E0.02365
G1 X144.320 Y166.988 E0.61995
G1 X144.853 Y167.521 E0.02365
G1 X158.834 Y153.540 E0.61995
G1 X158.956 Y153.661 E0.00537
G1 X157.324 Y155.292 E0.07234
G1 X157.736 Y155.704 E0.01828
G1 X145.387 Y168.054 E0.54761
G1 X145.675 Y168.343 E0.01281
G1 X144.044 Y169.974 E0.07234
G1 X144.288 Y170.219 E0.01084
G1 X158.270 Y156.238 E0.61995
G1 X158.803 Y156.771 E0.02365
G1 X144.822 Y170.752 E0.61995
G1 X145.355 Y171.285 E0.02365
G1 X159.336 Y157.304 E0.61995
G1 X159.869 Y157.837 E0.02365
G1 X145.888 Y171.819 E0.61995
G1 X146.422 Y172.352 E0.02365
G1 X160.403 Y158.371 E0.61995
G1 X160.587 Y158.555 E0.00817
G1 X158.956 Y160.186 E0.07234
G1 X159.305 Y160.535 E0.01548
G1 X146.955 Y172.885 E0.54761
G1 X147.488 Y173.418 E0.02365
G1 X159.838 Y161.069 E0.54761
G1 X160.371 Y161.602 E0.02365
G1 X148.021 Y173.952 E0.54761
G1 X148.555 Y174.485 E0.02365
G1 X160.904 Y162.135 E0.54761
G1 X161.438 Y162.668 E0.02365
G1 X149.088 Y175.018 E0.54761
G1 X149.621 Y175.551 E0.02365
G1 X161.971 Y163.202 E0.54761
G1 X162.504 Y163.735 E0.02365
G1 X150.154 Y176.085 E0.54761
G1 X150.688 Y176.618 E0.02365
G1 X163.038 Y164.268 E0.54761
G1 X163.571 Y164.802 E0.02365
G1 X151.101 Y177.271 E0.55293
G1 E-0.80000 F2100.00000
G1 Z0.800 F10800.000
G1 X150.665 Y137.563
G1 Z0.200
G1 E0.80000 F2100.00000
G1 F1200.000
G1 X150.358 Y137.528 E0.00967
G1 X150.190 Y137.460 E0.00568
G1 X149.751 Y137.224 E0.01564
G1 X150.360 Y137.084 E0.01959
G1 X150.748 Y137.112 E0.01219
G1 X151.120 Y137.232 E0.01226
G1 X151.275 Y137.337 E0.00588
G1 X151.160 Y137.454 E0.00516
G1 X151.107 Y137.483 E0.00188
G1 X150.725 Y137.561 E0.01225
G1 X150.512 Y137.295 F10800.000
G1 X150.785 Y137.338
G1 F1200.000
G1 X150.414 Y137.311 E0.00230
G1 X150.376 Y137.302 E0.00021
G1 X150.344 Y137.299 E0.00015
G1 E-0.80000 F2100.00000
G1 Z0.800 F10800.000
G1 X117.073 Y97.623
G1 Z0.200
G1 E0.80000 F2100.00000
G1 F1200.000
G1 X102.048 Y112.649 E0.66625
G1 X101.514 Y112.115 E0.02365
G1 X116.420 Y97.210 E0.66093
G1 X115.887 Y96.677 E0.02365
G1 X100.981 Y111.582 E0.66093
G1 X100.448 Y111.049 E0.02365
G1 X116.985 Y94.512 E0.73327
G1 X116.451 Y93.979 E0.02365
G1 X99.915 Y110.516 E0.73327
G1 X99.381 Y109.982 E0.02365
G1 X115.918 Y93.446 E0.73327
G1 X115.385 Y92.912 E0.02365
G1 X98.848 Y109.449 E0.73327
G1 X98.543 Y109.144 E0.01352
G1 X96.912 Y110.775 E0.07234
G1 X96.683 Y110.547 E0.01012
G1 X114.852 Y92.379 E0.80561
G1 X114.318 Y91.846 E0.02365
G1 X96.150 Y110.014 E0.80561
G1 X95.617 Y109.481 E0.02365
G1 X113.785 Y91.312 E0.80561
M73 Q2 S100
M73 P2 R99
G1 X113.252 Y90.779 E0.02365
G1 X89.483 Y114.548 E1.05397
G1 X90.016 Y115.082 E0.02365
G1 X93.502 Y111.596 E0.15457
G1 X94.035 Y112.129 E0.02365
G1 X90.549 Y115.615 E0.15457
G1 X91.082 Y116.148 E0.02365
G1 X94.568 Y112.662 E0.15457
G1 X94.797 Y112.891 E0.01012
G1 X93.165 Y114.522 E0.07234
G1 X93.470 Y114.827 E0.01352
G1 X91.616 Y116.681 E0.08224
G1 X92.149 Y117.215 E0.02365
G1 X94.004 Y115.360 E0.08224
G1 X94.537 Y115.893 E0.02365
G1 X92.682 Y117.748 E0.08224
G1 X92.719 Y117.785 E0.00162
G1 X89.456 Y121.047 E0.14467
G1 X89.953 Y121.544 E0.02203
G1 X95.070 Y116.427 E0.22691
G1 X95.603 Y116.960 E0.02365
G1 X90.486 Y122.077 E0.22691
G1 X91.019 Y122.611 E0.02365
G1 X96.137 Y117.493 E0.22691
G1 X96.670 Y118.026 E0.02365
G1 X88.290 Y126.407 E0.37158
G1 X88.823 Y126.940 E0.02365
G1 X112.592 Y103.171 E1.05397
G1 X113.126 Y103.704 E0.02365
G1 X89.356 Y127.473 E1.05397
G1 X89.456 Y127.573 E0.00442
G1 X87.825 Y129.204 E0.07234
G1 X88.258 Y129.638 E0.01923
G1 X113.659 Y104.237 E1.12631
G1 X114.156 Y104.734 E0.02202
G1 X107.630 Y111.259 E0.28935
G1 X107.667 Y111.296 E0.00162
G1 X88.792 Y130.171 E0.83696
G1 X89.325 Y130.704 E0.02365
G1 X108.200 Y111.829 E0.83696
G1 X108.733 Y112.362 E0.02365
G1 X88.227 Y132.869 E0.90929
G1 X88.760 Y133.402 E0.02365
G1 X107.635 Y114.527 E0.83696
G1 X108.169 Y115.060 E0.02365
G1 X89.293 Y133.935 E0.83696
G1 X89.827 Y134.469 E0.02365
G1 X108.702 Y115.593 E0.83696
G1 X109.235 Y116.127 E0.02365
G1 X90.360 Y135.002 E0.83696
G1 X90.893 Y135.535 E0.02365
G1 X109.768 Y116.660 E0.83696
G1 X110.302 Y117.193 E0.02365
G1 X89.795 Y137.700 E0.90929
G1 X90.328 Y138.233 E0.02365
G1 X110.835 Y117.727 E0.90929
G1 X110.893 Y117.785 E0.00257
G1 X107.630 Y121.047 E0.14467
G1 X108.105 Y121.523 E0.02107
G1 X90.862 Y138.766 E0.76462
G1 X91.395 Y139.300 E0.02365
G1 X108.639 Y122.056 E0.76462
G1 X109.172 Y122.589 E0.02365
G1 X91.928 Y139.833 E0.76462
G1 X92.461 Y140.366 E0.02365
G1 X104.811 Y128.016 E0.54761
G1 X105.344 Y128.550 E0.02365
G1 X91.363 Y142.531 E0.61995
G1 X91.897 Y143.064 E0.02365
G1 X105.878 Y129.083 E0.61995
G1 X105.999 Y129.204 E0.00537
G1 X104.367 Y130.835 E0.07234
G1 X104.780 Y131.248 E0.01828
G1 X92.430 Y143.597 E0.54761
G1 X92.719 Y143.886 E0.01281
G1 X91.087 Y145.518 E0.07234
G1 X91.332 Y145.762 E0.01084
G1 X105.313 Y131.781 E0.61995
G1 X105.846 Y132.314 E0.02365
G1 X91.865 Y146.295 E0.61995
G1 X92.398 Y146.829 E0.02365
G1 X106.379 Y132.847 E0.61995
G1 X106.913 Y133.381 E0.02365
G1 X92.932 Y147.362 E0.61995
G1 X93.465 Y147.895 E0.02365
G1 X107.446 Y133.914 E0.61995
G1 X107.630 Y134.098 E0.00817
G1 X105.999 Y135.729 E0.07234
G1 X106.348 Y136.079 E0.01548
G1 X93.998 Y148.428 E0.54761
G1 X94.531 Y148.962 E0.02365
G1 X106.881 Y136.612 E0.54761
G1 X107.414 Y137.145 E0.02365
G1 X95.065 Y149.495 E0.54761
G1 X95.598 Y150.028 E0.02365
G1 X107.948 Y137.678 E0.54761
G1 X108.481 Y138.212 E0.02365
G1 X96.131 Y150.561 E0.54761
G1 X96.664 Y151.095 E0.02365
G1 X109.014 Y138.745 E0.54761
G1 X109.548 Y139.278 E0.02365
G1 X97.198 Y151.628 E0.54761
G1 X97.731 Y152.161 E0.02365
G1 X110.081 Y139.811 E0.54761
G1 X110.614 Y140.345 E0.02365
G1 X98.144 Y152.814 E0.55293
G1 E-0.80000 F2100.00000
G1 Z0.800 F10800.000
G1 X99.277 Y91.956
G1 Z0.200
G1 E0.80000 F2100.00000
G1 F1200.000
G1 X106.853 Y84.380 E0.33592
G1 X107.386 Y84.913 E0.02365
G1 X99.930 Y92.369 E0.33060
G1 X100.463 Y92.902 E0.02365
G1 X107.919 Y85.446 E0.33060
G1 X108.452 Y85.980 E0.02365
G1 X100.997 Y93.435 E0.33060
G1 X101.530 Y93.969 E0.02365
G1 X108.986 Y86.513 E0.33060
G1 X109.519 Y87.046 E0.02365
G1 X102.063 Y94.502 E0.33060
G1 X102.596 Y95.035 E0.02365
G1 X110.052 Y87.580 E0.33060
G1 X110.585 Y88.113 E0.02365
G1 X103.130 Y95.569 E0.33060
G1 X103.663 Y96.102 E0.02365
G1 X111.119 Y88.646 E0.33060
G1 X111.652 Y89.179 E0.02365
G1 X99.302 Y101.529 E0.54761
G1 X99.835 Y102.062 E0.02365
G1 X112.185 Y89.713 E0.54761
G1 X112.719 Y90.246 E0.02365
G1 X100.249 Y102.716 E0.55293
G1 E-0.80000 F2100.00000
G1 Z0.800 F10800.000
G1 X100.469 Y111.359
G1 Z0.200
G1 E0.80000 F2100.00000
G1 F1200.000
G1 X98.993 Y112.835 E0.05330
G1 X98.929 Y112.596 E0.00630
G1 X98.879 Y112.503 E0.00270
G1 X98.753 Y112.358 E0.00491
G1 X100.013 Y111.098 E0.04551
G1 X99.654 Y110.739 E0.01295
G1 X98.311 Y112.082 E0.04850
G1 X97.935 Y111.968 E0.01005
G1 X97.728 Y111.948 E0.00530
G1 X99.296 Y110.381 E0.05660
G1 X98.937 Y110.022 E0.01295
G1 X96.953 Y112.006 E0.07166
G1 X96.739 Y112.063 E0.00566
G1 X96.634 Y112.120 E0.00305
G1 X96.424 Y112.313 E0.00728
G1 X96.366 Y112.397 E0.00261
G1 X96.266 Y112.637 E0.00663
G1 X96.258 Y112.702 E0.00166
G1 X94.043 Y114.916 E0.07997
G1 X94.402 Y115.275 E0.01295
G1 X96.415 Y113.262 E0.07269
G1 X96.548 Y113.422 E0.00531
G1 X96.818 Y113.575 E0.00794
G1 X94.760 Y115.633 E0.07431
G1 X95.119 Y115.992 E0.01295
G1 X97.341 Y113.769 E0.08025
G1 X97.699 Y113.808 E0.00918
G1 X97.880 Y113.799 E0.00464
G1 X98.066 Y113.762 E0.00483
