; generated by Slic3r Prusa Edition 1.41.2+ on 2019-01-09 at 13:50:07

; 

; external perimeters extrusion width = 0.60mm
; perimeters extrusion width = 0.43mm
; infill extrusion width = 0.45mm
; solid infill extrusion width = 0.70mm
; top infill extrusion width = 0.43mm
; first layer extrusion width = 0.42mm

M201 X9000 Y9000 Z500 E10000 ; sets maximum accelerations, mm/sec^2
M203 X500 Y500 Z12 E120 ; sets maximum feedrates, mm/sec
M204 P2000 R1500 T2000 ; sets acceleration (P, T) and retract acceleration (R), mm/sec^2
M205 X10.00 Y10.00 Z0.20 E2.50 ; sets the jerk limits, mm/sec
M205 S0 T0 ; sets the minimum extruding and travel feed rate, mm/sec
M107
M115 U3.1.0 ; tell printer latest fw version
M83  ; extruder relative mode
M204 S2000 T1500 ; MK2 firmware only supports the old M204 format
M104 S215 ; set extruder temp
M140 S60 ; set bed temp
M190 S60 ; wait for bed temp
M109 S215 ; wait for extruder temp
G28 W ; home all without mesh bed level
G80 ; mesh bed leveling
G1 Y-3.0 F1000.0 ; go outside print area
G92 E0.0
G1 X60.0 E9.0  F1000.0 ; intro line
G1 X100.0 E12.5  F1000.0 ; intro line
G92 E0.0
M900 K30; Filament gcode
G21 ; set units to millimeters
G90 ; use absolute coordinates
M83 ; use relative distances for extrusion
;BEFORE_LAYER_CHANGE
G92 E0.0
;0.2


G1 E-0.80000 F2100.00000
G1 Z0.600 F10800.000
;AFTER_LAYER_CHANGE
;0.2
G1 X98.158 Y71.650
G1 Z0.200
G1 E0.80000 F2100.00000
M204 S1000
G1 F1200
G1 X98.448 Y71.059 E0.02066
G1 X98.790 Y70.674 E0.01612
G1 X99.211 Y70.380 E0.01612
G1 X99.690 Y70.192 E0.01612
G1 X100.203 Y70.121 E0.01623
G1 X149.876 Y70.124 E1.55747
G1 X150.636 Y70.305 E0.02451
G1 X151.145 Y70.618 E0.01873
G1 X151.550 Y71.057 E0.01873
G1 X151.821 Y71.586 E0.01862
G1 X151.939 Y72.171 E0.01873
G1 X151.944 Y137.702 E2.05467
G1 X151.842 Y138.350 E0.02055
G1 X151.552 Y138.941 E0.02066
G1 X151.208 Y139.328 E0.01623
G1 X150.779 Y139.625 E0.01635
G1 X150.296 Y139.812 E0.01623
G1 X149.779 Y139.880 E0.01635
G1 X100.227 Y139.880 E1.55369
G1 X99.579 Y139.776 E0.02055
G1 X98.995 Y139.488 E0.02044
G1 X98.606 Y139.141 E0.01635
G1 X98.309 Y138.712 E0.01635
G1 X98.123 Y138.225 E0.01635
G1 X98.056 Y137.708 E0.01635
G1 X98.056 Y72.298 E2.05089
G1 X98.149 Y71.710 E0.01867
; PURGING FINISHED
G1 F8640
G1 X98.448 Y71.059 E-0.16545
G1 X98.790 Y70.674 E-0.11872
G1 X99.211 Y70.380 E-0.11872
G1 X99.690 Y70.192 E-0.11872
G1 X100.203 Y70.121 E-0.11955
G1 X100.717 Y70.121 E-0.11885
G1 E-0.04000 F2100.00000
G1 Z0.800 F10800.000
G1 X128.587 Y92.041
G1 Z0.200
G1 E0.80000 F2100.00000
G1 F1200
G1 X129.117 Y93.037 E0.03538
G1 X130.435 Y94.643 E0.06511
G1 X132.039 Y95.960 E0.06509
G1 X133.928 Y96.956 E0.06695
G1 X133.928 Y101.413 E0.13975
G1 X128.587 Y101.413 E0.16746
G1 X128.587 Y92.101 E0.29196
G1 F8640
G1 X129.117 Y93.037 E-0.24844
G1 X130.435 Y94.643 E-0.47948
G1 X130.542 Y94.731 E-0.03208
G1 E-0.04000 F2100.00000
G1 Z0.800 F10800.000
G1 X128.210 Y90.142
G1 Z0.200
G1 E0.80000 F2100.00000
G1 F1200
G1 X128.484 Y91.044 E0.02956
G1 X129.433 Y92.827 E0.06333
G1 X130.703 Y94.375 E0.06277
G1 X132.250 Y95.645 E0.06276
G1 X134.015 Y96.588 E0.06276
G1 X134.305 Y96.676 E0.00949
G1 X134.305 Y101.790 E0.16035
G1 X128.210 Y101.790 E0.19110
G1 X128.210 Y90.202 E0.36333
G1 X127.816 Y90.076 F10800.000
G1 F8640
G1 X128.484 Y91.044 E-0.20447
G1 X129.433 Y92.827 E-0.46636
G1 X129.678 Y93.126 E-0.08917
G1 E-0.04000 F2100.00000
G1 Z0.800 F10800.000
G1 X132.113 Y96.126
G1 Z0.200
G1 E0.80000 F2100.00000
G1 F1200
G1 X133.815 Y97.828 E0.07875
G1 X133.815 Y98.385 F10800.000
G1 F1200
G1 X128.870 Y93.440 E0.22877
G1 X128.870 Y93.996 E0.01820
G1 X133.645 Y98.771 E0.22092
G1 X133.645 Y99.328 E0.01820
G1 X128.870 Y94.553 E0.22092
G1 X128.870 Y95.109 E0.01820
G1 X133.645 Y99.884 E0.22092
G1 X133.645 Y100.441 E0.01820
G1 X128.870 Y95.665 E0.22092
G1 X128.870 Y96.222 E0.01820
G1 X133.645 Y100.997 E0.22092
G1 X133.645 Y101.130 E0.00436
G1 X133.222 Y101.130 E0.01384
G1 X128.870 Y96.778 E0.20134
G1 X128.870 Y97.334 E0.01820
G1 X132.666 Y101.130 E0.17560
G1 X132.109 Y101.130 E0.01820
G1 X128.870 Y97.891 E0.14986
G1 X128.870 Y98.447 E0.01820
G1 X131.553 Y101.130 E0.12412
G1 X130.996 Y101.130 E0.01820
G1 X128.870 Y99.004 E0.09838
G1 X128.870 Y99.560 E0.01820
G1 X130.440 Y101.130 E0.07264
G1 X129.884 Y101.130 E0.01820
G1 X128.870 Y100.116 E0.04690
G1 X128.870 Y100.673 E0.01820
G1 X129.497 Y101.300 E0.02901
G1 F8640
G1 X128.870 Y100.673 E-0.20478
G1 X128.870 Y100.116 E-0.12847
G1 X129.884 Y101.130 E-0.33106
G1 X130.298 Y101.130 E-0.09569
G1 E-0.04000 F2100.00000
G1 Z0.800 F10800.000
G1 X128.587 Y82.263
G1 Z0.200
G1 E0.80000 F2100.00000
G1 F1200
G1 X128.587 Y72.896 E0.29372
G1 X133.928 Y72.896 E0.16746
G1 X133.928 Y77.353 E0.13975
G1 X132.039 Y78.349 E0.06695
G1 X130.435 Y79.666 E0.06509
G1 X129.118 Y81.271 E0.06509
G1 X128.615 Y82.211 E0.03341
G1 F8640
G1 X128.605 Y78.919 E-0.76000
G1 E-0.04000 F2100.00000
G1 Z0.800 F10800.000
G1 X128.210 Y84.167
G1 Z0.200
G1 E0.80000 F2100.00000
G1 F1200
G1 X128.210 Y72.519 E0.36521
G1 X134.305 Y72.519 E0.19110
G1 X134.305 Y77.633 E0.16035
G1 X134.015 Y77.721 E0.00949
G1 X132.250 Y78.664 E0.06276
G1 X130.703 Y79.934 E0.06276
G1 X129.433 Y81.481 E0.06276
G1 X128.489 Y83.247 E0.06276
G1 X128.227 Y84.109 E0.02826
G1 X128.267 Y83.771 F10800.000
G1 F8640
G1 X128.222 Y80.818 E-0.76000
G1 E-0.04000 F2100.00000
G1 Z0.800 F10800.000
G1 X128.700 Y80.722
G1 Z0.200
G1 E0.80000 F2100.00000
G1 F1200
G1 X128.976 Y80.998 E0.01256
G1 X129.223 Y80.697 E0.01252
G1 X128.870 Y80.344 E0.01607
G1 X128.870 Y79.796 E0.01762
G1 X129.470 Y80.396 E0.02730
G1 X129.716 Y80.095 E0.01252
G1 X128.870 Y79.249 E0.03854
G1 X128.870 Y78.701 E0.01762
G1 X129.963 Y79.795 E0.04977
G1 X130.210 Y79.494 E0.01252
G1 X128.870 Y78.154 E0.06100
G1 X128.870 Y77.607 E0.01762
G1 X130.505 Y79.242 E0.07445
G1 X130.806 Y78.995 E0.01252
G1 X128.870 Y77.059 E0.08814
G1 X128.870 Y76.512 E0.01762
G1 X131.107 Y78.749 E0.10183
G1 X131.407 Y78.502 E0.01252
G1 X128.870 Y75.964 E0.11551
G1 X128.870 Y75.417 E0.01762
G1 X131.708 Y78.255 E0.12920
G1 X131.882 Y78.112 E0.00724
G1 X132.033 Y78.033 E0.00550
G1 X128.870 Y74.869 E0.14399
G1 X128.870 Y74.322 E0.01762
G1 X132.392 Y77.844 E0.16031
G1 X132.750 Y77.655 E0.01304
G1 X128.870 Y73.775 E0.17662
G1 X128.870 Y73.227 E0.01762
G1 X133.108 Y77.466 E0.19294
G1 X133.467 Y77.277 E0.01304
G1 X129.369 Y73.179 E0.18654
G1 X129.916 Y73.179 E0.01762
G1 X133.645 Y76.907 E0.16974
G1 X133.645 Y76.360 E0.01762
G1 X130.464 Y73.179 E0.14482
G1 X131.011 Y73.179 E0.01762
G1 X133.645 Y75.813 E0.11990
G1 X133.645 Y75.265 E0.01762
G1 X131.559 Y73.179 E0.09498
G1 X132.106 Y73.179 E0.01762
G1 X133.645 Y74.718 E0.07006
G1 X133.645 Y74.170 E0.01762
G1 X132.654 Y73.179 E0.04514
G1 X133.201 Y73.179 E0.01762
G1 X133.815 Y73.792 E0.02794
G1 F8640
G1 X133.201 Y73.179 E-0.20045
G1 X132.654 Y73.179 E-0.12641
G1 X133.645 Y74.170 E-0.32380
G1 X133.645 Y74.644 E-0.10934
G1 E-0.04000 F2100.00000
G1 Z0.800 F10800.000
G1 X148.030 Y90.140
G1 Z0.200
G1 E0.80000 F2100.00000
G1 F1200
G1 X148.247 Y92.763 E0.08254
G1 X149.107 Y101.413 E0.27254
G1 X141.968 Y101.413 E0.22385
G1 X141.968 Y96.941 E0.14023
G1 X143.806 Y95.960 E0.06534
G1 X145.411 Y94.643 E0.06509
G1 X146.728 Y93.038 E0.06509
G1 X147.707 Y91.207 E0.06509
G1 X148.013 Y90.197 E0.03308
G1 F8640
G1 X148.247 Y92.763 E-0.59499
G1 X148.318 Y93.474 E-0.16501
G1 E-0.04000 F2100.00000
G1 Z0.800 F10800.000
G1 X148.131 Y87.183
G1 Z0.200
G1 E0.80000 F2100.00000
G1 F1200
G1 X148.325 Y89.124 E0.06118
G1 X148.623 Y92.729 E0.11341
G1 X149.523 Y101.790 E0.28550
G1 X141.590 Y101.790 E0.24872
G1 X141.590 Y96.661 E0.16082
G1 X141.830 Y96.588 E0.00786
G1 X143.596 Y95.645 E0.06276
G1 X145.143 Y94.375 E0.06276
G1 X146.413 Y92.827 E0.06276
G1 X147.357 Y91.062 E0.06276
G1 X147.932 Y89.164 E0.06218
G1 X148.125 Y87.242 E0.06056
G1 X148.131 Y87.583 F10800.000
G1 F8640
G1 X148.325 Y89.124 E-0.43698
G1 X148.440 Y90.519 E-0.32302
G1 E-0.04000 F2100.00000
G1 Z0.800 F10800.000
G1 X148.030 Y84.169
G1 Z0.200
G1 E0.80000 F2100.00000
G1 F1200
G1 X147.707 Y83.102 E0.03497
G1 X146.728 Y81.271 E0.06509
G1 X145.411 Y79.666 E0.06509
G1 X143.806 Y78.349 E0.06509
G1 X141.968 Y77.368 E0.06534
G1 X141.968 Y72.896 E0.14023
G1 X149.107 Y72.896 E0.22385
G1 X148.247 Y81.545 E0.27254
G1 X148.035 Y84.109 E0.08066
G1 F8640
G1 X147.707 Y83.102 E-0.24467
G1 X146.728 Y81.271 E-0.47935
G1 X146.629 Y81.150 E-0.03598
G1 E-0.04000 F2100.00000
G1 Z0.800 F10800.000
G1 X148.131 Y87.126
G1 Z0.200
G1 E0.80000 F2100.00000
G1 F1200
G1 X147.938 Y85.162 E0.06187
G1 X147.357 Y83.247 E0.06276
G1 X146.413 Y81.481 E0.06276
G1 X145.143 Y79.934 E0.06276
G1 X143.596 Y78.664 E0.06276
G1 X141.830 Y77.721 E0.06276
G1 X141.590 Y77.648 E0.00786
G1 X141.590 Y72.519 E0.16082
G1 X149.523 Y72.519 E0.24872
G1 X148.623 Y81.580 E0.28550
G1 X148.325 Y85.184 E0.11341
G1 X148.137 Y87.066 E0.05930
G1 X148.117 Y86.726 F10800.000
G1 F8640
G1 X147.938 Y85.162 E-0.44203
G1 X147.538 Y83.845 E-0.31797
G1 E-0.04000 F2100.00000
G1 Z0.800 F10800.000
G1 X148.125 Y85.061
G1 Z0.200
G1 E0.80000 F2100.00000
G1 F1200
G1 X148.110 Y84.920 E0.00108
G1 X148.095 Y84.779 E0.00157
G1 X148.080 Y84.638 E0.00206
G1 X148.065 Y84.497 E0.00255
G1 X148.050 Y84.356 E0.00304
G1 F8640
G1 X148.065 Y84.497 E-0.03270
G1 E-0.76730 F2100.00000
G1 Z0.800 F10800.000
G1 X147.912 Y83.060
G1 Z0.200
G1 E0.80000 F2100.00000
G1 F1200
G1 X147.849 Y82.645 E0.00204
G1 F8640
G1 X147.912 Y83.060 E-0.09703
G1 E-0.70297 F2100.00000
G1 Z0.800 F10800.000
G1 X146.892 Y81.337
G1 Z0.200
G1 E0.80000 F2100.00000
G1 F1200
G1 X147.898 Y82.343 E0.04487
G1 X147.939 Y81.848 E0.01567
G1 X142.250 Y76.159 E0.25367
G1 X142.250 Y75.623 E0.01691
G1 X147.982 Y81.355 E0.25561
G1 X148.031 Y80.867 E0.01546
G1 X142.250 Y75.087 E0.25777
G1 X142.250 Y74.551 E0.01691
G1 X148.079 Y80.379 E0.25993
G1 X148.128 Y79.891 E0.01546
G1 X142.250 Y74.014 E0.26209
G1 X142.250 Y73.478 E0.01691
G1 X148.176 Y79.404 E0.26425
G1 X148.224 Y78.916 E0.01546
G1 X142.487 Y73.179 E0.25584
G1 X143.024 Y73.179 E0.01691
G1 X148.273 Y78.428 E0.23409
G1 X148.321 Y77.940 E0.01546
G1 X143.560 Y73.179 E0.21234
G1 X144.096 Y73.179 E0.01691
G1 X148.370 Y77.452 E0.19058
G1 X148.418 Y76.964 E0.01546
G1 X144.633 Y73.179 E0.16883
G1 X145.169 Y73.179 E0.01691
G1 X148.467 Y76.477 E0.14707
G1 X148.515 Y75.989 E0.01546
G1 X145.705 Y73.179 E0.12532
G1 X146.241 Y73.179 E0.01691
G1 X148.564 Y75.501 E0.10356
G1 X148.612 Y75.013 E0.01546
G1 X146.778 Y73.179 E0.08181
G1 X147.314 Y73.179 E0.01691
G1 X148.661 Y74.525 E0.06005
G1 X148.709 Y74.037 E0.01546
G1 X147.850 Y73.179 E0.03830
G1 X148.387 Y73.179 E0.01691
G1 X148.913 Y73.705 E0.02346
G1 F8640
G1 X148.387 Y73.179 E-0.17178
G1 X147.850 Y73.179 E-0.12384
G1 X148.709 Y74.037 E-0.28043
G1 X148.661 Y74.525 E-0.11320
G1 X148.444 Y74.309 E-0.07076
G1 E-0.04000 F2100.00000
G1 Z0.800 F10800.000
G1 X143.740 Y78.186
G1 Z0.200
G1 E0.80000 F2100.00000
G1 F1200
G1 X142.081 Y76.526 E0.07402
G1 F8640
G1 X143.740 Y78.186 E-0.54200
G1 E-0.25800 F2100.00000
G1 Z0.800 F10800.000
G1 X148.125 Y89.248
G1 Z0.200
G1 E0.80000 F2100.00000
G1 F1200
G1 X148.110 Y89.389 E0.00108
G1 X148.095 Y89.530 E0.00157
G1 X148.080 Y89.671 E0.00206
G1 X148.065 Y89.811 E0.00255
G1 X148.050 Y89.952 E0.00304
G1 F8640
G1 X148.065 Y89.811 E-0.03270
G1 E-0.76730 F2100.00000
G1 Z0.800 F10800.000
G1 X147.912 Y91.249
G1 Z0.200
G1 E0.80000 F2100.00000
G1 F1200
G1 X147.849 Y91.664 E0.00204
G1 F8640
G1 X147.912 Y91.249 E-0.09703
G1 E-0.70297 F2100.00000
G1 Z0.800 F10800.000
G1 X148.125 Y92.650
G1 Z0.200
G1 E0.80000 F2100.00000
G1 F1200
G1 X147.558 Y92.084 E0.02522
G1 X147.372 Y92.433 E0.01247
G1 X147.992 Y93.053 E0.02762
G1 X148.051 Y93.648 E0.01883
G1 X147.185 Y92.782 E0.03857
G1 X146.999 Y93.131 E0.01247
G1 X148.110 Y94.243 E0.04951
G1 X148.169 Y94.838 E0.01883
G1 X146.767 Y93.436 E0.06245
G1 X146.526 Y93.730 E0.01199
G1 X148.228 Y95.432 E0.07584
G1 X148.288 Y96.027 E0.01883
G1 X146.284 Y94.024 E0.08922
G1 X146.043 Y94.318 E0.01199
G1 X148.347 Y96.622 E0.10261
G1 X148.406 Y97.217 E0.01883
G1 X145.801 Y94.613 E0.11600
G1 X145.612 Y94.844 E0.00941
G1 X145.549 Y94.895 E0.00258
G1 X148.465 Y97.812 E0.12989
G1 X148.524 Y98.406 E0.01883
G1 X145.254 Y95.137 E0.14563
G1 X144.960 Y95.378 E0.01199
G1 X148.583 Y99.001 E0.16137
G1 X148.642 Y99.596 E0.01883
G1 X144.666 Y95.620 E0.17710
G1 X144.372 Y95.861 E0.01199
G1 X148.701 Y100.191 E0.19284
G1 X148.760 Y100.785 E0.01883
G1 X144.078 Y96.103 E0.20858
G1 X143.964 Y96.196 E0.00463
G1 X143.750 Y96.310 E0.00766
G1 X148.569 Y101.130 E0.21468
G1 X148.034 Y101.130 E0.01687
G1 X143.400 Y96.497 E0.20638
G1 X143.051 Y96.683 E0.01247
G1 X147.498 Y101.130 E0.19808
G1 X146.962 Y101.130 E0.01687
G1 X142.702 Y96.869 E0.18978
G1 X142.352 Y97.056 E0.01247
G1 X146.427 Y101.130 E0.18148
G1 X145.891 Y101.130 E0.01687
G1 X142.250 Y97.490 E0.16216
G1 X142.250 Y98.025 E0.01687
G1 X145.355 Y101.130 E0.13830
G1 X144.819 Y101.130 E0.01687
G1 X142.250 Y98.561 E0.11444
G1 X142.250 Y99.097 E0.01687
G1 X144.284 Y101.130 E0.09058
G1 X143.748 Y101.130 E0.01687
G1 X142.250 Y99.632 E0.06671
G1 X142.250 Y100.168 E0.01687
G1 X143.212 Y101.130 E0.04285
G1 X142.677 Y101.130 E0.01687
G1 X142.081 Y100.534 E0.02655
G1 F8640
G1 X142.677 Y101.130 E-0.19465
G1 X143.212 Y101.130 E-0.12369
G1 X142.250 Y100.168 E-0.31417
G1 X142.250 Y99.632 E-0.12369
G1 X142.262 Y99.644 E-0.00379
G1 E-0.04000 F2100.00000
G1 Z0.800 F10800.000
G1 X106.173 Y101.413
G1 Z0.200
G1 E0.80000 F2100.00000
G1 F1200
G1 X100.832 Y101.413 E0.16746
G1 X100.832 Y92.041 E0.29385
G1 X101.362 Y93.037 E0.03538
G1 X102.680 Y94.643 E0.06511
G1 X104.284 Y95.960 E0.06509
G1 X106.173 Y96.956 E0.06695
G1 X106.173 Y101.353 E0.13787
G1 X106.550 Y101.790 F10800.000
G1 F1200
G1 X100.455 Y101.790 E0.19110
G1 X100.455 Y90.142 E0.36521
G1 X100.729 Y91.044 E0.02956
G1 X101.677 Y92.827 E0.06333
G1 X102.947 Y94.375 E0.06277
G1 X104.495 Y95.645 E0.06276
G1 X106.260 Y96.588 E0.06276
G1 X106.550 Y96.676 E0.00949
G1 X106.550 Y101.730 E0.15846
G1 X106.200 Y101.596 F10800.000
G1 F8640
G1 X103.259 Y101.762 E-0.76000
G1 E-0.04000 F2100.00000
G1 Z0.800 F10800.000
G1 X106.060 Y98.385
G1 Z0.200
G1 E0.80000 F2100.00000
G1 F1200
G1 X101.115 Y93.440 E0.22877
G1 X101.115 Y93.996 E0.01820
G1 X105.890 Y98.771 E0.22092
G1 X105.890 Y99.328 E0.01820
G1 X101.115 Y94.553 E0.22092
G1 X101.115 Y95.109 E0.01820
G1 X105.890 Y99.884 E0.22092
G1 X105.890 Y100.441 E0.01820
G1 X101.115 Y95.665 E0.22092
G1 X101.115 Y96.222 E0.01820
G1 X105.890 Y100.997 E0.22092
G1 X105.890 Y101.130 E0.00436
G1 X105.467 Y101.130 E0.01384
G1 X101.115 Y96.778 E0.20134
G1 X101.115 Y97.334 E0.01820
G1 X104.910 Y101.130 E0.17560
G1 X104.354 Y101.130 E0.01820
G1 X101.115 Y97.891 E0.14986
G1 X101.115 Y98.447 E0.01820
G1 X103.798 Y101.130 E0.12412
G1 X103.241 Y101.130 E0.01820
G1 X101.115 Y99.004 E0.09838
G1 X101.115 Y99.560 E0.01820
G1 X102.685 Y101.130 E0.07264
G1 X102.129 Y101.130 E0.01820
G1 X101.115 Y100.116 E0.04690
G1 X101.115 Y100.673 E0.01820
G1 X101.742 Y101.300 E0.02901
G1 F8640
G1 X101.115 Y100.673 E-0.20478
G1 X101.115 Y100.116 E-0.12847
G1 X102.129 Y101.130 E-0.33106
G1 X102.543 Y101.130 E-0.09569
G1 E-0.04000 F2100.00000
G1 Z0.800 F10800.000
G1 X106.060 Y97.828
G1 Z0.200
G1 E0.80000 F2100.00000
G1 F1200
G1 X104.357 Y96.126 E0.07875
G1 F8640
G1 X106.060 Y97.828 E-0.55587
G1 E-0.24413 F2100.00000
G1 Z0.800 F10800.000
G1 X100.832 Y82.263
G1 Z0.200
G1 E0.80000 F2100.00000
G1 F1200
G1 X100.832 Y72.896 E0.29372
G1 X106.173 Y72.896 E0.16746
G1 X106.173 Y77.353 E0.13975
G1 X104.284 Y78.349 E0.06695
G1 X102.680 Y79.666 E0.06509
G1 X101.363 Y81.271 E0.06509
G1 X100.860 Y82.211 E0.03341
G1 F8640
G1 X100.850 Y78.919 E-0.76000
G1 E-0.04000 F2100.00000
G1 Z0.800 F10800.000
G1 X100.455 Y84.167
G1 Z0.200
G1 E0.80000 F2100.00000
G1 F1200
G1 X100.455 Y72.519 E0.36521
G1 X106.550 Y72.519 E0.19110
G1 X106.550 Y77.633 E0.16035
G1 X106.260 Y77.721 E0.00949
G1 X104.495 Y78.664 E0.06276
G1 X102.947 Y79.934 E0.06276
G1 X101.678 Y81.481 E0.06276
G1 X100.734 Y83.247 E0.06276
G1 X100.472 Y84.109 E0.02826
G1 X100.512 Y83.771 F10800.000
G1 F8640
G1 X100.467 Y80.818 E-0.76000
G1 E-0.04000 F2100.00000
G1 Z0.800 F10800.000
G1 X100.945 Y80.722
G1 Z0.200
