; generated by PrusaSlicer 2.3.1+win64 on 2021-10-06 at 22:05:07 UTC

; 

; external perimeters extrusion width = 0.45mm
; perimeters extrusion width = 0.45mm
; infill extrusion width = 0.45mm
; solid infill extrusion width = 0.45mm
; top infill extrusion width = 0.40mm
; support material extrusion width = 0.35mm
; first layer extrusion width = 0.42mm

M73 P0 R95
M201 X9000 Y9000 Z500 E10000 ; sets maximum accelerations, mm/sec^2
M203 X500 Y500 Z12 E120 ; sets maximum feedrates, mm/sec
M204 P2000 R1500 T2000 ; sets acceleration (P, T) and retract acceleration (R), mm/sec^2
M205 X10.00 Y10.00 Z0.20 E2.50 ; sets the jerk limits, mm/sec
M205 S0 T0 ; sets the minimum extruding and travel feed rate, mm/sec
M107
;TYPE:Custom
M862.3 P "MK2S" ; printer model check
M862.1 P0.4 ; nozzle diameter check
M115 U3.2.3 ; tell printer latest fw version
G90 ; use absolute coordinates
M83 ; extruder relative mode
M204 S2000 T1500 ; MK2 firmware only supports the old M204 format
M104 S215 ; set extruder temp
M140 S60 ; set bed temp
M190 S60 ; wait for bed temp
M109 S215 ; wait for extruder temp
G28 W ; home all without mesh bed level
G80 ; mesh bed leveling
G1 Y-3.0 F1000.0 ; go outside print area
G92 E0.0
G1 X60.0 E9.0  F1000.0 ; intro line
G1 X100.0 E12.5 F1000.0 ; intro line
G92 E0.0
G21 ; set units to millimeters
G90 ; use absolute coordinates
M83 ; use relative distances for extrusion
M900 K0.06 ; Filament gcode LA 1.5
M900 K30 ; Filament gcode LA 1.0
;LAYER_CHANGE
;Z:0.2
;HEIGHT:0.2
;BEFORE_LAYER_CHANGE
G92 E0.0
;0.2


G1 E-0.80000 F2100.000
G1 Z0.600 F10800.000
;AFTER_LAYER_CHANGE
;0.2
G1 X108.764 Y64.049
G1 Z0.200
G1 E0.80000 F2100.000
M204 S1000
;TYPE:Support material
;WIDTH:0.42
G1 F1200.000
G1 X102.030 Y70.783 E0.29858
G1 X103.097 Y70.783 E0.03344
G1 X109.177 Y64.702 E0.26961
G1 X109.710 Y65.236 E0.02365
G1 X104.163 Y70.783 E0.24596
G1 X105.230 Y70.783 E0.03344
G1 X111.875 Y64.138 E0.29466
G1 X112.408 Y64.671 E0.02365
G1 X106.137 Y70.942 E0.27807
G1 X106.286 Y71.091 E0.00660
G1 X106.286 Y71.860 E0.02411
G1 X112.941 Y65.204 E0.29512
G1 X113.475 Y65.737 E0.02365
G1 X106.286 Y72.926 E0.31876
G1 X106.286 Y73.993 E0.03344
G1 X114.008 Y66.271 E0.34241
G1 X114.541 Y66.804 E0.02365
G1 X106.286 Y75.059 E0.36606
G1 X106.286 Y76.126 E0.03344
G1 X115.075 Y67.337 E0.38970
G1 X115.608 Y67.870 E0.02365
G1 X112.696 Y70.783 E0.12913
G1 X112.407 Y70.783 E0.00903
G1 X112.099 Y71.091 E0.01366
G1 X112.099 Y71.379 E0.00903
G1 X106.286 Y77.192 E0.25778
G1 X106.286 Y78.259 E0.03344
G1 X112.099 Y72.446 E0.25778
G1 X112.099 Y73.512 E0.03344
G1 X106.286 Y79.325 E0.25778
G1 X106.286 Y80.392 E0.03344
G1 X112.099 Y74.579 E0.25778
G1 X112.099 Y75.645 E0.03344
G1 X106.286 Y81.459 E0.25778
G1 X106.286 Y82.525 E0.03344
G1 X112.099 Y76.712 E0.25778
G1 X112.099 Y77.778 E0.03344
G1 X106.286 Y83.592 E0.25778
G1 X106.286 Y84.658 E0.03344
G1 X112.099 Y78.845 E0.25778
G1 X112.099 Y79.911 E0.03344
G1 X106.286 Y85.725 E0.25778
G1 X106.286 Y86.791 E0.03344
G1 X112.099 Y80.978 E0.25778
G1 X112.099 Y82.044 E0.03344
G1 X106.286 Y87.858 E0.25778
G1 X106.286 Y88.924 E0.03344
G1 X112.099 Y83.111 E0.25778
G1 X112.099 Y84.177 E0.03344
G1 X106.286 Y89.991 E0.25778
G1 X106.286 Y91.057 E0.03344
G1 X112.099 Y85.244 E0.25778
G1 X112.099 Y86.311 E0.03344
G1 X106.286 Y92.124 E0.25778
G1 X106.286 Y93.191 E0.03344
G1 X112.099 Y87.377 E0.25778
G1 X112.099 Y88.444 E0.03344
G1 X106.286 Y94.257 E0.25778
G1 X106.286 Y95.324 E0.03344
G1 X112.099 Y89.510 E0.25778
G1 X112.099 Y90.577 E0.03344
G1 X106.286 Y96.390 E0.25778
G1 X106.286 Y97.457 E0.03344
G1 X112.099 Y91.643 E0.25778
G1 X112.099 Y92.710 E0.03344
G1 X106.286 Y98.523 E0.25778
G1 X106.286 Y99.590 E0.03344
G1 X112.099 Y93.776 E0.25778
G1 X112.099 Y94.843 E0.03344
G1 X106.116 Y100.826 E0.26530
G1 X101.851 Y101.892 F10800.000
G1 F1200.000
G1 X102.217 Y101.526 E0.01622
G1 X103.283 Y101.526 E0.03344
G1 X102.504 Y102.305 E0.03455
G1 X103.037 Y102.838 E0.02365
G1 X104.350 Y101.526 E0.05819
G1 X105.416 Y101.526 E0.03344
G1 X103.571 Y103.372 E0.08184
G1 X104.104 Y103.905 E0.02365
G1 X112.099 Y95.909 E0.35453
G1 X112.099 Y96.976 E0.03344
G1 X104.637 Y104.438 E0.33089
G1 X105.170 Y104.972 E0.02365
G1 X112.099 Y98.043 E0.30724
G1 X112.099 Y99.109 E0.03344
G1 X105.704 Y105.505 E0.28360
G1 X106.237 Y106.038 E0.02365
G1 X112.099 Y100.176 E0.25995
G1 X112.111 Y101.230 E0.03306
G1 X106.770 Y106.571 E0.23684
G1 X107.303 Y107.105 E0.02365
G1 X112.882 Y101.526 E0.24736
G1 X113.949 Y101.526 E0.03344
G1 X107.837 Y107.638 E0.27101
G1 X108.370 Y108.171 E0.02365
G1 X115.015 Y101.526 E0.29465
G1 X116.082 Y101.526 E0.03344
G1 X110.535 Y107.073 E0.24596
G1 X111.068 Y107.606 E0.02365
G1 X116.892 Y101.782 E0.25826
G1 X117.426 Y102.315 E0.02365
G1 X111.481 Y108.260 E0.26358
G1 E-0.80000 F2100.000
G1 Z0.800 F10800.000
G1 X115.726 Y70.952
G1 Z0.200
G1 E0.80000 F2100.000
G1 F1200.000
G1 X117.208 Y69.470 E0.06572
G1 X116.674 Y68.937 E0.02365
G1 X114.829 Y70.783 E0.08184
G1 X113.762 Y70.783 E0.03344
G1 X116.261 Y68.284 E0.11081
G1 E-0.80000 F2100.000
G1 Z0.800 F10800.000
G1 X113.212 Y100.413
G1 Z0.200
G1 E0.80000 F2100.000
;TYPE:Perimeter
G1 F1200.000
G1 X113.212 Y71.896 E0.89413
G1 X120.352 Y71.896 E0.22385
G1 X119.492 Y80.545 E0.27254
G1 X119.194 Y84.150 E0.11341
G1 X118.994 Y86.154 E0.06315
G1 X119.194 Y88.159 E0.06315
G1 X119.492 Y91.763 E0.11341
G1 X120.352 Y100.413 E0.27254
G1 X113.272 Y100.413 E0.22196
G1 X112.835 Y100.790 F10800.000
;TYPE:External perimeter
G1 F1200.000
G1 X112.835 Y71.519 E0.91778
G1 X120.768 Y71.519 E0.24872
G1 X119.868 Y80.580 E0.28550
G1 X119.570 Y84.184 E0.11341
G1 X119.373 Y86.154 E0.06207
G1 X119.570 Y88.124 E0.06207
G1 X119.868 Y91.729 E0.11341
G1 X120.768 Y100.790 E0.28550
G1 X112.895 Y100.790 E0.24684
G1 X112.923 Y100.400 F10800.000
G1 E-0.80000 F2100.000
G1 Z0.800 F10800.000
G1 X120.158 Y72.702
G1 Z0.200
G1 E0.80000 F2100.000
;TYPE:Solid infill
;WIDTH:0.420788
G1 F1200.000
G1 X119.635 Y72.179 E0.02326
G1 X119.100 Y72.179 E0.01679
G1 X119.955 Y73.033 E0.03797
G1 X119.906 Y73.519 E0.01535
G1 X118.566 Y72.179 E0.05956
G1 X118.031 Y72.179 E0.01679
G1 X119.858 Y74.005 E0.08116
G1 X119.810 Y74.491 E0.01535
G1 X117.497 Y72.179 E0.10276
G1 X116.963 Y72.179 E0.01679
G1 X119.761 Y74.977 E0.12436
G1 X119.713 Y75.463 E0.01535
G1 X116.428 Y72.179 E0.14596
G1 X115.894 Y72.179 E0.01679
G1 X119.665 Y75.950 E0.16756
G1 X119.616 Y76.436 E0.01535
G1 X115.359 Y72.179 E0.18916
G1 X114.825 Y72.179 E0.01679
G1 X119.568 Y76.922 E0.21076
G1 X119.520 Y77.408 E0.01535
G1 X114.291 Y72.179 E0.23236
G1 X113.756 Y72.179 E0.01679
G1 X119.472 Y77.894 E0.25396
G1 X119.423 Y78.380 E0.01535
G1 X113.495 Y72.452 E0.26341
G1 X113.495 Y72.986 E0.01679
G1 X119.375 Y78.866 E0.26126
G1 X119.327 Y79.352 E0.01535
G1 X113.495 Y73.521 E0.25912
G1 X113.495 Y74.055 E0.01679
G1 X119.278 Y79.838 E0.25697
G1 X119.230 Y80.324 E0.01535
G1 X113.495 Y74.590 E0.25483
G1 X113.495 Y75.124 E0.01679
G1 X119.186 Y80.815 E0.25288
G1 X119.145 Y81.308 E0.01556
G1 X113.495 Y75.658 E0.25106
G1 X113.495 Y76.193 E0.01679
G1 X119.105 Y81.802 E0.24925
G1 X119.064 Y82.296 E0.01556
G1 X113.495 Y76.727 E0.24743
G1 X113.495 Y77.261 E0.01679
G1 X119.023 Y82.789 E0.24562
G1 X118.982 Y83.283 E0.01556
G1 X113.495 Y77.796 E0.24380
G1 X113.495 Y78.330 E0.01679
G1 X118.941 Y83.776 E0.24199
G1 X118.898 Y84.268 E0.01550
G1 X113.495 Y78.865 E0.24008
G1 X113.495 Y79.399 E0.01679
G1 X118.850 Y84.753 E0.23792
G1 X118.801 Y85.239 E0.01534
G1 X113.495 Y79.933 E0.23577
G1 X113.495 Y80.468 E0.01679
G1 X118.753 Y85.725 E0.23361
G1 X118.717 Y86.224 E0.01570
G1 X113.495 Y81.002 E0.23202
G1 X113.495 Y81.537 E0.01679
G1 X118.776 Y86.817 E0.23465
G1 X118.835 Y87.411 E0.01874
G1 X113.495 Y82.071 E0.23728
G1 X113.495 Y82.605 E0.01679
G1 X118.895 Y88.005 E0.23991
M73 P0 R94
G1 X118.946 Y88.590 E0.01848
G1 X113.495 Y83.140 E0.24220
G1 X113.495 Y83.674 E0.01679
G1 X118.994 Y89.173 E0.24434
G1 X119.042 Y89.756 E0.01837
G1 X113.495 Y84.208 E0.24649
G1 X113.495 Y84.743 E0.01679
G1 X119.091 Y90.338 E0.24863
G1 X119.139 Y90.921 E0.01837
G1 X113.495 Y85.277 E0.25077
G1 X113.495 Y85.812 E0.01679
G1 X119.187 Y91.503 E0.25291
G1 X119.241 Y92.092 E0.01855
G1 X113.495 Y86.346 E0.25530
G1 X113.495 Y86.880 E0.01679
G1 X119.300 Y92.685 E0.25792
G1 X119.359 Y93.278 E0.01873
G1 X113.495 Y87.415 E0.26054
G1 X113.495 Y87.949 E0.01679
G1 X119.418 Y93.872 E0.26316
G1 X119.477 Y94.465 E0.01873
G1 X113.495 Y88.484 E0.26578
G1 X113.495 Y89.018 E0.01679
G1 X119.536 Y95.058 E0.26840
G1 X119.594 Y95.652 E0.01873
G1 X113.495 Y89.552 E0.27101
G1 X113.495 Y90.087 E0.01679
G1 X119.653 Y96.245 E0.27363
M73 P1 R94
G1 X119.712 Y96.838 E0.01873
G1 X113.495 Y90.621 E0.27625
G1 X113.495 Y91.155 E0.01679
G1 X119.771 Y97.432 E0.27887
G1 X119.830 Y98.025 E0.01873
G1 X113.495 Y91.690 E0.28149
G1 X113.495 Y92.224 E0.01679
G1 X119.889 Y98.618 E0.28411
G1 X119.948 Y99.212 E0.01873
G1 X113.495 Y92.759 E0.28673
G1 X113.495 Y93.293 E0.01679
G1 X120.007 Y99.805 E0.28935
G1 X120.039 Y100.130 E0.01027
G1 X119.798 Y100.130 E0.00759
G1 X113.495 Y93.827 E0.28006
G1 X113.495 Y94.362 E0.01679
G1 X119.264 Y100.130 E0.25631
G1 X118.729 Y100.130 E0.01679
G1 X113.495 Y94.896 E0.23257
G1 X113.495 Y95.431 E0.01679
G1 X118.195 Y100.130 E0.20882
G1 X117.660 Y100.130 E0.01679
G1 X113.495 Y95.965 E0.18508
G1 X113.495 Y96.499 E0.01679
G1 X117.126 Y100.130 E0.16133
G1 X116.592 Y100.130 E0.01679
G1 X113.495 Y97.034 E0.13759
G1 X113.495 Y97.568 E0.01679
G1 X116.057 Y100.130 E0.11384
G1 X115.523 Y100.130 E0.01679
G1 X113.495 Y98.103 E0.09010
G1 X113.495 Y98.637 E0.01679
G1 X114.988 Y100.130 E0.06635
G1 X114.454 Y100.130 E0.01679
G1 X113.495 Y99.171 E0.04261
G1 X113.495 Y99.706 E0.01679
G1 X114.089 Y100.300 E0.02640
G1 E-0.80000 F2100.000
G1 Z0.800 F10800.000
G1 X105.173 Y100.413
G1 Z0.200
G1 E0.80000 F2100.000
;TYPE:Perimeter
;WIDTH:0.42
G1 F1200.000
G1 X99.832 Y100.413 E0.16746
G1 X99.832 Y71.896 E0.89413
G1 X105.173 Y71.896 E0.16746
G1 X105.173 Y100.353 E0.89225
G1 X105.550 Y100.790 F10800.000
;TYPE:External perimeter
G1 F1200.000
G1 X99.455 Y100.790 E0.19110
G1 X99.455 Y71.519 E0.91778
G1 X105.550 Y71.519 E0.19110
G1 X105.550 Y100.730 E0.91590
G1 X105.191 Y100.614 F10800.000
G1 E-0.80000 F2100.000
G1 Z0.800 F10800.000
G1 X105.060 Y72.781
G1 Z0.200
G1 E0.80000 F2100.000
;TYPE:Solid infill
;WIDTH:0.424768
G1 F1200.000
G1 X104.457 Y72.179 E0.02706
G1 X103.917 Y72.179 E0.01715
G1 X104.890 Y73.152 E0.04369
G1 X104.890 Y73.692 E0.01715
G1 X103.377 Y72.179 E0.06794
G1 X102.837 Y72.179 E0.01715
G1 X104.890 Y74.232 E0.09219
G1 X104.890 Y74.772 E0.01715
G1 X102.297 Y72.179 E0.11644
G1 X101.757 Y72.179 E0.01715
G1 X104.890 Y75.312 E0.14068
G1 X104.890 Y75.852 E0.01715
G1 X101.217 Y72.179 E0.16493
G1 X100.677 Y72.179 E0.01715
G1 X104.890 Y76.392 E0.18918
G1 X104.890 Y76.932 E0.01715
G1 X100.137 Y72.179 E0.21343
G1 X100.115 Y72.179 E0.00070
G1 X100.115 Y72.697 E0.01644
G1 X104.890 Y77.472 E0.21442
G1 X104.890 Y78.012 E0.01715
G1 X100.115 Y73.237 E0.21442
G1 X100.115 Y73.777 E0.01715
G1 X104.890 Y78.552 E0.21442
G1 X104.890 Y79.092 E0.01715
G1 X100.115 Y74.317 E0.21442
G1 X100.115 Y74.857 E0.01715
G1 X104.890 Y79.632 E0.21442
G1 X104.890 Y80.172 E0.01715
G1 X100.115 Y75.397 E0.21442
G1 X100.115 Y75.937 E0.01715
G1 X104.890 Y80.712 E0.21442
G1 X104.890 Y81.252 E0.01715
G1 X100.115 Y76.477 E0.21442
G1 X100.115 Y77.017 E0.01715
G1 X104.890 Y81.792 E0.21442
G1 X104.890 Y82.332 E0.01715
G1 X100.115 Y77.557 E0.21442
G1 X100.115 Y78.097 E0.01715
G1 X104.890 Y82.872 E0.21442
G1 X104.890 Y83.412 E0.01715
G1 X100.115 Y78.637 E0.21442
G1 X100.115 Y79.177 E0.01715
G1 X104.890 Y83.952 E0.21442
G1 X104.890 Y84.492 E0.01715
G1 X100.115 Y79.717 E0.21442
G1 X100.115 Y80.257 E0.01715
G1 X104.890 Y85.032 E0.21442
G1 X104.890 Y85.572 E0.01715
G1 X100.115 Y80.797 E0.21442
G1 X100.115 Y81.337 E0.01715
G1 X104.890 Y86.112 E0.21442
G1 X104.890 Y86.652 E0.01715
G1 X100.115 Y81.877 E0.21442
G1 X100.115 Y82.417 E0.01715
G1 X104.890 Y87.192 E0.21442
G1 X104.890 Y87.732 E0.01715
G1 X100.115 Y82.957 E0.21442
G1 X100.115 Y83.497 E0.01715
G1 X104.890 Y88.272 E0.21442
G1 X104.890 Y88.812 E0.01715
G1 X100.115 Y84.037 E0.21442
G1 X100.115 Y84.577 E0.01715
G1 X104.890 Y89.352 E0.21442
G1 X104.890 Y89.892 E0.01715
G1 X100.115 Y85.117 E0.21442
G1 X100.115 Y85.657 E0.01715
G1 X104.890 Y90.432 E0.21442
G1 X104.890 Y90.972 E0.01715
G1 X100.115 Y86.197 E0.21442
G1 X100.115 Y86.737 E0.01715
G1 X104.890 Y91.512 E0.21442
G1 X104.890 Y92.052 E0.01715
G1 X100.115 Y87.277 E0.21442
G1 X100.115 Y87.817 E0.01715
G1 X104.890 Y92.592 E0.21442
G1 X104.890 Y93.132 E0.01715
G1 X100.115 Y88.357 E0.21442
G1 X100.115 Y88.897 E0.01715
G1 X104.890 Y93.672 E0.21442
G1 X104.890 Y94.212 E0.01715
G1 X100.115 Y89.437 E0.21442
G1 X100.115 Y89.977 E0.01715
G1 X104.890 Y94.752 E0.21442
G1 X104.890 Y95.292 E0.01715
G1 X100.115 Y90.517 E0.21442
G1 X100.115 Y91.057 E0.01715
G1 X104.890 Y95.832 E0.21442
G1 X104.890 Y96.372 E0.01715
G1 X100.115 Y91.597 E0.21442
G1 X100.115 Y92.137 E0.01715
G1 X104.890 Y96.912 E0.21442
G1 X104.890 Y97.452 E0.01715
G1 X100.115 Y92.677 E0.21442
G1 X100.115 Y93.217 E0.01715
G1 X104.890 Y97.992 E0.21442
G1 X104.890 Y98.532 E0.01715
G1 X100.115 Y93.757 E0.21442
G1 X100.115 Y94.297 E0.01715
G1 X104.890 Y99.072 E0.21442
G1 X104.890 Y99.612 E0.01715
G1 X100.115 Y94.837 E0.21442
G1 X100.115 Y95.377 E0.01715
G1 X104.868 Y100.130 E0.21342
G1 X104.328 Y100.130 E0.01715
G1 X100.115 Y95.917 E0.18917
G1 X100.115 Y96.457 E0.01715
G1 X103.788 Y100.130 E0.16493
G1 X103.248 Y100.130 E0.01715
G1 X100.115 Y96.997 E0.14068
G1 X100.115 Y97.537 E0.01715
G1 X102.708 Y100.130 E0.11643
G1 X102.168 Y100.130 E0.01715
G1 X100.115 Y98.077 E0.09218
G1 X100.115 Y98.617 E0.01715
G1 X101.628 Y100.130 E0.06793
G1 X101.088 Y100.130 E0.01715
G1 X100.115 Y99.157 E0.04369
G1 X100.115 Y99.697 E0.01715
G1 X100.717 Y100.300 E0.02706
G1 E-0.80000 F2100.000
G1 Z0.800 F10800.000
G1 X131.606 Y101.892
G1 Z0.200
G1 E0.80000 F2100.000
;TYPE:Support material
;WIDTH:0.42
G1 F1200.000
G1 X131.972 Y101.526 E0.01622
G1 X133.038 Y101.526 E0.03344
G1 X132.259 Y102.305 E0.03455
G1 X132.792 Y102.838 E0.02365
G1 X134.105 Y101.526 E0.05819
G1 X135.171 Y101.526 E0.03344
G1 X133.326 Y103.372 E0.08184
G1 X133.859 Y103.905 E0.02365
G1 X141.854 Y95.909 E0.35453
G1 X141.854 Y96.976 E0.03344
G1 X134.392 Y104.438 E0.33089
G1 X134.925 Y104.972 E0.02365
G1 X141.854 Y98.043 E0.30724
G1 X141.854 Y99.109 E0.03344
G1 X135.459 Y105.505 E0.28360
G1 X135.992 Y106.038 E0.02365
G1 X141.854 Y100.176 E0.25995
G1 X141.867 Y101.230 E0.03306
G1 X136.525 Y106.571 E0.23684
G1 X137.059 Y107.105 E0.02365
G1 X142.637 Y101.526 E0.24736
G1 X143.704 Y101.526 E0.03344
G1 X137.592 Y107.638 E0.27101
G1 X138.125 Y108.171 E0.02365
G1 X144.770 Y101.526 E0.29465
G1 X145.837 Y101.526 E0.03344
G1 X140.290 Y107.073 E0.24596
G1 X140.823 Y107.606 E0.02365
G1 X146.647 Y101.782 E0.25826
G1 X147.181 Y102.315 E0.02365
G1 X141.236 Y108.260 E0.26358
G1 X135.871 Y100.826 F10800.000
G1 F1200.000
G1 X141.854 Y94.843 E0.26530
G1 X141.854 Y93.776 E0.03344
G1 X136.041 Y99.590 E0.25778
G1 X136.041 Y98.523 E0.03344
G1 X141.854 Y92.710 E0.25778
G1 X141.854 Y91.643 E0.03344
G1 X136.041 Y97.457 E0.25778
G1 X136.041 Y96.390 E0.03344
G1 X141.854 Y90.577 E0.25778
G1 X141.854 Y89.510 E0.03344
G1 X136.041 Y95.324 E0.25778
G1 X136.041 Y94.257 E0.03344
G1 X141.854 Y88.444 E0.25778
G1 X141.854 Y87.377 E0.03344
G1 X136.041 Y93.191 E0.25778
G1 X136.041 Y92.124 E0.03344
G1 X141.854 Y86.311 E0.25778
G1 X141.854 Y85.244 E0.03344
G1 X136.041 Y91.057 E0.25778
G1 X136.041 Y89.991 E0.03344
G1 X141.854 Y84.177 E0.25778
G1 X141.854 Y83.111 E0.03344
G1 X136.041 Y88.924 E0.25778
G1 X136.041 Y87.858 E0.03344
G1 X141.854 Y82.044 E0.25778
G1 X141.854 Y80.978 E0.03344
G1 X136.041 Y86.791 E0.25778
G1 X136.041 Y85.725 E0.03344
G1 X141.854 Y79.911 E0.25778
G1 X141.854 Y78.845 E0.03344
G1 X136.041 Y84.658 E0.25778
G1 X136.041 Y83.592 E0.03344
G1 X141.854 Y77.778 E0.25778
G1 X141.854 Y76.712 E0.03344
G1 X136.041 Y82.525 E0.25778
G1 X136.041 Y81.459 E0.03344
G1 X141.854 Y75.645 E0.25778
G1 X141.854 Y74.579 E0.03344
G1 X136.041 Y80.392 E0.25778
G1 X136.041 Y79.325 E0.03344
