; generated by PrusaSlicer 2.2.0+win64 on 2021-11-10 at 22:41:29 UTC

; 

; external perimeters extrusion width = 0.45mm
; perimeters extrusion width = 0.45mm
; infill extrusion width = 0.45mm
; solid infill extrusion width = 0.45mm
; top infill extrusion width = 0.40mm
; support material extrusion width = 0.35mm
; first layer extrusion width = 0.42mm

M73 P0 R74
M73 Q0 S74
M201 X1000 Y1000 Z200 E5000 ; sets maximum accelerations, mm/sec^2
M203 X200 Y200 Z12 E120 ; sets maximum feedrates, mm/sec
M204 P1250 R1250 T1250 ; sets acceleration (P, T) and retract acceleration (R), mm/sec^2
M205 X8.00 Y8.00 Z0.40 E4.50 ; sets the jerk limits, mm/sec
M205 S0 T0 ; sets the minimum extruding and travel feed rate, mm/sec
M107
M862.3 P "MK3S" ; printer model check
M862.1 P0.4 ; nozzle diameter check
M115 U3.10.0 ; tell printer latest fw version
G90 ; use absolute coordinates
M83 ; extruder relative mode
M104 S215 ; set extruder temp
M140 S60 ; set bed temp
M190 S60 ; wait for bed temp
M109 S215 ; wait for extruder temp
G28 W ; home all without mesh bed level
G80 ; mesh bed leveling
G1 Y-3.0 F1000.0 ; go outside print area
G92 E0.0
G1 X60.0 E9.0 F1000.0 ; intro line
M73 Q0 S74
M73 P0 R74
G1 X100.0 E12.5 F1000.0 ; intro line
G92 E0.0
M221 S95

; Don't change E values below. Excessive value can damage the printer.
M907 E430 ; set extruder motor current
G21 ; set units to millimeters
G90 ; use absolute coordinates
M83 ; use relative distances for extrusion
M900 K0.05 ; Filament gcode LA 1.5
M900 K30 ; Filament gcode LA 1.0
;BEFORE_LAYER_CHANGE
G92 E0.0
;0.2


G1 E-0.80000 F2100.00000
G1 Z0.400 F10800.000
;AFTER_LAYER_CHANGE
;0.2
G1 X102.506 Y65.308
G1 Z0.200
G1 E0.80000 F2100.00000
M204 S1000
G1 F1200.000
G1 X103.225 Y65.078 E0.02367
G1 X125.004 Y65.052 E0.68287
G1 X154.872 Y67.743 E0.94030
G1 X155.481 Y67.907 E0.01977
G1 X156.028 Y68.228 E0.01989
G1 X156.469 Y68.679 E0.01977
G1 X156.776 Y69.229 E0.01977
G1 X156.941 Y70.100 E0.02778
G1 X156.800 Y139.947 E2.19000
G1 X156.684 Y140.635 E0.02190
G1 X156.375 Y141.257 E0.02178
G1 X155.899 Y141.763 E0.02178
G1 X155.294 Y142.112 E0.02190
G1 X154.803 Y142.247 E0.01597
G1 X154.294 Y142.273 E0.01597
G1 X100.248 Y139.120 E1.69745
G1 X99.600 Y138.975 E0.02083
G1 X99.020 Y138.659 E0.02071
G1 X98.549 Y138.195 E0.02071
G1 X98.224 Y137.620 E0.02071
G1 X93.074 Y118.165 E0.63101
G1 X93.059 Y91.858 E0.82485
G1 X93.140 Y91.286 E0.01811
G1 X98.274 Y72.419 E0.61308
G1 X99.391 Y68.914 E0.11535
G1 X99.756 Y68.262 E0.02343
G1 X101.897 Y65.748 E0.10353
G1 X102.457 Y65.343 E0.02167
; printing object NoodleSignFrame.stl id:0 copy 0
G1 F8640.000
G1 X103.225 Y65.078 E-0.18749
G1 X105.704 Y65.075 E-0.57251
G1 E-0.04000 F2100.00000
G1 Z0.600 F10800.000
G1 X125.000 Y71.471
G1 Z0.200
G1 E0.80000 F2100.00000
G1 F1200.000
G1 X125.000 Y67.429 E0.12674
G1 X124.246 Y67.429 E0.02365
G1 X124.246 Y71.342 E0.12270
G1 X124.016 Y71.582 E0.01040
G1 X124.016 Y130.827 E1.85760
G1 X123.492 Y130.827 E0.01645
G1 X123.492 Y67.429 E1.98780
G1 X122.738 Y67.429 E0.02365
G1 X122.738 Y130.827 E1.98780
G1 X121.983 Y130.827 E0.02365
G1 X121.983 Y67.429 E1.98780
G1 X121.229 Y67.429 E0.02365
G1 X121.229 Y130.827 E1.98780
G1 X120.475 Y130.827 E0.02365
G1 X120.475 Y67.429 E1.98780
G1 X119.721 Y67.429 E0.02365
G1 X119.721 Y130.827 E1.98780
G1 X118.967 Y130.827 E0.02365
G1 X118.967 Y67.429 E1.98780
G1 X118.213 Y67.429 E0.02365
G1 X118.213 Y130.827 E1.98780
G1 X117.458 Y130.827 E0.02365
G1 X117.458 Y67.429 E1.98780
G1 X116.704 Y67.429 E0.02365
G1 X116.704 Y130.827 E1.98780
G1 X115.950 Y130.827 E0.02365
G1 X115.950 Y67.429 E1.98780
G1 X115.196 Y67.429 E0.02365
G1 X115.196 Y130.827 E1.98780
G1 X114.442 Y130.827 E0.02365
G1 X114.442 Y67.429 E1.98780
M73 Q1 S73
M73 P1 R73
G1 X113.688 Y67.429 E0.02365
G1 X113.688 Y130.827 E1.98780
G1 X112.933 Y130.827 E0.02365
G1 X112.933 Y67.429 E1.98780
G1 X112.179 Y67.429 E0.02365
G1 X112.179 Y130.827 E1.98780
G1 X111.425 Y130.827 E0.02365
G1 X111.425 Y67.429 E1.98780
G1 X110.671 Y67.429 E0.02365
G1 X110.671 Y130.827 E1.98780
G1 X109.917 Y130.827 E0.02365
G1 X109.917 Y67.429 E1.98780
G1 X109.163 Y67.429 E0.02365
G1 X109.163 Y130.827 E1.98780
G1 X108.409 Y130.827 E0.02365
G1 X108.409 Y67.429 E1.98780
G1 X107.654 Y67.429 E0.02365
G1 X107.654 Y130.827 E1.98780
G1 X106.900 Y130.827 E0.02365
G1 X106.900 Y67.429 E1.98780
G1 X106.146 Y67.429 E0.02365
G1 X106.146 Y130.827 E1.98780
G1 X105.392 Y130.827 E0.02365
G1 X105.392 Y67.429 E1.98780
G1 X104.638 Y67.429 E0.02365
G1 X104.638 Y130.827 E1.98780
G1 X103.884 Y130.827 E0.02365
G1 X103.884 Y67.429 E1.98780
G1 X103.578 Y67.429 E0.00957
G1 X103.578 Y69.736 E0.07234
G1 X103.129 Y69.736 E0.01408
G1 X103.129 Y130.827 E1.91547
G1 X102.375 Y130.827 E0.02365
G1 X102.375 Y69.736 E1.91547
G1 X101.621 Y69.736 E0.02365
G1 X101.621 Y72.748 E0.09445
G1 F8640.000
G1 X101.621 Y69.736 E-0.69555
G1 X101.900 Y69.736 E-0.06445
G1 E-0.04000 F2100.00000
G1 Z0.600 F10800.000
G1 X101.143 Y93.043
G1 Z0.200
G1 E0.80000 F2100.00000
G1 F1200.000
G1 X101.143 Y116.779 E0.74423
G1 X96.223 Y117.066 E0.15452
G1 X96.223 Y92.737 E0.76280
G1 X101.083 Y93.039 E0.15267
G1 F8640.000
G1 X101.091 Y96.330 E-0.76000
G1 E-0.04000 F2100.00000
G1 Z0.600 F10800.000
G1 X130.474 Y102.528
G1 Z0.200
G1 E0.80000 F2100.00000
G1 F1200.000
G1 X130.820 Y101.545 E0.03267
G1 X131.293 Y100.587 E0.03352
G1 X131.846 Y99.738 E0.03176
G1 X132.512 Y98.938 E0.03264
G1 X133.268 Y98.222 E0.03265
G1 X134.104 Y97.600 E0.03267
G1 X135.032 Y97.070 E0.03352
G1 X135.965 Y96.674 E0.03176
G1 X136.964 Y96.383 E0.03264
G1 X137.991 Y96.211 E0.03264
G1 X139.061 Y96.163 E0.03360
G1 X140.098 Y96.241 E0.03261
G1 X141.092 Y96.434 E0.03175
G1 X142.084 Y96.751 E0.03264
G1 X143.031 Y97.182 E0.03265
G1 X143.922 Y97.723 E0.03267
G1 X144.762 Y98.384 E0.03352
G1 X145.479 Y99.100 E0.03176
G1 X146.125 Y99.916 E0.03264
G1 X146.670 Y100.803 E0.03265
G1 X147.106 Y101.749 E0.03267
G1 X147.434 Y102.767 E0.03352
G1 X147.629 Y103.761 E0.03176
G1 X147.708 Y104.800 E0.03265
G1 X147.661 Y105.868 E0.03352
G1 X147.498 Y106.867 E0.03176
G1 X147.211 Y107.868 E0.03264
G1 X146.808 Y108.828 E0.03265
G1 X146.293 Y109.734 E0.03267
G1 X145.657 Y110.593 E0.03352
G1 X144.964 Y111.331 E0.03176
G1 X144.167 Y112.001 E0.03264
G1 X143.296 Y112.572 E0.03265
G1 X142.363 Y113.036 E0.03267
G1 X141.356 Y113.394 E0.03352
G1 X140.368 Y113.618 E0.03176
G1 X139.333 Y113.728 E0.03264
G1 X138.292 Y113.715 E0.03265
G1 X137.259 Y113.579 E0.03267
G1 X136.223 Y113.313 E0.03352
G1 X135.279 Y112.947 E0.03176
G1 X134.359 Y112.461 E0.03264
G1 X133.502 Y111.868 E0.03265
G1 X132.722 Y111.178 E0.03267
G1 X132.012 Y110.379 E0.03352
G1 X131.432 Y109.548 E0.03176
G1 X130.941 Y108.630 E0.03264
G1 X130.562 Y107.661 E0.03265
G1 X130.300 Y106.652 E0.03267
G1 X130.157 Y105.593 E0.03352
G1 X130.141 Y104.580 E0.03176
G1 X130.247 Y103.544 E0.03264
G1 X130.461 Y102.587 E0.03077
G1 X130.829 Y102.669 F10800.000
G1 F1200.000
G1 X131.168 Y101.692 E0.03242
G1 X131.622 Y100.774 E0.03211
G1 X132.150 Y99.962 E0.03037
G1 X132.787 Y99.196 E0.03124
G1 X133.511 Y98.511 E0.03124
G1 X134.310 Y97.916 E0.03125
G1 X135.200 Y97.408 E0.03211
G1 X136.092 Y97.030 E0.03037
G1 X137.048 Y96.751 E0.03124
G1 X138.031 Y96.587 E0.03124
G1 X139.055 Y96.541 E0.03214
G1 X140.048 Y96.616 E0.03123
G1 X140.999 Y96.800 E0.03037
G1 X141.948 Y97.103 E0.03124
G1 X142.855 Y97.516 E0.03124
G1 X143.707 Y98.033 E0.03125
G1 X144.512 Y98.667 E0.03211
G1 X145.197 Y99.351 E0.03037
G1 X145.815 Y100.132 E0.03124
G1 X146.337 Y100.981 E0.03124
G1 X146.754 Y101.887 E0.03125
G1 X147.068 Y102.861 E0.03211
G1 X147.254 Y103.812 E0.03037
G1 X147.331 Y104.806 E0.03125
G1 X147.285 Y105.829 E0.03211
G1 X147.129 Y106.785 E0.03037
M73 Q2 S72
G1 X146.855 Y107.742 E0.03124
G1 X146.469 Y108.661 E0.03124
M73 P2 R72
G1 X145.977 Y109.528 E0.03125
G1 X145.368 Y110.351 E0.03211
G1 X144.704 Y111.057 E0.03037
G1 X143.941 Y111.698 E0.03124
G1 X143.108 Y112.244 E0.03124
G1 X142.216 Y112.688 E0.03125
G1 X141.250 Y113.031 E0.03211
G1 X140.306 Y113.245 E0.03037
G1 X139.315 Y113.351 E0.03124
G1 X138.319 Y113.339 E0.03124
G1 X137.331 Y113.208 E0.03125
G1 X136.339 Y112.953 E0.03211
G1 X135.435 Y112.604 E0.03037
G1 X134.555 Y112.138 E0.03124
G1 X133.735 Y111.571 E0.03124
G1 X132.988 Y110.911 E0.03125
G1 X132.308 Y110.145 E0.03211
G1 X131.754 Y109.350 E0.03037
G1 X131.284 Y108.472 E0.03124
G1 X130.921 Y107.544 E0.03124
G1 X130.671 Y106.579 E0.03125
G1 X130.534 Y105.564 E0.03211
G1 X130.519 Y104.596 E0.03037
G1 X130.619 Y103.605 E0.03124
G1 X130.816 Y102.727 E0.02818
G1 X130.550 Y102.382 F10800.000
G1 F8640.000
G1 X131.168 Y101.692 E-0.25253
G1 X131.622 Y100.774 E-0.23648
G1 X132.150 Y99.962 E-0.22366
G1 X132.281 Y99.804 E-0.04732
G1 E-0.04000 F2100.00000
G1 Z0.600 F10800.000
G1 X138.832 Y119.070
G1 Z0.200
G1 E0.80000 F2100.00000
G1 F1200.000
G1 X139.765 Y118.674 E0.03176
G1 X140.764 Y118.383 E0.03264
G1 X141.790 Y118.211 E0.03264
G1 X142.324 Y118.186 E0.01676
G1 X142.861 Y118.163 E0.01685
G1 X143.898 Y118.241 E0.03261
G1 X144.892 Y118.434 E0.03175
G1 X145.884 Y118.751 E0.03264
G1 X146.831 Y119.182 E0.03265
G1 X147.722 Y119.723 E0.03267
G1 X148.562 Y120.384 E0.03352
G1 X149.279 Y121.100 E0.03176
G1 X149.925 Y121.916 E0.03264
G1 X150.470 Y122.803 E0.03265
G1 X150.906 Y123.749 E0.03267
G1 X151.234 Y124.767 E0.03352
G1 X151.429 Y125.761 E0.03176
G1 X151.508 Y126.799 E0.03265
G1 X151.461 Y127.868 E0.03352
G1 X151.298 Y128.867 E0.03176
G1 X151.011 Y129.868 E0.03264
G1 X150.608 Y130.828 E0.03265
G1 X150.093 Y131.734 E0.03267
G1 X149.457 Y132.593 E0.03352
G1 X148.764 Y133.331 E0.03176
G1 X147.967 Y134.001 E0.03264
G1 X147.096 Y134.572 E0.03265
G1 X146.163 Y135.036 E0.03267
G1 X145.156 Y135.394 E0.03352
G1 X144.168 Y135.618 E0.03176
G1 X143.133 Y135.728 E0.03264
G1 X142.092 Y135.715 E0.03265
G1 X141.059 Y135.579 E0.03267
G1 X140.023 Y135.313 E0.03352
G1 X139.079 Y134.947 E0.03176
G1 X138.159 Y134.461 E0.03264
G1 X137.302 Y133.868 E0.03265
G1 X136.522 Y133.178 E0.03267
G1 X135.812 Y132.379 E0.03352
G1 X135.232 Y131.548 E0.03176
G1 X134.741 Y130.630 E0.03264
G1 X134.362 Y129.661 E0.03265
G1 X134.100 Y128.652 E0.03267
G1 X133.957 Y127.593 E0.03352
G1 X133.941 Y126.580 E0.03176
G1 X134.047 Y125.544 E0.03264
G1 X134.274 Y124.528 E0.03265
G1 X134.620 Y123.545 E0.03267
G1 X135.093 Y122.587 E0.03352
G1 X135.646 Y121.738 E0.03176
G1 X136.312 Y120.938 E0.03264
G1 X137.068 Y120.222 E0.03265
G1 X137.904 Y119.600 E0.03267
G1 X138.780 Y119.100 E0.03164
G1 X138.967 Y119.427 F10800.000
G1 F1200.000
G1 X139.892 Y119.030 E0.03155
G1 X140.848 Y118.751 E0.03124
G1 X141.831 Y118.587 E0.03124
G1 X142.855 Y118.541 E0.03214
G1 X143.848 Y118.616 E0.03123
G1 X144.799 Y118.800 E0.03037
G1 X145.748 Y119.103 E0.03124
G1 X146.655 Y119.516 E0.03124
G1 X147.507 Y120.033 E0.03125
G1 X148.312 Y120.667 E0.03211
G1 X148.997 Y121.351 E0.03037
G1 X149.615 Y122.132 E0.03124
G1 X150.137 Y122.981 E0.03124
G1 X150.554 Y123.887 E0.03125
G1 X150.868 Y124.861 E0.03211
G1 X151.054 Y125.812 E0.03037
G1 X151.131 Y126.806 E0.03125
G1 X151.085 Y127.829 E0.03211
G1 X150.929 Y128.785 E0.03037
G1 X150.655 Y129.742 E0.03124
G1 X150.269 Y130.661 E0.03124
G1 X149.777 Y131.528 E0.03125
G1 X149.168 Y132.351 E0.03211
G1 X148.504 Y133.057 E0.03037
G1 X147.741 Y133.698 E0.03124
G1 X146.908 Y134.244 E0.03124
G1 X146.016 Y134.688 E0.03125
G1 X145.050 Y135.031 E0.03211
G1 X144.106 Y135.245 E0.03037
G1 X143.115 Y135.351 E0.03124
G1 X142.119 Y135.339 E0.03124
G1 X141.131 Y135.208 E0.03125
G1 X140.139 Y134.953 E0.03211
G1 X139.235 Y134.604 E0.03037
G1 X138.355 Y134.138 E0.03124
G1 X137.535 Y133.571 E0.03124
G1 X136.788 Y132.911 E0.03125
G1 X136.108 Y132.145 E0.03211
G1 X135.554 Y131.350 E0.03037
G1 X135.084 Y130.472 E0.03124
G1 X134.721 Y129.544 E0.03124
G1 X134.471 Y128.579 E0.03125
G1 X134.334 Y127.564 E0.03211
G1 X134.319 Y126.596 E0.03037
G1 X134.419 Y125.605 E0.03124
G1 X134.637 Y124.632 E0.03124
G1 X134.968 Y123.692 E0.03125
G1 X135.422 Y122.774 E0.03211
G1 X135.950 Y121.962 E0.03037
G1 X136.587 Y121.196 E0.03124
G1 X137.311 Y120.511 E0.03124
G1 X138.110 Y119.916 E0.03125
G1 X138.915 Y119.457 E0.02905
G1 X138.991 Y119.028 F10800.000
G1 F8640.000
G1 X139.892 Y119.030 E-0.24609
G1 X140.848 Y118.751 E-0.23006
G1 X141.831 Y118.587 E-0.23006
G1 X142.063 Y118.576 E-0.05379
G1 E-0.04000 F2100.00000
G1 Z0.600 F10800.000
G1 X142.092 Y91.715
G1 Z0.200
G1 E0.80000 F2100.00000
G1 F1200.000
G1 X141.059 Y91.579 E0.03267
G1 X140.023 Y91.313 E0.03352
G1 X139.079 Y90.947 E0.03176
G1 X138.159 Y90.461 E0.03264
G1 X137.302 Y89.868 E0.03265
G1 X136.522 Y89.178 E0.03267
G1 X135.812 Y88.379 E0.03352
G1 X135.232 Y87.548 E0.03176
G1 X134.741 Y86.630 E0.03264
G1 X134.362 Y85.661 E0.03265
G1 X134.100 Y84.652 E0.03267
G1 X133.957 Y83.593 E0.03352
G1 X133.941 Y82.580 E0.03176
G1 X134.047 Y81.544 E0.03264
G1 X134.274 Y80.528 E0.03265
G1 X134.620 Y79.545 E0.03267
G1 X135.093 Y78.587 E0.03352
G1 X135.646 Y77.738 E0.03176
G1 X136.312 Y76.938 E0.03264
G1 X137.068 Y76.222 E0.03265
G1 X137.904 Y75.600 E0.03267
G1 X138.832 Y75.070 E0.03352
G1 X139.765 Y74.674 E0.03176
G1 X140.764 Y74.383 E0.03264
G1 X141.790 Y74.211 E0.03264
G1 X142.861 Y74.163 E0.03360
G1 X143.898 Y74.241 E0.03261
G1 X144.892 Y74.434 E0.03175
G1 X145.884 Y74.751 E0.03264
G1 X146.831 Y75.182 E0.03265
G1 X147.722 Y75.723 E0.03267
G1 X148.562 Y76.384 E0.03352
G1 X149.279 Y77.100 E0.03176
G1 X149.925 Y77.916 E0.03264
G1 X150.470 Y78.803 E0.03265
G1 X150.906 Y79.749 E0.03267
G1 X151.234 Y80.767 E0.03352
G1 X151.429 Y81.761 E0.03176
G1 X151.508 Y82.799 E0.03265
G1 X151.461 Y83.868 E0.03352
G1 X151.298 Y84.867 E0.03176
G1 X151.011 Y85.868 E0.03264
G1 X150.608 Y86.828 E0.03265
G1 X150.093 Y87.734 E0.03267
G1 X149.457 Y88.593 E0.03352
G1 X148.764 Y89.331 E0.03176
G1 X147.967 Y90.001 E0.03264
G1 X147.096 Y90.572 E0.03265
G1 X146.163 Y91.036 E0.03267
G1 X145.156 Y91.394 E0.03352
G1 X144.168 Y91.618 E0.03176
G1 X143.133 Y91.728 E0.03264
G1 X142.152 Y91.716 E0.03077
G1 X142.156 Y91.339 F10800.000
G1 F1200.000
G1 X141.131 Y91.208 E0.03242
G1 X140.139 Y90.953 E0.03211
G1 X139.235 Y90.604 E0.03037
G1 X138.355 Y90.138 E0.03124
G1 X137.535 Y89.571 E0.03124
G1 X136.788 Y88.911 E0.03125
G1 X136.108 Y88.145 E0.03211
G1 X135.554 Y87.350 E0.03037
G1 X135.084 Y86.472 E0.03124
G1 X134.721 Y85.544 E0.03124
G1 X134.471 Y84.579 E0.03125
G1 X134.334 Y83.564 E0.03211
G1 X134.319 Y82.596 E0.03037
G1 X134.419 Y81.605 E0.03124
G1 X134.637 Y80.632 E0.03124
G1 X134.968 Y79.692 E0.03125
G1 X135.422 Y78.774 E0.03211
G1 X135.950 Y77.962 E0.03037
G1 X136.587 Y77.196 E0.03124
G1 X137.311 Y76.511 E0.03124
G1 X138.110 Y75.916 E0.03125
G1 X139.000 Y75.408 E0.03211
G1 X139.892 Y75.030 E0.03037
G1 X140.848 Y74.751 E0.03124
G1 X141.831 Y74.587 E0.03124
G1 X142.855 Y74.541 E0.03214
G1 X143.848 Y74.616 E0.03123
G1 X144.799 Y74.800 E0.03037
G1 X145.748 Y75.103 E0.03124
G1 X146.655 Y75.516 E0.03124
G1 X147.507 Y76.033 E0.03125
G1 X148.312 Y76.667 E0.03211
G1 X148.997 Y77.351 E0.03037
G1 X149.615 Y78.132 E0.03124
G1 X150.137 Y78.981 E0.03124
G1 X150.554 Y79.887 E0.03125
G1 X150.868 Y80.861 E0.03211
G1 X151.054 Y81.812 E0.03037
G1 X151.131 Y82.806 E0.03125
G1 X151.085 Y83.829 E0.03211
G1 X150.929 Y84.785 E0.03037
G1 X150.655 Y85.742 E0.03124
G1 X150.269 Y86.661 E0.03124
G1 X149.777 Y87.528 E0.03125
G1 X149.168 Y88.351 E0.03211
G1 X148.504 Y89.057 E0.03037
G1 X147.741 Y89.698 E0.03124
G1 X146.908 Y90.244 E0.03124
G1 X146.016 Y90.688 E0.03125
G1 X145.050 Y91.031 E0.03211
G1 X144.106 Y91.245 E0.03037
G1 X143.115 Y91.351 E0.03124
G1 X142.216 Y91.340 E0.02818
G1 X141.933 Y91.671 F10800.000
G1 F8640.000
G1 X141.131 Y91.208 E-0.25254
G1 X140.139 Y90.953 E-0.23649
G1 X139.235 Y90.604 E-0.22365
G1 X139.054 Y90.508 E-0.04732
G1 E-0.04000 F2100.00000
G1 Z0.600 F10800.000
G1 X148.649 Y94.929
G1 Z0.200
G1 E0.80000 F2100.00000
G1 F1200.000
G1 X148.636 Y115.047 E0.63081
G1 X153.636 Y114.737 E0.15708
G1 X153.636 Y139.066 E0.76280
G1 X101.223 Y136.007 E1.64619
G1 X101.220 Y132.028 E0.12478
G1 X125.217 Y132.028 E0.75240
G1 X125.217 Y72.492 E1.86671
G1 X153.774 Y70.932 E0.89671
G1 X153.684 Y95.260 E0.76280
G1 X148.709 Y94.933 E0.15631
G1 X149.026 Y95.331 F10800.000
G1 F1200.000
