; generated by PrusaSlicer 2.3.1+win64 on 2021-07-29 at 16:25:15 UTC

; 

; external perimeters extrusion width = 0.45mm
; perimeters extrusion width = 0.45mm
; infill extrusion width = 0.45mm
; solid infill extrusion width = 0.45mm
; top infill extrusion width = 0.40mm
; first layer extrusion width = 0.42mm

M73 P0 R16
M73 Q0 S16
M201 X1000 Y1000 Z1000 E5000 ; sets maximum accelerations, mm/sec^2
M203 X200 Y200 Z12 E120 ; sets maximum feedrates, mm/sec
M204 P1250 R1250 T1250 ; sets acceleration (P, T) and retract acceleration (R), mm/sec^2
M205 X8.00 Y8.00 Z0.40 E1.50 ; sets the jerk limits, mm/sec
M205 S0 T0 ; sets the minimum extruding and travel feed rate, mm/sec
M107
;TYPE:Custom
M862.3 P "MK3S" ; printer model check
M862.1 P0.4 ; nozzle diameter check
M115 U3.8.0 ; tell printer latest fw version
G90 ; use absolute coordinates
M83 ; extruder relative mode
M104 S215 ; set extruder temp
M140 S60 ; set bed temp
M190 S60 ; wait for bed temp
M109 S215 ; wait for extruder temp
G28 W ; home all without mesh bed level
G80 ; mesh bed leveling
G1 Y-3.0 F1000.0 ; go outside print area
G92 E0.0
G1 X60.0 E9.0 F1000.0 ; intro line
G1 X100.0 E12.5 F1000.0 ; intro line
G92 E0.0
M221 S95
G21 ; set units to millimeters
G90 ; use absolute coordinates
M83 ; use relative distances for extrusion
M900 K0.05 ; Filament gcode LA 1.5
M900 K30 ; Filament gcode LA 1.0
;LAYER_CHANGE
;Z:0.2
;HEIGHT:0.2
;BEFORE_LAYER_CHANGE
G92 E0.0
;0.2


G1 E-0.80000 F2100.000
G1 Z0.600 F10800.000
;AFTER_LAYER_CHANGE
;0.2
G1 X121.375 Y111.302
G1 Z0.200
G1 E0.80000 F2100.000
M204 S1000
;TYPE:External perimeter
;WIDTH:0.42
G1 F1200.000
G1 X121.204 Y111.139 E0.00742
G1 X121.025 Y110.884 E0.00975
G1 X120.900 Y110.599 E0.00975
G1 X120.833 Y110.296 E0.00975
G1 X120.826 Y109.985 E0.00975
G1 X120.880 Y109.678 E0.00975
G1 X120.993 Y109.389 E0.00975
G1 X121.160 Y109.126 E0.00975
G1 X121.375 Y108.902 E0.00975
G1 X121.630 Y108.723 E0.00975
G1 X121.918 Y108.597 E0.00986
G1 X122.276 Y108.530 E0.01142
G1 X122.529 Y108.524 E0.00795
G1 X122.835 Y108.578 E0.00975
G1 X123.125 Y108.691 E0.00975
G1 X123.388 Y108.858 E0.00975
G1 X123.612 Y109.073 E0.00975
G1 X123.791 Y109.328 E0.00975
G1 X123.916 Y109.613 E0.00975
G1 X123.983 Y109.916 E0.00975
G1 X123.990 Y110.227 E0.00975
G1 X123.936 Y110.533 E0.00975
G1 X123.823 Y110.823 E0.00975
G1 X123.656 Y111.085 E0.00975
G1 X123.441 Y111.310 E0.00975
G1 X123.186 Y111.488 E0.00975
G1 X122.901 Y111.614 E0.00975
G1 X122.598 Y111.681 E0.00975
G1 X122.287 Y111.688 E0.00975
G1 X121.981 Y111.634 E0.00975
G1 X121.691 Y111.521 E0.00975
M73 P0 R15
G1 X121.418 Y111.344 E0.01019
G1 E-0.80000 F2100.000
G1 Z0.800 F10800.000
G1 X127.891 Y110.113
G1 Z0.200
G1 E0.80000 F2100.000
G1 F1200.000
G1 X127.738 Y109.927 E0.00754
G1 X127.591 Y109.653 E0.00975
G1 X127.500 Y109.356 E0.00975
G1 X127.469 Y109.046 E0.00975
G1 X127.498 Y108.737 E0.00975
G1 X127.588 Y108.439 E0.00975
G1 X127.734 Y108.164 E0.00975
G1 X127.931 Y107.923 E0.00975
G1 X128.171 Y107.726 E0.00975
G1 X128.448 Y107.577 E0.00986
G1 X128.799 Y107.482 E0.01142
G1 X129.052 Y107.456 E0.00795
G1 X129.361 Y107.486 E0.00975
G1 X129.659 Y107.576 E0.00975
G1 X129.934 Y107.722 E0.00975
G1 X130.175 Y107.919 E0.00975
G1 X130.372 Y108.159 E0.00975
G1 X130.520 Y108.433 E0.00975
G1 X130.610 Y108.730 E0.00975
G1 X130.642 Y109.040 E0.00975
G1 X130.612 Y109.349 E0.00975
G1 X130.522 Y109.647 E0.00975
G1 X130.376 Y109.922 E0.00975
G1 X130.179 Y110.162 E0.00975
G1 X129.939 Y110.360 E0.00975
G1 X129.665 Y110.507 E0.00975
G1 X129.368 Y110.598 E0.00975
G1 X129.058 Y110.629 E0.00975
G1 X128.749 Y110.600 E0.00975
G1 X128.451 Y110.510 E0.00975
G1 X128.176 Y110.364 E0.00975
G1 X127.929 Y110.159 E0.01007
G1 E-0.80000 F2100.000
G1 Z0.800 F10800.000
G1 X131.429 Y101.543
G1 Z0.200
G1 E0.80000 F2100.000
M73 Q1 S16
G1 F1200.000
G1 X131.510 Y101.670 E0.00473
G1 X131.624 Y101.959 E0.00975
G1 X131.680 Y102.265 E0.00975
G1 X131.674 Y102.576 E0.00975
G1 X131.608 Y102.880 E0.00975
G1 X131.484 Y103.165 E0.00975
G1 X131.307 Y103.421 E0.00975
M73 Q1 S15
G1 X131.083 Y103.637 E0.00975
G1 X130.821 Y103.805 E0.00975
G1 X130.532 Y103.919 E0.00975
G1 X130.226 Y103.974 E0.00975
G1 X129.915 Y103.969 E0.00975
G1 X129.611 Y103.903 E0.00975
G1 X129.326 Y103.778 E0.00975
G1 X129.070 Y103.601 E0.00975
G1 X128.854 Y103.377 E0.00975
G1 X128.686 Y103.116 E0.00975
G1 X128.572 Y102.827 E0.00975
G1 X128.517 Y102.520 E0.00975
G1 X128.522 Y102.210 E0.00975
G1 X128.588 Y101.906 E0.00975
G1 X128.712 Y101.620 E0.00975
G1 X128.890 Y101.365 E0.00975
G1 X129.113 Y101.149 E0.00975
M73 P1 R15
G1 X129.378 Y100.979 E0.00986
G1 X129.721 Y100.857 E0.01142
G1 X129.970 Y100.811 E0.00795
G1 X130.281 Y100.817 E0.00975
G1 X130.585 Y100.883 E0.00975
G1 X130.870 Y101.007 E0.00975
G1 X131.126 Y101.184 E0.00975
G1 X131.342 Y101.408 E0.00975
G1 X131.396 Y101.492 E0.00314
G1 E-0.80000 F2100.000
G1 Z0.800 F10800.000
G1 X122.674 Y98.649
G1 Z0.200
G1 E0.80000 F2100.000
G1 F1200.000
G1 X122.810 Y98.416 E0.00847
G1 X123.017 Y98.183 E0.00975
G1 X123.264 Y97.995 E0.00975
G1 X123.547 Y97.857 E0.00986
G1 X123.902 Y97.776 E0.01142
G1 X124.155 Y97.760 E0.00795
G1 X124.463 Y97.802 E0.00975
G1 X124.757 Y97.904 E0.00975
G1 X125.026 Y98.060 E0.00975
G1 X125.259 Y98.266 E0.00975
G1 X125.447 Y98.514 E0.00975
G1 X125.583 Y98.794 E0.00975
G1 X125.662 Y99.094 E0.00975
G1 X125.681 Y99.405 E0.00975
G1 X125.639 Y99.713 E0.00975
G1 X125.538 Y100.007 E0.00975
G1 X125.381 Y100.276 E0.00975
G1 X125.175 Y100.508 E0.00975
G1 X124.928 Y100.697 E0.00975
G1 X124.648 Y100.833 E0.00975
G1 X124.347 Y100.912 E0.00975
G1 X124.037 Y100.931 E0.00975
G1 X123.729 Y100.889 E0.00975
G1 X123.435 Y100.788 E0.00975
G1 X123.166 Y100.631 E0.00975
G1 X122.933 Y100.425 E0.00975
G1 X122.745 Y100.177 E0.00975
G1 X122.609 Y99.898 E0.00975
G1 X122.529 Y99.597 E0.00975
G1 X122.511 Y99.287 E0.00975
G1 X122.552 Y98.978 E0.00975
G1 X122.648 Y98.703 E0.00915
G1 E-0.80000 F2100.000
G1 Z0.800 F10800.000
G1 X120.202 Y102.783
G1 Z0.200
G1 E0.80000 F2100.000
G1 F1200.000
G1 X120.417 Y102.945 E0.00848
G1 X120.625 Y103.177 E0.00975
G1 X120.782 Y103.446 E0.00975
G1 X120.885 Y103.739 E0.00975
G1 X120.928 Y104.047 E0.00975
G1 X120.911 Y104.358 E0.00975
G1 X120.833 Y104.659 E0.00975
G1 X120.697 Y104.939 E0.00975
G1 X120.510 Y105.187 E0.00975
G1 X120.278 Y105.394 E0.00975
G1 X120.010 Y105.552 E0.00975
G1 X119.717 Y105.655 E0.00975
G1 X119.409 Y105.698 E0.00975
G1 X119.098 Y105.680 E0.00975
G1 X118.797 Y105.602 E0.00975
G1 X118.517 Y105.467 E0.00975
G1 X118.269 Y105.280 E0.00975
G1 X118.061 Y105.048 E0.00975
G1 X117.904 Y104.780 E0.00975
G1 X117.801 Y104.486 E0.00975
G1 X117.758 Y104.178 E0.00975
G1 X117.776 Y103.868 E0.00975
G1 X117.854 Y103.567 E0.00975
G1 X117.989 Y103.286 E0.00975
G1 X118.176 Y103.038 E0.00975
G1 X118.408 Y102.831 E0.00975
G1 X118.679 Y102.672 E0.00986
G1 X119.026 Y102.563 E0.01142
G1 X119.277 Y102.528 E0.00795
G1 X119.588 Y102.545 E0.00975
G1 X119.889 Y102.623 E0.00975
G1 X120.152 Y102.750 E0.00914
G1 E-0.80000 F2100.000
G1 Z0.800 F10800.000
G1 X137.402 Y95.468
G1 Z0.200
G1 E0.80000 F2100.000
G1 F1200.000
G1 X138.831 Y97.607 E0.08065
G1 X140.007 Y100.448 E0.09639
G1 X140.607 Y103.463 E0.09639
G1 X140.607 Y106.544 E0.09659
G1 X140.480 Y107.472 E0.02939
G1 X140.361 Y108.073 E0.01922
G1 X140.009 Y109.549 E0.04756
G1 X138.831 Y112.393 E0.09652
G1 X137.121 Y114.951 E0.09647
G1 X135.815 Y116.319 E0.05930
G1 X135.382 Y116.752 E0.01921
G1 X134.956 Y117.118 E0.01762
G1 X132.393 Y118.831 E0.09664
G1 X129.552 Y120.007 E0.09639
G1 X126.537 Y120.607 E0.09639
G1 X123.463 Y120.607 E0.09639
G1 X120.448 Y120.007 E0.09639
G1 X117.607 Y118.831 E0.09639
G1 X115.051 Y117.123 E0.09639
G1 X112.877 Y114.949 E0.09639
G1 X111.169 Y112.393 E0.09639
G1 X109.993 Y109.552 E0.09639
G1 X109.393 Y106.537 E0.09639
G1 X109.393 Y103.463 E0.09639
G1 X109.994 Y100.441 E0.09661
G1 X110.245 Y99.698 E0.02458
G1 X110.480 Y99.132 E0.01921
G1 X111.167 Y97.610 E0.05236
G1 X112.877 Y95.051 E0.09650
G1 X115.051 Y92.877 E0.09639
G1 X117.607 Y91.169 E0.09639
G1 X120.448 Y89.993 E0.09639
G1 X123.463 Y89.393 E0.09639
G1 X126.539 Y89.393 E0.09646
G1 X128.492 Y89.742 E0.06219
G1 X129.093 Y89.862 E0.01921
G1 X129.545 Y89.990 E0.01473
G1 X132.330 Y91.137 E0.09443
G1 X134.949 Y92.877 E0.09861
G1 X137.123 Y95.051 E0.09638
G1 X137.368 Y95.419 E0.01386
G1 X137.520 Y95.849 F10800.000
;TYPE:Solid infill
;WIDTH:0.42128
G1 F1200.000
G1 X134.766 Y93.095 E0.12253
G1 X133.171 Y92.035 E0.06027
G1 X137.983 Y96.847 E0.21410
G1 X138.580 Y97.741 E0.03384
G1 X138.749 Y98.148 E0.01385
G1 X131.842 Y91.241 E0.30729
G1 X130.932 Y90.867 E0.03095
G1 X139.127 Y99.061 E0.36460
M73 Q2 S15
G1 X139.505 Y99.975 E0.03111
G1 X130.023 Y90.492 E0.42191
M73 P2 R15
G1 X129.452 Y90.257 E0.01940
G1 X129.174 Y90.179 E0.00910
G1 X139.787 Y100.792 E0.47221
G1 X139.920 Y101.460 E0.02143
G1 X128.491 Y90.031 E0.50852
G1 X127.838 Y89.913 E0.02087
G1 X140.053 Y102.128 E0.54349
G1 X140.186 Y102.796 E0.02143
G1 X127.186 Y89.796 E0.57839
G1 X126.534 Y89.679 E0.02083
G1 X140.319 Y103.464 E0.61330
G1 X140.324 Y104.004 E0.01700
G1 X125.996 Y89.676 E0.63751
G1 X125.461 Y89.676 E0.01683
G1 X140.324 Y104.539 E0.66132
G1 X140.324 Y105.074 E0.01683
G1 X124.926 Y89.676 E0.68512
G1 X124.390 Y89.676 E0.01683
G1 X140.324 Y105.610 E0.70893
M73 P3 R15
M73 Q3 S15
G1 X140.324 Y106.145 E0.01683
G1 X123.855 Y89.676 E0.73274
G1 X123.491 Y89.676 E0.01147
G1 X123.349 Y89.704 E0.00456
G1 X140.306 Y106.661 E0.75445
G1 X140.241 Y107.132 E0.01495
G1 X122.902 Y89.793 E0.77145
G1 X122.456 Y89.882 E0.01432
G1 X140.168 Y107.593 E0.78803
G1 X140.078 Y108.039 E0.01430
G1 X122.010 Y89.970 E0.80390
G1 X121.563 Y90.059 E0.01432
G1 X139.975 Y108.471 E0.81918
G1 X139.872 Y108.903 E0.01397
G1 X121.117 Y90.148 E0.83445
M73 Q4 S15
G1 X120.671 Y90.237 E0.01432
G1 X139.769 Y109.335 E0.84973
M73 P4 R15
G1 X139.739 Y109.461 E0.00409
G1 X139.628 Y109.729 E0.00912
G1 X131.923 Y102.024 E0.34280
G1 X131.963 Y102.242 E0.00696
G1 X131.957 Y102.593 E0.01103
G1 X139.471 Y110.107 E0.33435
G1 X139.315 Y110.486 E0.01288
G1 X131.853 Y103.025 E0.33196
G1 X131.732 Y103.303 E0.00956
G1 X131.677 Y103.383 E0.00305
G1 X139.158 Y110.864 E0.33285
G1 X139.001 Y111.242 E0.01288
G1 X131.442 Y103.683 E0.33633
G1 X131.259 Y103.859 E0.00798
G1 X131.152 Y103.928 E0.00401
G1 X138.844 Y111.621 E0.34225
G1 X138.688 Y111.999 E0.01288
G1 X130.804 Y104.116 E0.35076
G1 X130.610 Y104.192 E0.00657
G1 X130.386 Y104.233 E0.00715
G1 X138.513 Y112.359 E0.36159
G1 X138.299 Y112.680 E0.01214
G1 X129.644 Y104.025 E0.38507
G1 E-0.80000 F2100.000
G1 Z0.800 F10800.000
G1 X130.715 Y100.816
G1 Z0.200
G1 E0.80000 F2100.000
G1 F1200.000
G1 X120.271 Y90.372 E0.46467
G1 X119.893 Y90.529 E0.01288
G1 X129.901 Y100.537 E0.44528
G1 X129.648 Y100.582 E0.00808
G1 X129.473 Y100.645 E0.00582
G1 X119.514 Y90.685 E0.44310
G1 X119.136 Y90.842 E0.01288
G1 X129.109 Y100.815 E0.44373
M73 P5 R15
M73 Q5 S15
G1 X128.937 Y100.926 E0.00644
G1 X128.809 Y101.050 E0.00561
G1 X118.758 Y90.999 E0.44720
G1 X118.379 Y91.156 E0.01288
G1 X128.563 Y101.340 E0.45311
G1 X128.464 Y101.482 E0.00546
G1 X128.375 Y101.687 E0.00702
G1 X125.956 Y99.268 E0.10763
G1 X125.965 Y99.415 E0.00465
G1 X125.918 Y99.764 E0.01108
G1 X128.256 Y102.103 E0.10405
G1 X128.234 Y102.543 E0.01388
G1 X128.249 Y102.631 E0.00281
G1 X125.777 Y100.158 E0.11001
G1 X125.571 Y100.488 E0.01222
G1 X138.084 Y113.001 E0.55674
G1 X137.870 Y113.322 E0.01214
G1 X125.310 Y100.761 E0.55884
G1 X125.077 Y100.939 E0.00921
G1 X124.993 Y100.980 E0.00294
G1 X137.656 Y113.642 E0.56340
G1 X137.441 Y113.963 E0.01214
G1 X124.613 Y101.135 E0.57077
G1 X124.392 Y101.193 E0.00717
G1 X124.150 Y101.207 E0.00763
G1 X137.227 Y114.284 E0.58181
G1 X137.013 Y114.605 E0.01214
G1 X130.804 Y108.396 E0.27623
G1 X130.889 Y108.674 E0.00915
G1 X130.925 Y109.052 E0.01193
G1 X136.776 Y114.903 E0.26034
G1 X136.515 Y115.177 E0.01191
G1 X130.856 Y109.518 E0.25176
G1 X130.785 Y109.755 E0.00778
G1 X130.706 Y109.903 E0.00528
G1 X136.253 Y115.451 E0.24680
G1 X135.992 Y115.724 E0.01191
G1 X130.493 Y110.225 E0.24465
M73 Q6 S15
G1 X130.381 Y110.363 E0.00559
G1 X130.224 Y110.492 E0.00637
G1 X135.730 Y115.998 E0.24498
M73 P6 R15
G1 X135.466 Y116.268 E0.01190
G1 X129.900 Y110.702 E0.24763
G1 X129.775 Y110.770 E0.00447
G1 X129.512 Y110.850 E0.00863
G1 X135.198 Y116.536 E0.25298
G1 X134.911 Y116.784 E0.01194
G1 X128.850 Y110.723 E0.26966
G1 E-0.80000 F2100.000
G1 Z0.800 F10800.000
G1 X130.207 Y107.800
G1 Z0.200
G1 E0.80000 F2100.000
G1 F1200.000
G1 X123.175 Y100.767 E0.31288
G1 E-0.80000 F2100.000
G1 Z0.800 F10800.000
G1 X124.363 Y97.674
G1 Z0.200
G1 E0.80000 F2100.000
G1 F1200.000
G1 X118.001 Y91.312 E0.28307
G1 X117.741 Y91.420 E0.00884
G1 X117.641 Y91.487 E0.00381
G1 X123.688 Y97.535 E0.26906
G1 X123.452 Y97.588 E0.00761
G1 X123.287 Y97.669 E0.00577
G1 X117.320 Y91.701 E0.26550
G1 X116.999 Y91.916 E0.01214
G1 X122.957 Y97.873 E0.26506
G1 X122.823 Y97.975 E0.00527
G1 X122.682 Y98.134 E0.00670
G1 X116.678 Y92.130 E0.26713
G1 X116.358 Y92.344 E0.01214
G1 X122.463 Y98.450 E0.27165
G1 X122.395 Y98.566 E0.00422
G1 X122.305 Y98.827 E0.00870
G1 X116.037 Y92.559 E0.27890
G1 X115.716 Y92.773 E0.01214
G1 X122.227 Y99.284 E0.28969
G1 X122.249 Y99.642 E0.01128
G1 X122.320 Y99.912 E0.00878
G1 X115.395 Y92.987 E0.30809
G1 X115.231 Y93.097 E0.00620
G1 X115.100 Y93.228 E0.00582
G1 X129.046 Y107.173 E0.62045
G1 X128.748 Y107.203 E0.00941
G1 X128.585 Y107.247 E0.00532
G1 X114.833 Y93.495 E0.61184
G1 X114.565 Y93.763 E0.01190
G1 X128.195 Y107.392 E0.60639
M73 P7 R15
M73 Q7 S15
G1 X128.013 Y107.490 E0.00650
G1 X127.873 Y107.605 E0.00571
G1 X114.298 Y94.030 E0.60397
G1 X114.030 Y94.298 E0.01190
G1 X127.606 Y107.874 E0.60402
M73 P7 R14
G1 X127.498 Y108.007 E0.00541
G1 X127.396 Y108.198 E0.00682
G1 X113.763 Y94.565 E0.60656
M73 Q7 S14
G1 X113.495 Y94.833 E0.01190
G1 X127.248 Y108.586 E0.61191
G1 X127.220 Y108.682 E0.00314
G1 X127.186 Y109.058 E0.01189
G1 X113.228 Y95.101 E0.62101
G1 X113.097 Y95.231 E0.00582
G1 X112.987 Y95.395 E0.00620
G1 X119.935 Y102.343 E0.30912
G1 X119.632 Y102.264 E0.00985
G1 X119.303 Y102.246 E0.01037
G1 X112.773 Y95.716 E0.29052
G1 X112.559 Y96.037 E0.01214
G1 X118.845 Y102.323 E0.27970
G1 X118.563 Y102.411 E0.00929
G1 X118.459 Y102.473 E0.00380
G1 X112.344 Y96.358 E0.27207
G1 X112.130 Y96.678 E0.01214
G1 X118.142 Y102.690 E0.26746
G1 X117.967 Y102.846 E0.00737
G1 X117.879 Y102.962 E0.00459
G1 X111.916 Y96.999 E0.26532
G1 X111.701 Y97.320 E0.01214
G1 X117.673 Y103.291 E0.26567
G1 X117.587 Y103.469 E0.00621
G1 X117.531 Y103.684 E0.00700
G1 X111.487 Y97.641 E0.26890
M73 Q8 S14
G1 X111.415 Y97.748 E0.00406
M73 P8 R14
G1 X111.305 Y97.993 E0.00847
G1 X117.669 Y104.357 E0.28316
G1 E-0.80000 F2100.000
G1 Z0.800 F10800.000
G1 X120.042 Y105.661
G1 Z0.200
G1 E0.80000 F2100.000
G1 F1200.000
G1 X122.638 Y108.256 E0.11548
G1 X122.551 Y108.241 E0.00277
G1 X122.246 Y108.247 E0.00959
G1 X122.118 Y108.271 E0.00411
G1 X119.778 Y105.931 E0.10411
G1 X119.420 Y105.982 E0.01136
G1 X119.285 Y105.974 E0.00425
G1 X121.697 Y108.385 E0.10728
G1 X121.491 Y108.476 E0.00708
G1 X121.350 Y108.574 E0.00539
G1 X111.138 Y98.362 E0.45436
G1 X110.972 Y98.730 E0.01272
G1 X121.062 Y108.820 E0.44893
G1 X120.937 Y108.951 E0.00569
G1 X120.828 Y109.122 E0.00637
G1 X110.805 Y99.099 E0.44593
G1 X110.644 Y99.473 E0.01282
G1 X120.653 Y109.482 E0.44531
G1 X120.607 Y109.602 E0.00404
G1 X120.551 Y109.915 E0.01001
G1 X110.491 Y99.855 E0.44761
G1 X110.356 Y100.255 E0.01328
G1 X120.585 Y110.484 E0.45513
G1 X120.630 Y110.688 E0.00656
G1 X120.778 Y111.023 E0.01154
G1 X120.988 Y111.324 E0.01154
G1 X121.253 Y111.577 E0.01154
G1 X121.562 Y111.774 E0.01154
G1 X121.904 Y111.907 E0.01154
G1 X122.031 Y111.930 E0.00405
G1 X129.729 Y119.628 E0.34252
G1 X130.107 Y119.471 E0.01288
G1 X122.600 Y111.964 E0.33403
G1 X123.035 Y111.864 E0.01405
G1 X130.486 Y119.315 E0.33150
G1 X130.864 Y119.158 E0.01288
G1 X123.394 Y111.688 E0.33235
G1 X123.626 Y111.526 E0.00890
G1 X123.695 Y111.454 E0.00314
G1 X131.242 Y119.001 E0.33580
G1 X131.621 Y118.844 E0.01288
G1 X123.941 Y111.164 E0.34170
M73 Q9 S14
G1 X124.077 Y110.952 E0.00794
G1 X124.129 Y110.817 E0.00454
G1 X131.999 Y118.688 E0.35017
