; generated by PrusaSlicer 2.2.0+win64 on 2022-01-12 at 18:13:49 UTC

; 

; external perimeters extrusion width = 0.45mm
; perimeters extrusion width = 0.45mm
; infill extrusion width = 0.45mm
; solid infill extrusion width = 0.45mm
; top infill extrusion width = 0.40mm
; first layer extrusion width = 0.42mm

M73 P0 R75
M73 Q0 S76
M201 X1000 Y1000 Z200 E5000 ; sets maximum accelerations, mm/sec^2
M203 X200 Y200 Z12 E120 ; sets maximum feedrates, mm/sec
M204 P1250 R1250 T1250 ; sets acceleration (P, T) and retract acceleration (R), mm/sec^2
M205 X8.00 Y8.00 Z0.40 E4.50 ; sets the jerk limits, mm/sec
M205 S0 T0 ; sets the minimum extruding and travel feed rate, mm/sec
M107
M862.3 P "MK3S" ; printer model check
M862.1 P0.4 ; nozzle diameter check
G90 ; use absolute coordinates
M83 ; extruder relative mode
M104 S225 ; set extruder temp
M140 S60 ; set bed temp
M190 S60 ; wait for bed temp
M109 S225 ; wait for extruder temp
G28 W ; home all without mesh bed level
G80 ; mesh bed leveling
G1 Y-3.0 F1000.0 ; go outside print area
G92 E0.0
G1 X60.0 E9.0 F1000.0 ; intro line
M73 Q0 S76
M73 P0 R75
G1 X100.0 E12.5 F1000.0 ; intro line
G92 E0.0
M221 S95

; Don't change E values below. Excessive value can damage the printer.
M907 E430 ; set extruder motor current
G21 ; set units to millimeters
G90 ; use absolute coordinates
M83 ; use relative distances for extrusion
M900 K0.05 ; Filament gcode LA 1.5
M900 K30 ; Filament gcode LA 1.0
;BEFORE_LAYER_CHANGE
G92 E0.0
;0.2


G1 E-0.80000 F2100.00000
G1 Z0.400 F10800.000
;AFTER_LAYER_CHANGE
;0.2
G1 X72.429 Y65.147
G1 Z0.200
G1 E0.80000 F2100.00000
M204 S750
G1 F900.000
G1 X72.989 Y64.530 E0.02614
G1 X102.576 Y42.308 E1.16017
G1 X103.087 Y42.017 E0.01846
G1 X103.985 Y41.834 E0.02872
G1 X130.004 Y41.834 E0.81581
G1 X130.756 Y41.958 E0.02390
G1 X176.347 Y57.346 E1.50871
G1 X177.153 Y57.826 E0.02942
G1 X177.711 Y58.581 E0.02942
G1 X177.878 Y59.071 E0.01621
G1 X177.935 Y59.584 E0.01621
G1 X177.935 Y143.589 E2.63390
G1 X177.885 Y144.077 E0.01538
G1 X177.719 Y144.578 E0.01657
G1 X177.445 Y145.034 E0.01669
G1 X177.079 Y145.415 E0.01657
G1 X176.635 Y145.708 E0.01669
G1 X130.731 Y168.051 E1.60072
G1 X130.008 Y168.166 E0.02296
G1 X103.512 Y168.115 E0.83075
G1 X103.028 Y167.958 E0.01597
G1 X102.585 Y167.698 E0.01609
G1 X73.002 Y145.480 E1.16002
G1 X72.493 Y144.949 E0.02308
G1 X72.170 Y144.288 E0.02308
G1 X72.065 Y143.589 E0.02216
G1 X72.065 Y66.411 E2.41984
G1 X72.115 Y65.923 E0.01538
G1 X72.406 Y65.203 E0.02437
M204 S1000
; printing object GOZSubBuildSMDiff-TB.stl id:2 copy 0
G1 F8640.000
G1 X72.989 Y64.530 E-0.20555
G1 X74.909 Y63.088 E-0.55445
G1 E-0.04000 F2100.00000
G1 Z0.600 F10800.000
G1 X141.845 Y105.376
G1 Z0.200
G1 E0.80000 F2100.00000
M204 S750
G1 F900.000
G1 X174.771 Y105.376 E1.03237
G1 X174.771 Y142.802 E1.17346
G1 X141.845 Y142.802 E1.03237
G1 X141.845 Y105.436 E1.17158
M204 S1000
G1 X141.468 Y104.999 F10800.000
M204 S750
G1 F900.000
G1 X175.148 Y104.999 E1.05601
G1 X175.148 Y143.179 E1.19711
G1 X141.468 Y143.179 E1.05601
G1 X141.468 Y105.059 E1.19523
M204 S1000
G1 X141.852 Y105.110 F10800.000
G1 F8640.000
G1 X144.760 Y105.053 E-0.76000
G1 E-0.04000 F2100.00000
G1 Z0.600 F10800.000
G1 X141.958 Y141.925
G1 Z0.200
G1 E0.80000 F2100.00000
M204 S750
G1 F900.000
G1 X142.552 Y142.519 E0.02638
G1 X143.086 Y142.519 E0.01678
G1 X142.128 Y141.560 E0.04256
G1 X142.128 Y141.026 E0.01678
G1 X143.620 Y142.519 E0.06629
G1 X144.155 Y142.519 E0.01678
G1 X142.128 Y140.492 E0.09001
G1 X142.128 Y139.958 E0.01678
G1 X144.689 Y142.519 E0.11374
G1 X145.223 Y142.519 E0.01678
G1 X142.128 Y139.424 E0.13746
G1 X142.128 Y138.890 E0.01678
G1 X145.757 Y142.519 E0.16119
G1 X146.291 Y142.519 E0.01678
G1 X142.128 Y138.356 E0.18491
G1 X142.128 Y137.821 E0.01678
G1 X146.825 Y142.519 E0.20864
G1 X147.360 Y142.519 E0.01678
G1 X142.128 Y137.287 E0.23236
G1 X142.128 Y136.753 E0.01678
G1 X147.894 Y142.519 E0.25609
G1 X148.428 Y142.519 E0.01678
G1 X142.128 Y136.219 E0.27981
G1 X142.128 Y135.685 E0.01678
G1 X148.962 Y142.519 E0.30354
G1 X149.496 Y142.519 E0.01678
G1 X142.128 Y135.151 E0.32726
G1 X142.128 Y134.616 E0.01678
G1 X150.030 Y142.519 E0.35099
G1 X150.565 Y142.519 E0.01678
G1 X142.128 Y134.082 E0.37471
G1 X142.128 Y133.548 E0.01678
G1 X151.099 Y142.519 E0.39844
G1 X151.633 Y142.519 E0.01678
G1 X142.128 Y133.014 E0.42216
M73 Q1 S75
G1 X142.128 Y132.480 E0.01678
G1 X152.167 Y142.519 E0.44589
M73 P1 R74
G1 X152.701 Y142.519 E0.01678
G1 X142.128 Y131.946 E0.46961
G1 X142.128 Y131.411 E0.01678
G1 X153.235 Y142.519 E0.49333
G1 X153.769 Y142.519 E0.01678
G1 X142.128 Y130.877 E0.51706
G1 X142.128 Y130.343 E0.01678
G1 X154.304 Y142.519 E0.54078
G1 X154.838 Y142.519 E0.01678
G1 X142.128 Y129.809 E0.56451
G1 X142.128 Y129.275 E0.01678
G1 X155.372 Y142.519 E0.58823
G1 X155.906 Y142.519 E0.01678
G1 X142.128 Y128.741 E0.61196
G1 X142.128 Y128.207 E0.01678
G1 X156.440 Y142.519 E0.63568
G1 X156.974 Y142.519 E0.01678
G1 X142.128 Y127.672 E0.65941
G1 X142.128 Y127.138 E0.01678
G1 X157.509 Y142.519 E0.68313
G1 X158.043 Y142.519 E0.01678
G1 X142.128 Y126.604 E0.70686
G1 X142.128 Y126.070 E0.01678
G1 X158.577 Y142.519 E0.73058
G1 X159.111 Y142.519 E0.01678
G1 X142.128 Y125.536 E0.75431
G1 X142.128 Y125.002 E0.01678
G1 X159.645 Y142.519 E0.77803
G1 X160.179 Y142.519 E0.01678
G1 X142.128 Y124.467 E0.80176
G1 X142.128 Y123.933 E0.01678
G1 X160.714 Y142.519 E0.82548
G1 X161.248 Y142.519 E0.01678
G1 X142.128 Y123.399 E0.84921
G1 X142.128 Y122.865 E0.01678
G1 X161.782 Y142.519 E0.87293
G1 X162.316 Y142.519 E0.01678
G1 X142.128 Y122.331 E0.89666
G1 X142.128 Y121.797 E0.01678
G1 X162.850 Y142.519 E0.92038
G1 X163.384 Y142.519 E0.01678
G1 X142.128 Y121.262 E0.94411
G1 X142.128 Y120.728 E0.01678
G1 X163.918 Y142.519 E0.96783
G1 X164.453 Y142.519 E0.01678
G1 X142.128 Y120.194 E0.99155
G1 X142.128 Y119.660 E0.01678
G1 X164.987 Y142.519 E1.01528
G1 X165.521 Y142.519 E0.01678
G1 X142.128 Y119.126 E1.03900
G1 X142.128 Y118.592 E0.01678
G1 X166.055 Y142.519 E1.06273
G1 X166.589 Y142.519 E0.01678
G1 X142.128 Y118.058 E1.08645
G1 X142.128 Y117.523 E0.01678
G1 X167.123 Y142.519 E1.11018
G1 X167.658 Y142.519 E0.01678
G1 X142.128 Y116.989 E1.13390
G1 X142.128 Y116.455 E0.01678
G1 X168.192 Y142.519 E1.15763
G1 X168.726 Y142.519 E0.01678
G1 X142.128 Y115.921 E1.18135
G1 X142.128 Y115.387 E0.01678
G1 X169.260 Y142.519 E1.20508
G1 X169.794 Y142.519 E0.01678
G1 X142.128 Y114.853 E1.22880
M73 Q2 S74
M73 P2 R73
G1 X142.128 Y114.318 E0.01678
G1 X170.328 Y142.519 E1.25253
G1 X170.862 Y142.519 E0.01678
G1 X142.128 Y113.784 E1.27625
G1 X142.128 Y113.250 E0.01678
G1 X171.397 Y142.519 E1.29998
G1 X171.931 Y142.519 E0.01678
G1 X142.128 Y112.716 E1.32370
G1 X142.128 Y112.182 E0.01678
G1 X172.465 Y142.519 E1.34743
G1 X172.999 Y142.519 E0.01678
G1 X142.128 Y111.648 E1.37115
G1 X142.128 Y111.114 E0.01678
G1 X173.533 Y142.519 E1.39488
G1 X174.067 Y142.519 E0.01678
G1 X142.128 Y110.579 E1.41860
G1 X142.128 Y110.045 E0.01678
G1 X174.488 Y142.405 E1.43729
G1 X174.488 Y141.871 E0.01678
G1 X142.128 Y109.511 E1.43729
G1 X142.128 Y108.977 E0.01678
G1 X174.488 Y141.337 E1.43729
G1 X174.488 Y140.803 E0.01678
G1 X142.128 Y108.443 E1.43729
G1 X142.128 Y107.909 E0.01678
G1 X174.488 Y140.269 E1.43729
G1 X174.488 Y139.735 E0.01678
G1 X142.128 Y107.374 E1.43729
G1 X142.128 Y106.840 E0.01678
G1 X174.488 Y139.200 E1.43729
G1 X174.488 Y138.666 E0.01678
G1 X142.128 Y106.306 E1.43729
G1 X142.128 Y105.772 E0.01678
G1 X174.488 Y138.132 E1.43729
G1 X174.488 Y137.598 E0.01678
G1 X142.549 Y105.659 E1.41860
G1 X143.083 Y105.659 E0.01678
G1 X174.488 Y137.064 E1.39488
G1 X174.488 Y136.530 E0.01678
G1 X143.617 Y105.659 E1.37115
G1 X144.151 Y105.659 E0.01678
G1 X174.488 Y135.996 E1.34743
M73 Q4 S73
M73 P4 R72
G1 X174.488 Y135.461 E0.01678
G1 X144.685 Y105.659 E1.32370
G1 X145.220 Y105.659 E0.01678
G1 X174.488 Y134.927 E1.29998
G1 X174.488 Y134.393 E0.01678
G1 X145.754 Y105.659 E1.27625
G1 X146.288 Y105.659 E0.01678
G1 X174.488 Y133.859 E1.25253
G1 X174.488 Y133.325 E0.01678
G1 X146.822 Y105.659 E1.22880
G1 X147.356 Y105.659 E0.01678
G1 X174.488 Y132.791 E1.20508
G1 X174.488 Y132.256 E0.01678
G1 X147.890 Y105.659 E1.18136
G1 X148.424 Y105.659 E0.01678
G1 X174.488 Y131.722 E1.15763
G1 X174.488 Y131.188 E0.01678
G1 X148.959 Y105.659 E1.13391
G1 X149.493 Y105.659 E0.01678
G1 X174.488 Y130.654 E1.11018
G1 X174.488 Y130.120 E0.01678
G1 X150.027 Y105.659 E1.08646
G1 X150.561 Y105.659 E0.01678
G1 X174.488 Y129.586 E1.06273
G1 X174.488 Y129.052 E0.01678
G1 X151.095 Y105.659 E1.03901
G1 X151.629 Y105.659 E0.01678
G1 X174.488 Y128.517 E1.01528
G1 X174.488 Y127.983 E0.01678
G1 X152.164 Y105.659 E0.99156
G1 X152.698 Y105.659 E0.01678
G1 X174.488 Y127.449 E0.96783
G1 X174.488 Y126.915 E0.01678
G1 X153.232 Y105.659 E0.94411
G1 X153.766 Y105.659 E0.01678
G1 X174.488 Y126.381 E0.92038
G1 X174.488 Y125.847 E0.01678
G1 X154.300 Y105.659 E0.89666
G1 X154.834 Y105.659 E0.01678
G1 X174.488 Y125.312 E0.87293
G1 X174.488 Y124.778 E0.01678
G1 X155.369 Y105.659 E0.84921
G1 X155.903 Y105.659 E0.01678
G1 X174.488 Y124.244 E0.82548
G1 X174.488 Y123.710 E0.01678
G1 X156.437 Y105.659 E0.80176
G1 X156.971 Y105.659 E0.01678
G1 X174.488 Y123.176 E0.77803
G1 X174.488 Y122.642 E0.01678
G1 X157.505 Y105.659 E0.75431
G1 X158.039 Y105.659 E0.01678
G1 X174.488 Y122.107 E0.73058
G1 X174.488 Y121.573 E0.01678
G1 X158.573 Y105.659 E0.70686
G1 X159.108 Y105.659 E0.01678
G1 X174.488 Y121.039 E0.68314
M73 Q5 S72
M73 P5 R71
G1 X174.488 Y120.505 E0.01678
G1 X159.642 Y105.659 E0.65941
G1 X160.176 Y105.659 E0.01678
G1 X174.488 Y119.971 E0.63569
G1 X174.488 Y119.437 E0.01678
G1 X160.710 Y105.659 E0.61196
G1 X161.244 Y105.659 E0.01678
G1 X174.488 Y118.903 E0.58824
G1 X174.488 Y118.368 E0.01678
G1 X161.778 Y105.659 E0.56451
G1 X162.313 Y105.659 E0.01678
G1 X174.488 Y117.834 E0.54079
G1 X174.488 Y117.300 E0.01678
G1 X162.847 Y105.659 E0.51706
G1 X163.381 Y105.659 E0.01678
G1 X174.488 Y116.766 E0.49334
G1 X174.488 Y116.232 E0.01678
G1 X163.915 Y105.659 E0.46961
G1 X164.449 Y105.659 E0.01678
G1 X174.488 Y115.698 E0.44589
G1 X174.488 Y115.163 E0.01678
G1 X164.983 Y105.659 E0.42216
G1 X165.518 Y105.659 E0.01678
G1 X174.488 Y114.629 E0.39844
G1 X174.488 Y114.095 E0.01678
G1 X166.052 Y105.659 E0.37471
G1 X166.586 Y105.659 E0.01678
G1 X174.488 Y113.561 E0.35099
G1 X174.488 Y113.027 E0.01678
G1 X167.120 Y105.659 E0.32726
G1 X167.654 Y105.659 E0.01678
G1 X174.488 Y112.493 E0.30354
G1 X174.488 Y111.958 E0.01678
G1 X168.188 Y105.659 E0.27981
G1 X168.722 Y105.659 E0.01678
G1 X174.488 Y111.424 E0.25609
G1 X174.488 Y110.890 E0.01678
G1 X169.257 Y105.659 E0.23237
G1 X169.791 Y105.659 E0.01678
G1 X174.488 Y110.356 E0.20864
G1 X174.488 Y109.822 E0.01678
G1 X170.325 Y105.659 E0.18492
G1 X170.859 Y105.659 E0.01678
G1 X174.488 Y109.288 E0.16119
G1 X174.488 Y108.754 E0.01678
G1 X171.393 Y105.659 E0.13747
G1 X171.927 Y105.659 E0.01678
G1 X174.488 Y108.219 E0.11374
G1 X174.488 Y107.685 E0.01678
G1 X172.462 Y105.659 E0.09002
G1 X172.996 Y105.659 E0.01678
G1 X174.488 Y107.151 E0.06629
G1 X174.488 Y106.617 E0.01678
G1 X173.530 Y105.659 E0.04257
G1 X174.064 Y105.659 E0.01678
G1 X174.658 Y106.252 E0.02638
M204 S1000
; stop printing object GOZSubBuildSMDiff-TB.stl id:2 copy 0
; printing object GOZSubBuildSMDiff-TB.stl id:6 copy 0
G1 F8640.000
G1 X174.064 Y105.659 E-0.19394
G1 X173.530 Y105.659 E-0.12334
G1 X174.488 Y106.617 E-0.31296
G1 X174.488 Y107.151 E-0.12334
G1 X174.469 Y107.131 E-0.00643
G1 E-0.04000 F2100.00000
G1 Z0.600 F10800.000
G1 X174.658 Y97.802
G1 Z0.200
G1 E0.80000 F2100.00000
M204 S750
G1 F900.000
G1 X141.845 Y97.802 E1.02882
G1 X141.845 Y60.376 E1.17346
G1 X174.771 Y60.376 E1.03237
G1 X174.771 Y97.802 E1.17346
G1 X174.718 Y97.802 E0.00167
M204 S1000
G1 X175.148 Y98.179 F10800.000
M204 S750
G1 F900.000
G1 X141.468 Y98.179 E1.05601
G1 X141.468 Y59.999 E1.19711
G1 X175.148 Y59.999 E1.05601
G1 X175.148 Y98.119 E1.19523
M204 S1000
G1 X174.764 Y98.067 F10800.000
G1 F8640.000
G1 X171.857 Y98.125 E-0.76000
G1 E-0.04000 F2100.00000
G1 Z0.600 F10800.000
G1 X174.658 Y61.252
G1 Z0.200
G1 E0.80000 F2100.00000
M204 S750
G1 F900.000
G1 X174.064 Y60.659 E0.02638
G1 X173.530 Y60.659 E0.01678
G1 X174.488 Y61.617 E0.04257
G1 X174.488 Y62.151 E0.01678
G1 X172.996 Y60.659 E0.06629
G1 X172.462 Y60.659 E0.01678
G1 X174.488 Y62.685 E0.09002
G1 X174.488 Y63.219 E0.01678
G1 X171.927 Y60.659 E0.11374
G1 X171.393 Y60.659 E0.01678
G1 X174.488 Y63.754 E0.13747
G1 X174.488 Y64.288 E0.01678
G1 X170.859 Y60.659 E0.16119
G1 X170.325 Y60.659 E0.01678
G1 X174.488 Y64.822 E0.18492
G1 X174.488 Y65.356 E0.01678
G1 X169.791 Y60.659 E0.20864
G1 X169.257 Y60.659 E0.01678
G1 X174.488 Y65.890 E0.23237
G1 X174.488 Y66.424 E0.01678
G1 X168.722 Y60.659 E0.25609
G1 X168.188 Y60.659 E0.01678
G1 X174.488 Y66.958 E0.27981
G1 X174.488 Y67.493 E0.01678
G1 X167.654 Y60.659 E0.30354
G1 X167.120 Y60.659 E0.01678
G1 X174.488 Y68.027 E0.32726
G1 X174.488 Y68.561 E0.01678
G1 X166.586 Y60.659 E0.35099
G1 X166.052 Y60.659 E0.01678
G1 X174.488 Y69.095 E0.37471
G1 X174.488 Y69.629 E0.01678
G1 X165.518 Y60.659 E0.39844
G1 X164.983 Y60.659 E0.01678
G1 X174.488 Y70.163 E0.42216
G1 X174.488 Y70.698 E0.01678
G1 X164.449 Y60.659 E0.44589
G1 X163.915 Y60.659 E0.01678
G1 X174.488 Y71.232 E0.46961
G1 X174.488 Y71.766 E0.01678
G1 X163.381 Y60.659 E0.49334
G1 X162.847 Y60.659 E0.01678
G1 X174.488 Y72.300 E0.51706
G1 X174.488 Y72.834 E0.01678
G1 X162.313 Y60.659 E0.54079
G1 X161.778 Y60.659 E0.01678
G1 X174.488 Y73.368 E0.56451
G1 X174.488 Y73.903 E0.01678
G1 X161.244 Y60.659 E0.58824
G1 X160.710 Y60.659 E0.01678
G1 X174.488 Y74.437 E0.61196
M73 Q6 S71
M73 P6 R70
G1 X174.488 Y74.971 E0.01678
G1 X160.176 Y60.659 E0.63569
G1 X159.642 Y60.659 E0.01678
G1 X174.488 Y75.505 E0.65941
G1 X174.488 Y76.039 E0.01678
G1 X159.108 Y60.659 E0.68314
G1 X158.573 Y60.659 E0.01678
G1 X174.488 Y76.573 E0.70686
G1 X174.488 Y77.107 E0.01678
G1 X158.039 Y60.659 E0.73058
G1 X157.505 Y60.659 E0.01678
G1 X174.488 Y77.642 E0.75431
G1 X174.488 Y78.176 E0.01678
G1 X156.971 Y60.659 E0.77803
G1 X156.437 Y60.659 E0.01678
G1 X174.488 Y78.710 E0.80176
G1 X174.488 Y79.244 E0.01678
G1 X155.903 Y60.659 E0.82548
G1 X155.369 Y60.659 E0.01678
G1 X174.488 Y79.778 E0.84921
G1 X174.488 Y80.312 E0.01678
G1 X154.834 Y60.659 E0.87293
G1 X154.300 Y60.659 E0.01678
G1 X174.488 Y80.847 E0.89666
G1 X174.488 Y81.381 E0.01678
G1 X153.766 Y60.659 E0.92038
G1 X153.232 Y60.659 E0.01678
G1 X174.488 Y81.915 E0.94411
G1 X174.488 Y82.449 E0.01678
G1 X152.698 Y60.659 E0.96783
G1 X152.164 Y60.659 E0.01678
G1 X174.488 Y82.983 E0.99156
G1 X174.488 Y83.517 E0.01678
G1 X151.629 Y60.659 E1.01528
G1 X151.095 Y60.659 E0.01678
G1 X174.488 Y84.052 E1.03901
G1 X174.488 Y84.586 E0.01678
G1 X150.561 Y60.659 E1.06273
G1 X150.027 Y60.659 E0.01678
G1 X174.488 Y85.120 E1.08646
G1 X174.488 Y85.654 E0.01678
G1 X149.493 Y60.659 E1.11018
G1 X148.959 Y60.659 E0.01678
G1 X174.488 Y86.188 E1.13391
G1 X174.488 Y86.722 E0.01678
G1 X148.424 Y60.659 E1.15763
G1 X147.890 Y60.659 E0.01678
G1 X174.488 Y87.256 E1.18136
G1 X174.488 Y87.791 E0.01678
G1 X147.356 Y60.659 E1.20508
G1 X146.822 Y60.659 E0.01678
G1 X174.488 Y88.325 E1.22880
G1 X174.488 Y88.859 E0.01678
G1 X146.288 Y60.659 E1.25253
G1 X145.754 Y60.659 E0.01678
G1 X174.488 Y89.393 E1.27625
G1 X174.488 Y89.927 E0.01678
G1 X145.220 Y60.659 E1.29998
M73 Q8 S70
M73 P8 R69
G1 X144.685 Y60.659 E0.01678
G1 X174.488 Y90.461 E1.32370
G1 X174.488 Y90.996 E0.01678
G1 X144.151 Y60.659 E1.34743
G1 X143.617 Y60.659 E0.01678
G1 X174.488 Y91.530 E1.37115
G1 X174.488 Y92.064 E0.01678
G1 X143.083 Y60.659 E1.39488
G1 X142.549 Y60.659 E0.01678
G1 X174.488 Y92.598 E1.41860
G1 X174.488 Y93.132 E0.01678
G1 X142.128 Y60.772 E1.43729
G1 X142.128 Y61.306 E0.01678
G1 X174.488 Y93.666 E1.43729
G1 X174.488 Y94.200 E0.01678
G1 X142.128 Y61.840 E1.43729
G1 X142.128 Y62.374 E0.01678
G1 X174.488 Y94.735 E1.43729
G1 X174.488 Y95.269 E0.01678
G1 X142.128 Y62.909 E1.43729
G1 X142.128 Y63.443 E0.01678
G1 X174.488 Y95.803 E1.43729
G1 X174.488 Y96.337 E0.01678
G1 X142.128 Y63.977 E1.43729
G1 X142.128 Y64.511 E0.01678
G1 X174.488 Y96.871 E1.43729
G1 X174.488 Y97.405 E0.01678
