; generated by PrusaSlicer 2.2.0+win64 on 2021-12-02 at 22:25:38 UTC

; 

; external perimeters extrusion width = 0.45mm
; perimeters extrusion width = 0.45mm
; infill extrusion width = 0.45mm
; solid infill extrusion width = 0.45mm
; top infill extrusion width = 0.40mm
; first layer extrusion width = 0.42mm

M73 P0 R248
M73 Q0 S249
M201 X1000 Y1000 Z200 E5000 ; sets maximum accelerations, mm/sec^2
M203 X200 Y200 Z12 E120 ; sets maximum feedrates, mm/sec
M204 P1250 R1250 T1250 ; sets acceleration (P, T) and retract acceleration (R), mm/sec^2
M205 X8.00 Y8.00 Z0.40 E4.50 ; sets the jerk limits, mm/sec
M205 S0 T0 ; sets the minimum extruding and travel feed rate, mm/sec
M107
M862.3 P "MK3S" ; printer model check
M862.1 P0.4 ; nozzle diameter check
G90 ; use absolute coordinates
M83 ; extruder relative mode
M104 S215 ; set extruder temp
M140 S60 ; set bed temp
M190 S60 ; wait for bed temp
M109 S215 ; wait for extruder temp
G28 W ; home all without mesh bed level
G80 ; mesh bed leveling
G1 Y-3.0 F1000.0 ; go outside print area
G92 E0.0
G1 X60.0 E9.0 F1000.0 ; intro line
M73 Q0 S249
M73 P0 R248
G1 X100.0 E12.5 F1000.0 ; intro line
G92 E0.0
M221 S95

; Don't change E values below. Excessive value can damage the printer.
M907 E430 ; set extruder motor current
G21 ; set units to millimeters
G90 ; use absolute coordinates
M83 ; use relative distances for extrusion
M900 K0.05 ; Filament gcode LA 1.5
M900 K30 ; Filament gcode LA 1.0
;BEFORE_LAYER_CHANGE
G92 E0.0
;0.2


G1 E-0.80000 F2100.00000
G1 Z0.400 F10800.000
;AFTER_LAYER_CHANGE
;0.2
G1 X41.446 Y8.104
G1 Z0.200
G1 E0.80000 F2100.00000
M204 S1000
G1 F1200.000
G1 X42.319 Y7.934 E0.02790
G1 X212.912 Y7.934 E5.34882
G1 X213.441 Y7.995 E0.01668
G1 X213.943 Y8.171 E0.01669
G1 X214.390 Y8.453 E0.01657
G1 X214.766 Y8.829 E0.01668
G1 X238.860 Y39.957 E1.23421
G1 X239.146 Y40.441 E0.01763
G1 X239.310 Y40.979 E0.01763
G1 X248.492 Y160.564 E3.76053
G1 X248.495 Y199.731 E1.22804
G1 X248.292 Y200.651 E0.02954
G1 X247.747 Y201.420 E0.02954
G1 X246.997 Y201.897 E0.02790
G1 X246.123 Y202.066 E0.02790
G1 X9.118 Y202.066 E7.43112
G1 X8.177 Y201.872 E0.03013
G1 X7.387 Y201.318 E0.03024
G1 X6.939 Y200.638 E0.02555
G1 X6.746 Y199.842 E0.02567
G1 X1.507 Y109.796 E2.82809
G1 X1.540 Y70.883 E1.22010
G1 X1.759 Y70.220 E0.02190
G1 X21.490 Y31.246 E1.36968
G1 X40.699 Y8.581 E0.93155
G1 X41.395 Y8.136 E0.02590
; printing object GlassCut.stl id:5 copy 0
G1 F8640.000
G1 X42.319 Y7.934 E-0.21841
G1 X44.665 Y7.934 E-0.54159
G1 E-0.04000 F2100.00000
G1 Z0.600 F10800.000
G1 X90.905 Y33.298
G1 Z0.200
G1 E0.80000 F2100.00000
G1 F1200.000
G1 X149.947 Y33.298 E1.85122
G1 X149.947 Y67.313 E1.06650
G1 X90.905 Y67.313 E1.85122
G1 X90.905 Y33.358 E1.06462
G1 X90.528 Y32.921 F10800.000
G1 F1200.000
G1 X150.324 Y32.921 E1.87487
G1 X150.324 Y67.690 E1.09015
G1 X90.528 Y67.690 E1.87487
M73 Q0 S248
M73 P0 R247
G1 X90.528 Y32.981 E1.08827
G1 X90.922 Y32.991 F10800.000
G1 F8640.000
G1 X93.820 Y32.978 E-0.76000
G1 E-0.04000 F2100.00000
G1 Z0.600 F10800.000
G1 X149.834 Y34.177
G1 Z0.200
G1 E0.80000 F2100.00000
G1 F1200.000
G1 X149.238 Y33.581 E0.02656
G1 X148.702 Y33.581 E0.01687
G1 X149.664 Y34.544 E0.04287
G1 X149.664 Y35.079 E0.01687
G1 X148.166 Y33.581 E0.06673
G1 X147.631 Y33.581 E0.01687
G1 X149.664 Y35.615 E0.09059
G1 X149.664 Y36.151 E0.01687
G1 X147.095 Y33.581 E0.11446
G1 X146.559 Y33.581 E0.01687
G1 X149.664 Y36.686 E0.13832
G1 X149.664 Y37.222 E0.01687
G1 X146.024 Y33.581 E0.16218
G1 X145.488 Y33.581 E0.01687
G1 X149.664 Y37.758 E0.18605
G1 X149.664 Y38.294 E0.01687
G1 X144.952 Y33.581 E0.20991
G1 X144.416 Y33.581 E0.01687
G1 X149.664 Y38.829 E0.23378
G1 X149.664 Y39.365 E0.01687
G1 X143.881 Y33.581 E0.25764
G1 X143.345 Y33.581 E0.01687
G1 X149.664 Y39.901 E0.28150
G1 X149.664 Y40.436 E0.01687
G1 X142.809 Y33.581 E0.30537
G1 X142.274 Y33.581 E0.01687
G1 X149.664 Y40.972 E0.32923
G1 X149.664 Y41.508 E0.01687
G1 X141.738 Y33.581 E0.35309
G1 X141.202 Y33.581 E0.01687
G1 X149.664 Y42.044 E0.37696
G1 X149.664 Y42.579 E0.01687
G1 X140.666 Y33.581 E0.40082
G1 X140.131 Y33.581 E0.01687
G1 X149.664 Y43.115 E0.42469
G1 X149.664 Y43.651 E0.01687
G1 X139.595 Y33.581 E0.44855
G1 X139.059 Y33.581 E0.01687
G1 X149.664 Y44.186 E0.47241
G1 X149.664 Y44.722 E0.01687
G1 X138.524 Y33.581 E0.49628
G1 X137.988 Y33.581 E0.01687
G1 X149.664 Y45.258 E0.52014
G1 X149.664 Y45.794 E0.01687
G1 X137.452 Y33.581 E0.54400
G1 X136.916 Y33.581 E0.01687
G1 X149.664 Y46.329 E0.56787
G1 X149.664 Y46.865 E0.01687
G1 X136.381 Y33.581 E0.59173
G1 X135.845 Y33.581 E0.01687
G1 X149.664 Y47.401 E0.61560
G1 X149.664 Y47.937 E0.01687
G1 X135.309 Y33.581 E0.63946
G1 X134.773 Y33.581 E0.01687
G1 X149.664 Y48.472 E0.66332
G1 X149.664 Y49.008 E0.01687
G1 X134.238 Y33.581 E0.68719
G1 X133.702 Y33.581 E0.01687
G1 X149.664 Y49.544 E0.71105
G1 X149.664 Y50.079 E0.01687
G1 X133.166 Y33.581 E0.73492
G1 X132.631 Y33.581 E0.01687
G1 X149.664 Y50.615 E0.75878
G1 X149.664 Y51.151 E0.01687
G1 X132.095 Y33.581 E0.78264
G1 X131.559 Y33.581 E0.01687
G1 X149.664 Y51.687 E0.80651
G1 X149.664 Y52.222 E0.01687
G1 X131.023 Y33.581 E0.83037
G1 X130.488 Y33.581 E0.01687
G1 X149.664 Y52.758 E0.85423
G1 X149.664 Y53.294 E0.01687
G1 X129.952 Y33.581 E0.87810
G1 X129.416 Y33.581 E0.01687
G1 X149.664 Y53.829 E0.90196
G1 X149.664 Y54.365 E0.01687
G1 X128.881 Y33.581 E0.92583
G1 X128.345 Y33.581 E0.01687
G1 X149.664 Y54.901 E0.94969
G1 X149.664 Y55.437 E0.01687
G1 X127.809 Y33.581 E0.97355
G1 X127.273 Y33.581 E0.01687
G1 X149.664 Y55.972 E0.99742
G1 X149.664 Y56.508 E0.01687
G1 X126.738 Y33.581 E1.02128
G1 X126.202 Y33.581 E0.01687
G1 X149.664 Y57.044 E1.04514
G1 X149.664 Y57.579 E0.01687
G1 X125.666 Y33.581 E1.06901
G1 X125.131 Y33.581 E0.01687
G1 X149.664 Y58.115 E1.09287
G1 X149.664 Y58.651 E0.01687
G1 X124.595 Y33.581 E1.11674
G1 X124.059 Y33.581 E0.01687
G1 X149.664 Y59.187 E1.14060
G1 X149.664 Y59.722 E0.01687
G1 X123.523 Y33.581 E1.16446
G1 X122.988 Y33.581 E0.01687
G1 X149.664 Y60.258 E1.18833
G1 X149.664 Y60.794 E0.01687
G1 X122.452 Y33.581 E1.21219
G1 X121.916 Y33.581 E0.01687
G1 X149.664 Y61.329 E1.23605
G1 X149.664 Y61.865 E0.01687
G1 X121.381 Y33.581 E1.25992
G1 X120.845 Y33.581 E0.01687
G1 X149.664 Y62.401 E1.28378
M73 Q0 S247
M73 P0 R246
G1 X149.664 Y62.937 E0.01687
G1 X120.309 Y33.581 E1.30765
G1 X119.773 Y33.581 E0.01687
G1 X149.664 Y63.472 E1.33151
G1 X149.664 Y64.008 E0.01687
G1 X119.238 Y33.581 E1.35537
G1 X118.702 Y33.581 E0.01687
G1 X149.664 Y64.544 E1.37924
G1 X149.664 Y65.080 E0.01687
G1 X118.166 Y33.581 E1.40310
G1 X117.630 Y33.581 E0.01687
G1 X149.664 Y65.615 E1.42696
G1 X149.664 Y66.151 E0.01687
G1 X117.095 Y33.581 E1.45083
G1 X116.559 Y33.581 E0.01687
G1 X149.664 Y66.687 E1.47469
G1 X149.664 Y67.030 E0.01082
G1 X149.472 Y67.030 E0.00606
G1 X116.023 Y33.581 E1.48999
G1 X115.488 Y33.581 E0.01687
G1 X148.936 Y67.030 E1.48999
G1 X148.401 Y67.030 E0.01687
G1 X114.952 Y33.581 E1.48999
G1 X114.416 Y33.581 E0.01687
G1 X147.865 Y67.030 E1.48999
G1 X147.329 Y67.030 E0.01687
G1 X113.880 Y33.581 E1.48999
G1 X113.345 Y33.581 E0.01687
G1 X146.794 Y67.030 E1.48999
G1 X146.258 Y67.030 E0.01687
G1 X112.809 Y33.581 E1.48999
G1 X112.273 Y33.581 E0.01687
G1 X145.722 Y67.030 E1.48999
G1 X145.186 Y67.030 E0.01687
G1 X111.738 Y33.581 E1.48999
G1 X111.202 Y33.581 E0.01687
G1 X144.651 Y67.030 E1.48999
G1 X144.115 Y67.030 E0.01687
G1 X110.666 Y33.581 E1.48999
G1 X110.130 Y33.581 E0.01687
G1 X143.579 Y67.030 E1.48999
G1 X143.044 Y67.030 E0.01687
G1 X109.595 Y33.581 E1.48999
G1 X109.059 Y33.581 E0.01687
G1 X142.508 Y67.030 E1.48999
G1 X141.972 Y67.030 E0.01687
G1 X108.523 Y33.581 E1.48999
G1 X107.988 Y33.581 E0.01687
G1 X141.436 Y67.030 E1.48999
G1 X140.901 Y67.030 E0.01687
G1 X107.452 Y33.581 E1.48999
G1 X106.916 Y33.581 E0.01687
G1 X140.365 Y67.030 E1.48999
M73 Q1 S246
M73 P1 R245
G1 X139.829 Y67.030 E0.01687
G1 X106.380 Y33.581 E1.48999
G1 X105.845 Y33.581 E0.01687
G1 X139.294 Y67.030 E1.48999
G1 X138.758 Y67.030 E0.01687
G1 X105.309 Y33.581 E1.48999
G1 X104.773 Y33.581 E0.01687
G1 X138.222 Y67.030 E1.48999
G1 X137.686 Y67.030 E0.01687
G1 X104.237 Y33.581 E1.48999
G1 X103.702 Y33.581 E0.01687
G1 X137.151 Y67.030 E1.48999
G1 X136.615 Y67.030 E0.01687
G1 X103.166 Y33.581 E1.48999
G1 X102.630 Y33.581 E0.01687
G1 X136.079 Y67.030 E1.48999
G1 X135.543 Y67.030 E0.01687
G1 X102.095 Y33.581 E1.48999
G1 X101.559 Y33.581 E0.01687
G1 X135.008 Y67.030 E1.48999
G1 X134.472 Y67.030 E0.01687
G1 X101.023 Y33.581 E1.48999
G1 X100.487 Y33.581 E0.01687
G1 X133.936 Y67.030 E1.48999
G1 X133.401 Y67.030 E0.01687
G1 X99.952 Y33.581 E1.48999
G1 X99.416 Y33.581 E0.01687
G1 X132.865 Y67.030 E1.48999
G1 X132.329 Y67.030 E0.01687
G1 X98.880 Y33.581 E1.48999
G1 X98.345 Y33.581 E0.01687
G1 X131.793 Y67.030 E1.48999
G1 X131.258 Y67.030 E0.01687
G1 X97.809 Y33.581 E1.48999
G1 X97.273 Y33.581 E0.01687
G1 X130.722 Y67.030 E1.48999
G1 X130.186 Y67.030 E0.01687
G1 X96.737 Y33.581 E1.48999
G1 X96.202 Y33.581 E0.01687
G1 X129.651 Y67.030 E1.48999
G1 X129.115 Y67.030 E0.01687
G1 X95.666 Y33.581 E1.48999
G1 X95.130 Y33.581 E0.01687
G1 X128.579 Y67.030 E1.48999
G1 X128.043 Y67.030 E0.01687
G1 X94.595 Y33.581 E1.48999
G1 X94.059 Y33.581 E0.01687
G1 X127.508 Y67.030 E1.48999
G1 X126.972 Y67.030 E0.01687
G1 X93.523 Y33.581 E1.48999
M73 Q1 S245
M73 P1 R244
G1 X92.987 Y33.581 E0.01687
G1 X126.436 Y67.030 E1.48999
G1 X125.901 Y67.030 E0.01687
G1 X92.452 Y33.581 E1.48999
G1 X91.916 Y33.581 E0.01687
G1 X125.365 Y67.030 E1.48999
G1 X124.829 Y67.030 E0.01687
G1 X91.380 Y33.581 E1.48999
G1 X91.188 Y33.581 E0.00605
G1 X91.188 Y33.925 E0.01082
G1 X124.293 Y67.030 E1.47469
G1 X123.758 Y67.030 E0.01687
G1 X91.188 Y34.460 E1.45082
G1 X91.188 Y34.996 E0.01687
G1 X123.222 Y67.030 E1.42696
G1 X122.686 Y67.030 E0.01687
G1 X91.188 Y35.532 E1.40310
G1 X91.188 Y36.068 E0.01687
G1 X122.151 Y67.030 E1.37923
G1 X121.615 Y67.030 E0.01687
G1 X91.188 Y36.603 E1.35537
G1 X91.188 Y37.139 E0.01687
G1 X121.079 Y67.030 E1.33151
G1 X120.543 Y67.030 E0.01687
G1 X91.188 Y37.675 E1.30764
G1 X91.188 Y38.210 E0.01687
G1 X120.008 Y67.030 E1.28378
G1 X119.472 Y67.030 E0.01687
G1 X91.188 Y38.746 E1.25991
G1 X91.188 Y39.282 E0.01687
G1 X118.936 Y67.030 E1.23605
G1 X118.400 Y67.030 E0.01687
G1 X91.188 Y39.818 E1.21219
G1 X91.188 Y40.353 E0.01687
G1 X117.865 Y67.030 E1.18832
G1 X117.329 Y67.030 E0.01687
G1 X91.188 Y40.889 E1.16446
G1 X91.188 Y41.425 E0.01687
G1 X116.793 Y67.030 E1.14060
G1 X116.258 Y67.030 E0.01687
G1 X91.188 Y41.961 E1.11673
G1 X91.188 Y42.496 E0.01687
G1 X115.722 Y67.030 E1.09287
G1 X115.186 Y67.030 E0.01687
G1 X91.188 Y43.032 E1.06900
G1 X91.188 Y43.568 E0.01687
G1 X114.650 Y67.030 E1.04514
G1 X114.115 Y67.030 E0.01687
G1 X91.188 Y44.103 E1.02128
G1 X91.188 Y44.639 E0.01687
G1 X113.579 Y67.030 E0.99741
G1 X113.043 Y67.030 E0.01687
G1 X91.188 Y45.175 E0.97355
G1 X91.188 Y45.711 E0.01687
G1 X112.508 Y67.030 E0.94969
G1 X111.972 Y67.030 E0.01687
G1 X91.188 Y46.246 E0.92582
G1 X91.188 Y46.782 E0.01687
G1 X111.436 Y67.030 E0.90196
G1 X110.900 Y67.030 E0.01687
G1 X91.188 Y47.318 E0.87809
G1 X91.188 Y47.853 E0.01687
G1 X110.365 Y67.030 E0.85423
M73 Q2 S244
M73 P2 R243
G1 X109.829 Y67.030 E0.01687
G1 X91.188 Y48.389 E0.83037
G1 X91.188 Y48.925 E0.01687
G1 X109.293 Y67.030 E0.80650
G1 X108.758 Y67.030 E0.01687
G1 X91.188 Y49.461 E0.78264
G1 X91.188 Y49.996 E0.01687
G1 X108.222 Y67.030 E0.75878
G1 X107.686 Y67.030 E0.01687
G1 X91.188 Y50.532 E0.73491
G1 X91.188 Y51.068 E0.01687
G1 X107.150 Y67.030 E0.71105
G1 X106.615 Y67.030 E0.01687
G1 X91.188 Y51.603 E0.68718
G1 X91.188 Y52.139 E0.01687
G1 X106.079 Y67.030 E0.66332
G1 X105.543 Y67.030 E0.01687
G1 X91.188 Y52.675 E0.63946
G1 X91.188 Y53.211 E0.01687
G1 X105.007 Y67.030 E0.61559
G1 X104.472 Y67.030 E0.01687
G1 X91.188 Y53.746 E0.59173
G1 X91.188 Y54.282 E0.01687
G1 X103.936 Y67.030 E0.56786
G1 X103.400 Y67.030 E0.01687
G1 X91.188 Y54.818 E0.54400
G1 X91.188 Y55.354 E0.01687
G1 X102.865 Y67.030 E0.52014
G1 X102.329 Y67.030 E0.01687
G1 X91.188 Y55.889 E0.49627
G1 X91.188 Y56.425 E0.01687
G1 X101.793 Y67.030 E0.47241
G1 X101.257 Y67.030 E0.01687
G1 X91.188 Y56.961 E0.44855
G1 X91.188 Y57.496 E0.01687
G1 X100.722 Y67.030 E0.42468
G1 X100.186 Y67.030 E0.01687
G1 X91.188 Y58.032 E0.40082
G1 X91.188 Y58.568 E0.01687
G1 X99.650 Y67.030 E0.37695
G1 X99.115 Y67.030 E0.01687
G1 X91.188 Y59.104 E0.35309
G1 X91.188 Y59.639 E0.01687
G1 X98.579 Y67.030 E0.32923
G1 X98.043 Y67.030 E0.01687
G1 X91.188 Y60.175 E0.30536
G1 X91.188 Y60.711 E0.01687
G1 X97.507 Y67.030 E0.28150
G1 X96.972 Y67.030 E0.01687
G1 X91.188 Y61.246 E0.25764
G1 X91.188 Y61.782 E0.01687
G1 X96.436 Y67.030 E0.23377
G1 X95.900 Y67.030 E0.01687
G1 X91.188 Y62.318 E0.20991
G1 X91.188 Y62.854 E0.01687
G1 X95.365 Y67.030 E0.18604
G1 X94.829 Y67.030 E0.01687
G1 X91.188 Y63.389 E0.16218
G1 X91.188 Y63.925 E0.01687
G1 X94.293 Y67.030 E0.13832
G1 X93.757 Y67.030 E0.01687
G1 X91.188 Y64.461 E0.11445
G1 X91.188 Y64.996 E0.01687
G1 X93.222 Y67.030 E0.09059
G1 X92.686 Y67.030 E0.01687
G1 X91.188 Y65.532 E0.06673
G1 X91.188 Y66.068 E0.01687
G1 X92.150 Y67.030 E0.04286
G1 X91.614 Y67.030 E0.01687
G1 X91.018 Y66.434 E0.02656
; stop printing object GlassCut.stl id:5 copy 0
; printing object GlassCut.stl id:1 copy 0
G1 F8640.000
G1 X91.614 Y67.030 E-0.19468
G1 X92.150 Y67.030 E-0.12370
G1 X91.188 Y66.068 E-0.31420
G1 X91.188 Y65.532 E-0.12370
G1 X91.199 Y65.544 E-0.00372
G1 E-0.04000 F2100.00000
G1 Z0.600 F10800.000
G1 X91.018 Y74.887
G1 Z0.200
G1 E0.80000 F2100.00000
G1 F1200.000
G1 X149.947 Y74.887 E1.84768
G1 X149.947 Y108.902 E1.06650
G1 X90.905 Y108.902 E1.85122
G1 X90.905 Y74.887 E1.06650
G1 X90.958 Y74.887 E0.00167
G1 X90.528 Y74.510 F10800.000
G1 F1200.000
G1 X150.324 Y74.510 E1.87487
G1 X150.324 Y109.279 E1.09015
G1 X90.528 Y109.279 E1.87487
G1 X90.528 Y74.570 E1.08827
G1 X90.922 Y74.580 F10800.000
G1 F8640.000
G1 X93.820 Y74.567 E-0.76000
G1 E-0.04000 F2100.00000
G1 Z0.600 F10800.000
G1 X149.834 Y75.766
G1 Z0.200
G1 E0.80000 F2100.00000
G1 F1200.000
G1 X149.238 Y75.170 E0.02656
G1 X148.702 Y75.170 E0.01687
G1 X149.664 Y76.132 E0.04287
G1 X149.664 Y76.668 E0.01687
G1 X148.166 Y75.170 E0.06673
G1 X147.631 Y75.170 E0.01687
G1 X149.664 Y77.204 E0.09059
G1 X149.664 Y77.739 E0.01687
G1 X147.095 Y75.170 E0.11446
G1 X146.559 Y75.170 E0.01687
G1 X149.664 Y78.275 E0.13832
G1 X149.664 Y78.811 E0.01687
G1 X146.024 Y75.170 E0.16218
G1 X145.488 Y75.170 E0.01687
G1 X149.664 Y79.346 E0.18605
G1 X149.664 Y79.882 E0.01687
G1 X144.952 Y75.170 E0.20991
G1 X144.416 Y75.170 E0.01687
G1 X149.664 Y80.418 E0.23378
G1 X149.664 Y80.954 E0.01687
G1 X143.881 Y75.170 E0.25764
G1 X143.345 Y75.170 E0.01687
G1 X149.664 Y81.489 E0.28150
G1 X149.664 Y82.025 E0.01687
G1 X142.809 Y75.170 E0.30537
G1 X142.274 Y75.170 E0.01687
G1 X149.664 Y82.561 E0.32923
G1 X149.664 Y83.097 E0.01687
G1 X141.738 Y75.170 E0.35309
G1 X141.202 Y75.170 E0.01687
G1 X149.664 Y83.632 E0.37696
G1 X149.664 Y84.168 E0.01687
G1 X140.666 Y75.170 E0.40082
G1 X140.131 Y75.170 E0.01687
G1 X149.664 Y84.704 E0.42469
G1 X149.664 Y85.239 E0.01687
G1 X139.595 Y75.170 E0.44855
G1 X139.059 Y75.170 E0.01687
G1 X149.664 Y85.775 E0.47241
G1 X149.664 Y86.311 E0.01687
G1 X138.524 Y75.170 E0.49628
G1 X137.988 Y75.170 E0.01687
G1 X149.664 Y86.847 E0.52014
G1 X149.664 Y87.382 E0.01687
G1 X137.452 Y75.170 E0.54400
G1 X136.916 Y75.170 E0.01687
G1 X149.664 Y87.918 E0.56787
G1 X149.664 Y88.454 E0.01687
G1 X136.381 Y75.170 E0.59173
G1 X135.845 Y75.170 E0.01687
G1 X149.664 Y88.989 E0.61560
G1 X149.664 Y89.525 E0.01687
G1 X135.309 Y75.170 E0.63946
M73 Q2 S243
M73 P2 R242
G1 X134.773 Y75.170 E0.01687
G1 X149.664 Y90.061 E0.66332
G1 X149.664 Y90.597 E0.01687
G1 X134.238 Y75.170 E0.68719
G1 X133.702 Y75.170 E0.01687
G1 X149.664 Y91.132 E0.71105
G1 X149.664 Y91.668 E0.01687
G1 X133.166 Y75.170 E0.73492
G1 X132.631 Y75.170 E0.01687
G1 X149.664 Y92.204 E0.75878
G1 X149.664 Y92.739 E0.01687
G1 X132.095 Y75.170 E0.78264
G1 X131.559 Y75.170 E0.01687
G1 X149.664 Y93.275 E0.80651
G1 X149.664 Y93.811 E0.01687
G1 X131.023 Y75.170 E0.83037
G1 X130.488 Y75.170 E0.01687
G1 X149.664 Y94.347 E0.85423
G1 X149.664 Y94.882 E0.01687
