; generated by PrusaSlicer 2.4.1+win64 on 2022-05-09 at 23:30:19 UTC

; 

; external perimeters extrusion width = 0.45mm
; perimeters extrusion width = 0.45mm
; infill extrusion width = 0.45mm
; solid infill extrusion width = 0.45mm
; top infill extrusion width = 0.40mm
; first layer extrusion width = 0.42mm

M73 P0 R174
M73 C154
M73 Q0 S175
M73 D154
M201 X1000 Y1000 Z200 E5000 ; sets maximum accelerations, mm/sec^2
M203 X200 Y200 Z12 E120 ; sets maximum feedrates, mm / sec
M204 P1250 R1250 T1250 ; sets acceleration (P, T) and retract acceleration (R), mm/sec^2
M205 X8.00 Y8.00 Z0.40 E4.50 ; sets the jerk limits, mm/sec
M205 S0 T0 ; sets the minimum extruding and travel feed rate, mm/sec
M107
;TYPE:Custom
M862.3 P "MK3S" ; printer model check
M862.1 P0.4 ; nozzle diameter check
M115 U3.10.1 ; tell printer latest fw version
G90 ; use absolute coordinates
M83 ; extruder relative mode
M104 S215 ; set extruder temp
M140 S65 ; set bed temp
M190 S65 ; wait for bed temp
M109 S215 ; wait for extruder temp
G28 W ; home all without mesh bed level
G80 ; mesh bed leveling
G1 Z0.2 F720
G1 Y-3 F1000 ; go outside print area
G92 E0
G1 X60 E9 F1000 ; intro line
G1 X100 E12.5 F1000 ; intro line
G92 E0
M221 S95

; Don't change E values below. Excessive value can damage the printer.
M907 E430 ; set extruder motor current
G21 ; set units to millimeters
G90 ; use absolute coordinates
M83 ; use relative distances for extrusion
M900 K0.05 ; Filament gcode LA 1.5
M900 K30 ; Filament gcode LA 1.0
M107
;LAYER_CHANGE
;Z:0.2
;HEIGHT:0.2
;BEFORE_LAYER_CHANGE
G92 E0.0
;0.2


G1 E-.8 F2100
M73 C153
G1 Z.4 F720
;AFTER_LAYER_CHANGE
;0.2
G1 X56.591 Y24.155 F10800
G1 Z.2 F720
G1 E.8 F2100
M204 S800
;TYPE:Skirt/Brim
;WIDTH:0.42
G1 F1200
G1 X57.637 Y23.278 E.04278
G1 X58.577 Y23.085 E.03008
G1 X191.423 Y23.085 E4.16531
G1 X192.73 Y23.476 E.04278
G1 X193.607 Y24.522 E.04278
G1 X193.8 Y25.462 E.03008
G1 X193.8 Y184.538 E4.98773
G1 X193.409 Y185.845 E.04278
G1 X192.363 Y186.722 E.04278
G1 X191.423 Y186.915 E.03008
G1 X58.577 Y186.915 E4.16531
G1 X57.27 Y186.524 E.04278
G1 X56.393 Y185.478 E.04278
G1 X56.2 Y184.538 E.03008
M73 D153
G1 X56.2 Y25.462 E4.98773
G1 X56.574 Y24.212 E.0409
M204 S1000
; printing object Door.stl id:0 copy 18
;WIPE_START
M73 Q0 S174
G1 F8640
G1 X57.637 Y23.278 E-.32671
G1 X58.577 Y23.085 E-.22155
G1 X59.494 Y23.085 E-.21174
;WIPE_END
G1 E-.04 F2100
G1 Z.6 F720
G1 X59.364 Y150.056 F10800
G1 Z.2 F720
G1 E.8 F2100
M204 S800
;TYPE:Perimeter
G1 F1200
G1 X79.559 Y150.056 E.63321
G1 X79.559 Y183.751 E1.05648
G1 X59.364 Y183.751 E.63321
G1 X59.364 Y150.116 E1.0546
M204 S1000
G1 X58.987 Y149.679 F10800
M204 S800
;TYPE:External perimeter
G1 F1200
G1 X79.936 Y149.679 E.65685
G1 X79.936 Y184.128 E1.08013
G1 X58.987 Y184.128 E.65685
G1 X58.987 Y149.739 E1.07825
M204 S1000
G1 X59.364 Y149.813 F10800
;WIPE_START
G1 F8640
G1 X62.278 Y149.73 E-.76
;WIPE_END
G1 E-.04 F2100
G1 Z.6 F720
G1 X78.681 Y150.169 F10800
G1 Z.2 F720
G1 E.8 F2100
M204 S800
;TYPE:Solid infill
;WIDTH:0.421314
G1 F1200
G1 X79.276 Y150.765 E.02649
G1 X79.276 Y151.3 E.01684
G1 X78.315 Y150.339 E.04275
G1 X77.78 Y150.339 E.01684
G1 X79.276 Y151.835 E.06656
G1 X79.276 Y152.37 E.01684
G1 X77.245 Y150.339 E.09038
G1 X76.71 Y150.339 E.01684
G1 X79.276 Y152.905 E.11419
G1 X79.276 Y153.44 E.01684
G1 X76.175 Y150.339 E.138
G1 X75.64 Y150.339 E.01684
G1 X79.276 Y153.975 E.16181
G1 X79.276 Y154.511 E.01684
G1 X75.105 Y150.339 E.18562
G1 X74.569 Y150.339 E.01684
G1 X79.276 Y155.046 E.20943
G1 X79.276 Y155.581 E.01684
G1 X74.034 Y150.339 E.23324
G1 X73.499 Y150.339 E.01684
G1 X79.276 Y156.116 E.25705
G1 X79.276 Y156.651 E.01684
G1 X72.964 Y150.339 E.28087
G1 X72.429 Y150.339 E.01684
G1 X79.276 Y157.186 E.30468
G1 X79.276 Y157.721 E.01684
G1 X71.894 Y150.339 E.32849
G1 X71.359 Y150.339 E.01684
G1 X79.276 Y158.257 E.3523
G1 X79.276 Y158.792 E.01684
M73 P0 R173
G1 X70.823 Y150.339 E.37611
G1 X70.288 Y150.339 E.01684
G1 X79.276 Y159.327 E.39992
G1 X79.276 Y159.862 E.01684
G1 X69.753 Y150.339 E.42373
G1 X69.218 Y150.339 E.01684
G1 X79.276 Y160.397 E.44754
G1 X79.276 Y160.932 E.01684
G1 X68.683 Y150.339 E.47136
G1 X68.148 Y150.339 E.01684
G1 X79.276 Y161.467 E.49517
G1 X79.276 Y162.002 E.01684
G1 X67.613 Y150.339 E.51898
G1 X67.078 Y150.339 E.01684
G1 X79.276 Y162.538 E.54279
G1 X79.276 Y163.073 E.01684
G1 X66.542 Y150.339 E.5666
G1 X66.007 Y150.339 E.01684
G1 X79.276 Y163.608 E.59041
G1 X79.276 Y164.143 E.01684
G1 X65.472 Y150.339 E.61422
G1 X64.937 Y150.339 E.01684
G1 X79.276 Y164.678 E.63803
G1 X79.276 Y165.213 E.01684
M73 C152
G1 X64.402 Y150.339 E.66185
G1 X63.867 Y150.339 E.01684
G1 X79.276 Y165.748 E.68566
G1 X79.276 Y166.283 E.01684
G1 X63.332 Y150.339 E.70947
G1 X62.797 Y150.339 E.01684
G1 X79.276 Y166.819 E.73328
G1 X79.276 Y167.354 E.01684
G1 X62.261 Y150.339 E.75709
G1 X61.726 Y150.339 E.01684
G1 X79.276 Y167.889 E.7809
G1 X79.276 Y168.424 E.01684
G1 X61.191 Y150.339 E.80471
G1 X60.656 Y150.339 E.01684
G1 X79.276 Y168.959 E.82852
G1 X79.276 Y169.494 E.01684
G1 X60.121 Y150.339 E.85234
G1 X59.647 Y150.339 E.01492
G1 X59.647 Y150.4 E.00191
G1 X79.276 Y170.029 E.87344
G1 X79.276 Y170.565 E.01684
G1 X59.647 Y150.935 E.87344
G1 X59.647 Y151.47 E.01684
G1 X79.276 Y171.1 E.87344
G1 X79.276 Y171.635 E.01684
G1 X59.647 Y152.005 E.87344
G1 X59.647 Y152.54 E.01684
G1 X79.276 Y172.17 E.87344
G1 X79.276 Y172.705 E.01684
G1 X59.647 Y153.075 E.87344
G1 X59.647 Y153.611 E.01684
G1 X79.276 Y173.24 E.87344
G1 X79.276 Y173.775 E.01684
G1 X59.647 Y154.146 E.87344
G1 X59.647 Y154.681 E.01684
G1 X79.276 Y174.31 E.87344
G1 X79.276 Y174.846 E.01684
M73 D152
G1 X59.647 Y155.216 E.87344
G1 X59.647 Y155.751 E.01684
G1 X79.276 Y175.381 E.87344
G1 X79.276 Y175.916 E.01684
M73 Q0 S173
G1 X59.647 Y156.286 E.87344
G1 X59.647 Y156.821 E.01684
G1 X79.276 Y176.451 E.87344
G1 X79.276 Y176.986 E.01684
G1 X59.647 Y157.356 E.87344
G1 X59.647 Y157.892 E.01684
G1 X79.276 Y177.521 E.87344
G1 X79.276 Y178.056 E.01684
G1 X59.647 Y158.427 E.87344
G1 X59.647 Y158.962 E.01684
G1 X79.276 Y178.591 E.87344
G1 X79.276 Y179.127 E.01684
G1 X59.647 Y159.497 E.87344
G1 X59.647 Y160.032 E.01684
G1 X79.276 Y179.662 E.87344
G1 X79.276 Y180.197 E.01684
G1 X59.647 Y160.567 E.87344
G1 X59.647 Y161.102 E.01684
G1 X79.276 Y180.732 E.87344
G1 X79.276 Y181.267 E.01684
M73 P1 R173
M73 Q1 S173
G1 X59.647 Y161.638 E.87344
G1 X59.647 Y162.173 E.01684
G1 X79.276 Y181.802 E.87344
G1 X79.276 Y182.337 E.01684
G1 X59.647 Y162.708 E.87344
G1 X59.647 Y163.243 E.01684
G1 X79.276 Y182.872 E.87344
G1 X79.276 Y183.408 E.01684
G1 X59.647 Y163.778 E.87344
G1 X59.647 Y164.313 E.01684
G1 X78.802 Y183.468 E.85234
G1 X78.267 Y183.468 E.01684
M73 P1 R172
G1 X59.647 Y164.848 E.82852
G1 X59.647 Y165.383 E.01684
G1 X77.732 Y183.468 E.80471
G1 X77.196 Y183.468 E.01684
G1 X59.647 Y165.919 E.7809
G1 X59.647 Y166.454 E.01684
G1 X76.661 Y183.468 E.75709
G1 X76.126 Y183.468 E.01684
G1 X59.647 Y166.989 E.73328
G1 X59.647 Y167.524 E.01684
G1 X75.591 Y183.468 E.70947
G1 X75.056 Y183.468 E.01684
G1 X59.647 Y168.059 E.68566
G1 X59.647 Y168.594 E.01684
G1 X74.521 Y183.468 E.66185
G1 X73.986 Y183.468 E.01684
M73 C151
G1 X59.647 Y169.129 E.63803
G1 X59.647 Y169.664 E.01684
G1 X73.45 Y183.468 E.61422
G1 X72.915 Y183.468 E.01684
G1 X59.647 Y170.2 E.59041
G1 X59.647 Y170.735 E.01684
G1 X72.38 Y183.468 E.5666
G1 X71.845 Y183.468 E.01684
G1 X59.647 Y171.27 E.54279
G1 X59.647 Y171.805 E.01684
G1 X71.31 Y183.468 E.51898
G1 X70.775 Y183.468 E.01684
G1 X59.647 Y172.34 E.49517
G1 X59.647 Y172.875 E.01684
G1 X70.24 Y183.468 E.47136
G1 X69.705 Y183.468 E.01684
G1 X59.647 Y173.41 E.44754
G1 X59.647 Y173.946 E.01684
G1 X69.169 Y183.468 E.42373
G1 X68.634 Y183.468 E.01684
G1 X59.647 Y174.481 E.39992
G1 X59.647 Y175.016 E.01684
G1 X68.099 Y183.468 E.37611
G1 X67.564 Y183.468 E.01684
G1 X59.647 Y175.551 E.3523
G1 X59.647 Y176.086 E.01684
G1 X67.029 Y183.468 E.32849
G1 X66.494 Y183.468 E.01684
G1 X59.647 Y176.621 E.30468
G1 X59.647 Y177.156 E.01684
G1 X65.959 Y183.468 E.28087
G1 X65.424 Y183.468 E.01684
G1 X59.647 Y177.691 E.25705
G1 X59.647 Y178.227 E.01684
G1 X64.888 Y183.468 E.23324
G1 X64.353 Y183.468 E.01684
G1 X59.647 Y178.762 E.20943
G1 X59.647 Y179.297 E.01684
G1 X63.818 Y183.468 E.18562
G1 X63.283 Y183.468 E.01684
G1 X59.647 Y179.832 E.16181
G1 X59.647 Y180.367 E.01684
G1 X62.748 Y183.468 E.138
G1 X62.213 Y183.468 E.01684
G1 X59.647 Y180.902 E.11419
G1 X59.647 Y181.437 E.01684
G1 X61.678 Y183.468 E.09038
G1 X61.142 Y183.468 E.01684
G1 X59.647 Y181.972 E.06656
G1 X59.647 Y182.508 E.01684
G1 X60.607 Y183.468 E.04275
G1 X60.072 Y183.468 E.01684
G1 X59.477 Y182.873 E.02649
M204 S1000
; stop printing object Door.stl id:0 copy 18
; printing object Door.stl id:0 copy 15
;WIPE_START
G1 F8640
G1 X60.072 Y183.468 E-.19441
G1 X60.607 Y183.468 E-.12356
G1 X59.647 Y182.508 E-.31375
G1 X59.647 Y181.972 E-.12356
G1 X59.661 Y181.987 E-.00471
;WIPE_END
G1 E-.04 F2100
G1 Z.6 F720
G1 X87.133 Y183.751 F10800
G1 Z.2 F720
G1 E.8 F2100
M204 S800
;TYPE:Perimeter
;WIDTH:0.42
G1 F1200
G1 X87.133 Y150.056 E1.05648
G1 X107.328 Y150.056 E.63321
G1 X107.328 Y183.751 E1.05648
G1 X87.193 Y183.751 E.63132
M204 S1000
G1 X86.756 Y184.128 F10800
M204 S800
;TYPE:External perimeter
G1 F1200
G1 X86.756 Y149.679 E1.08013
G1 X107.705 Y149.679 E.65685
G1 X107.705 Y184.128 E1.08013
M73 D151
G1 X86.816 Y184.128 E.65497
M204 S1000
G1 X86.828 Y183.735 F10800
;WIPE_START
M73 Q1 S172
G1 F8640
G1 X86.81 Y180.837 E-.76
;WIPE_END
G1 E-.04 F2100
G1 Z.6 F720
G1 X106.45 Y150.169 F10800
G1 Z.2 F720
G1 E.8 F2100
M204 S800
;TYPE:Solid infill
;WIDTH:0.421314
G1 F1200
G1 X107.045 Y150.765 E.02649
G1 X107.045 Y151.3 E.01684
G1 X106.085 Y150.339 E.04275
G1 X105.55 Y150.339 E.01684
G1 X107.045 Y151.835 E.06656
G1 X107.045 Y152.37 E.01684
G1 X105.014 Y150.339 E.09038
G1 X104.479 Y150.339 E.01684
G1 X107.045 Y152.905 E.11419
G1 X107.045 Y153.44 E.01684
G1 X103.944 Y150.339 E.138
G1 X103.409 Y150.339 E.01684
G1 X107.045 Y153.975 E.16181
G1 X107.045 Y154.511 E.01684
G1 X102.874 Y150.339 E.18562
G1 X102.339 Y150.339 E.01684
G1 X107.045 Y155.046 E.20943
G1 X107.045 Y155.581 E.01684
G1 X101.804 Y150.339 E.23324
G1 X101.268 Y150.339 E.01684
G1 X107.045 Y156.116 E.25705
G1 X107.045 Y156.651 E.01684
G1 X100.733 Y150.339 E.28087
G1 X100.198 Y150.339 E.01684
G1 X107.045 Y157.186 E.30468
G1 X107.045 Y157.721 E.01684
G1 X99.663 Y150.339 E.32849
G1 X99.128 Y150.339 E.01684
G1 X107.045 Y158.257 E.3523
G1 X107.045 Y158.792 E.01684
G1 X98.593 Y150.339 E.37611
G1 X98.058 Y150.339 E.01684
G1 X107.045 Y159.327 E.39992
G1 X107.045 Y159.862 E.01684
G1 X97.523 Y150.339 E.42373
G1 X96.987 Y150.339 E.01684
G1 X107.045 Y160.397 E.44754
G1 X107.045 Y160.932 E.01684
G1 X96.452 Y150.339 E.47136
G1 X95.917 Y150.339 E.01684
G1 X107.045 Y161.467 E.49517
G1 X107.045 Y162.002 E.01684
G1 X95.382 Y150.339 E.51898
G1 X94.847 Y150.339 E.01684
G1 X107.045 Y162.538 E.54279
G1 X107.045 Y163.073 E.01684
G1 X94.312 Y150.339 E.5666
G1 X93.777 Y150.339 E.01684
G1 X107.045 Y163.608 E.59041
G1 X107.045 Y164.143 E.01684
G1 X93.242 Y150.339 E.61422
G1 X92.706 Y150.339 E.01684
G1 X107.045 Y164.678 E.63803
G1 X107.045 Y165.213 E.01684
G1 X92.171 Y150.339 E.66185
G1 X91.636 Y150.339 E.01684
G1 X107.045 Y165.748 E.68566
G1 X107.045 Y166.283 E.01684
G1 X91.101 Y150.339 E.70947
G1 X90.566 Y150.339 E.01684
G1 X107.045 Y166.819 E.73328
G1 X107.045 Y167.354 E.01684
G1 X90.031 Y150.339 E.75709
G1 X89.496 Y150.339 E.01684
G1 X107.045 Y167.889 E.7809
G1 X107.045 Y168.424 E.01684
G1 X88.96 Y150.339 E.80471
G1 X88.425 Y150.339 E.01684
M73 P1 R171
G1 X107.045 Y168.959 E.82852
G1 X107.045 Y169.494 E.01684
G1 X87.89 Y150.339 E.85234
G1 X87.416 Y150.339 E.01492
G1 X87.416 Y150.4 E.00191
G1 X107.045 Y170.029 E.87344
G1 X107.045 Y170.565 E.01684
G1 X87.416 Y150.935 E.87344
G1 X87.416 Y151.47 E.01684
G1 X107.045 Y171.1 E.87344
G1 X107.045 Y171.635 E.01684
G1 X87.416 Y152.005 E.87344
G1 X87.416 Y152.54 E.01684
M73 C150
G1 X107.045 Y172.17 E.87344
G1 X107.045 Y172.705 E.01684
G1 X87.416 Y153.075 E.87344
G1 X87.416 Y153.611 E.01684
G1 X107.045 Y173.24 E.87344
G1 X107.045 Y173.775 E.01684
G1 X87.416 Y154.146 E.87344
G1 X87.416 Y154.681 E.01684
G1 X107.045 Y174.31 E.87344
G1 X107.045 Y174.846 E.01684
G1 X87.416 Y155.216 E.87344
G1 X87.416 Y155.751 E.01684
G1 X107.045 Y175.381 E.87344
G1 X107.045 Y175.916 E.01684
G1 X87.416 Y156.286 E.87344
G1 X87.416 Y156.821 E.01684
G1 X107.045 Y176.451 E.87344
G1 X107.045 Y176.986 E.01684
G1 X87.416 Y157.356 E.87344
G1 X87.416 Y157.892 E.01684
G1 X107.045 Y177.521 E.87344
G1 X107.045 Y178.056 E.01684
G1 X87.416 Y158.427 E.87344
G1 X87.416 Y158.962 E.01684
G1 X107.045 Y178.591 E.87344
G1 X107.045 Y179.127 E.01684
G1 X87.416 Y159.497 E.87344
G1 X87.416 Y160.032 E.01684
G1 X107.045 Y179.662 E.87344
G1 X107.045 Y180.197 E.01684
G1 X87.416 Y160.567 E.87344
G1 X87.416 Y161.102 E.01684
G1 X107.045 Y180.732 E.87344
G1 X107.045 Y181.267 E.01684
M73 D150
G1 X87.416 Y161.638 E.87344
G1 X87.416 Y162.173 E.01684
G1 X107.045 Y181.802 E.87344
G1 X107.045 Y182.337 E.01684
M73 P2 R171
M73 Q2 S171
G1 X87.416 Y162.708 E.87344
G1 X87.416 Y163.243 E.01684
G1 X107.045 Y182.872 E.87344
G1 X107.045 Y183.408 E.01684
G1 X87.416 Y163.778 E.87344
G1 X87.416 Y164.313 E.01684
G1 X106.571 Y183.468 E.85234
G1 X106.036 Y183.468 E.01684
G1 X87.416 Y164.848 E.82852
G1 X87.416 Y165.383 E.01684
G1 X105.501 Y183.468 E.80471
G1 X104.966 Y183.468 E.01684
G1 X87.416 Y165.919 E.7809
G1 X87.416 Y166.454 E.01684
G1 X104.431 Y183.468 E.75709
G1 X103.895 Y183.468 E.01684
G1 X87.416 Y166.989 E.73328
G1 X87.416 Y167.524 E.01684
G1 X103.36 Y183.468 E.70947
G1 X102.825 Y183.468 E.01684
G1 X87.416 Y168.059 E.68566
G1 X87.416 Y168.594 E.01684
G1 X102.29 Y183.468 E.66185
G1 X101.755 Y183.468 E.01684
G1 X87.416 Y169.129 E.63803
G1 X87.416 Y169.664 E.01684
G1 X101.22 Y183.468 E.61422
G1 X100.685 Y183.468 E.01684
G1 X87.416 Y170.2 E.59041
G1 X87.416 Y170.735 E.01684
G1 X100.15 Y183.468 E.5666
G1 X99.614 Y183.468 E.01684
G1 X87.416 Y171.27 E.54279
G1 X87.416 Y171.805 E.01684
G1 X99.079 Y183.468 E.51898
G1 X98.544 Y183.468 E.01684
G1 X87.416 Y172.34 E.49517
G1 X87.416 Y172.875 E.01684
G1 X98.009 Y183.468 E.47136
G1 X97.474 Y183.468 E.01684
G1 X87.416 Y173.41 E.44754
G1 X87.416 Y173.946 E.01684
M73 P2 R170
G1 X96.939 Y183.468 E.42373
G1 X96.404 Y183.468 E.01684
G1 X87.416 Y174.481 E.39992
G1 X87.416 Y175.016 E.01684
G1 X95.869 Y183.468 E.37611
G1 X95.333 Y183.468 E.01684
G1 X87.416 Y175.551 E.3523
G1 X87.416 Y176.086 E.01684
G1 X94.798 Y183.468 E.32849
G1 X94.263 Y183.468 E.01684
G1 X87.416 Y176.621 E.30468
G1 X87.416 Y177.156 E.01684
G1 X93.728 Y183.468 E.28087
G1 X93.193 Y183.468 E.01684
G1 X87.416 Y177.691 E.25705
G1 X87.416 Y178.227 E.01684
G1 X92.658 Y183.468 E.23324
G1 X92.123 Y183.468 E.01684
G1 X87.416 Y178.762 E.20943
G1 X87.416 Y179.297 E.01684
G1 X91.587 Y183.468 E.18562
G1 X91.052 Y183.468 E.01684
G1 X87.416 Y179.832 E.16181
G1 X87.416 Y180.367 E.01684
G1 X90.517 Y183.468 E.138
G1 X89.982 Y183.468 E.01684
G1 X87.416 Y180.902 E.11419
G1 X87.416 Y181.437 E.01684
G1 X89.447 Y183.468 E.09038
G1 X88.912 Y183.468 E.01684
G1 X87.416 Y181.972 E.06656
G1 X87.416 Y182.508 E.01684
G1 X88.377 Y183.468 E.04275
G1 X87.842 Y183.468 E.01684
G1 X87.246 Y182.873 E.02649
M204 S1000
; stop printing object Door.stl id:0 copy 15
; printing object Door.stl id:0 copy 12
;WIPE_START
G1 F8640
G1 X87.842 Y183.468 E-.19441
G1 X88.377 Y183.468 E-.12356
G1 X87.416 Y182.508 E-.31375
G1 X87.416 Y181.972 E-.12356
G1 X87.43 Y181.987 E-.00471
;WIPE_END
G1 E-.04 F2100
G1 Z.6 F720
G1 X114.902 Y183.751 F10800
G1 Z.2 F720
G1 E.8 F2100
M204 S800
;TYPE:Perimeter
;WIDTH:0.42
G1 F1200
G1 X114.902 Y150.056 E1.05648
G1 X135.098 Y150.056 E.63321
M73 C149
G1 X135.098 Y183.751 E1.05648
G1 X114.962 Y183.751 E.63132
M204 S1000
G1 X114.525 Y184.128 F10800
M204 S800
;TYPE:External perimeter
G1 F1200
G1 X114.525 Y149.679 E1.08013
G1 X135.475 Y149.679 E.65685
G1 X135.475 Y184.128 E1.08013
G1 X114.585 Y184.128 E.65497
M204 S1000
G1 X114.598 Y183.735 F10800
;WIPE_START
G1 F8640
G1 X114.58 Y180.837 E-.76
;WIPE_END
G1 E-.04 F2100
G1 Z.6 F720
G1 X134.219 Y150.169 F10800
