; generated by PrusaSlicer 2.4.1+win64 on 2022-05-09 at 23:00:39 UTC

; 

; external perimeters extrusion width = 0.45mm
; perimeters extrusion width = 0.45mm
; infill extrusion width = 0.45mm
; solid infill extrusion width = 0.45mm
; top infill extrusion width = 0.40mm
; support material extrusion width = 0.35mm
; first layer extrusion width = 0.42mm

M73 P0 R121
M73 Q0 S121
M201 X1000 Y1000 Z200 E5000 ; sets maximum accelerations, mm/sec^2
M203 X200 Y200 Z12 E120 ; sets maximum feedrates, mm / sec
M204 P1250 R1250 T1250 ; sets acceleration (P, T) and retract acceleration (R), mm/sec^2
M205 X8.00 Y8.00 Z0.40 E4.50 ; sets the jerk limits, mm/sec
M205 S0 T0 ; sets the minimum extruding and travel feed rate, mm/sec
M107
;TYPE:Custom
M862.3 P "MK3S" ; printer model check
M862.1 P0.4 ; nozzle diameter check
M115 U3.10.1 ; tell printer latest fw version
G90 ; use absolute coordinates
M83 ; extruder relative mode
M104 S215 ; set extruder temp
M140 S65 ; set bed temp
M190 S65 ; wait for bed temp
M109 S215 ; wait for extruder temp
G28 W ; home all without mesh bed level
G80 ; mesh bed leveling
G1 Z0.2 F720
G1 Y-3 F1000 ; go outside print area
G92 E0
G1 X60 E9 F1000 ; intro line
G1 X100 E12.5 F1000 ; intro line
G92 E0
M221 S95

; Don't change E values below. Excessive value can damage the printer.
M907 E430 ; set extruder motor current
G21 ; set units to millimeters
G90 ; use absolute coordinates
M83 ; use relative distances for extrusion
M900 K0.05 ; Filament gcode LA 1.5
M900 K30 ; Filament gcode LA 1.0
M107
;LAYER_CHANGE
;Z:0.2
;HEIGHT:0.2
;BEFORE_LAYER_CHANGE
G92 E0.0
;0.2


G1 E-.8 F2100
G1 Z.4 F720
;AFTER_LAYER_CHANGE
;0.2
G1 X71.894 Y82.293 F10800
G1 Z.2 F720
G1 E.8 F2100
M204 S800
;TYPE:Skirt/Brim
;WIDTH:0.42
G1 F1200
G1 X73.027 Y81.381 E.04562
G1 X123.24 Y62.103 E1.68643
G1 X124.092 Y61.946 E.02717
G1 X176.121 Y61.946 E1.63132
G1 X177.428 Y62.337 E.04278
G1 X178.304 Y63.383 E.04278
G1 X178.498 Y64.323 E.03008
G1 X178.498 Y145.677 E2.55082
G1 X178.106 Y146.984 E.04278
G1 X177.06 Y147.861 E.04278
G1 X176.121 Y148.054 E.03008
G1 X167.516 Y148.019 E.2698
G1 X138.312 Y142.896 E.92966
G1 X87.658 Y123.496 E1.70072
G1 X86.416 Y122.404 E.05184
G1 X71.786 Y95.228 E.96772
G1 X71.502 Y94.101 E.03643
M73 P0 R120
G1 X71.502 Y83.6 E.32925
G1 X71.877 Y82.35 E.0409
M204 S1000
; printing object Roof.stl id:0 copy 0
;WIPE_START
G1 F8640
G1 X73.027 Y81.381 E-.34746
G1 X74.695 Y80.74 E-.41254
;WIPE_END
G1 E-.04 F2100
G1 Z.6 F720
G1 X170.897 Y69.573 F10800
G1 Z.2 F720
G1 E.8 F2100
M204 S800
;TYPE:Support material interface
;WIDTH:0.35
G1 F1200
G1 X170.897 Y70.496 E.02358
G1 X171.404 Y70.496 E.01295
G1 X171.404 Y69.573 E.02358
G1 X171.757 Y69.573 E.00903
M204 S1000
;WIPE_START
G1 F8640
G1 X171.404 Y69.573 E-.08163
G1 X171.404 Y70.496 E-.2132
G1 X170.897 Y70.496 E-.11709
G1 X170.897 Y69.573 E-.2132
;WIPE_END
G1 E-.17488 F2100
G1 Z.6 F720
G1 X171.911 Y74.187 F10800
G1 Z.2 F720
G1 E.8 F2100
M204 S800
G1 F1200
G1 X171.911 Y69.573 E.11782
G1 X172.418 Y69.573 E.01295
G1 X172.418 Y74.187 E.11782
G1 X172.925 Y74.187 E.01295
G1 X172.925 Y69.573 E.11782
G1 X173.177 Y69.573 E.00644
G1 X173.177 Y74.187 E.11782
G1 X173.079 Y74.187 E.00252
M204 S1000
;WIPE_START
G1 F8640
G1 X173.177 Y74.187 E-.02279
G1 X173.177 Y70.995 E-.73721
;WIPE_END
G1 E-.04 F2100
G1 Z.6 F720
G1 X176.121 Y107.123 F10800
G1 Z.2 F720
G1 E.8 F2100
M204 S800
;TYPE:Support material
;WIDTH:0.42
G1 F1200
G1 X167.927 Y107.123 E.25692
G1 X167.927 Y102.48 E.14557
G1 X171.611 Y102.48 E.11553
G1 X171.892 Y102.199 E.01247
G1 X171.892 Y97.344 E.15223
G1 X171.611 Y97.063 E.01247
G1 X169.642 Y97.063 E.06173
G1 X169.642 Y92.523 E.14235
G1 X171.611 Y92.523 E.06173
G1 X171.892 Y92.241 E.01247
G1 X171.892 Y82.929 E.29199
G1 X171.611 Y82.648 E.01247
G1 X169.642 Y82.648 E.06173
G1 X169.642 Y78.108 E.14235
G1 X171.611 Y78.108 E.06173
G1 X171.892 Y77.826 E.01247
G1 X171.892 Y74.551 E.1027
G1 X173.541 Y74.551 E.05169
G1 X173.541 Y69.21 E.16748
G1 X170.507 Y69.21 E.09514
G1 X170.507 Y70.44 E.03858
G1 X162.731 Y70.44 E.24379
G1 X162.45 Y70.721 E.01247
G1 X162.45 Y72.69 E.06173
G1 X157.91 Y72.69 E.14235
G1 X157.91 Y70.721 E.06173
G1 X157.629 Y70.44 E.01247
G1 X140.266 Y70.44 E.54439
G1 X139.985 Y70.721 E.01247
G1 X139.985 Y72.69 E.06173
G1 X135.445 Y72.69 E.14235
G1 X135.445 Y70.721 E.06173
G1 X135.164 Y70.44 E.01247
G1 X128.251 Y70.44 E.21674
G1 X127.97 Y70.719 E.01241
G1 X127.962 Y72.371 E.05179
G1 X127.975 Y72.45 E.00252
G1 X128.798 Y74.824 E.07877
G1 X124.092 Y74.824 E.14753
G1 X124.092 Y64.323 E.32925
G1 X176.121 Y64.323 E1.63132
G1 X176.121 Y107.066 E1.3402
M204 S1000
G1 X175.664 Y106.953 F10800
M204 S800
G1 F1200
G1 X175.664 Y64.662 E1.32601
G1 X175.245 Y64.662 E.01314
G1 X175.245 Y106.783 E1.32069
G1 X174.826 Y106.783 E.01314
G1 X174.826 Y64.662 E1.32069
G1 X174.407 Y64.662 E.01314
G1 X174.407 Y106.783 E1.32069
G1 X173.988 Y106.783 E.01314
G1 X173.988 Y64.662 E1.32069
G1 X173.569 Y64.662 E.01314
M73 Q0 S120
G1 X173.569 Y68.87 E.13194
G1 X173.15 Y68.87 E.01314
G1 X173.15 Y64.662 E.13194
G1 X172.731 Y64.662 E.01314
G1 X172.731 Y68.87 E.13194
G1 X172.312 Y68.87 E.01314
G1 X172.312 Y64.662 E.13194
G1 X171.893 Y64.662 E.01314
G1 X171.893 Y68.87 E.13194
G1 X171.474 Y68.87 E.01314
G1 X171.474 Y64.662 E.13194
G1 X171.055 Y64.662 E.01314
G1 X171.055 Y68.87 E.13194
G1 X170.636 Y68.87 E.01314
G1 X170.636 Y64.662 E.13194
G1 X170.217 Y64.662 E.01314
G1 X170.217 Y68.87 E.13194
G1 X170.167 Y68.87 E.00157
G1 X170.167 Y70.101 E.03858
G1 X169.798 Y70.101 E.01156
G1 X169.798 Y64.662 E.17052
G1 X169.379 Y64.662 E.01314
G1 X169.379 Y70.101 E.17052
G1 X168.96 Y70.101 E.01314
G1 X168.96 Y64.662 E.17052
G1 X168.541 Y64.662 E.01314
G1 X168.541 Y70.101 E.17052
G1 X168.123 Y70.101 E.01314
G1 X168.123 Y64.662 E.17052
G1 X167.704 Y64.662 E.01314
G1 X167.704 Y70.101 E.17052
G1 X167.285 Y70.101 E.01314
G1 X167.285 Y64.662 E.17052
G1 X166.866 Y64.662 E.01314
G1 X166.866 Y70.101 E.17052
G1 X166.447 Y70.101 E.01314
G1 X166.447 Y64.662 E.17052
G1 X166.028 Y64.662 E.01314
G1 X166.028 Y70.101 E.17052
G1 X165.609 Y70.101 E.01314
G1 X165.609 Y64.662 E.17052
G1 X165.19 Y64.662 E.01314
G1 X165.19 Y70.101 E.17052
G1 X164.771 Y70.101 E.01314
G1 X164.771 Y64.662 E.17052
G1 X164.352 Y64.662 E.01314
G1 X164.352 Y70.101 E.17052
G1 X163.933 Y70.101 E.01314
G1 X163.933 Y64.662 E.17052
G1 X163.514 Y64.662 E.01314
G1 X163.514 Y70.101 E.17052
G1 X163.095 Y70.101 E.01314
G1 X163.095 Y64.662 E.17052
G1 X162.676 Y64.662 E.01314
G1 X162.676 Y70.101 E.17052
G1 X162.591 Y70.101 E.00267
G1 X162.257 Y70.434 E.0148
G1 X162.257 Y64.662 E.18099
G1 X161.838 Y64.662 E.01314
G1 X161.838 Y72.351 E.24107
G1 X161.419 Y72.351 E.01314
G1 X161.419 Y64.662 E.24107
G1 X161 Y64.662 E.01314
G1 X161 Y72.351 E.24107
G1 X160.581 Y72.351 E.01314
G1 X160.581 Y64.662 E.24107
G1 X160.162 Y64.662 E.01314
G1 X160.162 Y72.351 E.24107
G1 X159.743 Y72.351 E.01314
G1 X159.743 Y64.662 E.24107
G1 X159.324 Y64.662 E.01314
G1 X159.324 Y72.351 E.24107
G1 X158.905 Y72.351 E.01314
G1 X158.905 Y64.662 E.24107
G1 X158.486 Y64.662 E.01314
G1 X158.486 Y72.351 E.24107
G1 X158.249 Y72.351 E.00742
G1 X158.249 Y70.581 E.0555
G1 X158.067 Y70.398 E.00808
G1 X158.067 Y64.662 E.17986
G1 X157.648 Y64.662 E.01314
G1 X157.648 Y70.101 E.17052
G1 X157.229 Y70.101 E.01314
G1 X157.229 Y64.662 E.17052
G1 X156.81 Y64.662 E.01314
G1 X156.81 Y70.101 E.17052
G1 X156.391 Y70.101 E.01314
G1 X156.391 Y64.662 E.17052
G1 X155.972 Y64.662 E.01314
G1 X155.972 Y70.101 E.17052
G1 X155.553 Y70.101 E.01314
G1 X155.553 Y64.662 E.17052
G1 X155.134 Y64.662 E.01314
G1 X155.134 Y70.101 E.17052
G1 X154.715 Y70.101 E.01314
G1 X154.715 Y64.662 E.17052
G1 X154.296 Y64.662 E.01314
G1 X154.296 Y70.101 E.17052
G1 X153.877 Y70.101 E.01314
G1 X153.877 Y64.662 E.17052
G1 X153.458 Y64.662 E.01314
G1 X153.458 Y70.101 E.17052
G1 X153.039 Y70.101 E.01314
G1 X153.039 Y64.662 E.17052
G1 X152.62 Y64.662 E.01314
G1 X152.62 Y70.101 E.17052
G1 X152.201 Y70.101 E.01314
G1 X152.201 Y64.662 E.17052
G1 X151.782 Y64.662 E.01314
G1 X151.782 Y70.101 E.17052
G1 X151.363 Y70.101 E.01314
G1 X151.363 Y64.662 E.17052
G1 X150.944 Y64.662 E.01314
G1 X150.944 Y70.101 E.17052
G1 X150.525 Y70.101 E.01314
G1 X150.525 Y64.662 E.17052
G1 X150.106 Y64.662 E.01314
G1 X150.106 Y70.101 E.17052
G1 X149.688 Y70.101 E.01314
G1 X149.688 Y64.662 E.17052
G1 X149.269 Y64.662 E.01314
G1 X149.269 Y70.101 E.17052
G1 X148.85 Y70.101 E.01314
G1 X148.85 Y64.662 E.17052
G1 X148.431 Y64.662 E.01314
G1 X148.431 Y70.101 E.17052
G1 X148.012 Y70.101 E.01314
G1 X148.012 Y64.662 E.17052
G1 X147.593 Y64.662 E.01314
G1 X147.593 Y70.101 E.17052
G1 X147.174 Y70.101 E.01314
G1 X147.174 Y64.662 E.17052
G1 X146.755 Y64.662 E.01314
G1 X146.755 Y70.101 E.17052
G1 X146.336 Y70.101 E.01314
G1 X146.336 Y64.662 E.17052
G1 X145.917 Y64.662 E.01314
G1 X145.917 Y70.101 E.17052
G1 X145.498 Y70.101 E.01314
G1 X145.498 Y64.662 E.17052
G1 X145.079 Y64.662 E.01314
G1 X145.079 Y70.101 E.17052
G1 X144.66 Y70.101 E.01314
G1 X144.66 Y64.662 E.17052
G1 X144.241 Y64.662 E.01314
G1 X144.241 Y70.101 E.17052
G1 X143.822 Y70.101 E.01314
M73 Q1 S120
G1 X143.822 Y64.662 E.17052
G1 X143.403 Y64.662 E.01314
G1 X143.403 Y70.101 E.17052
G1 X142.984 Y70.101 E.01314
M73 P1 R120
G1 X142.984 Y64.662 E.17052
G1 X142.565 Y64.662 E.01314
G1 X142.565 Y70.101 E.17052
G1 X142.146 Y70.101 E.01314
G1 X142.146 Y64.662 E.17052
G1 X141.727 Y64.662 E.01314
G1 X141.727 Y70.101 E.17052
G1 X141.308 Y70.101 E.01314
G1 X141.308 Y64.662 E.17052
G1 X140.889 Y64.662 E.01314
G1 X140.889 Y70.101 E.17052
G1 X140.47 Y70.101 E.01314
G1 X140.47 Y64.662 E.17052
G1 X140.051 Y64.662 E.01314
G1 X140.051 Y70.175 E.17286
G1 X139.646 Y70.581 E.01798
G1 X139.646 Y72.351 E.0555
G1 X139.632 Y72.351 E.00042
G1 X139.632 Y64.662 E.24107
G1 X139.213 Y64.662 E.01314
G1 X139.213 Y72.351 E.24107
G1 X138.794 Y72.351 E.01314
G1 X138.794 Y64.662 E.24107
G1 X138.375 Y64.662 E.01314
G1 X138.375 Y72.351 E.24107
G1 X137.956 Y72.351 E.01314
G1 X137.956 Y64.662 E.24107
G1 X137.537 Y64.662 E.01314
G1 X137.537 Y72.351 E.24107
G1 X137.118 Y72.351 E.01314
G1 X137.118 Y64.662 E.24107
G1 X136.699 Y64.662 E.01314
G1 X136.699 Y72.351 E.24107
G1 X136.28 Y72.351 E.01314
G1 X136.28 Y64.662 E.24107
G1 X135.861 Y64.662 E.01314
G1 X135.861 Y72.351 E.24107
G1 X135.784 Y72.351 E.00241
G1 X135.784 Y70.581 E.0555
G1 X135.442 Y70.239 E.01517
G1 X135.442 Y64.662 E.17485
G1 X135.023 Y64.662 E.01314
G1 X135.023 Y70.101 E.17052
G1 X134.604 Y70.101 E.01314
G1 X134.604 Y64.662 E.17052
G1 X134.185 Y64.662 E.01314
G1 X134.185 Y70.101 E.17052
G1 X133.766 Y70.101 E.01314
G1 X133.766 Y64.662 E.17052
G1 X133.347 Y64.662 E.01314
G1 X133.347 Y70.101 E.17052
G1 X132.928 Y70.101 E.01314
G1 X132.928 Y64.662 E.17052
G1 X132.509 Y64.662 E.01314
G1 X132.509 Y70.101 E.17052
G1 X132.09 Y70.101 E.01314
M73 P1 R119
G1 X132.09 Y64.662 E.17052
G1 X131.672 Y64.662 E.01314
G1 X131.672 Y70.101 E.17052
G1 X131.253 Y70.101 E.01314
G1 X131.253 Y64.662 E.17052
G1 X130.834 Y64.662 E.01314
G1 X130.834 Y70.101 E.17052
G1 X130.415 Y70.101 E.01314
G1 X130.415 Y64.662 E.17052
G1 X129.996 Y64.662 E.01314
G1 X129.996 Y70.101 E.17052
G1 X129.577 Y70.101 E.01314
G1 X129.577 Y64.662 E.17052
G1 X129.158 Y64.662 E.01314
G1 X129.158 Y70.101 E.17052
G1 X128.739 Y70.101 E.01314
G1 X128.739 Y64.662 E.17052
G1 X128.32 Y64.662 E.01314
G1 X128.32 Y70.101 E.17052
G1 X128.111 Y70.101 E.00654
G1 X127.901 Y70.31 E.0093
G1 X127.901 Y64.662 E.17708
G1 X127.482 Y64.662 E.01314
G1 X127.482 Y74.484 E.30797
G1 X127.901 Y74.484 E.01314
G1 X127.901 Y73.272 E.03801
G1 X128.32 Y74.481 E.04012
G1 X128.32 Y74.654 E.00542
M204 S1000
;WIPE_START
G1 F8640
G1 X128.32 Y74.481 E-.03988
G1 X127.901 Y73.272 E-.29548
G1 X127.901 Y74.484 E-.27989
G1 X127.482 Y74.484 E-.09674
G1 X127.482 Y74.276 E-.04801
;WIPE_END
G1 E-.04 F2100
G1 Z.6 F720
G1 X173.569 Y106.953 F10800
G1 Z.2 F720
G1 E.8 F2100
M204 S800
G1 F1200
G1 X173.569 Y74.89 E1.00531
G1 X173.15 Y74.89 E.01314
G1 X173.15 Y106.783 E.99999
G1 X172.731 Y106.783 E.01314
G1 X172.731 Y74.89 E.99999
G1 X172.312 Y74.89 E.01314
G1 X172.312 Y106.783 E.99999
G1 X171.893 Y106.783 E.01314
G1 X171.893 Y102.678 E.12872
G1 X171.752 Y102.819 E.00627
G1 X171.474 Y102.819 E.0087
G1 X171.474 Y106.783 E.12429
G1 X171.055 Y106.783 E.01314
G1 X171.055 Y102.819 E.12429
G1 X170.636 Y102.819 E.01314
G1 X170.636 Y106.783 E.12429
G1 X170.217 Y106.783 E.01314
G1 X170.217 Y102.819 E.12429
G1 X169.798 Y102.819 E.01314
G1 X169.798 Y106.783 E.12429
G1 X169.379 Y106.783 E.01314
G1 X169.379 Y102.819 E.12429
G1 X168.96 Y102.819 E.01314
G1 X168.96 Y106.783 E.12429
G1 X168.541 Y106.783 E.01314
G1 X168.541 Y102.65 E.12961
M204 S1000
;WIPE_START
G1 F8640
G1 X168.541 Y105.941 E-.76
;WIPE_END
G1 E-.04 F2100
G1 Z.6 F720
G1 X171.893 Y97.105 F10800
G1 Z.2 F720
G1 E.8 F2100
M204 S800
G1 F1200
G1 X171.893 Y92.72 E.13746
G1 X171.752 Y92.862 E.00627
G1 X171.474 Y92.862 E.0087
G1 X171.474 Y96.723 E.12107
G1 X171.055 Y96.723 E.01314
G1 X171.055 Y92.862 E.12107
G1 X170.636 Y92.862 E.01314
G1 X170.636 Y96.723 E.12107
G1 X170.217 Y96.723 E.01314
G1 X170.217 Y92.692 E.12639
M204 S1000
;WIPE_START
G1 F8640
G1 X170.217 Y95.984 E-.76
;WIPE_END
G1 E-.04 F2100
G1 Z.6 F720
G1 X171.893 Y82.69 F10800
G1 Z.2 F720
G1 E.8 F2100
M204 S800
G1 F1200
G1 X171.893 Y78.305 E.13746
G1 X171.752 Y78.447 E.00627
G1 X171.474 Y78.447 E.0087
G1 X171.474 Y82.308 E.12107
G1 X171.055 Y82.308 E.01314
G1 X171.055 Y78.447 E.12107
G1 X170.636 Y78.447 E.01314
G1 X170.636 Y82.308 E.12107
G1 X170.217 Y82.308 E.01314
G1 X170.217 Y78.277 E.12639
M204 S1000
;WIPE_START
G1 F8640
G1 X170.217 Y81.569 E-.76
;WIPE_END
G1 E-.04 F2100
G1 Z.6 F720
G1 X127.063 Y74.654 F10800
G1 Z.2 F720
G1 E.8 F2100
M204 S800
G1 F1200
G1 X127.063 Y64.662 E.31329
G1 X126.644 Y64.662 E.01314
G1 X126.644 Y74.484 E.30797
G1 X126.225 Y74.484 E.01314
G1 X126.225 Y64.662 E.30797
G1 X125.806 Y64.662 E.01314
G1 X125.806 Y74.484 E.30797
G1 X125.387 Y74.484 E.01314
G1 X125.387 Y64.662 E.30797
G1 X124.968 Y64.662 E.01314
G1 X124.968 Y74.484 E.30797
G1 X124.549 Y74.484 E.01314
G1 X124.549 Y64.492 E.31329
M204 S1000
;WIPE_START
G1 F8640
G1 X124.549 Y67.784 E-.76
;WIPE_END
G1 E-.04 F2100
G1 Z.6 F720
G1 X129.232 Y71.707 F10800
G1 Z.2 F720
G1 E.8 F2100
M204 S800
;TYPE:Perimeter
G1 F1200
G1 X134.178 Y71.707 E.15508
G1 X134.178 Y73.957 E.07055
G1 X141.252 Y73.957 E.22181
G1 X141.252 Y71.707 E.07055
G1 X156.643 Y71.707 E.48257
G1 X156.643 Y73.957 E.07055
G1 X163.717 Y73.957 E.22181
G1 X163.717 Y71.707 E.07055
G1 X170.625 Y71.707 E.2166
G1 X170.625 Y76.84 E.16095
G1 X168.375 Y76.84 E.07055
G1 X168.375 Y83.915 E.22181
G1 X170.625 Y83.915 E.07055
G1 X170.625 Y91.255 E.23017
G1 X168.375 Y91.255 E.07055
G1 X168.375 Y98.33 E.22181
G1 X170.625 Y98.33 E.07055
G1 X170.625 Y101.213 E.09041
G1 X139.283 Y101.213 E.98273
G1 X129.229 Y72.2 E.96276
M73 Q1 S119
G1 X129.232 Y71.767 E.01356
M204 S1000
G1 X128.857 Y71.33 F10800
M204 S800
;TYPE:External perimeter
G1 F1200
G1 X134.555 Y71.33 E.17866
G1 X134.555 Y73.58 E.07055
G1 X140.875 Y73.58 E.19816
G1 X140.875 Y71.33 E.07055
G1 X157.02 Y71.33 E.50622
G1 X157.02 Y73.58 E.07055
G1 X163.34 Y73.58 E.19816
G1 X163.34 Y71.33 E.07055
G1 X171.002 Y71.33 E.24024
G1 X171.002 Y77.218 E.1846
G1 X168.752 Y77.218 E.07055
G1 X168.752 Y83.537 E.19816
G1 X171.002 Y83.537 E.07055
G1 X171.002 Y91.633 E.25381
G1 X168.752 Y91.633 E.07055
G1 X168.752 Y97.953 E.19816
G1 X171.002 Y97.953 E.07055
G1 X171.002 Y101.59 E.11405
G1 X139.014 Y101.59 E1.00297
G1 X128.852 Y72.262 E.9732
G1 X128.856 Y71.39 E.02735
M204 S1000
G1 X129.223 Y71.492 F10800
;WIPE_START
G1 F8640
G1 X132.148 Y71.355 E-.76
;WIPE_END
G1 E-.04 F2100
G1 Z.6 F720
G1 X170.135 Y98.443 F10800
G1 Z.2 F720
G1 E.8 F2100
M204 S800
;TYPE:Solid infill
;WIDTH:0.421493
G1 F1200
G1 X170.343 Y98.65 E.00923
G1 X170.343 Y99.185 E.01685
G1 X169.77 Y98.612 E.02551
G1 X169.234 Y98.612 E.01685
G1 X170.343 Y99.721 E.04934
G1 X170.343 Y100.256 E.01685
G1 X168.529 Y98.443 E.08073
M204 S1000
;WIPE_START
G1 F8640
G1 X170.343 Y100.256 E-.59216
G1 X170.343 Y99.721 E-.12362
G1 X170.207 Y99.585 E-.04422
;WIPE_END
G1 E-.04 F2100
G1 Z.6 F720
G1 X170.512 Y84.9 F10800
G1 Z.2 F720
G1 E.8 F2100
M204 S800
