; generated by PrusaSlicer 2.3.1+win64 on 2021-05-19 at 20:55:01 UTC

; 

; external perimeters extrusion width = 0.45mm
; perimeters extrusion width = 0.45mm
; infill extrusion width = 0.45mm
; solid infill extrusion width = 0.45mm
; top infill extrusion width = 0.40mm
; support material extrusion width = 0.35mm
; first layer extrusion width = 0.42mm

M73 P0 R66
M73 Q0 S67
M201 X1000 Y1000 Z1000 E5000 ; sets maximum accelerations, mm/sec^2
M203 X200 Y200 Z12 E120 ; sets maximum feedrates, mm/sec
M204 P1250 R1250 T1250 ; sets acceleration (P, T) and retract acceleration (R), mm/sec^2
M205 X8.00 Y8.00 Z0.40 E1.50 ; sets the jerk limits, mm/sec
M205 S0 T0 ; sets the minimum extruding and travel feed rate, mm/sec
M107
;TYPE:Custom
M862.3 P "MK3S" ; printer model check
M862.1 P0.4 ; nozzle diameter check
M115 U3.8.0 ; tell printer latest fw version
G90 ; use absolute coordinates
M83 ; extruder relative mode
M104 S215 ; set extruder temp
M140 S60 ; set bed temp
M190 S60 ; wait for bed temp
M109 S215 ; wait for extruder temp
G28 W ; home all without mesh bed level
G80 ; mesh bed leveling
G1 Y-3.0 F1000.0 ; go outside print area
G92 E0.0
G1 X60.0 E9.0 F1000.0 ; intro line
G1 X100.0 E12.5 F1000.0 ; intro line
G92 E0.0
M221 S95
G21 ; set units to millimeters
G90 ; use absolute coordinates
M83 ; use relative distances for extrusion
M900 K0.05 ; Filament gcode LA 1.5
M900 K30 ; Filament gcode LA 1.0
;LAYER_CHANGE
;Z:0.2
;HEIGHT:0.2
;BEFORE_LAYER_CHANGE
G92 E0.0
;0.2


G1 E-0.80000 F2100.000
G1 Z0.600 F10800.000
;AFTER_LAYER_CHANGE
;0.2
G1 X152.266 Y101.281
G1 Z0.200
G1 E0.80000 F2100.000
M204 S1000
;TYPE:External perimeter
;WIDTH:0.422311
G1 F1200.000
G1 X150.849 Y101.184 E0.04479
G1 X150.004 Y101.082 E0.02687
;WIDTH:0.44446
G1 X148.755 Y100.875 E0.04226
G1 X147.790 Y100.665 E0.03296
;WIDTH:0.469121
G1 X146.428 Y100.305 E0.04992
;WIDTH:0.491931
G1 X145.249 Y99.925 E0.04628
G1 X144.275 Y99.557 E0.03887
G1 X143.141 Y99.073 E0.04601
G1 X142.001 Y98.518 E0.04735
;WIDTH:0.388837
G1 X141.202 Y98.078 E0.02624
G1 X140.093 Y97.416 E0.03712
G1 X138.634 Y96.405 E0.05108
G1 X137.624 Y95.607 E0.03701
G1 X137.203 Y95.246 E0.01595
G1 X136.156 Y94.272 E0.04115
;WIDTH:0.396354
G1 X135.529 Y93.640 E0.02616
G1 X134.753 Y92.796 E0.03368
;WIDTH:0.41063
G1 X133.911 Y91.778 E0.04039
;WIDTH:0.418096
G1 X133.361 Y91.043 E0.02866
;WIDTH:0.432394
G1 X132.546 Y89.840 E0.04705
;WIDTH:0.462054
G1 X131.692 Y88.395 E0.05848
;WIDTH:0.470569
G1 X131.616 Y88.252 E0.00575
;WIDTH:0.484779
G1 X131.123 Y87.279 E0.04010
;WIDTH:0.511498
G1 X130.653 Y86.249 E0.04410
;WIDTH:0.521006
G1 X130.078 Y84.761 E0.06343
;WIDTH:0.411565
G1 X129.683 Y83.551 E0.03900
G1 X129.309 Y82.114 E0.04552
G1 X129.072 Y80.946 E0.03652
G1 X128.929 Y80.055 E0.02768
G1 X128.818 Y79.143 E0.02816
G1 X128.746 Y78.318 E0.02536
;WIDTH:0.420063
G1 X128.734 Y78.112 E0.00647
;WIDTH:0.429562
G1 X128.675 Y76.566 E0.04976
;WIDTH:0.417369
G1 X128.734 Y74.988 E0.04915
G1 X128.801 Y74.144 E0.02635
;WIDTH:0.425523
G1 X128.929 Y73.046 E0.03518
G1 X129.159 Y71.704 E0.04332
;WIDTH:0.448648
G1 X129.229 Y71.365 E0.01168
;WIDTH:0.45934
G1 X129.532 Y70.083 E0.04559
;WIDTH:0.474606
G1 X129.797 Y69.211 E0.03273
;WIDTH:0.482009
G1 X130.074 Y68.351 E0.03299
G1 X130.276 Y67.797 E0.02153
G1 X130.868 Y66.360 E0.05676
;WIDTH:0.489853
G1 X131.483 Y65.101 E0.05206
;WIDTH:0.388862
G1 X131.937 Y64.265 E0.02736
G1 X132.547 Y63.259 E0.03384
G1 X132.808 Y62.858 E0.01377
G1 X133.616 Y61.707 E0.04044
G1 X134.395 Y60.722 E0.03613
G1 X134.759 Y60.297 E0.01611
G1 X135.529 Y59.461 E0.03268
G1 X136.161 Y58.823 E0.02583
;WIDTH:0.397555
G1 X137.203 Y57.854 E0.04196
;WIDTH:0.406831
G1 X138.202 Y57.026 E0.03926
;WIDTH:0.41723
G1 X138.934 Y56.478 E0.02846
;WIDTH:0.434423
G1 X140.094 Y55.684 E0.04574
;WIDTH:0.446372
G1 X141.209 Y55.018 E0.04359
;WIDTH:0.46922
G1 X142.002 Y54.582 E0.03207
;WIDTH:0.493514
G1 X143.295 Y53.958 E0.05380
;WIDTH:0.513245
G1 X144.282 Y53.540 E0.04193
;WIDTH:0.52323
G1 X145.647 Y53.038 E0.05807
;WIDTH:0.407194
G1 X146.449 Y52.789 E0.02545
G1 X147.248 Y52.569 E0.02510
G1 X148.671 Y52.242 E0.04424
G1 X150.000 Y52.020 E0.04081
G1 X150.671 Y51.935 E0.02048
G1 X151.891 Y51.838 E0.03707
G1 X153.490 Y51.777 E0.04847
G1 X155.574 Y51.873 E0.06317
;WIDTH:0.422094
G1 X156.896 Y52.019 E0.04194
;WIDTH:0.442773
G1 X158.062 Y52.210 E0.03929
G1 X159.109 Y52.436 E0.03560
;WIDTH:0.468688
G1 X160.468 Y52.794 E0.04974
;WIDTH:0.491456
G1 X161.651 Y53.176 E0.04637
G1 X162.625 Y53.543 E0.03883
G1 X163.758 Y54.028 E0.04597
G1 X164.899 Y54.583 E0.04730
;WIDTH:0.389526
G1 X165.698 Y55.023 E0.02630
G1 X166.806 Y55.684 E0.03720
G1 X168.266 Y56.696 E0.05118
G1 X169.276 Y57.493 E0.03708
G1 X169.704 Y57.861 E0.01627
G1 X170.741 Y58.825 E0.04081
G1 X171.373 Y59.463 E0.02587
;WIDTH:0.397286
G1 X172.146 Y60.304 E0.03368
;WIDTH:0.410327
G1 X172.989 Y61.322 E0.04036
;WIDTH:0.418388
G1 X173.537 Y62.055 E0.02856
;WIDTH:0.432761
G1 X174.094 Y62.856 E0.03165
G1 X174.357 Y63.267 E0.01579
;WIDTH:0.462108
G1 X175.208 Y64.705 E0.05825
;WIDTH:0.470614
G1 X175.284 Y64.848 E0.00575
;WIDTH:0.48475
G1 X175.777 Y65.822 E0.04010
;WIDTH:0.51156
G1 X176.246 Y66.852 E0.04411
;WIDTH:0.521647
G1 X176.824 Y68.346 E0.06377
;WIDTH:0.407039
G1 X177.223 Y69.570 E0.03899
G1 X177.600 Y71.029 E0.04561
G1 X177.824 Y72.137 E0.03424
G1 X178.044 Y73.601 E0.04483
G1 X178.153 Y74.782 E0.03590
G1 X178.225 Y76.523 E0.05278
G1 X178.151 Y78.309 E0.05411
;WIDTH:0.416256
G1 X178.094 Y79.001 E0.02155
;WIDTH:0.423858
G1 X177.970 Y80.056 E0.03365
;WIDTH:0.443677
G1 X177.701 Y81.591 E0.05193
;WIDTH:0.454653
G1 X177.365 Y83.018 E0.05018
;WIDTH:0.482082
G1 X177.040 Y84.119 E0.04193
G1 X176.823 Y84.755 E0.02453
G1 X176.622 Y85.303 E0.02131
G1 X176.031 Y86.741 E0.05676
;WIDTH:0.489866
G1 X175.417 Y88.000 E0.05207
;WIDTH:0.38746
G1 X174.962 Y88.835 E0.02724
G1 X174.356 Y89.835 E0.03351
G1 X173.533 Y91.051 E0.04205
G1 X172.988 Y91.778 E0.02603
G1 X172.490 Y92.396 E0.02276
G1 X172.140 Y92.803 E0.01536
G1 X171.367 Y93.642 E0.03267
;WIDTH:0.397421
G1 X170.743 Y94.275 E0.02622
G1 X169.696 Y95.246 E0.04208
;WIDTH:0.406777
G1 X168.697 Y96.074 E0.03926
;WIDTH:0.41725
G1 X167.965 Y96.622 E0.02846
;WIDTH:0.434461
G1 X166.806 Y97.416 E0.04574
;WIDTH:0.44641
G1 X165.690 Y98.082 E0.04359
;WIDTH:0.469172
G1 X164.899 Y98.518 E0.03204
;WIDTH:0.489459
G1 X163.757 Y99.073 E0.04713
;WIDTH:0.498466
G1 X163.145 Y99.345 E0.02537
G1 X162.196 Y99.726 E0.03875
G1 X161.023 Y100.138 E0.04708
G1 X160.558 Y100.280 E0.01843
;WIDTH:0.403971
G1 X159.109 Y100.664 E0.04497
G1 X158.043 Y100.893 E0.03274
G1 X156.888 Y101.081 E0.03513
G1 X155.529 Y101.227 E0.04106
;WIDTH:0.422311
G1 X153.458 Y101.326 E0.06539
G1 X152.326 Y101.283 E0.03575
G1 X152.052 Y101.619 F10800.000
G1 E-0.80000 F2100.000
G1 Z0.800 F10800.000
G1 X171.907 Y116.940
G1 Z0.200
G1 E0.80000 F2100.000
;WIDTH:0.397286
G1 F1200.000
G1 X172.146 Y117.204 E0.01050
;WIDTH:0.410327
G1 X172.989 Y118.222 E0.04036
;WIDTH:0.418388
G1 X173.537 Y118.954 E0.02856
;WIDTH:0.432761
G1 X174.094 Y119.756 E0.03165
G1 X174.357 Y120.166 E0.01579
;WIDTH:0.462108
G1 X175.208 Y121.605 E0.05825
;WIDTH:0.470614
G1 X175.284 Y121.747 E0.00575
;WIDTH:0.48475
G1 X175.777 Y122.721 E0.04010
;WIDTH:0.51156
G1 X176.246 Y123.751 E0.04411
;WIDTH:0.521647
G1 X176.824 Y125.245 E0.06377
;WIDTH:0.407039
G1 X177.223 Y126.470 E0.03899
G1 X177.600 Y127.928 E0.04561
G1 X177.824 Y129.037 E0.03424
G1 X178.044 Y130.501 E0.04483
G1 X178.153 Y131.681 E0.03590
G1 X178.225 Y133.423 E0.05278
G1 X178.151 Y135.209 E0.05411
;WIDTH:0.416256
G1 X178.094 Y135.900 E0.02155
;WIDTH:0.423858
G1 X177.970 Y136.955 E0.03365
;WIDTH:0.443677
G1 X177.701 Y138.491 E0.05193
;WIDTH:0.454653
G1 X177.365 Y139.917 E0.05018
;WIDTH:0.482082
G1 X177.040 Y141.019 E0.04193
G1 X176.823 Y141.655 E0.02453
G1 X176.622 Y142.202 E0.02131
G1 X176.031 Y143.640 E0.05676
;WIDTH:0.489866
G1 X175.417 Y144.899 E0.05207
;WIDTH:0.38746
G1 X174.962 Y145.735 E0.02724
G1 X174.356 Y146.735 E0.03351
G1 X173.533 Y147.950 E0.04205
G1 X172.988 Y148.678 E0.02603
G1 X172.490 Y149.296 E0.02276
G1 X172.140 Y149.703 E0.01536
G1 X171.367 Y150.541 E0.03267
;WIDTH:0.397421
G1 X170.743 Y151.175 E0.02622
G1 X169.696 Y152.146 E0.04208
;WIDTH:0.406777
G1 X168.697 Y152.974 E0.03926
;WIDTH:0.41725
G1 X167.965 Y153.522 E0.02846
;WIDTH:0.434461
G1 X166.806 Y154.316 E0.04574
;WIDTH:0.44641
G1 X165.690 Y154.982 E0.04359
;WIDTH:0.469172
G1 X164.899 Y155.417 E0.03204
;WIDTH:0.489459
G1 X163.757 Y155.972 E0.04713
;WIDTH:0.498466
G1 X163.145 Y156.245 E0.02537
G1 X162.196 Y156.626 E0.03875
G1 X161.023 Y157.037 E0.04708
G1 X160.558 Y157.180 E0.01843
;WIDTH:0.403971
G1 X159.109 Y157.563 E0.04497
G1 X158.043 Y157.793 E0.03274
G1 X156.888 Y157.981 E0.03513
G1 X155.529 Y158.127 E0.04106
;WIDTH:0.422311
G1 X154.063 Y158.207 E0.04631
G1 X153.273 Y158.224 E0.02491
G1 X151.791 Y158.158 E0.04679
G1 X150.631 Y158.062 E0.03675
G1 X150.004 Y157.981 E0.01994
;WIDTH:0.44446
G1 X148.755 Y157.775 E0.04226
G1 X147.790 Y157.564 E0.03296
;WIDTH:0.469121
M73 Q0 S66
G1 X146.428 Y157.205 E0.04992
;WIDTH:0.491931
G1 X145.249 Y156.824 E0.04628
G1 X144.275 Y156.457 E0.03887
G1 X143.141 Y155.972 E0.04601
G1 X142.001 Y155.417 E0.04735
;WIDTH:0.388837
G1 X141.202 Y154.977 E0.02624
G1 X140.093 Y154.316 E0.03712
G1 X138.634 Y153.304 E0.05108
G1 X137.624 Y152.507 E0.03701
G1 X137.203 Y152.146 E0.01595
G1 X136.156 Y151.171 E0.04115
;WIDTH:0.396354
G1 X135.529 Y150.539 E0.02616
G1 X134.753 Y149.696 E0.03368
;WIDTH:0.41063
G1 X133.911 Y148.678 E0.04039
;WIDTH:0.418096
G1 X133.361 Y147.942 E0.02866
;WIDTH:0.432394
G1 X132.546 Y146.739 E0.04705
;WIDTH:0.462054
G1 X131.692 Y145.295 E0.05848
;WIDTH:0.470569
G1 X131.616 Y145.152 E0.00575
;WIDTH:0.484779
G1 X131.123 Y144.178 E0.04010
;WIDTH:0.511498
G1 X130.653 Y143.148 E0.04410
;WIDTH:0.521006
G1 X130.078 Y141.660 E0.06343
;WIDTH:0.411565
G1 X129.683 Y140.451 E0.03900
G1 X129.309 Y139.013 E0.04552
G1 X129.072 Y137.846 E0.03652
G1 X128.929 Y136.954 E0.02768
G1 X128.818 Y136.042 E0.02816
G1 X128.746 Y135.218 E0.02536
;WIDTH:0.420063
G1 X128.734 Y135.012 E0.00647
;WIDTH:0.429562
G1 X128.675 Y133.465 E0.04976
;WIDTH:0.417369
G1 X128.734 Y131.888 E0.04915
G1 X128.801 Y131.044 E0.02635
;WIDTH:0.425523
G1 X128.929 Y129.946 E0.03518
G1 X129.159 Y128.604 E0.04332
;WIDTH:0.448648
G1 X129.229 Y128.264 E0.01168
;WIDTH:0.45934
G1 X129.532 Y126.983 E0.04559
;WIDTH:0.474606
G1 X129.797 Y126.110 E0.03273
;WIDTH:0.482009
G1 X130.074 Y125.250 E0.03299
G1 X130.276 Y124.696 E0.02153
G1 X130.868 Y123.259 E0.05676
;WIDTH:0.489853
G1 X131.483 Y122.000 E0.05206
;WIDTH:0.388862
G1 X131.937 Y121.165 E0.02736
G1 X132.547 Y120.159 E0.03384
G1 X132.808 Y119.757 E0.01377
G1 X133.616 Y118.607 E0.04044
G1 X134.395 Y117.622 E0.03613
G1 X134.759 Y117.196 E0.01611
G1 X135.529 Y116.361 E0.03268
G1 X136.161 Y115.723 E0.02583
;WIDTH:0.397555
G1 X137.203 Y114.754 E0.04196
;WIDTH:0.406831
G1 X138.202 Y113.926 E0.03926
;WIDTH:0.41723
G1 X138.934 Y113.377 E0.02846
;WIDTH:0.434423
G1 X140.094 Y112.584 E0.04574
;WIDTH:0.446372
G1 X141.209 Y111.918 E0.04359
;WIDTH:0.46922
G1 X142.002 Y111.482 E0.03207
;WIDTH:0.493514
G1 X143.295 Y110.858 E0.05380
;WIDTH:0.513245
G1 X144.282 Y110.440 E0.04193
;WIDTH:0.52323
G1 X145.647 Y109.938 E0.05807
;WIDTH:0.407194
G1 X146.449 Y109.689 E0.02545
G1 X147.248 Y109.469 E0.02510
G1 X148.671 Y109.141 E0.04424
G1 X150.000 Y108.920 E0.04081
G1 X150.671 Y108.834 E0.02048
G1 X151.891 Y108.738 E0.03707
G1 X153.490 Y108.677 E0.04847
G1 X155.574 Y108.772 E0.06317
;WIDTH:0.422094
G1 X156.896 Y108.918 E0.04194
;WIDTH:0.442773
G1 X158.062 Y109.109 E0.03929
G1 X159.109 Y109.336 E0.03560
;WIDTH:0.468688
G1 X160.468 Y109.693 E0.04974
;WIDTH:0.491456
G1 X161.651 Y110.075 E0.04637
G1 X162.625 Y110.443 E0.03883
G1 X163.758 Y110.927 E0.04597
G1 X164.899 Y111.482 E0.04730
;WIDTH:0.389526
G1 X165.698 Y111.922 E0.02630
G1 X166.806 Y112.584 E0.03720
G1 X168.266 Y113.595 E0.05118
G1 X169.276 Y114.392 E0.03708
G1 X169.704 Y114.761 E0.01627
G1 X170.741 Y115.725 E0.04081
G1 X171.373 Y116.363 E0.02587
;WIDTH:0.397286
G1 X171.867 Y116.895 E0.02142
G1 E-0.80000 F2100.000
G1 Z0.800 F10800.000
G1 X97.400 Y158.194
G1 Z0.200
G1 E0.80000 F2100.000
;WIDTH:0.422311
G1 F1200.000
G1 X96.372 Y158.224 E0.03246
G1 X94.990 Y158.164 E0.04362
G1 X93.941 Y158.083 E0.03319
G1 X93.102 Y157.981 E0.02666
;WIDTH:0.44446
G1 X91.854 Y157.775 E0.04226
G1 X90.889 Y157.564 E0.03296
;WIDTH:0.469121
G1 X89.527 Y157.205 E0.04992
;WIDTH:0.491931
G1 X88.347 Y156.824 E0.04628
G1 X87.373 Y156.457 E0.03887
G1 X86.240 Y155.972 E0.04601
G1 X85.100 Y155.417 E0.04735
;WIDTH:0.388837
G1 X84.300 Y154.977 E0.02624
G1 X83.192 Y154.316 E0.03712
G1 X81.732 Y153.304 E0.05108
G1 X80.723 Y152.507 E0.03701
G1 X80.302 Y152.146 E0.01595
G1 X79.255 Y151.171 E0.04115
;WIDTH:0.396354
G1 X78.628 Y150.539 E0.02616
G1 X77.852 Y149.696 E0.03368
;WIDTH:0.41063
G1 X77.010 Y148.678 E0.04039
;WIDTH:0.418096
G1 X76.460 Y147.942 E0.02866
;WIDTH:0.432394
G1 X75.645 Y146.739 E0.04705
;WIDTH:0.462054
G1 X74.791 Y145.295 E0.05848
;WIDTH:0.470569
G1 X74.715 Y145.152 E0.00575
;WIDTH:0.484779
G1 X74.222 Y144.178 E0.04010
;WIDTH:0.511498
G1 X73.752 Y143.148 E0.04410
;WIDTH:0.521006
G1 X73.177 Y141.660 E0.06343
;WIDTH:0.411565
G1 X72.781 Y140.451 E0.03900
G1 X72.408 Y139.013 E0.04552
G1 X72.171 Y137.846 E0.03652
G1 X72.027 Y136.954 E0.02768
G1 X71.917 Y136.042 E0.02816
G1 X71.845 Y135.218 E0.02536
;WIDTH:0.420063
G1 X71.833 Y135.012 E0.00647
;WIDTH:0.429562
G1 X71.774 Y133.465 E0.04976
;WIDTH:0.417369
G1 X71.833 Y131.888 E0.04915
G1 X71.900 Y131.044 E0.02635
;WIDTH:0.425523
G1 X72.028 Y129.946 E0.03518
G1 X72.258 Y128.604 E0.04332
;WIDTH:0.448648
G1 X72.328 Y128.264 E0.01168
;WIDTH:0.45934
G1 X72.631 Y126.983 E0.04559
;WIDTH:0.474606
G1 X72.895 Y126.110 E0.03273
;WIDTH:0.482009
G1 X73.173 Y125.250 E0.03299
G1 X73.374 Y124.696 E0.02153
G1 X73.967 Y123.259 E0.05676
;WIDTH:0.489853
G1 X74.582 Y122.000 E0.05206
;WIDTH:0.388862
G1 X75.036 Y121.165 E0.02736
G1 X75.646 Y120.159 E0.03384
G1 X75.907 Y119.757 E0.01377
G1 X76.714 Y118.607 E0.04044
G1 X77.494 Y117.622 E0.03613
G1 X77.858 Y117.196 E0.01611
G1 X78.628 Y116.361 E0.03268
G1 X79.260 Y115.723 E0.02583
;WIDTH:0.397555
G1 X80.302 Y114.754 E0.04196
;WIDTH:0.406831
G1 X81.301 Y113.926 E0.03926
;WIDTH:0.41723
G1 X82.033 Y113.377 E0.02846
;WIDTH:0.434423
G1 X83.192 Y112.584 E0.04574
;WIDTH:0.446372
G1 X84.308 Y111.918 E0.04359
;WIDTH:0.46922
G1 X85.101 Y111.482 E0.03207
;WIDTH:0.493514
G1 X86.394 Y110.858 E0.05380
;WIDTH:0.513245
G1 X87.381 Y110.440 E0.04193
;WIDTH:0.52323
G1 X88.746 Y109.938 E0.05807
;WIDTH:0.407194
G1 X89.548 Y109.689 E0.02545
G1 X90.347 Y109.469 E0.02510
G1 X91.770 Y109.141 E0.04424
G1 X93.099 Y108.920 E0.04081
G1 X93.770 Y108.834 E0.02048
G1 X94.990 Y108.738 E0.03707
G1 X96.589 Y108.677 E0.04847
G1 X98.673 Y108.772 E0.06317
;WIDTH:0.422094
G1 X99.995 Y108.918 E0.04194
;WIDTH:0.442773
G1 X101.161 Y109.109 E0.03929
G1 X102.208 Y109.336 E0.03560
;WIDTH:0.468688
G1 X103.567 Y109.693 E0.04974
;WIDTH:0.491456
G1 X104.750 Y110.075 E0.04637
G1 X105.724 Y110.443 E0.03883
G1 X106.857 Y110.927 E0.04597
G1 X107.997 Y111.482 E0.04730
;WIDTH:0.389526
G1 X108.797 Y111.922 E0.02630
G1 X109.905 Y112.584 E0.03720
G1 X111.365 Y113.595 E0.05118
G1 X112.375 Y114.392 E0.03708
G1 X112.803 Y114.761 E0.01627
G1 X113.840 Y115.725 E0.04081
G1 X114.471 Y116.363 E0.02587
;WIDTH:0.397286
G1 X115.245 Y117.204 E0.03368
;WIDTH:0.410327
G1 X116.087 Y118.222 E0.04036
;WIDTH:0.418388
G1 X116.635 Y118.954 E0.02856
;WIDTH:0.432761
G1 X117.193 Y119.756 E0.03165
G1 X117.456 Y120.166 E0.01579
;WIDTH:0.462108
G1 X118.307 Y121.605 E0.05825
;WIDTH:0.470614
G1 X118.383 Y121.747 E0.00575
;WIDTH:0.48475
G1 X118.875 Y122.721 E0.04010
;WIDTH:0.51156
G1 X119.345 Y123.751 E0.04411
;WIDTH:0.521647
G1 X119.922 Y125.245 E0.06377
;WIDTH:0.407039
G1 X120.322 Y126.470 E0.03899
G1 X120.699 Y127.928 E0.04561
G1 X120.923 Y129.037 E0.03424
G1 X121.143 Y130.501 E0.04483
G1 X121.252 Y131.681 E0.03590
G1 X121.324 Y133.423 E0.05278
G1 X121.250 Y135.209 E0.05411
;WIDTH:0.416256
G1 X121.192 Y135.900 E0.02155
;WIDTH:0.423858
G1 X121.069 Y136.955 E0.03365
;WIDTH:0.443677
