; generated by PrusaSlicer 2.3.1+win64 on 2021-08-19 at 22:02:37 UTC

; 

; external perimeters extrusion width = 0.45mm
; perimeters extrusion width = 0.45mm
; infill extrusion width = 0.45mm
; solid infill extrusion width = 0.45mm
; top infill extrusion width = 0.40mm
; support material extrusion width = 0.35mm
; first layer extrusion width = 0.42mm

M73 P0 R60
M73 Q0 S61
M201 X1000 Y1000 Z1000 E5000 ; sets maximum accelerations, mm/sec^2
M203 X200 Y200 Z12 E120 ; sets maximum feedrates, mm/sec
M204 P1250 R1250 T1250 ; sets acceleration (P, T) and retract acceleration (R), mm/sec^2
M205 X8.00 Y8.00 Z0.40 E1.50 ; sets the jerk limits, mm/sec
M205 S0 T0 ; sets the minimum extruding and travel feed rate, mm/sec
M107
;TYPE:Custom
M862.3 P "MK3S" ; printer model check
M862.1 P0.4 ; nozzle diameter check
M115 U3.8.0 ; tell printer latest fw version
G90 ; use absolute coordinates
M83 ; extruder relative mode
M104 S215 ; set extruder temp
M140 S60 ; set bed temp
M190 S60 ; wait for bed temp
M109 S215 ; wait for extruder temp
G28 W ; home all without mesh bed level
G80 ; mesh bed leveling
G1 Y-3.0 F1000.0 ; go outside print area
G92 E0.0
G1 X60.0 E9.0 F1000.0 ; intro line
G1 X100.0 E12.5 F1000.0 ; intro line
G92 E0.0
M221 S95
G21 ; set units to millimeters
G90 ; use absolute coordinates
M83 ; use relative distances for extrusion
M900 K0.05 ; Filament gcode LA 1.5
M900 K30 ; Filament gcode LA 1.0
;LAYER_CHANGE
;Z:0.2
;HEIGHT:0.2
;BEFORE_LAYER_CHANGE
G92 E0.0
;0.2


G1 E-0.80000 F2100.000
G1 Z0.600 F10800.000
;AFTER_LAYER_CHANGE
;0.2
G1 X118.127 Y143.833
G1 Z0.200
G1 E0.80000 F2100.000
M204 S1000
;TYPE:External perimeter
;WIDTH:0.42
G1 F1200.000
G1 X117.740 Y144.739 E0.03091
G1 X117.421 Y145.409 E0.02324
G1 X116.935 Y146.354 E0.03334
G1 X116.542 Y147.069 E0.02556
G1 X115.832 Y148.224 E0.04252
G1 X115.141 Y149.203 E0.03756
G1 X114.238 Y150.354 E0.04589
G1 X113.777 Y150.915 E0.02276
G1 X112.907 Y151.851 E0.04006
G1 X111.453 Y153.225 E0.06273
G1 X110.554 Y153.977 E0.03676
G1 X109.204 Y154.958 E0.05231
G1 X108.895 Y155.140 E0.01124
G1 X108.346 Y155.508 E0.02073
G1 X106.757 Y156.420 E0.05743
G1 X105.628 Y156.944 E0.03904
G1 X105.388 Y157.074 E0.00855
G1 X103.706 Y157.745 E0.05677
G1 X102.324 Y158.184 E0.04547
G1 X101.336 Y158.468 E0.03225
G1 X99.834 Y158.804 E0.04824
G1 X98.262 Y159.045 E0.04989
G1 X97.072 Y159.157 E0.03748
G1 X96.317 Y159.194 E0.02369
G1 X95.197 Y159.217 E0.03512
G1 X93.512 Y159.147 E0.05289
G1 X91.461 Y158.907 E0.06472
G1 X90.361 Y158.700 E0.03512
G1 X89.623 Y158.538 E0.02369
G1 X88.467 Y158.231 E0.03748
G1 X86.957 Y157.735 E0.04986
G1 X85.529 Y157.155 E0.04831
G1 X84.602 Y156.713 E0.03221
G1 X83.312 Y156.051 E0.04546
G1 X81.764 Y155.112 E0.05677
G1 X81.548 Y154.945 E0.00855
G1 X80.515 Y154.237 E0.03926
G1 X80.282 Y154.034 E0.00971
G1 X79.955 Y153.796 E0.01268
G1 X79.101 Y153.077 E0.03501
G1 X78.623 Y152.627 E0.02058
G1 X78.349 Y152.396 E0.01121
G1 X77.179 Y151.206 E0.05234
G1 X76.417 Y150.317 E0.03671
G1 X75.875 Y149.617 E0.02775
G1 X75.042 Y148.487 E0.04404
G1 X74.505 Y147.653 E0.03111
G1 X73.773 Y146.367 E0.04637
G1 X73.442 Y145.739 E0.02228
G1 X72.923 Y144.662 E0.03747
G1 X72.258 Y142.991 E0.05641
G1 X71.819 Y141.621 E0.04509
G1 X71.471 Y140.340 E0.04161
G1 X71.326 Y139.712 E0.02021
G1 X71.255 Y139.313 E0.01271
G1 X71.182 Y139.041 E0.00883
G1 X71.136 Y138.665 E0.01189
G1 X71.056 Y138.281 E0.01230
G1 X70.913 Y137.090 E0.03760
G1 X70.820 Y135.870 E0.03837
G1 X70.793 Y134.504 E0.04284
G1 X70.830 Y133.246 E0.03946
G1 X70.892 Y132.372 E0.02746
G1 X71.040 Y131.179 E0.03770
G1 X71.199 Y130.198 E0.03115
G1 X71.394 Y129.228 E0.03102
G1 X71.691 Y128.053 E0.03801
G1 X71.989 Y127.053 E0.03273
G1 X72.131 Y126.687 E0.01229
G1 X72.237 Y126.325 E0.01185
G1 X72.973 Y124.552 E0.06017
G1 X73.283 Y123.905 E0.02249
G1 X73.952 Y122.602 E0.04594
G1 X74.881 Y121.068 E0.05623
G1 X75.572 Y120.089 E0.03757
G1 X76.936 Y118.377 E0.06865
G1 X77.806 Y117.441 E0.04006
G1 X79.261 Y116.067 E0.06273
G1 X80.164 Y115.312 E0.03691
G1 X81.499 Y114.342 E0.05174
G1 X82.369 Y113.782 E0.03244
G1 X83.956 Y112.872 E0.05737
G1 X85.086 Y112.347 E0.03904
G1 X85.325 Y112.218 E0.00854
G1 X87.007 Y111.547 E0.05677
G1 X88.389 Y111.108 E0.04547
G1 X89.378 Y110.824 E0.03225
G1 X90.879 Y110.488 E0.04823
G1 X92.451 Y110.246 E0.04987
G1 X93.642 Y110.135 E0.03750
G1 X94.397 Y110.098 E0.02372
G1 X95.514 Y110.074 E0.03503
G1 X96.760 Y110.118 E0.03909
G1 X97.701 Y110.191 E0.02959
G1 X99.252 Y110.385 E0.04900
G1 X100.353 Y110.592 E0.03512
G1 X101.091 Y110.753 E0.02369
G1 X102.247 Y111.059 E0.03750
G1 X103.757 Y111.557 E0.04985
G1 X105.184 Y112.137 E0.04831
G1 X106.111 Y112.579 E0.03221
G1 X107.402 Y113.241 E0.04547
G1 X108.950 Y114.180 E0.05677
G1 X109.165 Y114.347 E0.00855
G1 X110.193 Y115.050 E0.03904
G1 X111.608 Y116.211 E0.05739
G1 X112.505 Y117.036 E0.03820
G1 X113.531 Y118.083 E0.04596
G1 X114.296 Y118.975 E0.03687
G1 X114.838 Y119.675 E0.02775
G1 X115.672 Y120.805 E0.04404
G1 X116.209 Y121.639 E0.03111
G1 X116.940 Y122.924 E0.04637
G1 X117.272 Y123.553 E0.02228
G1 X117.790 Y124.630 E0.03747
G1 X118.456 Y126.301 E0.05641
G1 X118.894 Y127.671 E0.04510
G1 X119.242 Y128.952 E0.04161
G1 X119.388 Y129.580 E0.02021
G1 X119.458 Y129.979 E0.01271
G1 X119.532 Y130.251 E0.00882
G1 X119.577 Y130.627 E0.01189
G1 X119.657 Y131.011 E0.01230
G1 X119.801 Y132.202 E0.03760
G1 X119.894 Y133.422 E0.03837
G1 X119.921 Y134.788 E0.04285
G1 X119.881 Y136.095 E0.04101
G1 X119.827 Y136.858 E0.02396
G1 X119.684 Y138.071 E0.03831
G1 X119.513 Y139.104 E0.03281
G1 X119.320 Y140.064 E0.03071
G1 X119.022 Y141.239 E0.03800
G1 X118.725 Y142.239 E0.03273
G1 X118.583 Y142.605 E0.01230
G1 X118.476 Y142.967 E0.01185
G1 X118.325 Y143.308 E0.01169
G1 X118.150 Y143.777 E0.01571
G1 X118.369 Y144.151 F10800.000
G1 E-0.80000 F2100.000
G1 Z0.800 F10800.000
G1 X95.576 Y109.672
G1 Z0.200
G1 E0.80000 F2100.000
G1 F1200.000
G1 X96.736 Y109.686 E0.03638
G1 X97.599 Y109.741 E0.02710
G1 X98.992 Y109.926 E0.04406
G1 X100.316 Y110.142 E0.04205
G1 X101.951 Y110.529 E0.05269
G1 X102.291 Y110.648 E0.01130
G1 X102.921 Y110.811 E0.02041
G1 X104.292 Y111.281 E0.04543
G1 X105.582 Y111.817 E0.04379
G1 X106.123 Y112.064 E0.01867
G1 X107.059 Y112.536 E0.03284
G1 X108.315 Y113.244 E0.04522
G1 X109.479 Y114.011 E0.04371
G1 X110.533 Y114.780 E0.04090
G1 X111.786 Y115.814 E0.05095
G1 X112.393 Y116.364 E0.02569
G1 X113.115 Y117.075 E0.03176
G1 X113.898 Y117.917 E0.03607
G1 X114.916 Y119.115 E0.04931
G1 X115.636 Y120.051 E0.03699
G1 X116.370 Y121.119 E0.04067
G1 X117.152 Y122.406 E0.04719
G1 X117.775 Y123.572 E0.04146
G1 X118.240 Y124.562 E0.03429
G1 X118.619 Y125.437 E0.02993
G1 X119.092 Y126.739 E0.04341
G1 X119.407 Y127.755 E0.03337
G1 X119.706 Y128.906 E0.03729
G1 X119.849 Y129.537 E0.02029
G1 X120.106 Y131.109 E0.04992
M73 Q0 S60
G1 X120.236 Y132.146 E0.03278
G1 X120.344 Y133.756 E0.05061
G1 X120.341 Y134.893 E0.03563
G1 X120.309 Y136.113 E0.03828
G1 X120.261 Y136.884 E0.02420
G1 X120.043 Y138.491 E0.05084
G1 X119.855 Y139.645 E0.03666
G1 X119.468 Y141.268 E0.05234
G1 X119.014 Y142.739 E0.04827
G1 X118.672 Y143.723 E0.03264
G1 X118.178 Y144.890 E0.03975
G1 X117.689 Y145.926 E0.03590
G1 X116.985 Y147.220 E0.04620
G1 X116.539 Y147.954 E0.02693
G1 X115.645 Y149.261 E0.04964
G1 X114.969 Y150.146 E0.03495
G1 X114.374 Y150.831 E0.02844
G1 X114.183 Y151.081 E0.00985
G1 X113.652 Y151.670 E0.02486
G1 X112.952 Y152.385 E0.03139
G1 X111.698 Y153.530 E0.05323
G1 X110.693 Y154.360 E0.04087
G1 X110.496 Y154.488 E0.00736
G1 X109.626 Y155.157 E0.03443
G1 X108.575 Y155.856 E0.03956
G1 X108.176 Y156.077 E0.01430
G1 X107.422 Y156.539 E0.02775
G1 X106.407 Y157.073 E0.03595
G1 X105.448 Y157.527 E0.03326
G1 X104.185 Y158.056 E0.04295
G1 X103.042 Y158.453 E0.03791
G1 X101.796 Y158.818 E0.04071
G1 X100.447 Y159.137 E0.04348
G1 X98.886 Y159.402 E0.04964
G1 X98.238 Y159.459 E0.02040
G1 X97.883 Y159.520 E0.01130
G1 X96.213 Y159.632 E0.05246
G1 X94.822 Y159.625 E0.04362
G1 X93.342 Y159.574 E0.04645
G1 X91.463 Y159.327 E0.05943
G1 X90.391 Y159.149 E0.03406
G1 X88.793 Y158.768 E0.05152
G1 X88.376 Y158.632 E0.01375
G1 X87.780 Y158.477 E0.01930
G1 X86.422 Y158.011 E0.04504
G1 X85.132 Y157.475 E0.04378
G1 X84.590 Y157.228 E0.01867
G1 X83.655 Y156.756 E0.03284
G1 X82.399 Y156.048 E0.04522
G1 X81.235 Y155.281 E0.04371
G1 X80.181 Y154.512 E0.04090
G1 X78.928 Y153.478 E0.05095
G1 X78.320 Y152.927 E0.02570
G1 X77.625 Y152.245 E0.03055
G1 X77.153 Y151.720 E0.02212
G1 X76.978 Y151.560 E0.00745
G1 X76.518 Y151.039 E0.02179
G1 X75.789 Y150.166 E0.03567
G1 X75.078 Y149.241 E0.03656
G1 X74.343 Y148.172 E0.04067
G1 X73.562 Y146.887 E0.04717
G1 X72.938 Y145.720 E0.04147
G1 X72.474 Y144.730 E0.03428
G1 X72.094 Y143.854 E0.02994
G1 X71.621 Y142.553 E0.04341
G1 X71.306 Y141.537 E0.03337
G1 X71.008 Y140.386 E0.03729
G1 X70.865 Y139.757 E0.02022
G1 X70.819 Y139.424 E0.01052
G1 X70.728 Y138.995 E0.01376
G1 X70.610 Y138.168 E0.02621
G1 X70.477 Y137.146 E0.03231
G1 X70.370 Y135.536 E0.05059
G1 X70.374 Y134.367 E0.03664
G1 X70.434 Y132.599 E0.05547
G1 X70.670 Y130.801 E0.05685
G1 X70.859 Y129.647 E0.03666
G1 X71.245 Y128.024 E0.05233
G1 X71.700 Y126.552 E0.04828
G1 X72.042 Y125.570 E0.03263
G1 X72.536 Y124.402 E0.03975
G1 X73.024 Y123.366 E0.03590
G1 X73.729 Y122.072 E0.04621
G1 X74.175 Y121.338 E0.02692
G1 X75.055 Y120.052 E0.04885
G1 X75.745 Y119.145 E0.03573
G1 X76.340 Y118.461 E0.02844
G1 X76.530 Y118.211 E0.00986
G1 X77.061 Y117.622 E0.02487
G1 X77.762 Y116.907 E0.03138
G1 X79.015 Y115.762 E0.05324
G1 X80.021 Y114.932 E0.04087
G1 X80.217 Y114.804 E0.00736
G1 X81.088 Y114.135 E0.03443
G1 X82.138 Y113.436 E0.03955
G1 X82.537 Y113.215 E0.01430
G1 X83.291 Y112.752 E0.02775
G1 X84.306 Y112.219 E0.03594
G1 X85.265 Y111.765 E0.03326
G1 X86.529 Y111.236 E0.04296
G1 X87.671 Y110.839 E0.03791
G1 X88.917 Y110.474 E0.04071
G1 X90.267 Y110.155 E0.04348
G1 X91.821 Y109.891 E0.04944
G1 X92.475 Y109.833 E0.02059
G1 X92.843 Y109.770 E0.01171
G1 X93.664 Y109.726 E0.02576
G1 X94.157 Y109.674 E0.01556
G1 X95.516 Y109.672 E0.04261
G1 X95.777 Y110.018 F10800.000
G1 E-0.80000 F2100.000
G1 Z0.800 F10800.000
G1 X96.533 Y109.897
G1 Z0.200
G1 E0.80000 F2100.000
;TYPE:Gap fill
;WIDTH:0.0986772
G1 F1200.000
G1 X97.577 Y109.960 E0.00485
G1 X98.425 Y110.066 E0.00396
G1 E-0.80000 F2100.000
G1 Z0.800 F10800.000
G1 X99.925 Y110.294
G1 Z0.200
G1 E0.80000 F2100.000
;WIDTH:0.0956419
G1 F1200.000
G1 X100.549 Y110.417 E0.00279
G1 E-0.80000 F2100.000
G1 Z0.800 F10800.000
G1 X101.523 Y110.647
G1 Z0.200
G1 E0.80000 F2100.000
;WIDTH:0.102616
G1 F1200.000
G1 X102.028 Y110.781 E0.00259
G1 X102.550 Y110.935 F10800.000
;WIDTH:0.0973199
G1 F1200.000
G1 X104.212 Y111.493 E0.00793
G1 X105.277 Y111.933 E0.00521
G1 X106.022 Y112.276 E0.00371
G1 X107.511 Y113.047 E0.00759
G1 X108.192 Y113.445 E0.00357
G1 X109.074 Y114.003 E0.00472
;WIDTH:0.119948
G1 X110.109 Y114.734 E0.00812
G1 E-0.80000 F2100.000
G1 Z0.800 F10800.000
G1 X116.722 Y122.110
G1 Z0.200
G1 E0.80000 F2100.000
;WIDTH:0.0937485
G1 F1200.000
G1 X117.466 Y123.455 E0.00649
G1 X117.989 Y124.540 E0.00509
G1 X118.403 Y125.524 E0.00451
G1 X118.667 Y126.225 E0.00317
G1 X119.180 Y127.820 E0.00708
G1 X119.481 Y128.961 E0.00499
G1 X119.743 Y130.211 E0.00540
;WIDTH:0.109615
G1 X119.965 Y131.497 E0.00723
G1 X119.870 Y130.987 F10800.000
;WIDTH:0.104158
G1 F1200.000
G1 X120.018 Y132.167 E0.00606
G1 X120.101 Y133.328 E0.00593
G1 X120.107 Y133.409 F10800.000
;WIDTH:0.108775
G1 F1200.000
G1 X120.128 Y134.489 E0.00592
G1 E-0.80000 F2100.000
G1 Z0.800 F10800.000
G1 X120.098 Y136.011
G1 Z0.200
G1 E0.80000 F2100.000
;WIDTH:0.0935787
G1 F1200.000
G1 X120.045 Y136.863 E0.00359
G1 X119.990 Y137.293 E0.00183
G1 E-0.80000 F2100.000
G1 Z0.800 F10800.000
G1 X119.710 Y139.207
G1 Z0.200
G1 E0.80000 F2100.000
;WIDTH:0.107114
G1 F1200.000
G1 X119.548 Y140.012 E0.00439
G1 X119.461 Y140.376 F10800.000
;WIDTH:0.105562
G1 F1200.000
G1 X119.256 Y141.210 E0.00447
G1 X119.019 Y141.999 E0.00429
G1 X118.916 Y142.334 F10800.000
;WIDTH:0.11682
G1 F1200.000
G1 X118.680 Y143.040 E0.00458
;WIDTH:0.0985879
G1 X118.437 Y143.689 E0.00321
G1 X117.950 Y144.835 E0.00576
G1 X117.477 Y145.818 E0.00505
G1 X116.785 Y147.105 E0.00676
G1 X116.012 Y148.342 E0.00675
G1 X115.465 Y149.130 E0.00444
G1 X114.539 Y150.316 E0.00696
G1 E-0.80000 F2100.000
G1 Z0.800 F10800.000
G1 X107.538 Y156.218
G1 Z0.200
G1 E0.80000 F2100.000
;WIDTH:0.100154
G1 F1200.000
G1 X107.129 Y156.453 E0.00224
G1 X106.650 Y156.705 F10800.000
;WIDTH:0.11098
G1 F1200.000
G1 X105.482 Y157.271 E0.00734
;WIDTH:0.101042
G1 X103.783 Y157.956 E0.00885
G1 X102.970 Y158.227 E0.00414
G1 X101.737 Y158.594 E0.00622
G1 X100.401 Y158.912 E0.00664
G1 X99.875 Y159.015 E0.00259
G1 X98.525 Y159.220 E0.00660
G1 X98.012 Y159.282 F10800.000
;WIDTH:0.10336
G1 F1200.000
G1 X97.464 Y159.334 E0.00277
G1 X96.492 Y159.399 F10800.000
;WIDTH:0.0958346
G1 F1200.000
G1 X95.870 Y159.417 E0.00274
G1 E-0.80000 F2100.000
G1 Z0.800 F10800.000
G1 X94.251 Y159.392
G1 Z0.200
G1 E0.80000 F2100.000
;WIDTH:0.0987028
G1 F1200.000
G1 X93.496 Y159.363 E0.00351
G1 X92.945 Y159.307 E0.00257
G1 E-0.80000 F2100.000
G1 Z0.800 F10800.000
G1 X90.821 Y159.004
G1 Z0.200
G1 E0.80000 F2100.000
;WIDTH:0.101349
G1 F1200.000
G1 X90.168 Y158.876 E0.00323
G1 E-0.80000 F2100.000
G1 Z0.800 F10800.000
G1 X89.157 Y158.635
G1 Z0.200
G1 E0.80000 F2100.000
;WIDTH:0.100866
G1 F1200.000
G1 X88.698 Y158.513 E0.00228
G1 X88.175 Y158.359 F10800.000
;WIDTH:0.113179
G1 F1200.000
G1 X86.884 Y157.939 E0.00793
;WIDTH:0.100392
G1 X86.018 Y157.602 E0.00444
G1 X85.224 Y157.264 E0.00412
G1 X84.498 Y156.921 E0.00383
G1 X83.204 Y156.246 E0.00697
G1 X82.521 Y155.847 E0.00378
G1 X81.642 Y155.291 E0.00497
G1 X80.600 Y154.554 E0.00610
G1 X80.332 Y154.360 F10800.000
;WIDTH:0.0933893
G1 F1200.000
G1 X80.048 Y154.126 E0.00154
G1 E-0.80000 F2100.000
G1 Z0.800 F10800.000
G1 X73.991 Y147.182
G1 Z0.200
G1 E0.80000 F2100.000
;WIDTH:0.106058
G1 F1200.000
G1 X73.584 Y146.471 E0.00430
;WIDTH:0.0969006
G1 X73.137 Y145.620 E0.00431
G1 X72.675 Y144.640 E0.00487
G1 X72.311 Y143.768 E0.00424
G1 X71.845 Y142.478 E0.00616
G1 X71.534 Y141.472 E0.00473
G1 X71.232 Y140.331 E0.00530
G1 X70.968 Y139.081 E0.00573
G1 X70.848 Y138.323 E0.00344
G1 X70.836 Y138.241 F10800.000
;WIDTH:0.0949845
G1 F1200.000
G1 X70.696 Y137.124 E0.00487
G1 X70.613 Y135.966 E0.00503
G1 X70.607 Y135.882 F10800.000
;WIDTH:0.108734
G1 F1200.000
G1 X70.586 Y134.843 E0.00569
G1 E-0.80000 F2100.000
G1 Z0.800 F10800.000
G1 X70.634 Y133.000
G1 Z0.200
G1 E0.80000 F2100.000
;WIDTH:0.101891
G1 F1200.000
G1 X70.677 Y132.352 E0.00318
G1 X70.766 Y131.651 E0.00346
G1 E-0.80000 F2100.000
G1 Z0.800 F10800.000
G1 X71.002 Y130.096
G1 Z0.200
G1 E0.80000 F2100.000
;WIDTH:0.107395
G1 F1200.000
G1 X71.166 Y129.277 E0.00448
G1 X71.252 Y128.918 F10800.000
;WIDTH:0.100987
G1 F1200.000
G1 X71.457 Y128.082 E0.00416
G1 X71.694 Y127.294 E0.00397
G1 X71.797 Y126.958 F10800.000
;WIDTH:0.100084
G1 F1200.000
G1 X72.033 Y126.252 E0.00354
G1 X72.277 Y125.602 E0.00330
G1 X72.763 Y124.458 E0.00591
G1 X73.237 Y123.474 E0.00519
G1 X73.756 Y122.491 E0.00528
G1 X74.370 Y121.464 E0.00569
G1 X74.702 Y120.950 E0.00291
G1 X75.398 Y119.959 E0.00576
;WIDTH:0.112269
G1 X76.174 Y118.976 E0.00722
G1 E-0.80000 F2100.000
G1 Z0.800 F10800.000
G1 X83.179 Y113.072
G1 Z0.200
G1 E0.80000 F2100.000
;WIDTH:0.100077
G1 F1200.000
G1 X83.583 Y112.840 E0.00222
G1 X84.064 Y112.587 F10800.000
;WIDTH:0.0966037
G1 F1200.000
G1 X85.235 Y112.020 E0.00581
G1 X86.933 Y111.335 E0.00817
G1 X87.743 Y111.065 E0.00381
G1 X88.976 Y110.698 E0.00574
G1 X90.312 Y110.380 E0.00613
G1 X90.840 Y110.276 E0.00240
;WIDTH:0.112212
G1 X92.168 Y110.074 E0.00774
G1 X92.720 Y110.007 F10800.000
;WIDTH:0.102636
G1 F1200.000
G1 X93.130 Y109.969 E0.00204
G1 X94.021 Y109.903 F10800.000
;WIDTH:0.100217
G1 F1200.000
G1 X94.380 Y109.885 E0.00171
G1 E-0.80000 F2100.000
G1 Z0.800 F10800.000
G1 X160.525 Y110.792
G1 Z0.200
G1 E0.80000 F2100.000
;TYPE:External perimeter
;WIDTH:0.42
G1 F1200.000
G1 X161.534 Y111.059 E0.03271
G1 X163.044 Y111.556 E0.04985
G1 X164.471 Y112.136 E0.04831
G1 X165.398 Y112.578 E0.03221
G1 X166.688 Y113.240 E0.04547
G1 X168.237 Y114.179 E0.05677
