; G-Code generated by Simplify3D(R) Version 4.1.2
; Dec 19, 2019 at 5:49:07 PM
; Settings Summary
;   processName,Process1
;   applyToModels,wonka ramp LED bracket,wonka rampV1R4,wonka ramp LED bracket(2),wonka rampV1R4(2),wonka ramp LED bracket(3),wonka rampV1R4(3)
;   profileName,Prusa Research Original Prusa i3 MK3 (modified)
;   profileVersion,2019-12-18 09:52:42
;   baseProfile,
;   printMaterial,PLA
;   printQuality,Medium
;   printExtruders,
;   extruderName,Primary Extruder
;   extruderToolheadNumber,0
;   extruderDiameter,0.4
;   extruderAutoWidth,0
;   extruderWidth,0.4
;   extrusionMultiplier,1
;   extruderUseRetract,1
;   extruderRetractionDistance,1
;   extruderExtraRestartDistance,0
;   extruderRetractionZLift,0
;   extruderRetractionSpeed,2400
;   extruderUseCoasting,1
;   extruderCoastingDistance,0.2
;   extruderUseWipe,1
;   extruderWipeDistance,2
;   primaryExtruder,0
;   layerHeight,0.2
;   topSolidLayers,3
;   bottomSolidLayers,3
;   perimeterOutlines,3
;   printPerimetersInsideOut,0
;   startPointOption,3
;   startPointOriginX,125
;   startPointOriginY,210
;   sequentialIslands,0
;   spiralVaseMode,0
;   firstLayerHeightPercentage,150
;   firstLayerWidthPercentage,100
;   firstLayerUnderspeed,0.5
;   useRaft,0
;   raftExtruder,0
;   raftTopLayers,2
;   raftBaseLayers,1
;   raftOffset,3
;   raftSeparationDistance,0.14
;   raftTopInfill,100
;   aboveRaftSpeedMultiplier,0.3
;   useSkirt,0
;   skirtExtruder,0
;   skirtLayers,1
;   skirtOutlines,2
;   skirtOffset,0
;   usePrimePillar,0
;   primePillarExtruder,999
;   primePillarWidth,12
;   primePillarLocation,7
;   primePillarSpeedMultiplier,1
;   useOozeShield,0
;   oozeShieldExtruder,999
;   oozeShieldOffset,2
;   oozeShieldOutlines,1
;   oozeShieldSidewallShape,1
;   oozeShieldSidewallAngle,30
;   oozeShieldSpeedMultiplier,1
;   infillExtruder,0
;   internalInfillPattern,Rectilinear
;   externalInfillPattern,Rectilinear
;   infillPercentage,10
;   outlineOverlapPercentage,20
;   infillExtrusionWidthPercentage,100
;   minInfillLength,5
;   infillLayerInterval,1
;   internalInfillAngles,45,-45
;   overlapInternalInfillAngles,0
;   externalInfillAngles,45,-45
;   generateSupport,0
;   supportExtruder,0
;   supportInfillPercentage,30
;   supportExtraInflation,0
;   supportBaseLayers,0
;   denseSupportExtruder,0
;   denseSupportLayers,0
;   denseSupportInfillPercentage,70
;   supportLayerInterval,1
;   supportHorizontalPartOffset,0.3
;   supportUpperSeparationLayers,1
;   supportLowerSeparationLayers,1
;   supportType,0
;   supportGridSpacing,99
;   maxOverhangAngle,45
;   supportAngles,0
;   temperatureName,Primary Extruder,Heated Bed
;   temperatureNumber,0,0
;   temperatureSetpointCount,1,1
;   temperatureSetpointLayers,1,1
;   temperatureSetpointTemperatures,200,60
;   temperatureStabilizeAtStartup,1,1
;   temperatureHeatedBed,0,1
;   fanLayers,1,2
;   fanSpeeds,0,100
;   blipFanToFullPower,0
;   adjustSpeedForCooling,1
;   minSpeedLayerTime,15
;   minCoolingSpeedSlowdown,20
;   increaseFanForCooling,0
;   minFanLayerTime,45
;   maxCoolingFanSpeed,100
;   increaseFanForBridging,0
;   bridgingFanSpeed,100
;   use5D,1
;   relativeEdistances,0
;   allowEaxisZeroing,1
;   independentExtruderAxes,0
;   includeM10123,0
;   stickySupport,1
;   applyToolheadOffsets,0
;   gcodeXoffset,0
;   gcodeYoffset,0
;   gcodeZoffset,0
;   overrideMachineDefinition,1
;   machineTypeOverride,0
;   strokeXoverride,250
;   strokeYoverride,210
;   strokeZoverride,210
;   originOffsetXoverride,0
;   originOffsetYoverride,0
;   originOffsetZoverride,0
;   homeXdirOverride,-1
;   homeYdirOverride,-1
;   homeZdirOverride,-1
;   flipXoverride,1
;   flipYoverride,-1
;   flipZoverride,1
;   toolheadOffsets,0,0|0,0|0,0|0,0|0,0|0,0
;   overrideFirmwareConfiguration,1
;   firmwareTypeOverride,RepRap (Marlin/Repetier/Sprinter)
;   GPXconfigOverride,r2
;   baudRateOverride,115200
;   overridePrinterModels,1
;   printerModelsOverride
;   startingGcode,M115 U3.0.7 ; use the latest firmware version,G28 W ; home all axes without mesh bed leveling,G80 ; run mesh bed leveling routine,G1 Y-3.0 F1000.0 ; prepare to prime,G92 E0 ; reset extrusion distance,G1 X60.0 E9.0  F1000.0 ; priming,G1 X100.0 E12.5  F1000.0 ; priming
;   layerChangeGcode,
;   retractionGcode,
;   toolChangeGcode,
;   endingGcode,G4 ; wait,M106 S0 ; turn off cooling fan,M104 S0 ; turn off extruder,M140 S0 ; turn off bed,G1 X0 Y200 ; part removal,M84 ; disable motors
;   exportFileFormat,gcode
;   celebration,0
;   celebrationSong,Random Song
;   postProcessing,
;   defaultSpeed,4800
;   outlineUnderspeed,0.5
;   solidInfillUnderspeed,0.8
;   supportUnderspeed,0.8
;   rapidXYspeed,12000
;   rapidZspeed,1002
;   minBridgingArea,50
;   bridgingExtraInflation,0
;   bridgingExtrusionMultiplier,1
;   bridgingSpeedMultiplier,1
;   useFixedBridgingAngle,0
;   fixedBridgingAngle,0
;   applyBridgingToPerimeters,0
;   filamentDiameters,1.75|1.75|1.75|1.75|1.75|1.75
;   filamentPricesPerKg,46|46|46|46|46|46
;   filamentDensities,1.25|1.25|1.25|1.25|1.25|1.25
;   useMinPrintHeight,0
;   minPrintHeight,2.7
;   useMaxPrintHeight,0
;   maxPrintHeight,2.7
;   useDiaphragm,0
;   diaphragmLayerInterval,20
;   robustSlicing,1
;   mergeAllIntoSolid,0
;   onlyRetractWhenCrossingOutline,1
;   retractBetweenLayers,1
;   useRetractionMinTravel,0
;   retractionMinTravel,3
;   retractWhileWiping,1
;   onlyWipeOutlines,1
;   avoidCrossingOutline,0
;   maxMovementDetourFactor,3
;   toolChangeRetractionDistance,12
;   toolChangeExtraRestartDistance,-0.5
;   toolChangeRetractionSpeed,600
;   externalThinWallType,1
;   internalThinWallType,2
;   thinWallAllowedOverlapPercentage,25
;   singleExtrusionMinLength,1
;   singleExtrusionMinPrintingWidthPercentage,50
;   singleExtrusionMaxPrintingWidthPercentage,200
;   singleExtrusionEndpointExtension,0.2
;   horizontalSizeCompensation,0
G90
M82
M106 S0
M140 S60
M190 S60
M104 S200 T0
M109 S200 T0
M115 U3.0.7 ; use the latest firmware version
G28 W ; home all axes without mesh bed leveling
G80 ; run mesh bed leveling routine
G1 Y-3.0 F1000.0 ; prepare to prime
G92 E0 ; reset extrusion distance
G1 X60.0 E9.0  F1000.0 ; priming
G1 X100.0 E12.5  F1000.0 ; priming
; process Process1
; layer 1, Z = 0.300
T0
G92 E0.0000
G1 E-1.0000 F2400
; feature outer perimeter
; tool H0.300 W0.400
G1 Z0.300 F1002
G1 X122.300 Y76.918 F12000
G1 E0.0000 F2400
G92 E0.0000
G1 X116.704 Y76.918 E0.2792 F1200
G1 X116.704 Y66.339 E0.8070
G1 X103.308 Y66.339 E1.4753
G1 X103.308 Y76.918 E2.0031
G1 X101.564 Y76.918 E2.0901
G1 X77.701 Y76.918 E3.2807
G1 X77.701 Y66.339 E3.8085
G1 X64.300 Y66.339 E4.4771
G1 X64.300 Y76.918 E5.0049
G1 X57.700 Y76.918 E5.3341
G1 X57.700 Y58.744 E6.2408
G1 X122.300 Y58.744 E9.4637
G1 X122.300 Y76.718 E10.3604
G1 X122.300 Y76.918 F1200
G1 X120.300 Y76.918 F1200
; feature inner perimeter
G1 X121.900 Y76.518 F12000
G92 E0.0000
G1 X117.104 Y76.518 E0.2393 F1800
G1 X117.104 Y65.939 E0.7671
G1 X102.908 Y65.939 E1.4753
G1 X102.908 Y76.518 E2.0031
G1 X101.564 Y76.518 E2.0702
G1 X78.101 Y76.518 E3.2408
G1 X78.101 Y65.939 E3.7686
G1 X63.900 Y65.939 E4.4771
G1 X63.900 Y76.518 E5.0049
G1 X58.100 Y76.518 E5.2942
G1 X58.100 Y59.144 E6.1610
G1 X121.900 Y59.144 E9.3440
G1 X121.900 Y76.318 E10.2008
G1 X121.900 Y76.518 F1800
G1 X121.500 Y76.118 F12000
G92 E0.0000
G1 X117.504 Y76.118 E0.1993 F1800
G1 X117.504 Y65.539 E0.7271
G1 X102.508 Y65.539 E1.4753
G1 X102.508 Y76.118 E2.0031
G1 X101.564 Y76.118 E2.0502
G1 X78.501 Y76.118 E3.2009
G1 X78.501 Y65.539 E3.7287
G1 X63.500 Y65.539 E4.4771
G1 X63.500 Y76.118 E5.0049
G1 X58.500 Y76.118 E5.2543
G1 X58.500 Y59.544 E6.0812
G1 X121.500 Y59.544 E9.2243
G1 X121.500 Y75.918 E10.0411
G1 X121.500 Y76.118 F1800
; feature solid layer
G1 X117.860 Y75.798 F12000
G92 E0.0000
G1 X117.824 Y75.763 E0.0025 F1920
G1 X117.824 Y75.197 E0.0307
G1 X118.425 Y75.798 E0.0731
G1 X118.991 Y75.798 E0.1014
G1 X117.824 Y74.631 E0.1837
G1 X117.824 Y74.066 E0.2119
G1 X119.557 Y75.798 E0.3341
G1 X120.123 Y75.798 E0.3624
G1 X117.824 Y73.500 E0.5245
G1 X117.824 Y72.934 E0.5527
G1 X120.688 Y75.798 E0.7548
G1 X121.180 Y75.798 E0.7793
G1 X121.180 Y75.724 E0.7830
G1 X117.824 Y72.369 E1.0198
G1 X117.824 Y71.803 E1.0480
G1 X121.180 Y75.158 E1.2847
G1 X121.180 Y74.593 E1.3130
G1 X117.824 Y71.237 E1.5497
G1 X117.824 Y70.671 E1.5779
G1 X121.180 Y74.027 E1.8147
G1 X121.180 Y73.461 E1.8429
G1 X117.824 Y70.106 E2.0797
G1 X117.824 Y69.540 E2.1079
G1 X121.180 Y72.896 E2.3447
G1 X121.180 Y72.330 E2.3729
G1 X117.824 Y68.974 E2.6096
G1 X117.824 Y68.409 E2.6379
G1 X121.180 Y71.764 E2.8746
G1 X121.180 Y71.199 E2.9028
G1 X117.824 Y67.843 E3.1396
G1 X117.824 Y67.277 E3.1678
G1 X121.180 Y70.633 E3.4046
G1 X121.180 Y70.067 E3.4328
G1 X117.824 Y66.712 E3.6695
G1 X117.824 Y66.146 E3.6978
G1 X121.180 Y69.502 E3.9345
G1 X121.180 Y68.936 E3.9628
G1 X117.966 Y65.722 E4.1895
G1 X117.824 Y65.580 F1920
G1 X121.159 Y59.864 F12000
G92 E0.0000
G1 X121.180 Y59.885 E0.0014 F1920
G1 X121.180 Y60.451 E0.0297
G1 X120.594 Y59.864 E0.0710
G1 X120.028 Y59.864 E0.0993
G1 X121.180 Y61.016 E0.1805
G1 X121.180 Y61.582 E0.2088
G1 X119.462 Y59.864 E0.3299
G1 X118.897 Y59.864 E0.3582
G1 X121.180 Y62.148 E0.5193
G1 X121.180 Y62.713 E0.5475
G1 X118.331 Y59.864 E0.7485
G1 X117.765 Y59.864 E0.7767
G1 X121.180 Y63.279 E1.0176
G1 X121.180 Y63.845 E1.0459
G1 X117.200 Y59.864 E1.3267
G1 X116.634 Y59.864 E1.3549
G1 X121.180 Y64.410 E1.6757
G1 X121.180 Y64.976 E1.7039
G1 X116.068 Y59.864 E2.0645
G1 X115.503 Y59.864 E2.0928
G1 X121.180 Y65.542 E2.4933
G1 X121.180 Y66.107 E2.5216
G1 X114.937 Y59.864 E2.9620
G1 X114.371 Y59.864 E2.9903
G1 X121.180 Y66.673 E3.4707
G1 X121.180 Y67.239 E3.4989
G1 X113.806 Y59.864 E4.0192
G1 X113.240 Y59.864 E4.0474
G1 X121.180 Y67.805 E4.6076
G1 X121.180 Y68.370 E4.6359
G1 X112.674 Y59.864 E5.2360
G1 X112.108 Y59.864 E5.2642
G1 X117.463 Y65.219 E5.6420
G1 X116.897 Y65.219 E5.6702
G1 X111.543 Y59.864 E6.0480
G1 X110.977 Y59.864 E6.0762
G1 X116.331 Y65.219 E6.4540
G1 X115.766 Y65.219 E6.4822
G1 X110.411 Y59.864 E6.8600
G1 X109.846 Y59.864 E6.8882
G1 X115.200 Y65.219 E7.2660
G1 X114.634 Y65.219 E7.2942
G1 X109.280 Y59.864 E7.6720
G1 X108.714 Y59.864 E7.7002
G1 X114.069 Y65.219 E8.0780
G1 X113.503 Y65.219 E8.1062
G1 X108.149 Y59.864 E8.4840
G1 X107.583 Y59.864 E8.5122
G1 X112.937 Y65.219 E8.8900
G1 X112.372 Y65.219 E8.9182
G1 X107.017 Y59.864 E9.2959
G1 X106.452 Y59.864 E9.3242
G1 X111.806 Y65.219 E9.7019
G1 X111.240 Y65.219 E9.7302
G1 X105.886 Y59.864 E10.1079
G1 X105.320 Y59.864 E10.1362
G1 X110.675 Y65.219 E10.5139
G1 X110.109 Y65.219 E10.5422
G1 X104.755 Y59.864 E10.9199
G1 X104.189 Y59.864 E10.9482
G1 X109.543 Y65.219 E11.3259
G1 X108.978 Y65.219 E11.3542
G1 X103.623 Y59.864 E11.7319
G1 X103.058 Y59.864 E11.7601
G1 X108.412 Y65.219 E12.1379
G1 X107.846 Y65.219 E12.1661
G1 X102.492 Y59.864 E12.5439
G1 X101.926 Y59.864 E12.5721
G1 X107.280 Y65.219 E12.9499
G1 X106.715 Y65.219 E12.9781
G1 X101.360 Y59.864 E13.3559
G1 X100.795 Y59.864 E13.3841
G1 X106.149 Y65.219 E13.7619
G1 X105.583 Y65.219 E13.7901
G1 X100.229 Y59.864 E14.1679
G1 X99.663 Y59.864 E14.1961
G1 X105.018 Y65.219 E14.5739
G1 X104.452 Y65.219 E14.6021
G1 X99.098 Y59.864 E14.9799
G1 X98.532 Y59.864 E15.0081
G1 X103.886 Y65.219 E15.3859
G1 X103.321 Y65.219 E15.4141
G1 X97.966 Y59.864 E15.7919
G1 X97.401 Y59.864 E15.8201
G1 X102.755 Y65.219 E16.1979
G1 X102.189 Y65.219 E16.2261
G1 X96.835 Y59.864 E16.6039
G1 X96.269 Y59.864 E16.6321
G1 X102.188 Y65.784 E17.0497
G1 X102.188 Y66.349 E17.0780
G1 X95.704 Y59.864 E17.5355
G1 X95.138 Y59.864 E17.5637
G1 X102.188 Y66.915 E18.0612
G1 X102.188 Y67.481 E18.0894
G1 X94.572 Y59.864 E18.6268
G1 X94.007 Y59.864 E18.6550
G1 X102.188 Y68.046 E19.2323
G1 X102.188 Y68.612 E19.2605
G1 X93.441 Y59.864 E19.8777
G1 X92.875 Y59.864 E19.9059
G1 X102.188 Y69.178 E20.5630
G1 X102.188 Y69.743 E20.5912
G1 X92.309 Y59.864 E21.2882
G1 X91.744 Y59.864 E21.3165
G1 X102.188 Y70.309 E22.0534
G1 X102.188 Y70.875 E22.0816
G1 X91.178 Y59.864 E22.8584
G1 X90.612 Y59.864 E22.8867
G1 X102.188 Y71.440 E23.7034
G1 X102.188 Y72.006 E23.7316
G1 X90.047 Y59.864 E24.5883
G1 X89.481 Y59.864 E24.6165
G1 X102.188 Y72.572 E25.5131
G1 X102.188 Y73.137 E25.5413
G1 X88.915 Y59.864 E26.4778
G1 X88.350 Y59.864 E26.5060
G1 X102.188 Y73.703 E27.4824
G1 X102.188 Y74.269 E27.5106
G1 X87.784 Y59.864 E28.5270
G1 X87.218 Y59.864 E28.5552
G1 X102.188 Y74.835 E29.6114
G1 X102.188 Y75.400 E29.6396
G1 X86.653 Y59.864 E30.7358
G1 X86.087 Y59.864 E30.7640
G1 X102.021 Y75.798 E31.8882
G1 X101.564 Y75.798 E31.9110
G1 X101.455 Y75.798 E31.9164
G1 X85.521 Y59.864 E33.0406
G1 X84.956 Y59.864 E33.0688
G1 X100.889 Y75.798 E34.1930
G1 X100.324 Y75.798 E34.2213
G1 X84.390 Y59.864 E35.3455
G1 X83.824 Y59.864 E35.3737
G1 X99.758 Y75.798 E36.4979
G1 X99.192 Y75.798 E36.5261
G1 X83.259 Y59.864 E37.6503
G1 X82.693 Y59.864 E37.6785
G1 X98.626 Y75.798 E38.8027
G1 X98.061 Y75.798 E38.8310
G1 X82.127 Y59.864 E39.9552
G1 X81.561 Y59.864 E39.9834
G1 X97.495 Y75.798 E41.1076
G1 X96.929 Y75.798 E41.1358
G1 X80.996 Y59.864 E42.2600
G1 X80.430 Y59.864 E42.2882
G1 X96.364 Y75.798 E43.4125
G1 X95.798 Y75.798 E43.4407
G1 X79.864 Y59.864 E44.5649
G1 X79.299 Y59.864 E44.5931
G1 X95.232 Y75.798 E45.7173
G1 X94.667 Y75.798 E45.7455
G1 X78.733 Y59.864 E46.8697
G1 X78.167 Y59.864 E46.8980
G1 X94.101 Y75.798 E48.0222
G1 X93.535 Y75.798 E48.0504
G1 X77.602 Y59.864 E49.1746
G1 X77.036 Y59.864 E49.2028
G1 X92.970 Y75.798 E50.3270
G1 X92.404 Y75.798 E50.3552
G1 X76.470 Y59.864 E51.4794
G1 X75.905 Y59.864 E51.5077
G1 X91.838 Y75.798 E52.6319
G1 X91.273 Y75.798 E52.6601
G1 X75.339 Y59.864 E53.7843
G1 X74.773 Y59.864 E53.8125
G1 X90.707 Y75.798 E54.9367
G1 X90.141 Y75.798 E54.9649
G1 X74.208 Y59.864 E56.0891
G1 X73.642 Y59.864 E56.1174
G1 X89.576 Y75.798 E57.2416
G1 X89.010 Y75.798 E57.2698
G1 X78.821 Y65.609 E57.9887
G1 X78.821 Y65.219 E58.0082
G1 X78.430 Y65.219 E58.0276
G1 X73.076 Y59.864 E58.4054
G1 X72.510 Y59.864 E58.4336
G1 X77.865 Y65.219 E58.8114
G1 X77.299 Y65.219 E58.8396
G1 X71.945 Y59.864 E59.2174
G1 X71.379 Y59.864 E59.2456
G1 X76.733 Y65.219 E59.6234
G1 X76.168 Y65.219 E59.6516
G1 X70.813 Y59.864 E60.0294
G1 X70.248 Y59.864 E60.0576
G1 X75.602 Y65.219 E60.4354
G1 X75.036 Y65.219 E60.4636
G1 X69.682 Y59.864 E60.8414
G1 X69.116 Y59.864 E60.8696
G1 X74.471 Y65.219 E61.2474
G1 X73.905 Y65.219 E61.2756
G1 X68.551 Y59.864 E61.6534
G1 X67.985 Y59.864 E61.6816
G1 X73.339 Y65.219 E62.0594
G1 X72.774 Y65.219 E62.0876
G1 X67.419 Y59.864 E62.4654
G1 X66.854 Y59.864 E62.4936
G1 X72.208 Y65.219 E62.8714
G1 X71.642 Y65.219 E62.8996
G1 X66.288 Y59.864 E63.2774
G1 X65.722 Y59.864 E63.3056
G1 X71.077 Y65.219 E63.6834
G1 X70.511 Y65.219 E63.7116
G1 X65.157 Y59.864 E64.0893
G1 X64.591 Y59.864 E64.1176
G1 X69.945 Y65.219 E64.4953
G1 X69.380 Y65.219 E64.5236
G1 X64.025 Y59.864 E64.9013
G1 X63.460 Y59.864 E64.9296
G1 X68.814 Y65.219 E65.3073
G1 X68.248 Y65.219 E65.3356
G1 X62.894 Y59.864 E65.7133
G1 X62.328 Y59.864 E65.7416
G1 X67.682 Y65.219 E66.1193
G1 X67.117 Y65.219 E66.1476
G1 X61.762 Y59.864 E66.5253
G1 X61.197 Y59.864 E66.5535
G1 X66.551 Y65.219 E66.9313
G1 X65.985 Y65.219 E66.9595
G1 X60.631 Y59.864 E67.3373
G1 X60.065 Y59.864 E67.3655
G1 X65.420 Y65.219 E67.7433
G1 X64.854 Y65.219 E67.7715
G1 X59.500 Y59.864 E68.1493
G1 X58.934 Y59.864 E68.1775
G1 X64.288 Y65.219 E68.5553
G1 X63.723 Y65.219 E68.5835
G1 X58.820 Y60.316 E68.9294
G1 X58.820 Y60.882 E68.9577
G1 X63.180 Y65.242 E69.2653
G1 X63.180 Y65.807 E69.2935
G1 X58.820 Y61.447 E69.6011
G1 X58.820 Y62.013 E69.6293
G1 X63.180 Y66.373 E69.9369
G1 X63.180 Y66.939 E69.9652
G1 X58.820 Y62.579 E70.2728
G1 X58.820 Y63.144 E70.3010
G1 X63.180 Y67.504 E70.6086
G1 X63.180 Y68.070 E70.6368
G1 X58.820 Y63.710 E70.9444
G1 X58.820 Y64.276 E70.9726
G1 X63.180 Y68.636 E71.2803
G1 X63.180 Y69.201 E71.3085
G1 X58.820 Y64.842 E71.6161
G1 X58.820 Y65.407 E71.6443
G1 X63.180 Y69.767 E71.9519
G1 X63.180 Y70.333 E71.9801
G1 X58.820 Y65.973 E72.2878
G1 X58.820 Y66.539 E72.3160
G1 X63.180 Y70.898 E72.6236
G1 X63.180 Y71.464 E72.6518
G1 X58.820 Y67.104 E72.9594
G1 X58.820 Y67.670 E72.9876
