; generated by PrusaSlicer 2.5.2+win64 on 2023-04-14 at 16:06:26 UTC


;
;

;
;
; 

; external perimeters extrusion width = 0.45mm
; perimeters extrusion width = 0.45mm
; infill extrusion width = 0.45mm
; solid infill extrusion width = 0.45mm
; top infill extrusion width = 0.40mm
; first layer extrusion width = 0.42mm

; external perimeters extrusion width = 0.45mm
; perimeters extrusion width = 0.45mm
; infill extrusion width = 0.45mm
; solid infill extrusion width = 0.45mm
; top infill extrusion width = 0.40mm
; first layer extrusion width = 0.42mm

M73 P0 R56
M201 X2500 Y2500 Z400 E5000 ; sets maximum accelerations, mm/sec^2
M203 X180 Y180 Z12 E80 ; sets maximum feedrates, mm / sec
M204 P2000 R1250 T2500 ; sets acceleration (P, T) and retract acceleration (R), mm/sec^2
M205 X8.00 Y8.00 Z2.00 E10.00 ; sets the jerk limits, mm/sec
M205 S0 T0 ; sets the minimum extruding and travel feed rate, mm/sec
M107
;TYPE:Custom
M862.3 P "MINI" ; printer model check
G90 ; use absolute coordinates
M83 ; extruder relative mode
M104 S170 ; set extruder temp for bed leveling
M140 S60 ; set bed temp
M109 R170 ; wait for bed leveling temp
M190 S60 ; wait for bed temp
M204 T1250 ; set travel acceleration
G28 ; home all without mesh bed level
G29 ; mesh bed leveling 
M204 T2500 ; restore travel acceleration
M104 S215 ; set extruder temp
G92 E0
G1 Y-2 X179 F2400
G1 Z3 F720
M109 S215 ; wait for extruder temp

; intro line
G1 X170 F1000
G1 Z0.2 F720
G1 X110 E8 F900
G1 X40 E10 F700
G92 E0

M221 S95 ; set flow
G21 ; set units to millimeters
G90 ; use absolute coordinates
M83 ; use relative distances for extrusion
M900 K0.2 ; Filament gcode LA 1.5
; ; Filament gcode LA 1.0
M107
;LAYER_CHANGE
;Z:0.2
;HEIGHT:0.2
;BEFORE_LAYER_CHANGE
G92 E0.0
;0.2


G1 E-3.2 F4200
G1 Z.2 F720
;AFTER_LAYER_CHANGE
;0.2
G1 Z.4
G1 X69.154 Y78.882 F9000
G1 Z.2 F720
G1 E3.2 F2400
M204 P600
;TYPE:Skirt/Brim
;WIDTH:0.42
G1 F1200
G1 X70.641 Y77.776 E.05811
G1 X72.564 Y76.734 E.06856
G1 X74.485 Y76.047 E.06396
G1 X76.857 Y75.608 E.07566
G1 X78.884 Y75.563 E.06355
G1 X103.129 Y76.752 E.76112
G1 X105.682 Y77.24 E.08148
G1 X107.424 Y77.872 E.05811
G1 X109.214 Y78.823 E.06355
G1 X110.548 Y79.778 E.05143
G1 X111.906 Y81.039 E.05811
G1 X113.287 Y82.751 E.06897
G1 X114.468 Y84.855 E.07566
G1 X115.054 Y86.387 E.05143
G1 X115.35 Y87.557 E.03784
G1 X115.579 Y88.742 E.03784
G1 X115.699 Y90.378 E.05143
G1 X115.523 Y92.785 E.07566
G1 X115.166 Y94.386 E.05143
G1 X114.536 Y96.129 E.05811
G1 X113.501 Y98.07 E.06897
G1 X111.906 Y100.105 E.08107
G1 X110.548 Y101.366 E.05811
G1 X108.899 Y102.512 E.06294
G1 X107.424 Y103.272 E.05203
G1 X105.682 Y103.903 E.05811
G1 X104.971 Y104.089 E.02303
G1 X102.984 Y104.402 E.06307
G1 X101.089 Y104.436 E.05944
G1 X76.857 Y103.248 E.76067
G1 X75.029 Y102.945 E.05811
G1 X73.706 Y102.551 E.04327
G1 X72.418 Y102.055 E.04327
G1 X70.786 Y101.177 E.05811
G1 X69.154 Y99.974 E.06355
G1 X67.604 Y98.414 E.06897
G1 X66.51 Y96.942 E.0575
G1 X65.776 Y95.65 E.04659
G1 X65.002 Y93.777 E.06354
G1 X64.477 Y91.641 E.06897
G1 X64.301 Y89.622 E.06355
G1 X64.477 Y87.215 E.07566
G1 X64.946 Y85.243 E.06355
G1 X65.696 Y83.361 E.06355
G1 X66.801 Y81.484 E.06828
G1 X68.094 Y79.895 E.06423
G1 X69.111 Y78.923 E.04411
M204 P1000
G1 E-2.24 F4200
;WIPE_START
G1 F7200
G1 X70.428 Y77.936 E-.912
;WIPE_END
G1 E-.048 F4200
G1 Z.4 F720
G1 X91.33 Y86.588 F9000
G1 Z.2 F720
G1 E3.2 F2400
M204 P600
G1 F1200
G1 X91.92 Y85.292 E.04465
G1 X92.936 Y83.719 E.05871
G1 X94.185 Y82.349 E.05811
G1 X95.269 Y81.464 E.04388
G1 X96.471 Y80.711 E.04447
G1 X97.969 Y80.034 E.05154
G1 X99.965 Y79.506 E.06474
G1 X101.197 Y79.371 E.03885
G1 X102.167 Y79.376 E.03041
G1 X103.251 Y79.446 E.03408
G1 X104.471 Y79.671 E.03889
G1 X106.416 Y80.339 E.06448
G1 X107.849 Y81.113 E.05108
G1 X108.994 Y81.951 E.04448
G1 X110.031 Y82.93 E.0447
G1 X111.287 Y84.557 E.06445
G1 X111.974 Y85.811 E.04483
G1 X112.495 Y87.132 E.04455
G1 X112.915 Y88.941 E.05821
G1 X113.033 Y90.788 E.05805
G1 X112.915 Y92.205 E.04457
G1 X112.619 Y93.599 E.04469
G1 X111.958 Y95.367 E.05919
G1 X111.05 Y96.944 E.05705
G1 X110.167 Y98.063 E.04467
G1 X109.133 Y99.076 E.04541
G1 X107.687 Y100.131 E.05611
G1 X106.077 Y100.95 E.05665
G1 X104.691 Y101.415 E.04583
G1 X103.256 Y101.696 E.04586
G1 X101.604 Y101.788 E.05188
G1 X99.573 Y101.564 E.06407
G1 X98.195 Y101.189 E.04478
G1 X96.881 Y100.646 E.04457
G1 X95.292 Y99.696 E.05805
G1 X93.875 Y98.496 E.05821
G1 X92.938 Y97.428 E.04455
G1 X92.14 Y96.248 E.04466
G1 X91.34 Y94.581 E.05798
G1 X90.821 Y92.799 E.0582
G1 X90.629 Y91.391 E.04455
G1 X90.615 Y89.961 E.04482
G1 X90.913 Y87.93 E.06439
G1 X91.312 Y86.645 E.04217
M204 P1000
G1 X91.673 Y86.757 F9000
M204 P600
G1 F1200
G1 X92.257 Y85.461 E.04459
G1 X93.225 Y83.961 E.05597
G1 X94.434 Y82.632 E.05631
G1 X95.498 Y81.763 E.04307
G1 X96.659 Y81.037 E.04295
G1 X98.109 Y80.384 E.04986
G1 X100.02 Y79.88 E.06197
G1 X101.227 Y79.747 E.03807
G1 X102.159 Y79.753 E.02922
G1 X103.194 Y79.819 E.03252
G1 X104.389 Y80.039 E.0381
G1 X106.251 Y80.679 E.06172
G1 X107.637 Y81.426 E.04938
G1 X108.762 Y82.248 E.04369
G1 X109.761 Y83.194 E.04312
G1 X110.964 Y84.751 E.06171
G1 X111.628 Y85.96 E.04324
G1 X112.139 Y87.258 E.04373
G1 X112.54 Y88.981 E.05546
G1 X112.657 Y90.771 E.05626
G1 X112.54 Y92.162 E.04375
G1 X112.254 Y93.507 E.04313
G1 X111.623 Y95.193 E.05644
G1 X110.745 Y96.722 E.05526
G1 X109.879 Y97.819 E.04385
G1 X108.879 Y98.797 E.04384
G1 X107.478 Y99.817 E.05435
G1 X105.943 Y100.597 E.05397
G1 X104.606 Y101.048 E.04423
G1 X103.196 Y101.323 E.04505
G1 X101.599 Y101.411 E.05016
G1 X99.657 Y101.196 E.06125
G1 X98.327 Y100.836 E.0432
G1 X97.038 Y100.303 E.04375
G1 X95.499 Y99.381 E.05626
G1 X94.15 Y98.237 E.05546
G1 X93.229 Y97.188 E.04373
G1 X92.461 Y96.049 E.0431
G1 X91.687 Y94.432 E.05619
G1 X91.193 Y92.734 E.05546
G1 X91.004 Y91.352 E.04373
G1 X90.992 Y89.973 E.04324
G1 X91.278 Y88.028 E.06164
G1 X91.655 Y86.814 E.03983
M204 P1000
G1 X92.014 Y86.926 F9000
M204 P600
G1 F1200
G1 X92.595 Y85.63 E.04452
G1 X93.534 Y84.179 E.05419
G1 X94.684 Y82.915 E.05358
G1 X95.708 Y82.077 E.0415
G1 X96.848 Y81.364 E.04216
G1 X98.25 Y80.735 E.04817
G1 X100.075 Y80.253 E.05921
G1 X101.257 Y80.123 E.03728
G1 X102.151 Y80.13 E.02802
G1 X103.137 Y80.191 E.03097
G1 X104.307 Y80.408 E.0373
G1 X106.086 Y81.018 E.05898
G1 X107.426 Y81.738 E.04769
G1 X108.512 Y82.53 E.04215
G1 X109.491 Y83.457 E.04228
G1 X110.64 Y84.946 E.05896
G1 X111.291 Y86.131 E.0424
G1 X111.783 Y87.382 E.04216
G1 X112.169 Y89.051 E.05368
G1 X112.28 Y90.754 E.05352
G1 X112.169 Y92.095 E.04218
G1 X111.888 Y93.415 E.04231
G1 X111.275 Y95.046 E.05464
G1 X110.441 Y96.499 E.05253
G1 X109.591 Y97.576 E.04303
G1 X108.626 Y98.518 E.04227
G1 X107.293 Y99.488 E.05169
G1 X105.81 Y100.244 E.0522
G1 X104.498 Y100.686 E.0434
G1 X103.137 Y100.951 E.04346
G1 X101.594 Y101.033 E.04845
G1 X99.742 Y100.829 E.05843
G1 X98.438 Y100.475 E.04236
G1 X97.195 Y99.96 E.04219
G1 X95.73 Y99.083 E.05352
G1 X94.423 Y97.977 E.05368
G1 X93.535 Y96.967 E.04216
G1 X92.781 Y95.849 E.04229
G1 X92.045 Y94.312 E.05346
G1 X91.565 Y92.668 E.05368
G1 X91.381 Y91.336 E.04216
G1 X91.369 Y89.984 E.0424
G1 X91.642 Y88.125 E.05891
G1 X91.996 Y86.983 E.03749
M204 P1000
G1 X92.356 Y87.094 F9000
M204 P600
G1 F1200
G1 X92.392 Y86.98 E.00375
G1 X92.932 Y85.799 E.04071
M73 P1 R56
G1 X93.823 Y84.421 E.05147
G1 X94.934 Y83.198 E.05179
G1 X95.937 Y82.376 E.04068
G1 X97.037 Y81.691 E.04061
G1 X98.39 Y81.085 E.04648
G1 X100.131 Y80.626 E.05645
G1 X101.287 Y80.499 E.03649
G1 X102.143 Y80.507 E.02682
G1 X103.08 Y80.564 E.02944
G1 X104.224 Y80.776 E.03651
G1 X105.921 Y81.358 E.05624
G1 X107.214 Y82.05 E.04598
G1 X108.28 Y82.828 E.04136
G1 X109.221 Y83.721 E.04068
G1 X110.317 Y85.14 E.05624
G1 X110.945 Y86.28 E.04081
M73 P1 R55
G1 X111.427 Y87.508 E.04134
G1 X111.794 Y89.091 E.05095
G1 X111.903 Y90.737 E.05173
G1 X111.794 Y92.052 E.04136
G1 X111.522 Y93.322 E.04073
G1 X110.941 Y94.872 E.05191
G1 X110.136 Y96.277 E.05075
G1 X109.318 Y97.315 E.04144
G1 X108.372 Y98.238 E.04144
G1 X107.084 Y99.174 E.04994
G1 X105.676 Y99.891 E.04952
G1 X104.39 Y100.325 E.04257
G1 X103.079 Y100.578 E.04186
G1 X101.59 Y100.656 E.04675
G1 X99.826 Y100.461 E.05564
G1 X98.571 Y100.122 E.04077
G1 X97.352 Y99.617 E.04136
G1 X95.938 Y98.768 E.05173
G1 X94.697 Y97.718 E.05095
G1 X93.826 Y96.728 E.04134
G1 X93.102 Y95.651 E.04071
G1 X92.391 Y94.163 E.05168
G1 X91.936 Y92.603 E.05095
G1 X91.756 Y91.297 E.04134
G1 X91.746 Y89.995 E.0408
G1 X92.007 Y88.223 E.05618
G1 X92.338 Y87.152 E.03515
M204 P1000
G1 X92.697 Y87.262 F9000
M204 P600
G1 F1200
G1 X92.74 Y87.126 E.00449
G1 X93.269 Y85.969 E.03989
G1 X94.131 Y84.639 E.04969
G1 X95.184 Y83.481 E.04907
G1 X96.147 Y82.69 E.0391
G1 X97.225 Y82.018 E.03982
G1 X98.529 Y81.436 E.04478
G1 X100.186 Y81 E.05371
G1 X101.317 Y80.875 E.03569
G1 X102.134 Y80.884 E.02561
G1 X103.023 Y80.937 E.02792
G1 X104.142 Y81.144 E.0357
G1 X105.757 Y81.697 E.05352
G1 X107.003 Y82.363 E.04429
G1 X108.029 Y83.11 E.03979
G1 X108.951 Y83.984 E.03984
G1 X109.994 Y85.335 E.05351
G1 X110.609 Y86.451 E.03996
G1 X111.071 Y87.632 E.03975
G1 X111.423 Y89.16 E.04918
G1 X111.526 Y90.72 E.04902
G1 X111.423 Y91.985 E.03977
G1 X111.156 Y93.229 E.0399
G1 X110.593 Y94.725 E.05012
G1 X109.831 Y96.054 E.04805
G1 X109.046 Y97.054 E.03984
G1 X108.119 Y97.959 E.04062
G1 X106.899 Y98.845 E.04728
G1 X105.542 Y99.538 E.04777
G1 X104.305 Y99.957 E.04093
G1 X103.02 Y100.205 E.04104
G1 X101.586 Y100.279 E.04503
G1 X99.91 Y100.093 E.05286
G1 X98.681 Y99.761 E.03993
G1 X97.51 Y99.274 E.03977
G1 X96.169 Y98.47 E.04902
G1 X94.971 Y97.458 E.04918
G1 X94.132 Y96.507 E.03975
G1 X93.422 Y95.451 E.03988
G1 X92.749 Y94.042 E.04896
G1 X92.308 Y92.537 E.04918
G1 X92.133 Y91.281 E.03975
G1 X92.123 Y90.007 E.03996
G1 X92.372 Y88.32 E.05347
G1 X92.68 Y87.32 E.03282
M204 P1000
G1 X93.04 Y87.431 F9000
M204 P600
G1 F1200
G1 X93.096 Y87.249 E.00597
G1 X93.606 Y86.138 E.0383
G1 X94.421 Y84.881 E.04699
G1 X95.434 Y83.763 E.04729
G1 X96.377 Y82.989 E.03827
G1 X97.413 Y82.345 E.03824
G1 X98.668 Y81.786 E.04309
G1 X100.241 Y81.373 E.05098
G1 X101.347 Y81.251 E.03489
G1 X102.125 Y81.261 E.0244
G1 X102.966 Y81.31 E.02641
G1 X104.06 Y81.512 E.0349
G1 X105.593 Y82.037 E.05081
G1 X106.792 Y82.676 E.04258
G1 X107.797 Y83.407 E.03898
G1 X108.68 Y84.247 E.03822
G1 X109.671 Y85.53 E.05081
G1 X110.262 Y86.6 E.03834
G1 X110.715 Y87.757 E.03893
G1 X111.048 Y89.201 E.04647
G1 X111.149 Y90.704 E.04724
G1 X111.048 Y91.942 E.03894
G1 X110.791 Y93.136 E.0383
G1 X110.258 Y94.551 E.04741
G1 X109.526 Y95.833 E.04629
G1 X108.757 Y96.811 E.03901
G1 X107.866 Y97.679 E.03901
G1 X106.69 Y98.531 E.04554
G1 X105.408 Y99.186 E.04512
G1 X104.197 Y99.596 E.04009
G1 X102.963 Y99.832 E.03941
G1 X101.583 Y99.901 E.04332
G1 X99.994 Y99.725 E.0501
G1 X98.814 Y99.408 E.03831
G1 X97.667 Y98.931 E.03894
G1 X96.377 Y98.154 E.04723
G1 X95.245 Y97.198 E.04647
G1 X94.423 Y96.267 E.03893
G1 X93.743 Y95.253 E.03828
G1 X93.096 Y93.894 E.04719
G1 X92.68 Y92.472 E.04647
G1 X92.509 Y91.242 E.03893
G1 X92.5 Y90.019 E.03834
G1 X92.736 Y88.417 E.05077
G1 X93.022 Y87.488 E.03048
M204 P1000
G1 X93.383 Y87.599 F9000
M204 P600
G1 F1200
G1 X93.453 Y87.372 E.00746
G1 X93.942 Y86.309 E.03669
G1 X94.729 Y85.099 E.04523
G1 X95.684 Y84.046 E.04459
G1 X96.587 Y83.303 E.03666
G1 X97.601 Y82.672 E.03743
G1 X98.807 Y82.137 E.04139
G1 X100.296 Y81.746 E.04825
G1 X101.376 Y81.627 E.03408
G1 X102.115 Y81.638 E.02318
G1 X102.909 Y81.683 E.02492
G1 X103.978 Y81.881 E.03409
G1 X105.43 Y82.377 E.04811
G1 X106.581 Y82.989 E.04088
G1 X107.546 Y83.689 E.03739
G1 X108.41 Y84.511 E.03737
G1 X109.348 Y85.725 E.04811
G1 X109.926 Y86.772 E.03749
G1 X110.358 Y87.88 E.03731
G1 X110.677 Y89.27 E.04471
G1 X110.772 Y90.688 E.04454
G1 X110.677 Y91.875 E.03733
G1 X110.425 Y93.042 E.03746
G1 X109.911 Y94.404 E.04562
G1 X109.221 Y95.61 E.04359
G1 X108.468 Y96.568 E.03818
G1 X107.613 Y97.399 E.0374
G1 X106.504 Y98.202 E.04292
G1 X105.273 Y98.833 E.04337
G1 X104.113 Y99.228 E.03843
G1 X102.905 Y99.46 E.03858
G1 X101.579 Y99.524 E.0416
G1 X100.078 Y99.357 E.04735
G1 X98.924 Y99.047 E.03747
G1 X97.825 Y98.589 E.03733
G1 X96.608 Y97.856 E.04454
G1 X95.518 Y96.938 E.04471
G1 X94.73 Y96.046 E.03731
G1 X94.064 Y95.054 E.03745
G1 X93.453 Y93.773 E.0445
G1 X93.051 Y92.405 E.04471
G1 X92.886 Y91.227 E.03731
G1 X92.878 Y90.031 E.03749
G1 X93.101 Y88.514 E.04806
G1 X93.365 Y87.656 E.02815
M204 P1000
G1 X93.724 Y87.767 F9000
M204 P600
G1 F1200
G1 X93.801 Y87.518 E.00816
G1 X94.279 Y86.479 E.03587
G1 X95.018 Y85.341 E.04255
G1 X95.934 Y84.328 E.04282
G1 X96.817 Y83.602 E.03582
G1 X97.788 Y83 E.03583
G1 X98.946 Y82.488 E.03969
G1 X100.351 Y82.119 E.04555
G1 X101.406 Y82.003 E.03327
G1 X102.106 Y82.015 E.02195
G1 X102.852 Y82.056 E.02345
G1 X103.896 Y82.249 E.03328
G1 X105.267 Y82.718 E.04542
G1 X106.371 Y83.302 E.03918
G1 X107.296 Y83.971 E.03578
G1 X108.139 Y84.774 E.03652
G1 X109.025 Y85.92 E.04542
G1 X109.579 Y86.921 E.03586
G1 X110.002 Y88.005 E.03648
G1 X110.302 Y89.311 E.04202
G1 X110.395 Y90.672 E.04277
G1 X110.302 Y91.832 E.03649
G1 X110.059 Y92.949 E.03584
G1 X109.576 Y94.23 E.04294
G1 X108.915 Y95.389 E.04184
G1 X108.197 Y96.306 E.03654
G1 X107.36 Y97.119 E.03656
G1 X106.295 Y97.888 E.04118
G1 X105.139 Y98.481 E.04074
G1 X104.004 Y98.867 E.03759
G1 X102.848 Y99.087 E.03692
G1 X101.577 Y99.147 E.03989
G1 X100.162 Y98.989 E.04463
G1 X99.058 Y98.694 E.03584
G1 X97.984 Y98.246 E.03649
G1 X96.816 Y97.541 E.04277
G1 X95.791 Y96.677 E.04202
G1 X95.02 Y95.806 E.03648
G1 X94.385 Y94.856 E.03583
G1 X93.801 Y93.625 E.04274
G1 X93.423 Y92.339 E.04202
G1 X93.261 Y91.187 E.03648
G1 X93.255 Y90.043 E.03586
G1 X93.465 Y88.611 E.04539
G1 X93.707 Y87.824 E.02582
M204 P1000
G1 X94.067 Y87.935 F9000
M204 P600
G1 F1200
G1 X94.157 Y87.641 E.00963
G1 X94.616 Y86.65 E.03423
G1 X95.326 Y85.559 E.04081
G1 X96.185 Y84.61 E.04012
G1 X97.046 Y83.901 E.03499
G1 X97.975 Y83.328 E.03422
G1 X99.084 Y82.84 E.038
G1 X100.406 Y82.493 E.04285
G1 X101.435 Y82.38 E.03245
G1 X102.095 Y82.392 E.02072
G1 X102.796 Y82.429 E.022
G1 X103.814 Y82.617 E.03245
G1 X105.104 Y83.058 E.04274
G1 X106.161 Y83.616 E.03747
G1 X107.064 Y84.269 E.03496
G1 X107.869 Y85.037 E.03487
G1 X108.702 Y86.116 E.04274
G1 X109.243 Y87.092 E.03501
G1 X109.646 Y88.128 E.03484
G1 X109.931 Y89.38 E.04027
G1 X110.018 Y90.656 E.0401
G1 X109.931 Y91.764 E.03485
G1 X109.694 Y92.855 E.03499
G1 X109.229 Y94.082 E.04116
G1 X108.61 Y95.167 E.03917
G1 X107.908 Y96.064 E.0357
G1 X107.108 Y96.838 E.03491
G1 X106.087 Y97.574 E.03946
G1 X105.004 Y98.128 E.03814
G1 X103.92 Y98.499 E.03591
G1 X102.79 Y98.714 E.03607
G1 X101.574 Y98.769 E.03817
G1 X100.246 Y98.621 E.04192
G1 X99.167 Y98.333 E.03499
G1 X98.142 Y97.904 E.03485
G1 X97.047 Y97.243 E.0401
G1 X96.064 Y96.417 E.04027
G1 X95.327 Y95.585 E.03484
G1 X94.706 Y94.658 E.03499
G1 X94.158 Y93.504 E.04006
G1 X93.794 Y92.272 E.04027
G1 X93.638 Y91.172 E.03484
G1 X93.632 Y90.056 E.035
G1 X93.83 Y88.708 E.04271
G1 X94.05 Y87.992 E.02349
M204 P1000
G1 X94.409 Y88.102 F9000
M204 P600
G1 F1200
G1 X94.505 Y87.787 E.0103
G1 X94.952 Y86.82 E.0334
G1 X95.616 Y85.801 E.03815
G1 X96.436 Y84.892 E.03837
G1 X97.255 Y84.215 E.03333
G1 X98.161 Y83.656 E.03339
G1 X99.222 Y83.191 E.03629
G1 X100.461 Y82.866 E.04017
G1 X101.463 Y82.756 E.03163
G1 X102.085 Y82.769 E.01948
G1 X102.74 Y82.802 E.02058
G1 X103.732 Y82.986 E.03163
G1 X104.942 Y83.399 E.04008
G1 X105.951 Y83.929 E.03577
G1 X106.813 Y84.551 E.03332
G1 X107.598 Y85.3 E.03401
G1 X108.379 Y86.312 E.04008
G1 X108.896 Y87.241 E.03335
G1 X109.289 Y88.252 E.034
G1 X109.556 Y89.421 E.03761
G1 X109.641 Y90.641 E.03833
G1 X109.556 Y91.722 E.034
G1 X109.329 Y92.761 E.03334
G1 X108.894 Y93.909 E.0385
G1 X108.304 Y94.946 E.03742
G1 X107.636 Y95.802 E.03403
G1 X106.856 Y96.557 E.03406
G1 X105.878 Y97.259 E.03772
G1 X104.869 Y97.776 E.03556
G1 X103.837 Y98.131 E.03422
G1 X102.733 Y98.341 E.03521
G1 X101.572 Y98.392 E.03643
G1 X100.329 Y98.253 E.03924
G1 X99.301 Y97.98 E.03334
G1 X98.301 Y97.561 E.034
G1 X97.255 Y96.928 E.03833
G1 X96.337 Y96.156 E.03761
G1 X95.617 Y95.345 E.034
G1 X95.028 Y94.461 E.03333
G1 X94.505 Y93.356 E.03831
