; generated by PrusaSlicer 2.2.0+win64 on 2022-01-31 at 19:51:33 UTC

; 

; external perimeters extrusion width = 0.45mm
; perimeters extrusion width = 0.45mm
; infill extrusion width = 0.45mm
; solid infill extrusion width = 0.45mm
; top infill extrusion width = 0.40mm
; first layer extrusion width = 0.42mm

M73 P0 R185
M73 Q0 S187
M201 X1000 Y1000 Z200 E5000 ; sets maximum accelerations, mm/sec^2
M203 X200 Y200 Z12 E120 ; sets maximum feedrates, mm/sec
M204 P1250 R1250 T1250 ; sets acceleration (P, T) and retract acceleration (R), mm/sec^2
M205 X8.00 Y8.00 Z0.40 E4.50 ; sets the jerk limits, mm/sec
M205 S0 T0 ; sets the minimum extruding and travel feed rate, mm/sec
M107
M862.3 P "MK3S" ; printer model check
M862.1 P0.4 ; nozzle diameter check
G90 ; use absolute coordinates
M83 ; extruder relative mode
M104 S215 ; set extruder temp
M140 S60 ; set bed temp
M190 S60 ; wait for bed temp
M109 S215 ; wait for extruder temp
G28 W ; home all without mesh bed level
G80 ; mesh bed leveling
G1 Y-3.0 F1000.0 ; go outside print area
G92 E0.0
G1 X60.0 E9.0 F1000.0 ; intro line
M73 Q0 S187
M73 P0 R185
G1 X100.0 E12.5 F1000.0 ; intro line
G92 E0.0
M221 S95

; Don't change E values below. Excessive value can damage the printer.
M907 E430 ; set extruder motor current
G21 ; set units to millimeters
G90 ; use absolute coordinates
M83 ; use relative distances for extrusion
M900 K0.05 ; Filament gcode LA 1.5
M900 K30 ; Filament gcode LA 1.0
;BEFORE_LAYER_CHANGE
G92 E0.0
;0.2


G1 E-0.80000 F2100.00000
G1 Z0.400 F10800.000
;AFTER_LAYER_CHANGE
;0.2
G1 X19.804 Y152.686
G1 Z0.200
G1 E0.80000 F2100.00000
M204 S1000
G1 F1200.000
G1 X19.100 Y152.043 E0.02989
G1 X18.765 Y151.388 E0.02308
G1 X18.646 Y150.662 E0.02308
G1 X18.646 Y84.168 E2.08487
G1 X18.715 Y83.621 E0.01728
G1 X18.909 Y83.101 E0.01740
G1 X19.218 Y82.641 E0.01740
G1 X19.626 Y82.264 E0.01740
G1 X20.103 Y81.995 E0.01718
G1 X79.683 Y57.025 E2.02552
G1 X107.086 Y53.978 E0.86449
G1 X154.138 Y53.976 E1.47530
G1 X181.433 Y56.991 E0.86101
G1 X182.011 Y57.136 E0.01870
G1 X182.532 Y57.419 E0.01858
G1 X230.856 Y108.884 E2.21351
G1 X231.222 Y109.558 E0.02402
G1 X231.354 Y110.312 E0.02402
G1 X231.354 Y150.668 E1.26534
G1 X231.288 Y151.200 E0.01680
G1 X231.105 Y151.704 E0.01680
G1 X230.814 Y152.154 E0.01680
G1 X230.432 Y152.525 E0.01669
G1 X229.884 Y152.843 E0.01989
G1 X229.267 Y153.005 E0.02000
G1 X202.009 Y156.024 E0.85986
G1 X48.033 Y156.024 E4.82782
G1 X20.700 Y153.001 E0.86222
G1 X19.861 Y152.706 E0.02789
; printing object TheaterMarqueeFrame.stl id:0 copy 3
G1 F8640.000
G1 X19.100 Y152.043 E-0.23294
G1 X18.765 Y151.388 E-0.16994
G1 X18.646 Y150.662 E-0.16994
G1 X18.646 Y149.851 E-0.18718
G1 E-0.04000 F2100.00000
G1 Z0.600 F10800.000
G1 X167.765 Y152.997
G1 Z0.200
G1 E0.80000 F2100.00000
G1 F1200.000
G1 X167.830 Y152.750 E0.00802
G1 X167.885 Y152.147 E0.01898
G1 X167.830 Y151.544 E0.01898
G1 X167.765 Y151.298 E0.00800
G1 X168.436 Y151.400 E0.02129
G1 X168.976 Y151.429 E0.01694
G1 X169.991 Y151.434 E0.03184
G1 X187.493 Y151.434 E0.54877
G1 X188.534 Y151.401 E0.03265
G1 X189.212 Y151.298 E0.02150
G1 X189.146 Y151.544 E0.00800
G1 X189.092 Y152.147 E0.01898
G1 X189.146 Y152.750 E0.01898
G1 X189.212 Y152.997 E0.00802
G1 X188.534 Y152.894 E0.02149
G1 X187.995 Y152.865 E0.01693
G1 X186.981 Y152.860 E0.03181
G1 X169.489 Y152.860 E0.54845
G1 X168.449 Y152.893 E0.03263
G1 X167.823 Y152.985 E0.01982
G1 F8640.000
G1 X167.830 Y152.750 E-0.05441
G1 X167.885 Y152.147 E-0.13975
G1 X167.830 Y151.544 E-0.13975
G1 X167.765 Y151.298 E-0.05894
G1 X168.436 Y151.400 E-0.15681
G1 X168.976 Y151.429 E-0.12477
G1 X169.346 Y151.431 E-0.08558
G1 E-0.04000 F2100.00000
G1 Z0.600 F10800.000
G1 X189.698 Y150.937
G1 Z0.200
G1 E0.80000 F2100.00000
G1 F1200.000
G1 X195.521 Y150.937 E0.18257
G1 X195.700 Y151.610 E0.02184
G1 X195.749 Y152.147 E0.01690
G1 X195.700 Y152.684 E0.01690
G1 X195.521 Y153.357 E0.02184
G1 X189.698 Y153.357 E0.18257
G1 X189.519 Y152.684 E0.02184
G1 X189.470 Y152.147 E0.01690
G1 X189.519 Y151.610 E0.01690
G1 X189.683 Y150.995 E0.01996
G1 X189.723 Y150.538 F10800.000
G1 F8640.000
G1 X192.974 Y150.963 E-0.76000
G1 E-0.04000 F2100.00000
G1 Z0.600 F10800.000
G1 X195.997 Y151.260
G1 Z0.200
G1 E0.80000 F2100.00000
G1 F1200.000
G1 X196.371 Y151.359 E0.01213
G1 X196.946 Y151.423 E0.01816
G1 X201.898 Y151.434 E0.15525
G1 X201.814 Y151.535 E0.00412
G1 X201.462 Y152.192 E0.02338
G1 X201.259 Y152.861 E0.02192
G1 X196.935 Y152.871 E0.13556
G1 X196.360 Y152.935 E0.01815
G1 X195.998 Y153.032 E0.01177
G1 X196.073 Y152.750 E0.00915
G1 X196.127 Y152.147 E0.01898
G1 X196.073 Y151.544 E0.01898
G1 X196.012 Y151.318 E0.00736
G1 F8640.000
G1 X196.371 Y151.359 E-0.08329
G1 X196.946 Y151.423 E-0.13370
G1 X199.298 Y151.428 E-0.54301
G1 E-0.04000 F2100.00000
G1 Z0.600 F10800.000
G1 X206.190 Y149.433
G1 Z0.200
G1 E0.80000 F2100.00000
G1 F1200.000
G1 X206.190 Y137.705 E0.36770
G1 X227.764 Y137.705 E0.67644
G1 X227.764 Y149.433 E0.36770
G1 X206.250 Y149.433 E0.67456
G1 F8640.000
G1 X206.233 Y146.141 E-0.76000
G1 E-0.04000 F2100.00000
G1 Z0.600 F10800.000
G1 X206.567 Y146.340
G1 Z0.200
G1 E0.80000 F2100.00000
G1 F1200.000
G1 X206.567 Y140.802 E0.17363
G1 X227.387 Y140.802 E0.65280
G1 X227.387 Y146.340 E0.17363
G1 X206.627 Y146.340 E0.65092
G1 X206.168 Y146.374 F10800.000
G1 F8640.000
G1 X206.591 Y143.048 E-0.76000
G1 E-0.04000 F2100.00000
G1 Z0.600 F10800.000
G1 X206.627 Y140.122
G1 Z0.200
G1 E0.80000 F2100.00000
G1 F1200.000
G1 X206.567 Y140.122 E0.00188
G1 X206.567 Y138.082 E0.06395
G1 X227.387 Y138.082 E0.65280
G1 X227.387 Y140.122 E0.06395
G1 X206.687 Y140.122 E0.64903
G1 X206.598 Y140.175 F10800.000
G1 F8640.000
G1 X206.567 Y140.122 E-0.02771
G1 X206.567 Y138.082 E-0.47091
G1 X207.699 Y138.082 E-0.26138
G1 E-0.04000 F2100.00000
G1 Z0.600 F10800.000
G1 X206.687 Y147.020
G1 Z0.200
G1 E0.80000 F2100.00000
G1 F1200.000
G1 X227.387 Y147.020 E0.64903
G1 X227.387 Y149.056 E0.06384
G1 X206.567 Y149.056 E0.65280
G1 X206.567 Y147.020 E0.06384
G1 X206.627 Y147.020 E0.00188
G1 X206.695 Y146.620 F10800.000
G1 F8640.000
G1 X209.918 Y147.020 E-0.76000
G1 E-0.04000 F2100.00000
G1 Z0.600 F10800.000
G1 X202.865 Y150.488
G1 Z0.200
G1 E0.80000 F2100.00000
G1 F1200.000
G1 X202.764 Y150.571 E0.00411
G1 X202.764 Y136.567 E0.43909
G1 X202.867 Y136.651 E0.00416
G1 X203.525 Y137.000 E0.02336
G1 X204.239 Y137.214 E0.02336
G1 X204.940 Y137.280 E0.02208
G1 X228.190 Y137.280 E0.72898
G1 X228.190 Y149.858 E0.39440
G1 X204.940 Y149.858 E0.72899
G1 X204.238 Y149.925 E0.02210
G1 X203.524 Y150.139 E0.02338
G1 X202.918 Y150.460 E0.02149
G1 F8640.000
G1 X202.764 Y150.571 E-0.04394
G1 X202.764 Y147.470 E-0.71606
G1 E-0.04000 F2100.00000
G1 Z0.600 F10800.000
G1 X202.387 Y140.122
G1 Z0.200
G1 E0.80000 F2100.00000
G1 F1200.000
G1 X154.590 Y140.122 E1.49863
G1 X154.590 Y136.084 E0.12661
G1 X160.009 Y136.095 E0.16992
G1 X160.536 Y136.153 E0.01662
G1 X161.025 Y136.283 E0.01585
G1 X167.474 Y136.284 E0.20221
M73 Q0 S186
G1 X167.959 Y136.190 E0.01550
G1 X168.475 Y136.117 E0.01635
G1 X169.489 Y136.085 E0.03182
G1 X187.990 Y136.089 E0.58007
G1 X188.504 Y136.117 E0.01614
G1 X189.018 Y136.190 E0.01628
G1 X189.503 Y136.284 E0.01550
G1 X195.952 Y136.283 E0.20220
M73 P0 R184
G1 X196.441 Y136.153 E0.01585
G1 X196.967 Y136.095 E0.01662
G1 X202.387 Y136.084 E0.16992
G1 X202.387 Y140.062 E0.12473
G1 X202.509 Y140.503 F10800.000
G1 F8640.000
G1 X199.095 Y140.066 E-0.76000
G1 E-0.04000 F2100.00000
G1 Z0.600 F10800.000
G1 X201.900 Y135.708
G1 Z0.200
G1 E0.80000 F2100.00000
G1 F1200.000
G1 X196.946 Y135.718 E0.15533
G1 X196.371 Y135.782 E0.01814
G1 X195.996 Y135.882 E0.01217
G1 X196.073 Y135.594 E0.00934
G1 X196.127 Y134.991 E0.01898
G1 X196.073 Y134.388 E0.01898
G1 X195.999 Y134.110 E0.00903
G1 X196.360 Y134.207 E0.01173
G1 X196.935 Y134.271 E0.01815
G1 X201.259 Y134.280 E0.13558
G1 X201.463 Y134.949 E0.02191
G1 X201.816 Y135.605 E0.02336
G1 X201.862 Y135.661 E0.00229
G1 F8640.000
G1 X198.571 Y135.699 E-0.76000
G1 E-0.04000 F2100.00000
G1 Z0.600 F10800.000
G1 X189.698 Y133.781
G1 Z0.200
G1 E0.80000 F2100.00000
G1 F1200.000
G1 X195.521 Y133.781 E0.18257
G1 X195.700 Y134.454 E0.02184
G1 X195.749 Y134.991 E0.01690
G1 X195.700 Y135.528 E0.01690
G1 X195.521 Y136.201 E0.02184
G1 X189.698 Y136.201 E0.18257
G1 X189.519 Y135.528 E0.02184
G1 X189.470 Y134.991 E0.01690
G1 X189.519 Y134.454 E0.01690
G1 X189.683 Y133.839 E0.01996
G1 X189.723 Y133.382 F10800.000
G1 X189.211 Y134.144
G1 F1200.000
G1 X189.146 Y134.388 E0.00791
G1 X189.092 Y134.991 E0.01898
G1 X189.146 Y135.594 E0.01898
G1 X189.213 Y135.844 E0.00811
G1 X188.540 Y135.741 E0.02133
G1 X188.001 Y135.712 E0.01694
G1 X186.986 Y135.707 E0.03183
G1 X169.484 Y135.707 E0.54877
G1 X168.443 Y135.740 E0.03265
G1 X167.764 Y135.844 E0.02153
G1 X167.830 Y135.594 E0.00811
G1 X167.885 Y134.991 E0.01898
G1 X167.830 Y134.388 E0.01898
G1 X167.766 Y134.144 E0.00791
G1 X168.449 Y134.248 E0.02166
G1 X169.489 Y134.281 E0.03263
G1 X187.488 Y134.281 E0.56435
G1 X188.528 Y134.248 E0.03263
G1 X189.152 Y134.156 E0.01978
G1 F8640.000
G1 X189.146 Y134.388 E-0.05363
G1 X189.092 Y134.991 E-0.13975
G1 X189.146 Y135.594 E-0.13975
G1 X189.213 Y135.844 E-0.05975
G1 X188.540 Y135.741 E-0.15706
G1 X188.001 Y135.712 E-0.12476
G1 X187.631 Y135.710 E-0.08532
G1 E-0.04000 F2100.00000
G1 Z0.600 F10800.000
G1 X161.456 Y133.781
G1 Z0.200
G1 E0.80000 F2100.00000
G1 F1200.000
G1 X167.279 Y133.781 E0.18257
G1 X167.458 Y134.454 E0.02184
G1 X167.506 Y134.991 E0.01690
G1 X167.458 Y135.528 E0.01690
G1 X167.279 Y136.201 E0.02184
G1 X161.456 Y136.201 E0.18257
G1 X161.277 Y135.528 E0.02184
G1 X161.228 Y134.991 E0.01690
G1 X161.277 Y134.454 E0.01690
G1 X161.440 Y133.839 E0.01996
G1 X161.481 Y133.382 F10800.000
G1 X160.978 Y134.110
G1 F1200.000
G1 X160.904 Y134.388 E0.00903
G1 X160.849 Y134.991 E0.01898
G1 X160.904 Y135.594 E0.01898
G1 X160.981 Y135.882 E0.00934
G1 X160.606 Y135.782 E0.01217
G1 X160.031 Y135.718 E0.01814
G1 X155.077 Y135.708 E0.15533
G1 X155.161 Y135.605 E0.00417
G1 X155.514 Y134.949 E0.02336
G1 X155.717 Y134.280 E0.02191
G1 X160.041 Y134.271 E0.13558
G1 X160.617 Y134.207 E0.01815
G1 X160.920 Y134.125 E0.00985
G1 F8640.000
G1 X160.904 Y134.388 E-0.06078
G1 X160.849 Y134.991 E-0.13975
G1 X160.904 Y135.594 E-0.13975
G1 X160.981 Y135.882 E-0.06880
G1 X160.606 Y135.782 E-0.08959
G1 X160.031 Y135.718 E-0.13362
G1 X159.477 Y135.717 E-0.12771
G1 E-0.04000 F2100.00000
G1 Z0.600 F10800.000
G1 X154.590 Y140.802
G1 Z0.200
G1 E0.80000 F2100.00000
G1 F1200.000
G1 X202.387 Y140.802 E1.49863
G1 X202.387 Y146.340 E0.17363
G1 X154.590 Y146.340 E1.49863
G1 X154.590 Y140.862 E0.17175
G1 X154.403 Y140.448 F10800.000
G1 F8640.000
G1 X157.881 Y140.858 E-0.76000
G1 E-0.04000 F2100.00000
G1 Z0.600 F10800.000
G1 X154.590 Y147.020
G1 Z0.200
G1 E0.80000 F2100.00000
G1 F1200.000
G1 X202.387 Y147.020 E1.49863
G1 X202.387 Y151.058 E0.12661
G1 X196.967 Y151.046 E0.16992
G1 X196.441 Y150.988 E0.01662
G1 X195.952 Y150.857 E0.01585
G1 X189.503 Y150.857 E0.20220
G1 X189.018 Y150.951 E0.01550
G1 X188.502 Y151.025 E0.01635
G1 X187.487 Y151.057 E0.03182
G1 X169.992 Y151.057 E0.54855
G1 X168.987 Y151.052 E0.03152
G1 X168.473 Y151.024 E0.01614
G1 X167.959 Y150.951 E0.01628
G1 X167.474 Y150.857 E0.01550
G1 X161.025 Y150.857 E0.20220
G1 X160.536 Y150.988 E0.01585
G1 X160.009 Y151.046 E0.01662
G1 X154.590 Y151.058 E0.16992
G1 X154.590 Y147.080 E0.12473
G1 X154.468 Y146.639 F10800.000
G1 F8640.000
G1 X157.881 Y147.075 E-0.76000
G1 E-0.04000 F2100.00000
G1 Z0.600 F10800.000
G1 X129.213 Y137.705
G1 Z0.200
G1 E0.80000 F2100.00000
G1 F1200.000
G1 X150.787 Y137.705 E0.67644
G1 X150.787 Y149.433 E0.36770
G1 X129.213 Y149.433 E0.67644
G1 X129.213 Y137.765 E0.36582
G1 F8640.000
G1 X132.504 Y137.756 E-0.76000
G1 E-0.04000 F2100.00000
G1 Z0.600 F10800.000
G1 X129.590 Y140.802
G1 Z0.200
G1 E0.80000 F2100.00000
G1 F1200.000
G1 X150.410 Y140.802 E0.65280
G1 X150.410 Y146.340 E0.17363
G1 X129.590 Y146.340 E0.65280
G1 X129.590 Y140.862 E0.17175
G1 X129.421 Y140.439 F10800.000
G1 X129.590 Y140.122
G1 F1200.000
G1 X129.590 Y138.082 E0.06395
G1 X150.410 Y138.082 E0.65280
G1 X150.410 Y140.122 E0.06395
G1 X129.650 Y140.122 E0.65092
G1 X129.190 Y140.135 F10800.000
G1 F8640.000
G1 X129.590 Y138.082 E-0.47111
G1 X130.841 Y138.082 E-0.28889
G1 E-0.04000 F2100.00000
G1 Z0.600 F10800.000
G1 X129.650 Y147.020
G1 Z0.200
G1 E0.80000 F2100.00000
G1 F1200.000
G1 X150.410 Y147.020 E0.65092
G1 X150.410 Y149.056 E0.06384
G1 X129.590 Y149.056 E0.65280
G1 X129.590 Y147.020 E0.06384
G1 X129.461 Y146.667 F10800.000
G1 F8640.000
G1 X132.881 Y147.020 E-0.76000
G1 E-0.04000 F2100.00000
G1 Z0.600 F10800.000
G1 X128.787 Y149.858
G1 Z0.200
G1 E0.80000 F2100.00000
G1 F1200.000
G1 X128.787 Y137.280 E0.39440
G1 X152.037 Y137.280 E0.72898
G1 X152.738 Y137.214 E0.02208
G1 X153.452 Y137.000 E0.02336
G1 X154.110 Y136.651 E0.02336
G1 X154.213 Y136.567 E0.00416
G1 X154.213 Y150.571 E0.43909
G1 X154.111 Y150.488 E0.00411
G1 X153.453 Y150.139 E0.02338
G1 X152.739 Y149.925 E0.02338
G1 X152.037 Y149.858 E0.02210
G1 X128.847 Y149.858 E0.72710
G1 F8640.000
G1 X128.831 Y146.567 E-0.76000
G1 E-0.04000 F2100.00000
G1 Z0.600 F10800.000
G1 X155.079 Y151.434
G1 Z0.200
G1 E0.80000 F2100.00000
G1 F1200.000
G1 X160.031 Y151.423 E0.15525
G1 X160.606 Y151.359 E0.01816
G1 X160.980 Y151.260 E0.01213
G1 X160.904 Y151.544 E0.00924
G1 X160.849 Y152.147 E0.01898
G1 X160.904 Y152.750 E0.01898
G1 X160.979 Y153.032 E0.00915
G1 X160.617 Y152.935 E0.01177
G1 X160.041 Y152.871 E0.01815
G1 X155.718 Y152.861 E0.13556
G1 X155.515 Y152.192 E0.02192
G1 X155.163 Y151.535 E0.02338
G1 X155.117 Y151.480 E0.00224
G1 F8640.000
G1 X158.408 Y151.442 E-0.76000
G1 E-0.04000 F2100.00000
G1 Z0.600 F10800.000
G1 X161.456 Y150.937
G1 Z0.200
G1 E0.80000 F2100.00000
G1 F1200.000
G1 X167.279 Y150.937 E0.18257
G1 X167.458 Y151.610 E0.02184
G1 X167.506 Y152.147 E0.01690
G1 X167.458 Y152.684 E0.01690
G1 X167.279 Y153.357 E0.02184
G1 X161.456 Y153.357 E0.18257
G1 X161.277 Y152.684 E0.02184
G1 X161.228 Y152.147 E0.01690
G1 X161.277 Y151.610 E0.01690
G1 X161.440 Y150.995 E0.01996
G1 X161.481 Y150.538 F10800.000
G1 F8640.000
G1 X164.732 Y150.963 E-0.76000
G1 E-0.04000 F2100.00000
G1 Z0.600 F10800.000
G1 X155.385 Y153.238
G1 Z0.200
G1 E0.80000 F2100.00000
G1 F1200.000
G1 X155.360 Y152.980 E0.00813
G1 X155.165 Y152.338 E0.02104
G1 X154.848 Y151.746 E0.02104
G1 X154.421 Y151.228 E0.02104
G1 X153.902 Y150.804 E0.02104
G1 X153.309 Y150.489 E0.02104
G1 X152.666 Y150.297 E0.02104
G1 X152.019 Y150.236 E0.02037
G1 X128.410 Y150.236 E0.74025
G1 X128.410 Y136.902 E0.41805
G1 X152.019 Y136.902 E0.74025
G1 X152.666 Y136.842 E0.02036
G1 X153.308 Y136.649 E0.02102
G1 X153.900 Y136.335 E0.02102
G1 X154.420 Y135.911 E0.02102
G1 X154.847 Y135.394 E0.02102
G1 X155.164 Y134.803 E0.02102
G1 X155.359 Y134.162 E0.02102
G1 X155.385 Y133.904 E0.00813
G1 X160.020 Y133.894 E0.14533
G1 X160.547 Y133.835 E0.01661
G1 X161.035 Y133.704 E0.01584
G1 X167.480 Y133.704 E0.20208
G1 X167.965 Y133.799 E0.01549
G1 X168.481 Y133.872 E0.01635
G1 X169.495 Y133.904 E0.03180
G1 X187.482 Y133.904 E0.56398
G1 X188.496 Y133.872 E0.03180
G1 X189.012 Y133.799 E0.01635
G1 X189.497 Y133.704 E0.01549
G1 X195.942 Y133.704 E0.20208
G1 X196.430 Y133.835 E0.01584
G1 X196.957 Y133.894 E0.01661
G1 X201.592 Y133.904 E0.14533
G1 X201.618 Y134.162 E0.00813
G1 X201.813 Y134.803 E0.02102
G1 X202.130 Y135.394 E0.02102
G1 X202.557 Y135.911 E0.02102
G1 X203.076 Y136.335 E0.02102
G1 X203.377 Y136.495 E0.01067
G1 X203.669 Y136.649 E0.01035
G1 X204.311 Y136.842 E0.02102
G1 X204.957 Y136.902 E0.02036
G1 X228.567 Y136.902 E0.74025
G1 X228.567 Y150.236 E0.41805
G1 X204.957 Y150.236 E0.74025
G1 X204.311 Y150.297 E0.02037
G1 X203.668 Y150.489 E0.02104
G1 X203.075 Y150.804 E0.02104
G1 X202.555 Y151.228 E0.02104
G1 X202.129 Y151.746 E0.02104
G1 X201.812 Y152.338 E0.02104
G1 X201.617 Y152.980 E0.02104
G1 X201.592 Y153.238 E0.00813
G1 X196.957 Y153.248 E0.14532
G1 X196.430 Y153.307 E0.01661
G1 X195.942 Y153.437 E0.01584
G1 X189.497 Y153.437 E0.20208
G1 X189.012 Y153.342 E0.01550
G1 X188.498 Y153.270 E0.01628
G1 X187.984 Y153.242 E0.01613
G1 X186.980 Y153.237 E0.03150
