; generated by PrusaSlicer 2.2.0+win64 on 2022-01-31 at 19:55:11 UTC

; 

; external perimeters extrusion width = 0.45mm
; perimeters extrusion width = 0.45mm
; infill extrusion width = 0.45mm
; solid infill extrusion width = 0.45mm
; top infill extrusion width = 0.40mm
; first layer extrusion width = 0.42mm

M73 P0 R13
M73 Q0 S13
M201 X1000 Y1000 Z200 E5000 ; sets maximum accelerations, mm/sec^2
M203 X200 Y200 Z12 E120 ; sets maximum feedrates, mm/sec
M204 P1250 R1250 T1250 ; sets acceleration (P, T) and retract acceleration (R), mm/sec^2
M205 X8.00 Y8.00 Z0.40 E4.50 ; sets the jerk limits, mm/sec
M205 S0 T0 ; sets the minimum extruding and travel feed rate, mm/sec
M107
M862.3 P "MK3S" ; printer model check
M862.1 P0.4 ; nozzle diameter check
G90 ; use absolute coordinates
M83 ; extruder relative mode
M104 S215 ; set extruder temp
M140 S60 ; set bed temp
M190 S60 ; wait for bed temp
M109 S215 ; wait for extruder temp
G28 W ; home all without mesh bed level
G80 ; mesh bed leveling
G1 Y-3.0 F1000.0 ; go outside print area
G92 E0.0
G1 X60.0 E9.0 F1000.0 ; intro line
M73 Q0 S13
M73 P0 R13
G1 X100.0 E12.5 F1000.0 ; intro line
G92 E0.0
M221 S95

; Don't change E values below. Excessive value can damage the printer.
M907 E430 ; set extruder motor current
G21 ; set units to millimeters
G90 ; use absolute coordinates
M83 ; use relative distances for extrusion
M900 K0.05 ; Filament gcode LA 1.5
M900 K30 ; Filament gcode LA 1.0
;BEFORE_LAYER_CHANGE
G92 E0.0
;0.2


G1 E-0.80000 F2100.00000
G1 Z0.400 F10800.000
;AFTER_LAYER_CHANGE
;0.2
G1 X75.695 Y87.207
G1 Z0.200
G1 E0.80000 F2100.00000
M204 S850
G1 F900.000
G1 X76.616 Y86.973 E0.02977
G1 X101.524 Y85.970 E0.78163
G1 X148.441 Y85.970 E1.47104
G1 X173.445 Y86.977 E0.78461
G1 X173.953 Y87.071 E0.01621
G1 X174.432 Y87.274 E0.01633
G1 X174.856 Y87.577 E0.01633
G1 X175.201 Y87.962 E0.01621
G1 X175.527 Y88.605 E0.02260
G1 X175.646 Y89.316 E0.02260
G1 X175.646 Y120.691 E0.98374
G1 X175.572 Y121.241 E0.01740
G1 X175.375 Y121.755 E0.01728
G1 X175.065 Y122.211 E0.01728
G1 X174.654 Y122.584 E0.01740
G1 X174.059 Y122.895 E0.02107
G1 X173.400 Y123.026 E0.02107
G1 X148.480 Y124.029 E0.78198
G1 X101.544 Y124.030 E1.47164
G1 X76.525 Y123.021 E0.78508
G1 X75.924 Y122.889 E0.01929
G1 X75.380 Y122.609 E0.01917
G1 X74.926 Y122.200 E0.01917
G1 X74.591 Y121.688 E0.01917
G1 X74.416 Y121.193 E0.01645
G1 X74.354 Y120.669 E0.01657
G1 X74.355 Y89.271 E0.98445
G1 X74.463 Y88.635 E0.02024
G1 X74.736 Y88.054 E0.02012
G1 X75.158 Y87.565 E0.02024
G1 X75.645 Y87.241 E0.01836
M204 S1000
; printing object TheaterWhiteDiffuser.stl id:0 copy 1
G1 F8640.000
G1 X76.616 Y86.973 E-0.23239
G1 X78.899 Y86.881 E-0.52761
G1 E-0.04000 F2100.00000
G1 Z0.600 F10800.000
G1 X77.518 Y109.787
G1 Z0.200
G1 E0.80000 F2100.00000
M204 S850
G1 F900.000
G1 X99.988 Y109.787 E0.70452
G1 X100.805 Y109.466 E0.02754
G1 X101.487 Y109.070 E0.02472
G1 X101.840 Y108.787 E0.01418
G1 X148.160 Y108.787 E1.45236
G1 X148.513 Y109.070 E0.01418
G1 X149.195 Y109.466 E0.02472
G1 X150.012 Y109.787 E0.02754
G1 X172.482 Y109.787 E0.70452
G1 X172.482 Y119.866 E0.31601
G1 X150.000 Y119.866 E0.70490
G1 X149.185 Y120.189 E0.02749
G1 X148.506 Y120.584 E0.02464
G1 X148.156 Y120.866 E0.01409
G1 X101.844 Y120.866 E1.45209
G1 X101.494 Y120.584 E0.01409
G1 X100.815 Y120.189 E0.02464
G1 X100.000 Y119.866 E0.02749
G1 X77.518 Y119.866 E0.70490
G1 X77.518 Y109.847 E0.31413
M204 S1000
G1 X77.141 Y109.410 F10800.000
M204 S850
G1 F900.000
G1 X99.916 Y109.410 E0.71410
G1 X100.640 Y109.125 E0.02440
G1 X101.273 Y108.758 E0.02293
G1 X101.707 Y108.410 E0.01744
G1 X148.293 Y108.410 E1.46067
G1 X148.727 Y108.758 E0.01744
G1 X149.360 Y109.125 E0.02293
G1 X150.084 Y109.410 E0.02440
G1 X172.859 Y109.410 E0.71410
G1 X172.859 Y120.243 E0.33966
G1 X150.072 Y120.243 E0.71447
G1 X149.350 Y120.529 E0.02435
G1 X148.720 Y120.896 E0.02286
G1 X148.289 Y121.243 E0.01736
G1 X101.711 Y121.243 E1.46042
G1 X101.280 Y120.896 E0.01736
G1 X100.650 Y120.529 E0.02286
G1 X99.928 Y120.243 E0.02435
G1 X77.141 Y120.243 E0.71447
G1 X77.141 Y109.470 E0.33777
M204 S1000
G1 X77.537 Y109.469 F10800.000
G1 F8640.000
G1 X80.432 Y109.461 E-0.76000
G1 E-0.04000 F2100.00000
G1 Z0.600 F10800.000
G1 X172.369 Y110.664
G1 Z0.200
G1 E0.80000 F2100.00000
M204 S850
G1 F900.000
G1 X171.775 Y110.070 E0.02636
G1 X171.241 Y110.070 E0.01677
G1 X172.199 Y111.028 E0.04254
G1 X172.199 Y111.562 E0.01677
G1 X170.707 Y110.070 E0.06625
G1 X170.173 Y110.070 E0.01677
G1 X172.199 Y112.096 E0.08996
G1 X172.199 Y112.630 E0.01677
G1 X169.639 Y110.070 E0.11367
G1 X169.105 Y110.070 E0.01677
G1 X172.199 Y113.164 E0.13739
G1 X172.199 Y113.698 E0.01677
G1 X168.571 Y110.070 E0.16110
G1 X168.037 Y110.070 E0.01677
G1 X172.199 Y114.232 E0.18481
G1 X172.199 Y114.766 E0.01677
G1 X167.503 Y110.070 E0.20852
G1 X166.969 Y110.070 E0.01677
G1 X172.199 Y115.300 E0.23223
G1 X172.199 Y115.834 E0.01677
G1 X166.435 Y110.070 E0.25594
G1 X165.901 Y110.070 E0.01677
G1 X172.199 Y116.368 E0.27965
G1 X172.199 Y116.902 E0.01677
G1 X165.367 Y110.070 E0.30337
G1 X164.833 Y110.070 E0.01677
G1 X172.199 Y117.436 E0.32708
G1 X172.199 Y117.970 E0.01677
G1 X164.299 Y110.070 E0.35079
G1 X163.765 Y110.070 E0.01677
G1 X172.199 Y118.504 E0.37450
G1 X172.199 Y119.038 E0.01677
G1 X163.231 Y110.070 E0.39821
M73 Q8 S12
G1 X162.697 Y110.070 E0.01677
G1 X172.199 Y119.572 E0.42192
M73 P8 R12
G1 X171.676 Y119.583 E0.01643
G1 X162.163 Y110.070 E0.42241
G1 X161.629 Y110.070 E0.01677
G1 X171.142 Y119.583 E0.42241
G1 X170.608 Y119.583 E0.01677
G1 X161.095 Y110.070 E0.42241
G1 X160.561 Y110.070 E0.01677
G1 X170.074 Y119.583 E0.42241
G1 X169.540 Y119.583 E0.01677
G1 X160.027 Y110.070 E0.42241
G1 X159.493 Y110.070 E0.01677
G1 X169.006 Y119.583 E0.42241
G1 X168.472 Y119.583 E0.01677
G1 X158.959 Y110.070 E0.42241
G1 X158.425 Y110.070 E0.01677
G1 X167.938 Y119.583 E0.42241
G1 X167.404 Y119.583 E0.01677
G1 X157.891 Y110.070 E0.42241
G1 X157.357 Y110.070 E0.01677
G1 X166.870 Y119.583 E0.42241
G1 X166.336 Y119.583 E0.01677
G1 X156.823 Y110.070 E0.42241
G1 X156.289 Y110.070 E0.01677
G1 X165.802 Y119.583 E0.42241
G1 X165.268 Y119.583 E0.01677
G1 X155.755 Y110.070 E0.42241
G1 X155.221 Y110.070 E0.01677
G1 X164.734 Y119.583 E0.42241
G1 X164.200 Y119.583 E0.01677
G1 X154.687 Y110.070 E0.42241
G1 X154.153 Y110.070 E0.01677
G1 X163.666 Y119.583 E0.42241
G1 X163.132 Y119.583 E0.01677
G1 X153.619 Y110.070 E0.42241
G1 X153.085 Y110.070 E0.01677
G1 X162.598 Y119.583 E0.42241
G1 X162.064 Y119.583 E0.01677
G1 X152.551 Y110.070 E0.42241
G1 X152.017 Y110.070 E0.01677
G1 X161.530 Y119.583 E0.42241
G1 X160.996 Y119.583 E0.01677
G1 X151.483 Y110.070 E0.42241
G1 X150.949 Y110.070 E0.01677
G1 X160.462 Y119.583 E0.42241
G1 X159.928 Y119.583 E0.01677
G1 X150.415 Y110.070 E0.42241
G1 X149.959 Y110.070 E0.01432
G1 X149.830 Y110.019 E0.00434
G1 X159.394 Y119.583 E0.42465
G1 X158.860 Y119.583 E0.01677
G1 X148.896 Y109.619 E0.44244
G1 X148.353 Y109.304 E0.01970
G1 X148.061 Y109.070 E0.01175
G1 X147.813 Y109.070 E0.00779
G1 X158.326 Y119.583 E0.46681
G1 X157.792 Y119.583 E0.01677
G1 X147.279 Y109.070 E0.46681
G1 X146.745 Y109.070 E0.01677
G1 X157.258 Y119.583 E0.46681
G1 X156.724 Y119.583 E0.01677
G1 X146.211 Y109.070 E0.46681
G1 X145.677 Y109.070 E0.01677
G1 X156.190 Y119.583 E0.46681
G1 X155.656 Y119.583 E0.01677
G1 X145.143 Y109.070 E0.46681
G1 X144.609 Y109.070 E0.01677
G1 X155.122 Y119.583 E0.46681
G1 X154.588 Y119.583 E0.01677
G1 X144.075 Y109.070 E0.46681
G1 X143.541 Y109.070 E0.01677
G1 X154.054 Y119.583 E0.46681
G1 X153.520 Y119.583 E0.01677
G1 X143.007 Y109.070 E0.46681
G1 X142.473 Y109.070 E0.01677
G1 X152.986 Y119.583 E0.46681
G1 X152.452 Y119.583 E0.01677
G1 X141.939 Y109.070 E0.46681
G1 X141.405 Y109.070 E0.01677
G1 X151.918 Y119.583 E0.46681
G1 X151.384 Y119.583 E0.01677
G1 X140.871 Y109.070 E0.46681
G1 X140.337 Y109.070 E0.01677
G1 X150.850 Y119.583 E0.46681
G1 X150.316 Y119.583 E0.01677
G1 X139.803 Y109.070 E0.46681
G1 X139.269 Y109.070 E0.01677
G1 X149.828 Y119.630 E0.46888
G1 X149.446 Y119.781 E0.01292
G1 X138.735 Y109.070 E0.47561
G1 X138.201 Y109.070 E0.01677
G1 X149.064 Y119.933 E0.48234
G1 X148.726 Y120.129 E0.01226
G1 X137.667 Y109.070 E0.49106
G1 X137.133 Y109.070 E0.01677
G1 X148.388 Y120.326 E0.49978
G1 X148.087 Y120.558 E0.01195
G1 X136.599 Y109.070 E0.51012
G1 X136.065 Y109.070 E0.01677
G1 X147.578 Y120.583 E0.51121
G1 X147.044 Y120.583 E0.01677
G1 X135.531 Y109.070 E0.51121
G1 X134.997 Y109.070 E0.01677
G1 X146.510 Y120.583 E0.51121
G1 X145.976 Y120.583 E0.01677
G1 X134.463 Y109.070 E0.51121
G1 X133.929 Y109.070 E0.01677
G1 X145.442 Y120.583 E0.51121
G1 X144.908 Y120.583 E0.01677
G1 X133.395 Y109.070 E0.51121
G1 X132.861 Y109.070 E0.01677
G1 X144.374 Y120.583 E0.51121
G1 X143.840 Y120.583 E0.01677
G1 X132.327 Y109.070 E0.51121
G1 X131.793 Y109.070 E0.01677
G1 X143.306 Y120.583 E0.51121
G1 X142.772 Y120.583 E0.01677
G1 X131.259 Y109.070 E0.51121
G1 X130.725 Y109.070 E0.01677
G1 X142.238 Y120.583 E0.51121
G1 X141.704 Y120.583 E0.01677
G1 X130.191 Y109.070 E0.51121
M73 Q15 S11
G1 X129.657 Y109.070 E0.01677
M73 P15 R11
G1 X141.170 Y120.583 E0.51121
G1 X140.636 Y120.583 E0.01677
G1 X129.123 Y109.070 E0.51121
G1 X128.589 Y109.070 E0.01677
G1 X140.102 Y120.583 E0.51121
G1 X139.568 Y120.583 E0.01677
G1 X128.055 Y109.070 E0.51121
G1 X127.521 Y109.070 E0.01677
G1 X139.034 Y120.583 E0.51121
G1 X138.500 Y120.583 E0.01677
G1 X126.987 Y109.070 E0.51121
G1 X126.453 Y109.070 E0.01677
G1 X137.966 Y120.583 E0.51121
G1 X137.432 Y120.583 E0.01677
G1 X125.919 Y109.070 E0.51121
G1 X125.384 Y109.070 E0.01677
G1 X136.898 Y120.583 E0.51121
G1 X136.364 Y120.583 E0.01677
G1 X124.850 Y109.070 E0.51121
G1 X124.316 Y109.070 E0.01677
G1 X135.830 Y120.583 E0.51121
G1 X135.296 Y120.583 E0.01677
G1 X123.782 Y109.070 E0.51121
G1 X123.248 Y109.070 E0.01677
G1 X134.762 Y120.583 E0.51121
G1 X134.228 Y120.583 E0.01677
G1 X122.714 Y109.070 E0.51121
G1 X122.180 Y109.070 E0.01677
G1 X133.694 Y120.583 E0.51121
G1 X133.160 Y120.583 E0.01677
G1 X121.646 Y109.070 E0.51121
G1 X121.112 Y109.070 E0.01677
G1 X132.625 Y120.583 E0.51121
G1 X132.091 Y120.583 E0.01677
G1 X120.578 Y109.070 E0.51121
G1 X120.044 Y109.070 E0.01677
G1 X131.557 Y120.583 E0.51121
G1 X131.023 Y120.583 E0.01677
G1 X119.510 Y109.070 E0.51121
G1 X118.976 Y109.070 E0.01677
G1 X130.489 Y120.583 E0.51121
G1 X129.955 Y120.583 E0.01677
G1 X118.442 Y109.070 E0.51121
G1 X117.908 Y109.070 E0.01677
G1 X129.421 Y120.583 E0.51121
G1 X128.887 Y120.583 E0.01677
G1 X117.374 Y109.070 E0.51121
G1 X116.840 Y109.070 E0.01677
G1 X128.353 Y120.583 E0.51121
G1 X127.819 Y120.583 E0.01677
G1 X116.306 Y109.070 E0.51121
G1 X115.772 Y109.070 E0.01677
G1 X127.285 Y120.583 E0.51121
G1 X126.751 Y120.583 E0.01677
G1 X115.238 Y109.070 E0.51121
G1 X114.704 Y109.070 E0.01677
G1 X126.217 Y120.583 E0.51121
G1 X125.683 Y120.583 E0.01677
G1 X114.170 Y109.070 E0.51121
G1 X113.636 Y109.070 E0.01677
G1 X125.149 Y120.583 E0.51121
G1 X124.615 Y120.583 E0.01677
G1 X113.102 Y109.070 E0.51121
G1 X112.568 Y109.070 E0.01677
G1 X124.081 Y120.583 E0.51121
G1 X123.547 Y120.583 E0.01677
G1 X112.034 Y109.070 E0.51121
G1 X111.500 Y109.070 E0.01677
G1 X123.013 Y120.583 E0.51121
G1 X122.479 Y120.583 E0.01677
G1 X110.966 Y109.070 E0.51121
G1 X110.432 Y109.070 E0.01677
G1 X121.945 Y120.583 E0.51121
G1 X121.411 Y120.583 E0.01677
G1 X109.898 Y109.070 E0.51121
G1 X109.364 Y109.070 E0.01677
G1 X120.877 Y120.583 E0.51121
G1 X120.343 Y120.583 E0.01677
G1 X108.830 Y109.070 E0.51121
G1 X108.296 Y109.070 E0.01677
G1 X119.809 Y120.583 E0.51121
G1 X119.275 Y120.583 E0.01677
G1 X107.762 Y109.070 E0.51121
G1 X107.228 Y109.070 E0.01677
G1 X118.741 Y120.583 E0.51121
G1 X118.207 Y120.583 E0.01677
G1 X106.694 Y109.070 E0.51121
G1 X106.160 Y109.070 E0.01677
G1 X117.673 Y120.583 E0.51121
G1 X117.139 Y120.583 E0.01677
G1 X105.626 Y109.070 E0.51121
G1 X105.092 Y109.070 E0.01677
G1 X116.605 Y120.583 E0.51121
G1 X116.071 Y120.583 E0.01677
G1 X104.558 Y109.070 E0.51121
G1 X104.024 Y109.070 E0.01677
G1 X115.537 Y120.583 E0.51121
G1 X115.003 Y120.583 E0.01677
G1 X103.490 Y109.070 E0.51121
G1 X102.956 Y109.070 E0.01677
G1 X114.469 Y120.583 E0.51121
G1 X113.935 Y120.583 E0.01677
G1 X102.422 Y109.070 E0.51121
G1 X101.939 Y109.070 E0.01517
G1 X101.911 Y109.093 E0.00114
G1 X113.401 Y120.583 E0.51021
G1 X112.867 Y120.583 E0.01677
G1 X101.610 Y109.326 E0.49986
M73 Q23 S10
M73 P23 R10
G1 X101.272 Y109.522 E0.01227
G1 X112.333 Y120.583 E0.49116
G1 X111.799 Y120.583 E0.01677
G1 X100.934 Y109.718 E0.48245
G1 X100.551 Y109.869 E0.01292
G1 X111.265 Y120.583 E0.47572
G1 X110.731 Y120.583 E0.01677
G1 X100.168 Y110.020 E0.46903
G1 X100.041 Y110.070 E0.00428
G1 X99.684 Y110.070 E0.01121
G1 X110.197 Y120.583 E0.46681
G1 X109.663 Y120.583 E0.01677
G1 X99.150 Y110.070 E0.46681
G1 X98.616 Y110.070 E0.01677
G1 X109.129 Y120.583 E0.46681
G1 X108.595 Y120.583 E0.01677
G1 X98.082 Y110.070 E0.46681
G1 X97.548 Y110.070 E0.01677
G1 X108.061 Y120.583 E0.46681
G1 X107.527 Y120.583 E0.01677
G1 X97.014 Y110.070 E0.46681
G1 X96.480 Y110.070 E0.01677
G1 X106.993 Y120.583 E0.46681
G1 X106.459 Y120.583 E0.01677
G1 X95.946 Y110.070 E0.46681
G1 X95.412 Y110.070 E0.01677
G1 X105.925 Y120.583 E0.46681
G1 X105.391 Y120.583 E0.01677
G1 X94.878 Y110.070 E0.46681
G1 X94.344 Y110.070 E0.01677
G1 X104.857 Y120.583 E0.46681
G1 X104.323 Y120.583 E0.01677
G1 X93.810 Y110.070 E0.46681
G1 X93.276 Y110.070 E0.01677
G1 X103.789 Y120.583 E0.46681
G1 X103.255 Y120.583 E0.01677
G1 X92.742 Y110.070 E0.46681
G1 X92.208 Y110.070 E0.01677
G1 X102.721 Y120.583 E0.46681
G1 X102.187 Y120.583 E0.01677
G1 X91.674 Y110.070 E0.46681
G1 X91.140 Y110.070 E0.01677
G1 X101.094 Y120.024 E0.44200
G1 X100.939 Y119.934 E0.00565
G1 X100.162 Y119.626 E0.02624
G1 X90.606 Y110.070 E0.42431
G1 X90.072 Y110.070 E0.01677
G1 X99.585 Y119.583 E0.42241
G1 X99.051 Y119.583 E0.01677
G1 X89.538 Y110.070 E0.42241
G1 X89.004 Y110.070 E0.01677
G1 X98.517 Y119.583 E0.42241
G1 X97.983 Y119.583 E0.01677
G1 X88.470 Y110.070 E0.42241
G1 X87.936 Y110.070 E0.01677
G1 X97.449 Y119.583 E0.42241
G1 X96.915 Y119.583 E0.01677
G1 X87.402 Y110.070 E0.42241
G1 X86.868 Y110.070 E0.01677
G1 X96.381 Y119.583 E0.42241
G1 X95.847 Y119.583 E0.01677
G1 X86.334 Y110.070 E0.42241
G1 X85.800 Y110.070 E0.01677
G1 X95.313 Y119.583 E0.42241
G1 X94.779 Y119.583 E0.01677
G1 X85.266 Y110.070 E0.42241
G1 X84.732 Y110.070 E0.01677
G1 X94.245 Y119.583 E0.42241
G1 X93.711 Y119.583 E0.01677
G1 X84.198 Y110.070 E0.42241
G1 X83.664 Y110.070 E0.01677
G1 X93.177 Y119.583 E0.42241
G1 X92.643 Y119.583 E0.01677
G1 X83.130 Y110.070 E0.42241
G1 X82.596 Y110.070 E0.01677
G1 X92.109 Y119.583 E0.42241
G1 X91.575 Y119.583 E0.01677
G1 X82.062 Y110.070 E0.42241
G1 X81.528 Y110.070 E0.01677
G1 X91.041 Y119.583 E0.42241
G1 X90.507 Y119.583 E0.01677
G1 X80.994 Y110.070 E0.42241
G1 X80.460 Y110.070 E0.01677
G1 X89.973 Y119.583 E0.42241
G1 X89.439 Y119.583 E0.01677
G1 X79.926 Y110.070 E0.42241
G1 X79.392 Y110.070 E0.01677
G1 X88.905 Y119.583 E0.42241
G1 X88.371 Y119.583 E0.01677
G1 X78.858 Y110.070 E0.42241
G1 X78.324 Y110.070 E0.01677
G1 X87.837 Y119.583 E0.42241
G1 X87.303 Y119.583 E0.01677
G1 X77.801 Y110.081 E0.42192
G1 X77.801 Y110.615 E0.01677
G1 X86.769 Y119.583 E0.39821
G1 X86.235 Y119.583 E0.01677
G1 X77.801 Y111.149 E0.37449
G1 X77.801 Y111.683 E0.01677
G1 X85.701 Y119.583 E0.35078
G1 X85.167 Y119.583 E0.01677
G1 X77.801 Y112.217 E0.32707
G1 X77.801 Y112.751 E0.01677
G1 X84.633 Y119.583 E0.30336
G1 X84.099 Y119.583 E0.01677
G1 X77.801 Y113.285 E0.27965
G1 X77.801 Y113.819 E0.01677
G1 X83.565 Y119.583 E0.25594
G1 X83.031 Y119.583 E0.01677
G1 X77.801 Y114.353 E0.23223
G1 X77.801 Y114.887 E0.01677
G1 X82.497 Y119.583 E0.20851
G1 X81.963 Y119.583 E0.01677
G1 X77.801 Y115.421 E0.18480
G1 X77.801 Y115.955 E0.01677
G1 X81.429 Y119.583 E0.16109
G1 X80.895 Y119.583 E0.01677
G1 X77.801 Y116.489 E0.13738
G1 X77.801 Y117.023 E0.01677
G1 X80.361 Y119.583 E0.11367
G1 X79.827 Y119.583 E0.01677
G1 X77.801 Y117.557 E0.08996
G1 X77.801 Y118.091 E0.01677
G1 X79.293 Y119.583 E0.06624
G1 X78.759 Y119.583 E0.01677
G1 X77.801 Y118.625 E0.04253
G1 X77.801 Y119.159 E0.01677
