; generated by PrusaSlicer 2.4.2+win64 on 2022-04-28 at 22:00:32 UTC

; 

; external perimeters extrusion width = 0.45mm
; perimeters extrusion width = 0.45mm
; infill extrusion width = 0.45mm
; solid infill extrusion width = 0.45mm
; top infill extrusion width = 0.40mm
; first layer extrusion width = 0.42mm

M73 P0 R8
M73 C6
M73 Q0 S8
M73 D6
M201 X1000 Y1000 Z200 E5000 ; sets maximum accelerations, mm/sec^2
M203 X200 Y200 Z12 E120 ; sets maximum feedrates, mm / sec
M204 P1250 R1250 T1250 ; sets acceleration (P, T) and retract acceleration (R), mm/sec^2
M205 X8.00 Y8.00 Z0.40 E4.50 ; sets the jerk limits, mm/sec
M205 S0 T0 ; sets the minimum extruding and travel feed rate, mm/sec
M107
;TYPE:Custom
M862.3 P "MK3S" ; printer model check
M862.1 P0.4 ; nozzle diameter check
M115 U3.10.1 ; tell printer latest fw version
G90 ; use absolute coordinates
M83 ; extruder relative mode
M104 S215 ; set extruder temp
M140 S60 ; set bed temp
M190 S60 ; wait for bed temp
M109 S215 ; wait for extruder temp
G28 W ; home all without mesh bed level
G80 ; mesh bed leveling
G1 Z0.2 F720
G1 Y-3 F1000 ; go outside print area
G92 E0
G1 X60 E9 F1000 ; intro line
G1 X100 E12.5 F1000 ; intro line
G92 E0
M221 S95

; Don't change E values below. Excessive value can damage the printer.
M907 E430 ; set extruder motor current
G21 ; set units to millimeters
G90 ; use absolute coordinates
M83 ; use relative distances for extrusion
M900 K0.05 ; Filament gcode LA 1.5
M900 K30 ; Filament gcode LA 1.0
M107
;LAYER_CHANGE
;Z:0.2
;HEIGHT:0.2
;BEFORE_LAYER_CHANGE
G92 E0.0
;0.2


G1 E-.8 F2100
M73 P1 R8
M73 Q1 S8
G1 Z.4 F720
;AFTER_LAYER_CHANGE
;0.2
; printing object Mine Sign Insert.stl id:0 copy 0
G1 X15.137 Y17.476 F10800
G1 Z.2 F720
G1 E.8 F2100
M204 S800
;TYPE:Perimeter
;WIDTH:0.42
G1 F1200
G1 X62.679 Y17.476 E1.49066
G1 X66.403 Y18.538 E.12141
G1 X66.403 Y23.092 E.1428
G1 X62.679 Y24.154 E.12141
M73 Q2 S8
G1 X15.137 Y24.154 E1.49066
M73 P2 R8
G1 X15.137 Y17.536 E.20752
M204 S1000
G1 X14.76 Y17.098 F10800
M204 S800
G1 F1200
G1 X62.732 Y17.098 E1.50413
G1 X66.78 Y18.253 E.13198
M73 P3 R8
M73 Q3 S8
G1 X66.78 Y23.377 E.16065
G1 X62.732 Y24.531 E.13198
G1 X14.76 Y24.531 E1.50413
G1 X14.76 Y17.158 E.23117
M204 S1000
M73 C5
G1 X14.383 Y16.721 F10800
M204 S800
;TYPE:External perimeter
G1 F1200
G1 X62.785 Y16.721 E1.51761
G1 X67.157 Y17.968 E.14256
M73 P4 R7
M73 Q4 S8
M73 D5
G1 X67.157 Y23.661 E.17849
G1 X62.785 Y24.908 E.14256
G1 X14.383 Y24.908 E1.51761
M73 Q4 S7
G1 X14.383 Y16.781 E.25482
M204 S1000
G1 X14.782 Y16.744 F10800
;WIPE_START
G1 F8640
M73 Q5 S7
G1 X17.674 Y16.777 E-.76
;WIPE_END
G1 E-.04 F2100
G1 Z.6 F720
G1 X65.217 Y18.317 F10800
M73 P5 R7
G1 Z.2 F720
G1 E.8 F2100
M204 S800
;TYPE:Solid infill
;WIDTH:0.420012
G1 F1200
G1 X66.12 Y19.22 E.04005
G1 X66.12 Y19.753 E.01672
G1 X64.718 Y18.351 E.06219
G1 X63.972 Y18.138 E.02433
G1 X66.12 Y20.287 E.09527
G1 X66.12 Y20.82 E.01672
G1 X63.226 Y17.925 E.12836
G1 X62.64 Y17.758 E.0191
G1 X62.525 Y17.758 E.00359
G1 X66.12 Y21.353 E.15941
G1 X66.12 Y21.887 E.01672
G1 X61.992 Y17.758 E.18306
G1 X61.459 Y17.758 E.01672
G1 X66.12 Y22.42 E.20671
G1 X66.12 Y22.879 E.01439
G1 X66.062 Y22.895 E.00189
G1 X60.925 Y17.758 E.22779
G1 X60.392 Y17.758 E.01672
G1 X65.647 Y23.014 E.23303
G1 X65.233 Y23.132 E.01353
G1 X59.859 Y17.758 E.23828
G1 X59.326 Y17.758 E.01672
G1 X64.818 Y23.25 E.24353
G1 X64.403 Y23.369 E.01353
G1 X58.792 Y17.758 E.24878
G1 X58.259 Y17.758 E.01672
G1 X63.988 Y23.487 E.25403
G1 X63.573 Y23.605 E.01353
M73 Q6 S7
G1 X57.726 Y17.758 E.25927
G1 X57.192 Y17.758 E.01672
M73 P6 R7
G1 X63.158 Y23.724 E.26452
G1 X62.743 Y23.842 E.01353
G1 X56.659 Y17.758 E.26977
G1 X56.126 Y17.758 E.01672
G1 X62.239 Y23.871 E.27107
G1 X61.706 Y23.871 E.01672
G1 X55.593 Y17.758 E.27107
G1 X55.059 Y17.758 E.01672
G1 X61.172 Y23.871 E.27107
G1 X60.639 Y23.871 E.01672
G1 X54.526 Y17.758 E.27107
G1 X53.993 Y17.758 E.01672
G1 X60.106 Y23.871 E.27107
G1 X59.573 Y23.871 E.01672
G1 X53.459 Y17.758 E.27107
G1 X52.926 Y17.758 E.01672
G1 X59.039 Y23.871 E.27107
G1 X58.506 Y23.871 E.01672
G1 X52.393 Y17.758 E.27107
G1 X51.86 Y17.758 E.01672
M73 Q7 S7
G1 X57.973 Y23.871 E.27107
G1 X57.439 Y23.871 E.01672
M73 P7 R7
G1 X51.326 Y17.758 E.27107
G1 X50.793 Y17.758 E.01672
G1 X56.906 Y23.871 E.27107
G1 X56.373 Y23.871 E.01672
G1 X50.26 Y17.758 E.27107
G1 X49.726 Y17.758 E.01672
G1 X55.839 Y23.871 E.27107
G1 X55.306 Y23.871 E.01672
G1 X49.193 Y17.758 E.27107
G1 X48.66 Y17.758 E.01672
G1 X54.773 Y23.871 E.27107
G1 X54.24 Y23.871 E.01672
G1 X48.127 Y17.758 E.27107
G1 X47.593 Y17.758 E.01672
G1 X53.706 Y23.871 E.27107
G1 X53.173 Y23.871 E.01672
G1 X47.06 Y17.758 E.27107
G1 X46.527 Y17.758 E.01672
G1 X52.64 Y23.871 E.27107
G1 X52.106 Y23.871 E.01672
M73 P8 R7
M73 Q8 S7
G1 X45.993 Y17.758 E.27107
G1 X45.46 Y17.758 E.01672
G1 X51.573 Y23.871 E.27107
G1 X51.04 Y23.871 E.01672
G1 X44.927 Y17.758 E.27107
G1 X44.394 Y17.758 E.01672
G1 X50.507 Y23.871 E.27107
G1 X49.973 Y23.871 E.01672
G1 X43.86 Y17.758 E.27107
G1 X43.327 Y17.758 E.01672
G1 X49.44 Y23.871 E.27107
G1 X48.907 Y23.871 E.01672
G1 X42.794 Y17.758 E.27107
G1 X42.26 Y17.758 E.01672
G1 X48.373 Y23.871 E.27107
G1 X47.84 Y23.871 E.01672
G1 X41.727 Y17.758 E.27107
G1 X41.194 Y17.758 E.01672
G1 X47.307 Y23.871 E.27107
G1 X46.774 Y23.871 E.01672
M73 Q9 S7
G1 X40.661 Y17.758 E.27107
G1 X40.127 Y17.758 E.01672
M73 P9 R7
G1 X46.24 Y23.871 E.27107
G1 X45.707 Y23.871 E.01672
G1 X39.594 Y17.758 E.27107
G1 X39.061 Y17.758 E.01672
G1 X45.174 Y23.871 E.27107
G1 X44.64 Y23.871 E.01672
G1 X38.527 Y17.758 E.27107
G1 X37.994 Y17.758 E.01672
G1 X44.107 Y23.871 E.27107
G1 X43.574 Y23.871 E.01672
G1 X37.461 Y17.758 E.27107
G1 X36.927 Y17.758 E.01672
G1 X43.041 Y23.871 E.27107
G1 X42.507 Y23.871 E.01672
G1 X36.394 Y17.758 E.27107
G1 X35.861 Y17.758 E.01672
G1 X41.974 Y23.871 E.27107
G1 X41.441 Y23.871 E.01672
G1 X35.328 Y17.758 E.27107
G1 X34.794 Y17.758 E.01672
M73 P10 R7
M73 Q10 S7
G1 X40.907 Y23.871 E.27107
G1 X40.374 Y23.871 E.01672
G1 X34.261 Y17.758 E.27107
G1 X33.728 Y17.758 E.01672
G1 X39.841 Y23.871 E.27107
G1 X39.308 Y23.871 E.01672
G1 X33.194 Y17.758 E.27107
G1 X32.661 Y17.758 E.01672
G1 X38.774 Y23.871 E.27107
G1 X38.241 Y23.871 E.01672
G1 X32.128 Y17.758 E.27107
G1 X31.595 Y17.758 E.01672
G1 X37.708 Y23.871 E.27107
G1 X37.174 Y23.871 E.01672
G1 X31.061 Y17.758 E.27107
G1 X30.528 Y17.758 E.01672
G1 X36.641 Y23.871 E.27107
G1 X36.108 Y23.871 E.01672
G1 X29.995 Y17.758 E.27107
G1 X29.461 Y17.758 E.01672
G1 X35.575 Y23.871 E.27107
G1 X35.041 Y23.871 E.01672
M73 P11 R7
M73 Q11 S7
G1 X28.928 Y17.758 E.27107
G1 X28.395 Y17.758 E.01672
G1 X34.508 Y23.871 E.27107
G1 X33.975 Y23.871 E.01672
G1 X27.862 Y17.758 E.27107
G1 X27.328 Y17.758 E.01672
G1 X33.441 Y23.871 E.27107
G1 X32.908 Y23.871 E.01672
G1 X26.795 Y17.758 E.27107
G1 X26.262 Y17.758 E.01672
G1 X32.375 Y23.871 E.27107
G1 X31.842 Y23.871 E.01672
G1 X25.728 Y17.758 E.27107
G1 X25.195 Y17.758 E.01672
G1 X31.308 Y23.871 E.27107
G1 X30.775 Y23.871 E.01672
G1 X24.662 Y17.758 E.27107
G1 X24.129 Y17.758 E.01672
G1 X30.242 Y23.871 E.27107
G1 X29.708 Y23.871 E.01672
M73 P12 R7
M73 Q12 S7
G1 X23.595 Y17.758 E.27107
G1 X23.062 Y17.758 E.01672
G1 X29.175 Y23.871 E.27107
G1 X28.642 Y23.871 E.01672
G1 X22.529 Y17.758 E.27107
G1 X21.995 Y17.758 E.01672
G1 X28.108 Y23.871 E.27107
G1 X27.575 Y23.871 E.01672
G1 X21.462 Y17.758 E.27107
G1 X20.929 Y17.758 E.01672
G1 X27.042 Y23.871 E.27107
G1 X26.509 Y23.871 E.01672
G1 X20.396 Y17.758 E.27107
G1 X19.862 Y17.758 E.01672
G1 X25.975 Y23.871 E.27107
G1 X25.442 Y23.871 E.01672
G1 X19.329 Y17.758 E.27107
G1 X18.796 Y17.758 E.01672
G1 X24.909 Y23.871 E.27107
G1 X24.375 Y23.871 E.01672
G1 X18.262 Y17.758 E.27107
G1 X17.729 Y17.758 E.01672
M73 P13 R7
M73 Q13 S7
G1 X23.842 Y23.871 E.27107
G1 X23.309 Y23.871 E.01672
G1 X17.196 Y17.758 E.27107
G1 X16.663 Y17.758 E.01672
G1 X22.776 Y23.871 E.27107
G1 X22.242 Y23.871 E.01672
G1 X16.129 Y17.758 E.27107
G1 X15.596 Y17.758 E.01672
G1 X21.709 Y23.871 E.27107
G1 X21.176 Y23.871 E.01672
G1 X15.42 Y18.116 E.25523
G1 X15.42 Y18.649 E.01672
G1 X20.642 Y23.871 E.23158
G1 X20.109 Y23.871 E.01672
G1 X15.42 Y19.182 E.20793
G1 X15.42 Y19.715 E.01672
G1 X19.576 Y23.871 E.18429
G1 X19.043 Y23.871 E.01672
G1 X15.42 Y20.249 E.16064
G1 X15.42 Y20.782 E.01672
G1 X18.509 Y23.871 E.13699
G1 X17.976 Y23.871 E.01672
G1 X15.42 Y21.315 E.11334
G1 X15.42 Y21.849 E.01672
M73 P14 R7
M73 Q14 S7
G1 X17.443 Y23.871 E.0897
G1 X16.909 Y23.871 E.01672
G1 X15.42 Y22.382 E.06605
G1 X15.42 Y22.915 E.01672
G1 X16.376 Y23.871 E.0424
G1 X15.843 Y23.871 E.01672
G1 X15.25 Y23.279 E.02628
M204 S1000
; stop printing object Mine Sign Insert.stl id:0 copy 0
M106 S84.15
;LAYER_CHANGE
;Z:0.4
;HEIGHT:0.2
;BEFORE_LAYER_CHANGE
G92 E0.0
;0.4


;WIPE_START
G1 F8640
G1 X15.843 Y23.871 E-.19351
G1 X16.376 Y23.871 E-.12314
G1 X15.42 Y22.915 E-.31224
G1 X15.42 Y22.382 E-.12314
G1 X15.444 Y22.406 E-.00797
;WIPE_END
G1 E-.04 F2100
G1 Z.6 F720
;AFTER_LAYER_CHANGE
;0.4
; printing object Mine Sign Insert.stl id:0 copy 0
G1 X15.012 Y24.279 F10800
G1 Z.4 F720
G1 E.8 F2100
M204 S800
;TYPE:Perimeter
;WIDTH:0.45
G1 F2700
G1 X15.012 Y17.351 E.23453
G1 X62.697 Y17.351 E1.61408
G1 X66.528 Y18.443 E.13485
G1 X66.528 Y23.186 E.16055
G1 X62.697 Y24.279 E.13485
G1 X15.072 Y24.279 E1.61204
M204 S1000
G1 X14.605 Y24.686 F10800
M204 S800
G1 F2700
G1 X14.605 Y16.943 E.26209
G1 X62.754 Y16.943 E1.62978
G1 X66.935 Y18.136 E.14718
M73 P15 R7
G1 X66.935 Y23.494 E.18135
M73 Q15 S7
G1 X62.754 Y24.686 E.14718
G1 X14.665 Y24.686 E1.62775
M204 S1000
G1 X14.198 Y25.093 F10800
M204 S800
;TYPE:External perimeter
G1 F1500
G1 X14.198 Y16.536 E.28964
G1 X62.811 Y16.536 E1.64549
G1 X67.342 Y17.829 E.1595
M73 C4
G1 X67.342 Y23.801 E.20215
G1 X62.811 Y25.093 E.1595
M73 P15 R6
G1 X14.258 Y25.093 E1.64346
M204 S1000
G1 X14.395 Y24.745 F10800
;WIPE_START
M73 P16 R6
M73 Q16 S7
M73 D4
G1 F8640
G1 X14.235 Y21.802 E-.76
;WIPE_END
G1 E-.04 F2100
G1 Z.8 F720
G1 X65.236 Y23.428 F10800
G1 Z.4 F720
M73 Q16 S6
G1 E.8 F2100
;TYPE:Solid infill
;WIDTH:0.453978
G1 F4800
G1 X66.223 Y22.441 E.0477
G1 X66.223 Y21.86 E.01987
G1 X64.689 Y23.393 E.07413
G1 X63.876 Y23.625 E.02891
G1 X66.223 Y21.278 E.11345
G1 X66.223 Y20.697 E.01987
G1 X63.063 Y23.857 E.15276
G1 X62.654 Y23.974 E.01451
G1 X62.365 Y23.974 E.00989
G1 X66.223 Y20.116 E.18649
G1 X66.223 Y19.534 E.01987
G1 X61.783 Y23.974 E.21459
G1 X61.202 Y23.974 E.01987
G1 X66.223 Y18.953 E.24269
G1 X66.223 Y18.674 E.00955
G1 X65.988 Y18.607 E.00835
G1 X60.621 Y23.974 E.25944
G1 X60.04 Y23.974 E.01987
G1 X65.536 Y18.478 E.26567
G1 X65.083 Y18.349 E.01608
G1 X59.458 Y23.974 E.27191
G1 X58.877 Y23.974 E.01987
G1 X64.631 Y18.22 E.27814
G1 X64.179 Y18.091 E.01608
G1 X58.296 Y23.974 E.28438
G1 X57.714 Y23.974 E.01987
G1 X63.726 Y17.962 E.29062
G1 X63.274 Y17.833 E.01608
G1 X57.133 Y23.974 E.29685
G1 X56.552 Y23.974 E.01987
G1 X62.822 Y17.704 E.30309
G1 X62.654 Y17.656 E.00596
G1 X62.288 Y17.656 E.01251
G1 X55.97 Y23.974 E.3054
G1 X55.389 Y23.974 E.01987
M73 Q17 S6
G1 X61.707 Y17.656 E.3054
G1 X61.126 Y17.656 E.01987
M73 P17 R6
G1 X54.808 Y23.974 E.3054
G1 X54.226 Y23.974 E.01987
G1 X60.544 Y17.656 E.3054
G1 X59.963 Y17.656 E.01987
G1 X53.645 Y23.974 E.3054
G1 X53.064 Y23.974 E.01987
G1 X59.382 Y17.656 E.3054
G1 X58.8 Y17.656 E.01987
G1 X52.482 Y23.974 E.3054
G1 X51.901 Y23.974 E.01987
G1 X58.219 Y17.656 E.3054
G1 X57.638 Y17.656 E.01987
G1 X51.32 Y23.974 E.3054
G1 X50.738 Y23.974 E.01987
G1 X57.056 Y17.656 E.3054
G1 X56.475 Y17.656 E.01987
G1 X50.157 Y23.974 E.3054
G1 X49.576 Y23.974 E.01987
G1 X55.894 Y17.656 E.3054
G1 X55.312 Y17.656 E.01987
G1 X48.994 Y23.974 E.3054
G1 X48.413 Y23.974 E.01987
G1 X54.731 Y17.656 E.3054
G1 X54.15 Y17.656 E.01987
G1 X47.832 Y23.974 E.3054
G1 X47.25 Y23.974 E.01987
G1 X53.568 Y17.656 E.3054
G1 X52.987 Y17.656 E.01987
G1 X46.669 Y23.974 E.3054
G1 X46.088 Y23.974 E.01987
G1 X52.406 Y17.656 E.3054
G1 X51.824 Y17.656 E.01987
G1 X45.506 Y23.974 E.3054
G1 X44.925 Y23.974 E.01987
G1 X51.243 Y17.656 E.3054
G1 X50.662 Y17.656 E.01987
G1 X44.344 Y23.974 E.3054
G1 X43.762 Y23.974 E.01987
G1 X50.081 Y17.656 E.3054
G1 X49.499 Y17.656 E.01987
G1 X43.181 Y23.974 E.3054
G1 X42.6 Y23.974 E.01987
G1 X48.918 Y17.656 E.3054
G1 X48.337 Y17.656 E.01987
G1 X42.018 Y23.974 E.3054
G1 X41.437 Y23.974 E.01987
G1 X47.755 Y17.656 E.3054
G1 X47.174 Y17.656 E.01987
M73 P18 R6
M73 Q18 S6
G1 X40.856 Y23.974 E.3054
G1 X40.275 Y23.974 E.01987
G1 X46.593 Y17.656 E.3054
G1 X46.011 Y17.656 E.01987
G1 X39.693 Y23.974 E.3054
G1 X39.112 Y23.974 E.01987
G1 X45.43 Y17.656 E.3054
G1 X44.849 Y17.656 E.01987
G1 X38.531 Y23.974 E.3054
G1 X37.949 Y23.974 E.01987
G1 X44.267 Y17.656 E.3054
G1 X43.686 Y17.656 E.01987
G1 X37.368 Y23.974 E.3054
G1 X36.787 Y23.974 E.01987
G1 X43.105 Y17.656 E.3054
G1 X42.523 Y17.656 E.01987
G1 X36.205 Y23.974 E.3054
G1 X35.624 Y23.974 E.01987
G1 X41.942 Y17.656 E.3054
G1 X41.361 Y17.656 E.01987
G1 X35.043 Y23.974 E.3054
G1 X34.461 Y23.974 E.01987
G1 X40.779 Y17.656 E.3054
G1 X40.198 Y17.656 E.01987
G1 X33.88 Y23.974 E.3054
G1 X33.299 Y23.974 E.01987
G1 X39.617 Y17.656 E.3054
G1 X39.035 Y17.656 E.01987
G1 X32.717 Y23.974 E.3054
G1 X32.136 Y23.974 E.01987
G1 X38.454 Y17.656 E.3054
G1 X37.873 Y17.656 E.01987
G1 X31.555 Y23.974 E.3054
G1 X30.973 Y23.974 E.01987
G1 X37.291 Y17.656 E.3054
G1 X36.71 Y17.656 E.01987
G1 X30.392 Y23.974 E.3054
G1 X29.811 Y23.974 E.01987
G1 X36.129 Y17.656 E.3054
G1 X35.547 Y17.656 E.01987
G1 X29.229 Y23.974 E.3054
G1 X28.648 Y23.974 E.01987
G1 X34.966 Y17.656 E.3054
G1 X34.385 Y17.656 E.01987
G1 X28.067 Y23.974 E.3054
G1 X27.485 Y23.974 E.01987
G1 X33.803 Y17.656 E.3054
G1 X33.222 Y17.656 E.01987
M73 P19 R6
M73 Q19 S6
G1 X26.904 Y23.974 E.3054
G1 X26.323 Y23.974 E.01987
G1 X32.641 Y17.656 E.3054
G1 X32.059 Y17.656 E.01987
G1 X25.741 Y23.974 E.3054
G1 X25.16 Y23.974 E.01987
G1 X31.478 Y17.656 E.3054
G1 X30.897 Y17.656 E.01987
G1 X24.579 Y23.974 E.3054
G1 X23.997 Y23.974 E.01987
G1 X30.315 Y17.656 E.3054
G1 X29.734 Y17.656 E.01987
G1 X23.416 Y23.974 E.3054
G1 X22.835 Y23.974 E.01987
G1 X29.153 Y17.656 E.3054
G1 X28.572 Y17.656 E.01987
G1 X22.253 Y23.974 E.3054
G1 X21.672 Y23.974 E.01987
G1 X27.99 Y17.656 E.3054
G1 X27.409 Y17.656 E.01987
G1 X21.091 Y23.974 E.3054
G1 X20.509 Y23.974 E.01987
G1 X26.828 Y17.656 E.3054
G1 X26.246 Y17.656 E.01987
G1 X19.928 Y23.974 E.3054
G1 X19.347 Y23.974 E.01987
G1 X25.665 Y17.656 E.3054
G1 X25.084 Y17.656 E.01987
G1 X18.766 Y23.974 E.3054
G1 X18.184 Y23.974 E.01987
G1 X24.502 Y17.656 E.3054
G1 X23.921 Y17.656 E.01987
G1 X17.603 Y23.974 E.3054
G1 X17.022 Y23.974 E.01987
G1 X23.34 Y17.656 E.3054
G1 X22.758 Y17.656 E.01987
G1 X16.44 Y23.974 E.3054
G1 X15.859 Y23.974 E.01987
G1 X22.177 Y17.656 E.3054
G1 X21.596 Y17.656 E.01987
G1 X15.317 Y23.934 E.30347
G1 X15.317 Y23.353 E.01987
G1 X21.014 Y17.656 E.27537
G1 X20.433 Y17.656 E.01987
G1 X15.317 Y22.771 E.24727
G1 X15.317 Y22.19 E.01987
G1 X19.852 Y17.656 E.21917
G1 X19.27 Y17.656 E.01987
M73 P20 R6
G1 X15.317 Y21.609 E.19107
M73 Q20 S6
G1 X15.317 Y21.027 E.01987
G1 X18.689 Y17.656 E.16297
G1 X18.108 Y17.656 E.01987
G1 X15.317 Y20.446 E.13487
G1 X15.317 Y19.865 E.01987
G1 X17.526 Y17.656 E.10677
G1 X16.945 Y17.656 E.01987
G1 X15.317 Y19.283 E.07867
G1 X15.317 Y18.702 E.01987
G1 X16.364 Y17.656 E.05057
G1 X15.782 Y17.656 E.01987
G1 X15.134 Y18.304 E.03133
; stop printing object Mine Sign Insert.stl id:0 copy 0
M106 S170.85
;LAYER_CHANGE
;Z:0.6
;HEIGHT:0.2
;BEFORE_LAYER_CHANGE
G92 E0.0
;0.6


;WIPE_START
G1 F8640
G1 X15.782 Y17.656 E-.21165
G1 X16.364 Y17.656 E-.13423
G1 X15.317 Y18.702 E-.34166
G1 X15.317 Y19.016 E-.07247
;WIPE_END
G1 E-.04 F2100
G1 Z.8 F720
;AFTER_LAYER_CHANGE
;0.6
; printing object Mine Sign Insert.stl id:0 copy 0
G1 X15.012 Y17.351 F10800
G1 Z.6 F720
G1 E.8 F2100
M204 S800
;TYPE:Perimeter
;WIDTH:0.45
G1 F2700
G1 X62.697 Y17.351 E1.61408
G1 X66.528 Y18.443 E.13485
G1 X66.528 Y23.186 E.16055
G1 X62.697 Y24.279 E.13485
G1 X15.012 Y24.279 E1.61408
G1 X15.012 Y17.411 E.2325
M204 S1000
G1 X14.605 Y16.943 F10800
M204 S800
G1 F2700
G1 X62.754 Y16.943 E1.62978
G1 X66.935 Y18.136 E.14718
M73 P21 R6
M73 Q21 S6
