; generated by PrusaSlicer 2.5.0+win64 on 2022-11-09 at 20:24:24 UTC

; 

; external perimeters extrusion width = 0.45mm
; perimeters extrusion width = 0.45mm
; infill extrusion width = 0.45mm
; solid infill extrusion width = 0.45mm
; top infill extrusion width = 0.40mm
; first layer extrusion width = 0.42mm

; external perimeters extrusion width = 0.45mm
; perimeters extrusion width = 0.45mm
; infill extrusion width = 0.45mm
; solid infill extrusion width = 0.45mm
; top infill extrusion width = 0.40mm
; first layer extrusion width = 0.42mm

M73 P0 R108
M73 Q0 S109
M107
;TYPE:Custom
M862.3 P "MK3S" ; printer model check
M862.1 P0.4 ; nozzle diameter check
M115 U3.9.3 ; tell printer latest fw version
G90 ; use absolute coordinates
M83 ; extruder relative mode
M104 S215 ; set extruder temp
M140 S60 ; set bed temp
M190 S60 ; wait for bed temp
M109 S215 ; wait for extruder temp
G28 W ; home all without mesh bed level
G80 ; mesh bed leveling
G1 Y-3.0 F1000.0 ; go outside print area
G92 E0.0
G1 X60.0 E9.0 F1000.0 ; intro line
G1 X100.0 E12.5 F1000.0 ; intro line
G92 E0.0
M221 S95

; Don't change E values below. Excessive value can damage the printer.
M907 E430 ; set extruder motor current
G21 ; set units to millimeters
G90 ; use absolute coordinates
M83 ; use relative distances for extrusion
M900 K0.05 ; Filament gcode LA 1.5
M900 K30 ; Filament gcode LA 1.0
M107
;LAYER_CHANGE
;Z:0.2
;HEIGHT:0.2
;BEFORE_LAYER_CHANGE
G92 E0.0
;0.2


G1 E-.8 F2100
G1 Z.4 F10800
;AFTER_LAYER_CHANGE
;0.2
G1 X73.817 Y57.239
G1 Z.2
G1 E.8 F2100
M204 S1000
;TYPE:Skirt/Brim
;WIDTH:0.42
G1 F1200
G1 X84.747 Y45.877 E.4943
G1 X85.939 Y45.038 E.0457
G1 X87.255 Y44.413 E.0457
G1 X88.659 Y44.019 E.0457
G1 X89.706 Y43.885 E.0331
G1 X91.108 Y43.91 E.04397
G1 X92.98 Y44.304 E.06
G1 X94.32 Y44.879 E.0457
G1 X95.543 Y45.672 E.0457
G1 X165.833 Y107.777 E2.94092
G1 X176.188 Y118.649 E.47076
G1 X176.843 Y120.287 E.05532
G1 X176.843 Y163.76 E1.36305
G1 X176.452 Y165.067 E.04278
G1 X175.406 Y165.943 E.04278
G1 X174.466 Y166.137 E.03008
G1 X110.281 Y166.137 E2.01247
G1 X108.974 Y165.746 E.04278
G1 X108.213 Y164.931 E.03497
G1 X73.465 Y103.526 E2.21218
G1 X73.157 Y102.355 E.03796
G1 X73.157 Y58.883 E1.36305
G1 X73.795 Y57.294 E.05367
; printing object cam 03-8090 id:0 copy 2
;WIPE_START
G1 F8640
G1 X76.073 Y54.919 E-.76
;WIPE_END
G1 E-.04 F2100
G1 Z.6 F10800
G1 X75.944 Y59.293
G1 Z.2
G1 E.8 F2100
;TYPE:External perimeter
;WIDTH:0.419999
G1 F1200
G1 X84.093 Y59.293 E.2555
G1 X84.211 Y59.251 E.00395
G1 X84.281 Y59.103 E.00513
G1 X84.265 Y56.909 E.06879
G1 X84.088 Y55.53 E.0436
G1 X84.182 Y55.192 E.011
G1 X84.329 Y55.353 E.00683
G1 X84.544 Y55.838 E.01664
G1 X84.729 Y56.326 E.01637
G1 X85.163 Y56.957 E.02401
G1 X85.943 Y57.717 E.03416
G1 X86.887 Y58.37 E.03597
G1 X87.555 Y58.705 E.02344
G1 X88.261 Y58.966 E.02359
G1 X89.291 Y59.196 E.0331
G1 X90.1 Y59.268 E.02547
G1 X91.219 Y59.204 E.03513
G1 X92.307 Y58.959 E.03498
G1 X93.012 Y58.694 E.02359
G1 X93.971 Y58.177 E.03417
G1 X94.596 Y57.721 E.02425
G1 X95.149 Y57.213 E.02355
G1 X95.594 Y56.682 E.0217
G1 X95.836 Y56.285 E.0146
G1 X96.171 Y55.439 E.02853
G1 X96.364 Y55.199 E.00964
G1 X96.447 Y55.461 E.00862
G1 X96.277 Y56.934 E.04648
G1 X96.262 Y59.103 E.06801
G1 X96.313 Y59.233 E.00438
G1 X96.451 Y59.293 E.0047
G1 X104.561 Y59.293 E.2543
G1 X104.561 Y101.945 E1.33734
G1 X75.944 Y101.945 E.89728
G1 X75.944 Y59.353 E1.33546
;WIPE_START
G1 F8640
G1 X79.235 Y59.329 E-.76
;WIPE_END
G1 E-.04 F2100
G1 Z.6 F10800
G1 X103.68 Y59.406
G1 Z.2
G1 E.8 F2100
;TYPE:Solid infill
;WIDTH:0.422684
G1 F1200
G1 X104.279 Y60.004 E.02672
G1 X104.279 Y60.541 E.01696
G1 X103.313 Y59.576 E.04312
G1 X102.776 Y59.576 E.01696
G1 X104.279 Y61.078 E.06711
G1 X104.279 Y61.615 E.01696
G1 X102.239 Y59.576 E.09109
G1 X101.702 Y59.576 E.01696
G1 X104.279 Y62.152 E.11508
G1 X104.279 Y62.69 E.01696
G1 X101.165 Y59.576 E.13906
G1 X100.628 Y59.576 E.01696
G1 X104.279 Y63.227 E.16304
G1 X104.279 Y63.764 E.01696
G1 X100.09 Y59.576 E.18703
G1 X99.553 Y59.576 E.01696
G1 X104.279 Y64.301 E.21101
G1 X104.279 Y64.838 E.01696
G1 X99.016 Y59.576 E.235
G1 X98.479 Y59.576 E.01696
G1 X104.279 Y65.375 E.25898
G1 X104.279 Y65.912 E.01696
G1 X97.942 Y59.576 E.28296
G1 X97.405 Y59.576 E.01696
M73 Q0 S108
G1 X104.279 Y66.449 E.30695
G1 X104.279 Y66.986 E.01696
G1 X96.698 Y59.406 E.33851
;WIPE_START
G1 F8640
G1 X99.026 Y61.733 E-.76
;WIPE_END
G1 E-.04 F2100
G1 Z.6 F10800
G1 X96.181 Y56.74
G1 Z.2
G1 E.8 F2100
G1 F1200
G1 X95.997 Y56.571 E.00789
G1 X95.873 Y56.782 E.00772
G1 X95.788 Y56.884 E.00421
G1 X95.994 Y57.09 E.0092
G1 X95.99 Y57.623 E.01684
G1 X95.543 Y57.176 E.01995
G1 X95.294 Y57.465 E.01202
G1 X95.986 Y58.157 E.0309
G1 X95.982 Y58.69 E.01684
G1 X95.013 Y57.721 E.04328
G1 X94.73 Y57.975 E.01201
G1 X104.279 Y67.523 E.4264
G1 X104.279 Y68.06 E.01696
G1 X94.42 Y58.202 E.44025
G1 X94.104 Y58.423 E.01218
G1 X104.279 Y68.597 E.45435
G1 X104.279 Y69.134 E.01696
G1 X93.756 Y58.612 E.4699
G1 X93.408 Y58.801 E.01251
G1 X104.279 Y69.671 E.48544
G1 X104.279 Y70.208 E.01696
G1 X93.05 Y58.98 E.50143
G1 X92.66 Y59.127 E.01317
G1 X104.279 Y70.746 E.51885
G1 X104.279 Y71.283 E.01696
G1 X92.257 Y59.261 E.53685
G1 X91.818 Y59.359 E.01421
G1 X104.279 Y71.82 E.55647
G1 X104.279 Y72.357 E.01696
G1 X91.378 Y59.457 E.57609
G1 X91.241 Y59.487 E.00444
G1 X90.891 Y59.506 E.01107
G1 X104.279 Y72.894 E.59784
G1 X104.279 Y73.431 E.01696
G1 X90.382 Y59.535 E.62056
G1 X90.093 Y59.551 E.00916
G1 X89.841 Y59.53 E.00798
G1 X104.279 Y73.968 E.64474
G1 X104.279 Y74.505 E.01696
G1 X89.249 Y59.476 E.67117
G1 X88.558 Y59.322 E.02236
G1 X104.279 Y75.042 E.70204
G1 X104.279 Y75.579 E.01696
M73 P0 R107
G1 X87.794 Y59.095 E.73614
G1 X87.434 Y58.961 E.01215
G1 X86.802 Y58.64 E.02238
G1 X104.279 Y76.116 E.78045
G1 X104.279 Y76.653 E.01696
G1 X84.549 Y56.924 E.88106
G1 X84.553 Y57.465 E.01708
G1 X104.279 Y77.19 E.88088
G1 X104.279 Y77.727 E.01696
G1 X84.557 Y58.006 E.88072
G1 X84.56 Y58.546 E.01707
G1 X104.279 Y78.264 E.88056
G1 X104.279 Y78.802 E.01696
G1 X84.564 Y59.087 E.8804
G1 X84.511 Y59.326 E.00774
G1 X84.401 Y59.461 E.00549
G1 X104.279 Y79.339 E.88768
G1 X104.279 Y79.876 E.01696
G1 X83.978 Y59.576 E.90655
G1 X83.441 Y59.576 E.01696
M73 P1 R107
G1 X104.279 Y80.413 E.93053
G1 X104.279 Y80.95 E.01696
M73 Q1 S108
G1 X82.904 Y59.576 E.95452
G1 X82.367 Y59.576 E.01696
G1 X104.279 Y81.487 E.9785
G1 X104.279 Y82.024 E.01696
G1 X81.83 Y59.576 E1.00248
G1 X81.293 Y59.576 E.01696
G1 X104.279 Y82.561 E1.02647
G1 X104.279 Y83.098 E.01696
G1 X80.756 Y59.576 E1.05045
G1 X80.219 Y59.576 E.01696
G1 X104.279 Y83.635 E1.07444
G1 X104.279 Y84.172 E.01696
G1 X79.682 Y59.576 E1.09842
G1 X79.145 Y59.576 E.01696
G1 X104.279 Y84.709 E1.1224
G1 X104.279 Y85.246 E.01696
G1 X78.608 Y59.576 E1.14639
G1 X78.071 Y59.576 E.01696
G1 X104.279 Y85.783 E1.17037
G1 X104.279 Y86.32 E.01696
G1 X77.534 Y59.576 E1.19436
G1 X76.997 Y59.576 E.01696
G1 X104.279 Y86.858 E1.21834
G1 X104.279 Y87.395 E.01696
G1 X76.46 Y59.576 E1.24232
G1 X76.227 Y59.576 E.00735
G1 X76.227 Y59.88 E.00961
G1 X104.279 Y87.932 E1.25272
G1 X104.279 Y88.469 E.01696
G1 X76.227 Y60.417 E1.25272
G1 X76.227 Y60.954 E.01696
G1 X104.279 Y89.006 E1.25272
G1 X104.279 Y89.543 E.01696
G1 X76.227 Y61.491 E1.25272
G1 X76.227 Y62.028 E.01696
M73 Q1 S107
G1 X104.279 Y90.08 E1.25272
G1 X104.279 Y90.617 E.01696
G1 X76.227 Y62.565 E1.25272
G1 X76.227 Y63.102 E.01696
G1 X104.279 Y91.154 E1.25272
G1 X104.279 Y91.691 E.01696
G1 X76.227 Y63.639 E1.25272
G1 X76.227 Y64.176 E.01696
G1 X104.279 Y92.228 E1.25272
G1 X104.279 Y92.765 E.01696
G1 X76.227 Y64.714 E1.25272
G1 X76.227 Y65.251 E.01696
G1 X104.279 Y93.302 E1.25272
G1 X104.279 Y93.839 E.01696
G1 X76.227 Y65.788 E1.25272
G1 X76.227 Y66.325 E.01696
M73 P1 R106
G1 X104.279 Y94.376 E1.25272
G1 X104.279 Y94.914 E.01696
G1 X76.227 Y66.862 E1.25272
G1 X76.227 Y67.399 E.01696
G1 X104.279 Y95.451 E1.25272
G1 X104.279 Y95.988 E.01696
G1 X76.227 Y67.936 E1.25272
G1 X76.227 Y68.473 E.01696
G1 X104.279 Y96.525 E1.25272
G1 X104.279 Y97.062 E.01696
G1 X76.227 Y69.01 E1.25272
G1 X76.227 Y69.547 E.01696
G1 X104.279 Y97.599 E1.25272
G1 X104.279 Y98.136 E.01696
G1 X76.227 Y70.084 E1.25272
G1 X76.227 Y70.621 E.01696
G1 X104.279 Y98.673 E1.25272
G1 X104.279 Y99.21 E.01696
M73 P2 R106
M73 Q2 S107
G1 X76.227 Y71.158 E1.25272
G1 X76.227 Y71.695 E.01696
G1 X104.279 Y99.747 E1.25272
G1 X104.279 Y100.284 E.01696
G1 X76.227 Y72.232 E1.25272
G1 X76.227 Y72.77 E.01696
G1 X104.279 Y100.821 E1.25272
G1 X104.279 Y101.358 E.01696
G1 X76.227 Y73.307 E1.25272
G1 X76.227 Y73.844 E.01696
G1 X104.046 Y101.663 E1.24232
G1 X103.509 Y101.663 E.01696
G1 X76.227 Y74.381 E1.21834
G1 X76.227 Y74.918 E.01696
G1 X102.972 Y101.663 E1.19435
G1 X102.435 Y101.663 E.01696
G1 X76.227 Y75.455 E1.17037
G1 X76.227 Y75.992 E.01696
G1 X101.897 Y101.663 E1.14638
G1 X101.36 Y101.663 E.01696
G1 X76.227 Y76.529 E1.1224
G1 X76.227 Y77.066 E.01696
G1 X100.823 Y101.663 E1.09842
G1 X100.286 Y101.663 E.01696
G1 X76.227 Y77.603 E1.07443
G1 X76.227 Y78.14 E.01696
M73 Q2 S106
G1 X99.749 Y101.663 E1.05045
G1 X99.212 Y101.663 E.01696
G1 X76.227 Y78.677 E1.02646
G1 X76.227 Y79.214 E.01696
G1 X98.675 Y101.663 E1.00248
G1 X98.138 Y101.663 E.01696
G1 X76.227 Y79.751 E.9785
G1 X76.227 Y80.288 E.01696
G1 X97.601 Y101.663 E.95451
G1 X97.064 Y101.663 E.01696
G1 X76.227 Y80.826 E.93053
G1 X76.227 Y81.363 E.01696
G1 X96.527 Y101.663 E.90654
G1 X95.99 Y101.663 E.01696
G1 X76.227 Y81.9 E.88256
G1 X76.227 Y82.437 E.01696
G1 X95.453 Y101.663 E.85858
G1 X94.916 Y101.663 E.01696
G1 X76.227 Y82.974 E.83459
G1 X76.227 Y83.511 E.01696
M73 P2 R105
G1 X94.379 Y101.663 E.81061
G1 X93.841 Y101.663 E.01696
G1 X76.227 Y84.048 E.78662
G1 X76.227 Y84.585 E.01696
G1 X93.304 Y101.663 E.76264
G1 X92.767 Y101.663 E.01696
G1 X76.227 Y85.122 E.73866
G1 X76.227 Y85.659 E.01696
G1 X92.23 Y101.663 E.71467
G1 X91.693 Y101.663 E.01696
G1 X76.227 Y86.196 E.69069
G1 X76.227 Y86.733 E.01696
G1 X91.156 Y101.663 E.6667
G1 X90.619 Y101.663 E.01696
G1 X76.227 Y87.27 E.64272
G1 X76.227 Y87.807 E.01696
G1 X90.082 Y101.663 E.61874
G1 X89.545 Y101.663 E.01696
G1 X76.227 Y88.344 E.59475
G1 X76.227 Y88.882 E.01696
G1 X89.008 Y101.663 E.57077
G1 X88.471 Y101.663 E.01696
G1 X76.227 Y89.419 E.54678
G1 X76.227 Y89.956 E.01696
G1 X87.934 Y101.663 E.5228
G1 X87.397 Y101.663 E.01696
G1 X76.227 Y90.493 E.49882
G1 X76.227 Y91.03 E.01696
G1 X86.86 Y101.663 E.47483
G1 X86.323 Y101.663 E.01696
G1 X76.227 Y91.567 E.45085
G1 X76.227 Y92.104 E.01696
G1 X85.785 Y101.663 E.42686
G1 X85.248 Y101.663 E.01696
G1 X76.227 Y92.641 E.40288
G1 X76.227 Y93.178 E.01696
G1 X84.711 Y101.663 E.3789
G1 X84.174 Y101.663 E.01696
G1 X76.227 Y93.715 E.35491
G1 X76.227 Y94.252 E.01696
G1 X83.637 Y101.663 E.33093
G1 X83.1 Y101.663 E.01696
G1 X76.227 Y94.789 E.30694
G1 X76.227 Y95.326 E.01696
G1 X82.563 Y101.663 E.28296
G1 X82.026 Y101.663 E.01696
G1 X76.227 Y95.863 E.25898
G1 X76.227 Y96.4 E.01696
G1 X81.489 Y101.663 E.23499
G1 X80.952 Y101.663 E.01696
G1 X76.227 Y96.938 E.21101
G1 X76.227 Y97.475 E.01696
G1 X80.415 Y101.663 E.18702
G1 X79.878 Y101.663 E.01696
G1 X76.227 Y98.012 E.16304
G1 X76.227 Y98.549 E.01696
G1 X79.341 Y101.663 E.13906
G1 X78.804 Y101.663 E.01696
G1 X76.227 Y99.086 E.11507
G1 X76.227 Y99.623 E.01696
M73 P3 R105
G1 X78.266 Y101.663 E.09109
G1 X77.729 Y101.663 E.01696
G1 X76.227 Y100.16 E.0671
G1 X76.227 Y100.697 E.01696
G1 X77.192 Y101.663 E.04312
G1 X76.655 Y101.663 E.01696
G1 X76.057 Y101.064 E.02671
;WIPE_START
G1 F8640
G1 X76.655 Y101.663 E-.19534
G1 X77.192 Y101.663 E-.12401
G1 X76.227 Y100.697 E-.31531
G1 X76.227 Y100.16 E-.12401
G1 X76.231 Y100.164 E-.00133
;WIPE_END
G1 E-.04 F2100
G1 Z.6 F10800
G1 X87.423 Y57.086
G1 Z.2
M73 Q3 S106
G1 E.8 F2100
;TYPE:Perimeter
;WIDTH:0.419999
G1 F1200
G1 X86.682 Y56.538 E.02889
G1 X86.045 Y55.873 E.02889
G1 X85.529 Y55.109 E.02889
G1 X85.149 Y54.27 E.02889
G1 X84.917 Y53.378 E.02889
G1 X84.839 Y52.46 E.02889
G1 X84.917 Y51.542 E.02889
G1 X85.149 Y50.65 E.02889
G1 X85.529 Y49.81 E.02889
G1 X86.045 Y49.047 E.02889
G1 X86.682 Y48.381 E.02889
G1 X87.423 Y47.833 E.02889
G1 X88.246 Y47.418 E.02889
G1 X89.127 Y47.149 E.02889
G1 X90.041 Y47.032 E.02889
G1 X90.962 Y47.071 E.02889
G1 X91.863 Y47.265 E.02889
G1 X92.718 Y47.608 E.02889
G1 X93.503 Y48.092 E.02889
G1 X94.194 Y48.7 E.02889
G1 X94.773 Y49.417 E.02889
G1 X95.223 Y50.222 E.02889
G1 X95.53 Y51.091 E.02889
G1 X95.681 Y51.971 E.02801
G1 X95.706 Y52.49 E.01628
G1 X95.688 Y52.904 E.01299
G1 X95.53 Y53.829 E.02942
G1 X95.223 Y54.698 E.02889
G1 X94.773 Y55.502 E.02889
G1 X94.194 Y56.219 E.02889
G1 X93.503 Y56.828 E.02889
G1 X92.718 Y57.311 E.02889
G1 X91.907 Y57.637 E.02741
G1 X90.96 Y57.849 E.03042
G1 X90.041 Y57.888 E.02882
G1 X89.127 Y57.771 E.02889
G1 X88.246 Y57.501 E.02889
G1 X87.477 Y57.113 E.02701
G1 X87.225 Y57.408 F10800
;TYPE:External perimeter
G1 F1200
G1 X86.432 Y56.822 E.03091
G1 X85.75 Y56.111 E.03091
G1 X85.198 Y55.294 E.03091
G1 X84.792 Y54.396 E.03091
G1 X84.544 Y53.442 E.03091
G1 X84.46 Y52.46 E.03091
G1 X84.544 Y51.478 E.03091
G1 X84.792 Y50.524 E.03091
G1 X85.198 Y49.626 E.03091
G1 X85.75 Y48.809 E.03091
G1 X86.432 Y48.097 E.03091
G1 X87.225 Y47.511 E.03091
G1 X88.105 Y47.067 E.03091
G1 X89.047 Y46.779 E.03091
G1 X90.025 Y46.654 E.03091
G1 X91.01 Y46.695 E.03091
G1 X91.974 Y46.903 E.0309
G1 X92.888 Y47.271 E.03091
G1 X93.728 Y47.787 E.03091
G1 X94.467 Y48.439 E.03091
G1 X95.087 Y49.205 E.03091
G1 X95.567 Y50.066 E.03091
G1 X95.896 Y50.995 E.03091
G1 X96.064 Y51.976 E.03118
G1 X96.083 Y52.506 E.01664
G1 X96.064 Y52.944 E.01375
G1 X95.896 Y53.924 E.03118
G1 X95.567 Y54.854 E.03091
G1 X95.087 Y55.714 E.03091
G1 X94.468 Y56.481 E.03091
G1 X93.728 Y57.132 E.03091
G1 X92.888 Y57.649 E.03091
G1 X92.019 Y57.998 E.02938
G1 X91.009 Y58.224 E.03244
G1 X90.025 Y58.266 E.03088
G1 X89.047 Y58.141 E.03091
G1 X88.105 Y57.852 E.03091
G1 X87.278 Y57.435 E.02902
G1 X87.236 Y57.009 F10800
;WIPE_START
G1 F8640
G1 X86.432 Y56.822 E-.24127
G1 X85.75 Y56.111 E-.2276
G1 X85.198 Y55.294 E-.2276
G1 X85.085 Y55.043 E-.06353
;WIPE_END
G1 E-.04 F2100
G1 Z.6 F10800
G1 X87.61 Y55.473
G1 Z.2
G1 E.8 F2100
;TYPE:Perimeter
G1 F1200
G1 X87.171 Y55.025 E.01965
G1 X86.782 Y54.464 E.0214
G1 X86.493 Y53.846 E.0214
G1 X86.313 Y53.187 E.0214
G1 X86.247 Y52.508 E.0214
G1 X86.303 Y51.779 E.02291
G1 X86.461 Y51.164 E.01991
G1 X86.735 Y50.539 E.0214
G1 X87.111 Y49.969 E.0214
G1 X87.577 Y49.471 E.0214
G1 X88.121 Y49.058 E.0214
G1 X88.727 Y48.744 E.0214
G1 X89.377 Y48.536 E.0214
G1 X90.053 Y48.441 E.0214
G1 X90.735 Y48.462 E.0214
G1 X91.404 Y48.598 E.0214
G1 X92.041 Y48.845 E.0214
G1 X92.626 Y49.196 E.0214
G1 X93.144 Y49.641 E.0214
G1 X93.579 Y50.167 E.0214
G1 X93.919 Y50.758 E.0214
G1 X94.154 Y51.399 E.0214
G1 X94.277 Y52.066 E.02126
G1 X94.285 Y52.758 E.02169
G1 X94.178 Y53.427 E.02126
G1 X93.959 Y54.074 E.0214
G1 X93.633 Y54.674 E.0214
G1 X93.21 Y55.21 E.0214
G1 X92.703 Y55.667 E.0214
G1 X92.126 Y56.032 E.0214
G1 X91.496 Y56.294 E.0214
G1 X90.831 Y56.445 E.0214
G1 X90.149 Y56.483 E.0214
G1 X89.471 Y56.404 E.0214
G1 X88.816 Y56.212 E.0214
G1 X88.203 Y55.912 E.0214
G1 X87.652 Y55.515 E.02127
;WIPE_START
G1 F8640
G1 X87.171 Y55.025 E-.15857
G1 X86.782 Y54.464 E-.15762
G1 X86.493 Y53.846 E-.15762
G1 X86.313 Y53.187 E-.15762
G1 X86.26 Y52.633 E-.12857
;WIPE_END
G1 E-.04 F2100
G1 Z.6 F10800
G1 X87.094 Y54.253
G1 Z.2
G1 E.8 F2100
;TYPE:External perimeter
G1 F1200
G1 X86.837 Y53.69 E.0194
G1 X86.678 Y53.092 E.0194
G1 X86.623 Y52.476 E.0194
G1 X86.675 Y51.843 E.0199
G1 X86.826 Y51.259 E.01891
G1 X87.079 Y50.694 E.0194
G1 X87.423 Y50.18 E.0194
G1 X87.849 Y49.731 E.0194
G1 X88.345 Y49.361 E.0194
G1 X88.897 Y49.08 E.0194
G1 X89.488 Y48.896 E.0194
G1 X90.101 Y48.815 E.0194
G1 X90.719 Y48.839 E.0194
G1 X91.325 Y48.966 E.0194
G1 X91.9 Y49.195 E.0194
G1 X92.429 Y49.517 E.0194
G1 X92.895 Y49.924 E.0194
G1 X93.286 Y50.403 E.0194
G1 X93.59 Y50.942 E.0194
G1 X93.799 Y51.525 E.0194
G1 X93.905 Y52.13 E.01926
G1 X93.908 Y52.758 E.0197
G1 X93.807 Y53.364 E.01926
G1 X93.603 Y53.948 E.0194
G1 X93.304 Y54.49 E.0194
G1 X92.917 Y54.973 E.0194
G1 X92.454 Y55.384 E.0194
G1 X91.929 Y55.711 E.0194
G1 X91.356 Y55.944 E.0194
