; generated by PrusaSlicer 2.2.0+win64 on 2022-01-12 at 16:40:26 UTC

; 

; external perimeters extrusion width = 0.45mm
; perimeters extrusion width = 0.45mm
; infill extrusion width = 0.45mm
; solid infill extrusion width = 0.45mm
; top infill extrusion width = 0.40mm
; first layer extrusion width = 0.42mm

M73 P0 R50
M73 Q0 S50
M201 X1000 Y1000 Z200 E5000 ; sets maximum accelerations, mm/sec^2
M203 X200 Y200 Z12 E120 ; sets maximum feedrates, mm/sec
M204 P1250 R1250 T1250 ; sets acceleration (P, T) and retract acceleration (R), mm/sec^2
M205 X8.00 Y8.00 Z0.40 E4.50 ; sets the jerk limits, mm/sec
M205 S0 T0 ; sets the minimum extruding and travel feed rate, mm/sec
M107
M862.3 P "MK3S" ; printer model check
M862.1 P0.4 ; nozzle diameter check
G90 ; use absolute coordinates
M83 ; extruder relative mode
M104 S225 ; set extruder temp
M140 S60 ; set bed temp
M190 S60 ; wait for bed temp
M109 S225 ; wait for extruder temp
G28 W ; home all without mesh bed level
G80 ; mesh bed leveling
G1 Y-3.0 F1000.0 ; go outside print area
G92 E0.0
G1 X60.0 E9.0 F1000.0 ; intro line
M73 Q0 S50
M73 P0 R50
G1 X100.0 E12.5 F1000.0 ; intro line
G92 E0.0
M221 S95

; Don't change E values below. Excessive value can damage the printer.
M907 E430 ; set extruder motor current
G21 ; set units to millimeters
G90 ; use absolute coordinates
M83 ; use relative distances for extrusion
M900 K0.05 ; Filament gcode LA 1.5
M900 K30 ; Filament gcode LA 1.0
;BEFORE_LAYER_CHANGE
G92 E0.0
;0.2


G1 E-0.80000 F2100.00000
G1 Z0.400 F10800.000
;AFTER_LAYER_CHANGE
;0.2
G1 X70.263 Y32.765
G1 Z0.200
G1 E0.80000 F2100.00000
M204 S750
G1 F900.000
G1 X70.596 Y32.109 E0.02308
G1 X70.971 Y31.700 E0.01740
G1 X71.431 Y31.389 E0.01740
G1 X71.950 Y31.193 E0.01740
G1 X72.500 Y31.123 E0.01740
G1 X177.504 Y31.123 E3.29230
G1 X178.406 Y31.302 E0.02884
G1 X179.169 Y31.808 E0.02872
G1 X179.687 Y32.568 E0.02884
G1 X179.877 Y33.468 E0.02884
G1 X179.876 Y176.508 E4.48490
G1 X179.759 Y177.235 E0.02308
G1 X179.426 Y177.891 E0.02308
G1 X179.048 Y178.302 E0.01752
G1 X178.585 Y178.614 E0.01752
G1 X178.062 Y178.810 E0.01752
G1 X177.511 Y178.877 E0.01740
G1 X72.489 Y178.877 E3.29290
G1 X71.762 Y178.760 E0.02308
G1 X71.110 Y178.428 E0.02296
G1 X70.698 Y178.050 E0.01752
G1 X70.386 Y177.587 E0.01752
G1 X70.191 Y177.063 E0.01752
G1 X70.123 Y176.509 E0.01752
G1 X70.146 Y33.492 E4.48421
G1 X70.253 Y32.824 E0.02119
M204 S1000
; printing object DrakeBuildingDiffuser.stl id:0 copy 0
G1 F8640.000
G1 X70.596 Y32.109 E-0.18318
G1 X70.971 Y31.700 E-0.12812
G1 X71.431 Y31.389 E-0.12812
G1 X71.950 Y31.193 E-0.12812
G1 X72.500 Y31.123 E-0.12812
G1 X72.779 Y31.123 E-0.06436
G1 E-0.04000 F2100.00000
G1 Z0.600 F10800.000
G1 X123.357 Y117.944
G1 Z0.200
G1 E0.80000 F2100.00000
M204 S750
G1 F900.000
G1 X123.967 Y117.592 E0.02208
G1 X124.647 Y117.410 E0.02208
G1 X125.351 Y117.410 E0.02208
G1 X126.031 Y117.592 E0.02208
G1 X126.641 Y117.944 E0.02208
G1 X127.139 Y118.442 E0.02208
G1 X127.491 Y119.052 E0.02208
G1 X127.673 Y119.732 E0.02208
G1 X127.673 Y120.436 E0.02208
G1 X127.491 Y121.116 E0.02208
G1 X127.139 Y121.726 E0.02208
G1 X126.641 Y122.224 E0.02208
G1 X126.031 Y122.576 E0.02208
G1 X125.351 Y122.758 E0.02208
G1 X124.647 Y122.758 E0.02208
G1 X123.967 Y122.576 E0.02208
G1 X123.357 Y122.224 E0.02208
G1 X122.859 Y121.726 E0.02208
G1 X122.507 Y121.116 E0.02208
G1 X122.325 Y120.436 E0.02208
G1 X122.325 Y119.732 E0.02208
G1 X122.507 Y119.052 E0.02208
G1 X122.859 Y118.442 E0.02208
G1 X123.315 Y117.986 E0.02020
M204 S1000
G1 X123.581 Y118.253 F10800.000
M204 S750
G1 F900.000
G1 X124.112 Y117.943 E0.01928
G1 X124.697 Y117.787 E0.01896
G1 X125.301 Y117.787 E0.01896
G1 X125.886 Y117.943 E0.01896
G1 X126.409 Y118.246 E0.01896
G1 X126.837 Y118.673 E0.01896
G1 X127.139 Y119.197 E0.01896
G1 X127.296 Y119.781 E0.01896
G1 X127.296 Y120.386 E0.01896
G1 X127.139 Y120.971 E0.01896
G1 X126.837 Y121.494 E0.01896
G1 X126.409 Y121.922 E0.01896
G1 X125.886 Y122.224 E0.01896
G1 X125.301 Y122.381 E0.01896
G1 X124.697 Y122.381 E0.01896
G1 X124.112 Y122.224 E0.01896
G1 X123.589 Y121.922 E0.01896
G1 X123.161 Y121.494 E0.01896
G1 X122.858 Y120.971 E0.01896
G1 X122.702 Y120.386 E0.01896
G1 X122.702 Y119.782 E0.01896
G1 X122.858 Y119.197 E0.01896
G1 X123.161 Y118.673 E0.01896
G1 X123.539 Y118.296 E0.01676
M204 S1000
G1 X123.528 Y117.857 F10800.000
G1 F8640.000
G1 X124.112 Y117.943 E-0.15541
G1 X124.697 Y117.787 E-0.13966
G1 X125.301 Y117.787 E-0.13966
G1 X125.886 Y117.943 E-0.13966
G1 X126.409 Y118.246 E-0.13966
G1 X126.550 Y118.387 E-0.04596
G1 E-0.04000 F2100.00000
G1 Z0.600 F10800.000
G1 X107.287 Y109.287
G1 Z0.200
G1 E0.80000 F2100.00000
M204 S750
G1 F900.000
G1 X107.287 Y64.905 E1.39157
G1 X90.287 Y64.905 E0.53301
G1 X90.287 Y58.722 E0.19388
G1 X73.311 Y58.722 E0.53228
G1 X73.311 Y34.287 E0.76614
G1 X176.713 Y34.287 E3.24210
G1 X176.713 Y58.722 E0.76614
G1 X159.713 Y58.722 E0.53302
G1 X159.713 Y64.911 E0.19404
G1 X142.711 Y64.911 E0.53309
G1 X142.712 Y109.287 E1.39141
M73 Q2 S49
M73 P2 R49
G1 X176.711 Y109.287 E1.06602
G1 X176.711 Y175.713 E2.08273
G1 X73.287 Y175.713 E3.24279
G1 X73.287 Y109.287 E2.08273
G1 X107.227 Y109.287 E1.06414
M204 S1000
G1 X106.910 Y108.910 F10800.000
M204 S750
G1 F900.000
G1 X106.910 Y65.282 E1.36793
G1 X89.910 Y65.282 E0.53301
G1 X89.910 Y59.099 E0.19388
G1 X72.933 Y59.099 E0.53228
G1 X72.933 Y33.910 E0.78978
G1 X177.090 Y33.910 E3.26575
G1 X177.090 Y59.099 E0.78978
G1 X160.090 Y59.099 E0.53302
G1 X160.090 Y65.288 E0.19404
G1 X143.088 Y65.288 E0.53309
G1 X143.089 Y108.910 E1.36776
G1 X177.088 Y108.910 E1.06602
G1 X177.088 Y176.090 E2.10637
G1 X72.910 Y176.090 E3.26644
G1 X72.910 Y108.910 E2.10637
M73 Q4 S48
M73 P4 R48
G1 X106.850 Y108.910 E1.06414
M204 S1000
G1 X107.283 Y108.767 F10800.000
G1 F8640.000
G1 X106.854 Y105.619 E-0.76000
G1 E-0.04000 F2100.00000
G1 Z0.600 F10800.000
G1 X106.944 Y64.792
G1 Z0.200
G1 E0.80000 F2100.00000
M204 S750
G1 F900.000
G1 X76.722 Y34.570 E1.34141
G1 X76.188 Y34.570 E0.01675
G1 X106.241 Y64.623 E1.33388
G1 X105.707 Y64.623 E0.01675
G1 X75.654 Y34.570 E1.33388
G1 X75.121 Y34.570 E0.01675
G1 X105.173 Y64.623 E1.33388
G1 X104.640 Y64.623 E0.01675
G1 X74.587 Y34.570 E1.33388
G1 X74.053 Y34.570 E0.01675
G1 X104.106 Y64.623 E1.33388
G1 X103.572 Y64.623 E0.01675
G1 X73.593 Y34.644 E1.33059
G1 X73.593 Y35.178 E0.01675
G1 X103.038 Y64.623 E1.30690
G1 X102.504 Y64.623 E0.01675
G1 X73.593 Y35.711 E1.28320
G1 X73.593 Y36.245 E0.01675
G1 X101.971 Y64.623 E1.25951
G1 X101.437 Y64.623 E0.01675
G1 X73.593 Y36.779 E1.23582
G1 X73.593 Y37.313 E0.01675
G1 X100.903 Y64.623 E1.21213
G1 X100.369 Y64.623 E0.01675
G1 X73.593 Y37.847 E1.18844
G1 X73.593 Y38.380 E0.01675
G1 X99.835 Y64.623 E1.16474
G1 X99.302 Y64.623 E0.01675
G1 X73.593 Y38.914 E1.14105
G1 X73.593 Y39.448 E0.01675
G1 X98.768 Y64.623 E1.11736
G1 X98.234 Y64.623 E0.01675
G1 X73.593 Y39.982 E1.09367
G1 X73.593 Y40.516 E0.01675
G1 X97.700 Y64.623 E1.06998
G1 X97.167 Y64.623 E0.01675
G1 X73.593 Y41.049 E1.04628
G1 X73.593 Y41.583 E0.01675
G1 X96.633 Y64.623 E1.02259
G1 X96.099 Y64.623 E0.01675
G1 X90.570 Y59.093 E0.24541
G1 X90.570 Y59.627 E0.01675
G1 X95.565 Y64.623 E0.22172
G1 X95.031 Y64.623 E0.01675
G1 X90.570 Y60.161 E0.19803
G1 X90.570 Y60.695 E0.01675
G1 X94.498 Y64.623 E0.17434
G1 X93.964 Y64.623 E0.01675
G1 X90.570 Y61.228 E0.15064
G1 X90.570 Y61.762 E0.01675
G1 X93.430 Y64.623 E0.12695
G1 X92.896 Y64.623 E0.01675
G1 X90.570 Y62.296 E0.10326
G1 X90.570 Y62.830 E0.01675
G1 X92.362 Y64.623 E0.07957
G1 X91.829 Y64.623 E0.01675
G1 X90.570 Y63.364 E0.05588
G1 X90.570 Y63.897 E0.01675
G1 X91.295 Y64.623 E0.03219
G1 X90.761 Y64.623 E0.01675
G1 X90.400 Y64.261 E0.01602
M204 S1000
G1 F8640.000
G1 X90.761 Y64.623 E-0.11790
G1 X91.295 Y64.623 E-0.12325
G1 X90.570 Y63.897 E-0.23679
G1 X90.570 Y63.364 E-0.12325
G1 X91.056 Y63.850 E-0.15880
G1 E-0.04000 F2100.00000
G1 Z0.600 F10800.000
G1 X90.085 Y58.609
G1 Z0.200
G1 E0.80000 F2100.00000
M204 S750
G1 F900.000
G1 X73.593 Y42.117 E0.73198
M73 Q6 S47
M73 P6 R47
G1 X73.593 Y42.651 E0.01675
G1 X89.382 Y58.439 E0.70076
G1 X88.848 Y58.439 E0.01675
G1 X73.593 Y43.184 E0.67707
G1 X73.593 Y43.718 E0.01675
G1 X88.314 Y58.439 E0.65337
G1 X87.780 Y58.439 E0.01675
G1 X73.593 Y44.252 E0.62968
G1 X73.593 Y44.786 E0.01675
G1 X87.247 Y58.439 E0.60599
G1 X86.713 Y58.439 E0.01675
G1 X73.593 Y45.320 E0.58230
G1 X73.593 Y45.853 E0.01675
G1 X86.179 Y58.439 E0.55861
G1 X85.645 Y58.439 E0.01675
G1 X73.593 Y46.387 E0.53491
G1 X73.593 Y46.921 E0.01675
G1 X85.111 Y58.439 E0.51122
G1 X84.578 Y58.439 E0.01675
G1 X73.593 Y47.455 E0.48753
G1 X73.593 Y47.989 E0.01675
G1 X84.044 Y58.439 E0.46384
G1 X83.510 Y58.439 E0.01675
G1 X73.593 Y48.522 E0.44015
G1 X73.593 Y49.056 E0.01675
G1 X82.976 Y58.439 E0.41646
G1 X82.442 Y58.439 E0.01675
G1 X73.593 Y49.590 E0.39276
G1 X73.593 Y50.124 E0.01675
G1 X81.909 Y58.439 E0.36907
G1 X81.375 Y58.439 E0.01675
G1 X73.593 Y50.658 E0.34538
G1 X73.593 Y51.191 E0.01675
G1 X80.841 Y58.439 E0.32169
G1 X80.307 Y58.439 E0.01675
G1 X73.593 Y51.725 E0.29800
G1 X73.593 Y52.259 E0.01675
G1 X79.774 Y58.439 E0.27430
G1 X79.240 Y58.439 E0.01675
G1 X73.593 Y52.793 E0.25061
G1 X73.593 Y53.326 E0.01675
G1 X78.706 Y58.439 E0.22692
G1 X78.172 Y58.439 E0.01675
G1 X73.593 Y53.860 E0.20323
G1 X73.593 Y54.394 E0.01675
G1 X77.638 Y58.439 E0.17954
G1 X77.105 Y58.439 E0.01675
G1 X73.593 Y54.928 E0.15584
G1 X73.593 Y55.462 E0.01675
G1 X76.571 Y58.439 E0.13215
G1 X76.037 Y58.439 E0.01675
G1 X73.593 Y55.995 E0.10846
G1 X73.593 Y56.529 E0.01675
G1 X75.503 Y58.439 E0.08477
G1 X74.969 Y58.439 E0.01675
G1 X73.593 Y57.063 E0.06108
G1 X73.593 Y57.597 E0.01675
G1 X74.436 Y58.439 E0.03739
G1 X73.902 Y58.439 E0.01675
G1 X73.424 Y57.961 E0.02122
M204 S1000
G1 F8640.000
G1 X73.902 Y58.439 E-0.15616
G1 X74.436 Y58.439 E-0.12325
G1 X73.593 Y57.597 E-0.27505
G1 X73.593 Y57.063 E-0.12325
G1 X73.845 Y57.315 E-0.08229
G1 E-0.04000 F2100.00000
G1 Z0.600 F10800.000
G1 X176.600 Y35.163
G1 Z0.200
G1 E0.80000 F2100.00000
M204 S750
G1 F900.000
G1 X176.006 Y34.570 E0.02634
G1 X175.472 Y34.570 E0.01675
G1 X176.430 Y35.527 E0.04250
G1 X176.430 Y36.061 E0.01675
G1 X174.939 Y34.570 E0.06619
G1 X174.405 Y34.570 E0.01675
G1 X176.430 Y36.595 E0.08988
G1 X176.430 Y37.129 E0.01675
G1 X173.871 Y34.570 E0.11357
G1 X173.337 Y34.570 E0.01675
G1 X176.430 Y37.662 E0.13726
G1 X176.430 Y38.196 E0.01675
G1 X172.803 Y34.570 E0.16096
G1 X172.270 Y34.570 E0.01675
G1 X176.430 Y38.730 E0.18465
G1 X176.430 Y39.264 E0.01675
G1 X171.736 Y34.570 E0.20834
G1 X171.202 Y34.570 E0.01675
G1 X176.430 Y39.797 E0.23203
G1 X176.430 Y40.331 E0.01675
G1 X170.668 Y34.570 E0.25572
G1 X170.135 Y34.570 E0.01675
G1 X176.430 Y40.865 E0.27941
G1 X176.430 Y41.399 E0.01675
G1 X169.601 Y34.570 E0.30311
G1 X169.067 Y34.570 E0.01675
G1 X176.430 Y41.933 E0.32680
G1 X176.430 Y42.466 E0.01675
G1 X168.533 Y34.570 E0.35049
G1 X167.999 Y34.570 E0.01675
G1 X176.430 Y43.000 E0.37418
G1 X176.430 Y43.534 E0.01675
G1 X167.466 Y34.570 E0.39787
G1 X166.932 Y34.570 E0.01675
G1 X176.430 Y44.068 E0.42157
G1 X176.430 Y44.602 E0.01675
G1 X166.398 Y34.570 E0.44526
G1 X165.864 Y34.570 E0.01675
G1 X176.430 Y45.135 E0.46895
G1 X176.430 Y45.669 E0.01675
G1 X165.330 Y34.570 E0.49264
G1 X164.797 Y34.570 E0.01675
G1 X176.430 Y46.203 E0.51633
G1 X176.430 Y46.737 E0.01675
G1 X164.263 Y34.570 E0.54003
G1 X163.729 Y34.570 E0.01675
G1 X176.430 Y47.270 E0.56372
G1 X176.430 Y47.804 E0.01675
G1 X163.195 Y34.570 E0.58741
G1 X162.662 Y34.570 E0.01675
G1 X176.430 Y48.338 E0.61110
G1 X176.430 Y48.872 E0.01675
G1 X162.128 Y34.570 E0.63479
G1 X161.594 Y34.570 E0.01675
G1 X176.430 Y49.406 E0.65848
G1 X176.430 Y49.939 E0.01675
G1 X161.060 Y34.570 E0.68218
G1 X160.526 Y34.570 E0.01675
G1 X176.430 Y50.473 E0.70587
G1 X176.430 Y51.007 E0.01675
G1 X159.993 Y34.570 E0.72956
G1 X159.459 Y34.570 E0.01675
G1 X176.430 Y51.541 E0.75325
G1 X176.430 Y52.075 E0.01675
G1 X158.925 Y34.570 E0.77694
G1 X158.391 Y34.570 E0.01675
G1 X176.430 Y52.608 E0.80064
G1 X176.430 Y53.142 E0.01675
G1 X157.857 Y34.570 E0.82433
G1 X157.324 Y34.570 E0.01675
G1 X176.430 Y53.676 E0.84802
M73 Q8 S46
G1 X176.430 Y54.210 E0.01675
G1 X156.790 Y34.570 E0.87171
M73 P8 R46
G1 X156.256 Y34.570 E0.01675
G1 X176.430 Y54.744 E0.89540
G1 X176.430 Y55.277 E0.01675
G1 X155.722 Y34.570 E0.91910
G1 X155.189 Y34.570 E0.01675
G1 X176.430 Y55.811 E0.94279
G1 X176.430 Y56.345 E0.01675
G1 X154.655 Y34.570 E0.96648
G1 X154.121 Y34.570 E0.01675
G1 X176.430 Y56.879 E0.99017
G1 X176.430 Y57.412 E0.01675
G1 X153.587 Y34.570 E1.01386
G1 X153.053 Y34.570 E0.01675
G1 X176.430 Y57.946 E1.03755
G1 X176.430 Y58.439 E0.01547
G1 X176.389 Y58.439 E0.00129
G1 X152.520 Y34.570 E1.05943
G1 X151.986 Y34.570 E0.01675
G1 X175.855 Y58.439 E1.05943
G1 X175.321 Y58.439 E0.01675
G1 X151.452 Y34.570 E1.05943
G1 X150.918 Y34.570 E0.01675
G1 X174.788 Y58.439 E1.05943
G1 X174.254 Y58.439 E0.01675
G1 X150.384 Y34.570 E1.05943
G1 X149.851 Y34.570 E0.01675
G1 X173.720 Y58.439 E1.05943
G1 X173.186 Y58.439 E0.01675
G1 X149.317 Y34.570 E1.05943
G1 X148.783 Y34.570 E0.01675
G1 X172.652 Y58.439 E1.05943
G1 X172.119 Y58.439 E0.01675
G1 X148.249 Y34.570 E1.05943
G1 X147.716 Y34.570 E0.01675
G1 X171.585 Y58.439 E1.05943
G1 X171.051 Y58.439 E0.01675
G1 X147.182 Y34.570 E1.05943
G1 X146.648 Y34.570 E0.01675
G1 X170.517 Y58.439 E1.05943
G1 X169.983 Y58.439 E0.01675
G1 X146.114 Y34.570 E1.05943
G1 X145.580 Y34.570 E0.01675
G1 X169.450 Y58.439 E1.05943
G1 X168.916 Y58.439 E0.01675
G1 X145.047 Y34.570 E1.05943
G1 X144.513 Y34.570 E0.01675
G1 X168.382 Y58.439 E1.05943
G1 X167.848 Y58.439 E0.01675
G1 X143.979 Y34.570 E1.05943
G1 X143.445 Y34.570 E0.01675
G1 X167.315 Y58.439 E1.05943
G1 X166.781 Y58.439 E0.01675
G1 X142.911 Y34.570 E1.05943
M73 Q10 S45
G1 X142.378 Y34.570 E0.01675
G1 X166.247 Y58.439 E1.05943
M73 P10 R45
G1 X165.713 Y58.439 E0.01675
G1 X141.844 Y34.570 E1.05943
G1 X141.310 Y34.570 E0.01675
G1 X165.179 Y58.439 E1.05943
G1 X164.646 Y58.439 E0.01675
G1 X140.776 Y34.570 E1.05943
G1 X140.243 Y34.570 E0.01675
G1 X164.112 Y58.439 E1.05943
G1 X163.578 Y58.439 E0.01675
G1 X139.709 Y34.570 E1.05943
G1 X139.175 Y34.570 E0.01675
G1 X163.044 Y58.439 E1.05943
G1 X162.510 Y58.439 E0.01675
G1 X138.641 Y34.570 E1.05943
G1 X138.107 Y34.570 E0.01675
G1 X161.977 Y58.439 E1.05943
G1 X161.443 Y58.439 E0.01675
G1 X137.574 Y34.570 E1.05943
G1 X137.040 Y34.570 E0.01675
G1 X160.909 Y58.439 E1.05943
G1 X160.375 Y58.439 E0.01675
G1 X136.506 Y34.570 E1.05943
G1 X135.972 Y34.570 E0.01675
G1 X159.842 Y58.439 E1.05943
G1 X159.430 Y58.439 E0.01291
G1 X159.430 Y58.561 E0.00384
G1 X135.438 Y34.570 E1.06486
G1 X134.905 Y34.570 E0.01675
G1 X159.430 Y59.095 E1.08855
G1 X159.430 Y59.629 E0.01675
G1 X134.371 Y34.570 E1.11224
G1 X133.837 Y34.570 E0.01675
G1 X159.430 Y60.163 E1.13593
G1 X159.430 Y60.697 E0.01675
G1 X133.303 Y34.570 E1.15963
G1 X132.769 Y34.570 E0.01675
G1 X159.430 Y61.230 E1.18332
G1 X159.430 Y61.764 E0.01675
G1 X132.236 Y34.570 E1.20701
G1 X131.702 Y34.570 E0.01675
G1 X159.430 Y62.298 E1.23070
G1 X159.430 Y62.832 E0.01675
G1 X131.168 Y34.570 E1.25439
G1 X130.634 Y34.570 E0.01675
G1 X159.430 Y63.365 E1.27809
G1 X159.430 Y63.899 E0.01675
G1 X130.101 Y34.570 E1.30178
G1 X129.567 Y34.570 E0.01675
G1 X159.430 Y64.433 E1.32547
M73 Q12 S44
G1 X159.430 Y64.628 E0.00611
G1 X159.091 Y64.628 E0.01064
G1 X129.033 Y34.570 E1.33411
M73 P12 R44
G1 X128.499 Y34.570 E0.01675
G1 X158.557 Y64.628 E1.33411
G1 X158.023 Y64.628 E0.01675
G1 X127.965 Y34.570 E1.33411
G1 X127.432 Y34.570 E0.01675
G1 X157.490 Y64.628 E1.33411
G1 X156.956 Y64.628 E0.01675
G1 X126.898 Y34.570 E1.33411
G1 X126.364 Y34.570 E0.01675
G1 X156.422 Y64.628 E1.33411
G1 X155.888 Y64.628 E0.01675
G1 X125.830 Y34.570 E1.33411
G1 X125.296 Y34.570 E0.01675
G1 X155.354 Y64.628 E1.33411
G1 X154.821 Y64.628 E0.01675
G1 X124.763 Y34.570 E1.33411
G1 X124.229 Y34.570 E0.01675
G1 X154.287 Y64.628 E1.33411
G1 X153.753 Y64.628 E0.01675
G1 X123.695 Y34.570 E1.33411
G1 X123.161 Y34.570 E0.01675
G1 X153.219 Y64.628 E1.33411
G1 X152.686 Y64.628 E0.01675
G1 X122.628 Y34.570 E1.33411
G1 X122.094 Y34.570 E0.01675
G1 X152.152 Y64.628 E1.33411
G1 X151.618 Y64.628 E0.01675
