; generated by PrusaSlicer 2.4.1+win64 on 2022-08-05 at 21:40:04 UTC

; 

; external perimeters extrusion width = 0.45mm
; perimeters extrusion width = 0.45mm
; infill extrusion width = 0.45mm
; solid infill extrusion width = 0.45mm
; top infill extrusion width = 0.40mm
; first layer extrusion width = 0.42mm

M73 P0 R42
M73 Q0 S42
M107
;TYPE:Custom
M862.3 P "MK3S" ; printer model check
M862.1 P0.4 ; nozzle diameter check
G90 ; use absolute coordinates
M83 ; extruder relative mode
M104 S225 ; set extruder temp
M140 S60 ; set bed temp
M190 S60 ; wait for bed temp
M109 S225 ; wait for extruder temp
G28 W ; home all without mesh bed level
G80 ; mesh bed leveling
G1 Y-3.0 F1000.0 ; go outside print area
G92 E0.0
G1 X60.0 E9.0 F1000.0 ; intro line
G1 X100.0 E12.5 F1000.0 ; intro line
G92 E0.0
M221 S95

; Don't change E values below. Excessive value can damage the printer.
M907 E430 ; set extruder motor current
G21 ; set units to millimeters
G90 ; use absolute coordinates
M83 ; use relative distances for extrusion
M900 K0.05 ; Filament gcode LA 1.5
M900 K30 ; Filament gcode LA 1.0
M107
;LAYER_CHANGE
;Z:0.2
;HEIGHT:0.2
;BEFORE_LAYER_CHANGE
G92 E0.0
;0.2


G1 E-.8 F2100
G1 Z.4 F720
;AFTER_LAYER_CHANGE
;0.2
G1 X75.274 Y53.238 F10800
G1 Z.2 F720
G1 E.8 F2100
M204 S800
;TYPE:Skirt/Brim
;WIDTH:0.42
G1 F1200
G1 X76.87 Y52.623 E.05363
G1 X173.13 Y52.623 E3.01816
G1 X174.437 Y53.015 E.04278
G1 X175.432 Y54.406 E.05363
G1 X177.432 Y62.156 E.25096
G1 X177.507 Y62.75 E.01877
G1 X177.507 Y147.25 E2.64944
G1 X177.432 Y147.844 E.01877
G1 X175.432 Y155.594 E.25096
G1 X174.726 Y156.762 E.04278
G1 X173.13 Y157.377 E.05363
G1 X76.87 Y157.377 E3.01816
G1 X75.563 Y156.985 E.04278
G1 X74.568 Y155.594 E.05363
G1 X72.568 Y147.844 E.25096
G1 X72.493 Y147.25 E.01877
G1 X72.493 Y62.75 E2.64944
G1 X72.568 Y62.156 E.01877
M73 P1 R42
M73 Q1 S42
G1 X74.568 Y54.406 E.25096
G1 X75.243 Y53.29 E.0409
M204 S1000
; printing object Diffuser.stl id:0 copy 11
;WIPE_START
G1 F8640
M73 P1 R41
G1 X76.87 Y52.623 E-.40599
G1 X78.403 Y52.623 E-.35401
;WIPE_END
G1 E-.04 F2100
G1 Z.6 F720
G1 X148.497 Y135.287 F10800
G1 Z.2 F720
G1 E.8 F2100
M204 S800
;TYPE:Perimeter
G1 F1200
G1 X172.343 Y135.287 E.74767
G1 X172.343 Y143.037 E.243
G1 X174.343 Y143.037 E.06271
G1 X174.343 Y146.463 E.10741
G1 X172.343 Y146.463 E.06271
G1 X172.343 Y154.213 E.243
G1 X148.497 Y154.213 E.74767
M73 Q1 S41
G1 X148.497 Y146.463 E.243
G1 X146.497 Y146.463 E.06271
G1 X146.497 Y143.037 E.10741
G1 X148.497 Y143.037 E.06271
G1 X148.497 Y135.347 E.24111
M204 S1000
G1 X148.12 Y134.91 F10800
M204 S800
;TYPE:External perimeter
G1 F1200
G1 X172.72 Y134.91 E.77132
G1 X172.72 Y142.66 E.243
G1 X174.72 Y142.66 E.06271
G1 X174.72 Y146.84 E.13106
G1 X172.72 Y146.84 E.06271
G1 X172.72 Y154.59 E.243
G1 X148.12 Y154.59 E.77132
G1 X148.12 Y146.84 E.243
G1 X146.12 Y146.84 E.06271
G1 X146.12 Y142.66 E.13106
G1 X148.12 Y142.66 E.06271
G1 X148.12 Y134.97 E.24111
M204 S1000
G1 X148.448 Y135.138 F10800
;WIPE_START
G1 F8640
G1 X151.411 Y134.962 E-.76
;WIPE_END
G1 E-.04 F2100
G1 Z.6 F720
G1 X171.462 Y135.4 F10800
G1 Z.2 F720
G1 E.8 F2100
M204 S800
;TYPE:Solid infill
;WIDTH:0.422382
G1 F1200
G1 X172.06 Y135.998 E.02667
G1 X172.06 Y136.534 E.01693
G1 X171.096 Y135.57 E.04304
G1 X170.559 Y135.57 E.01693
G1 X172.06 Y137.071 E.06699
G1 X172.06 Y137.608 E.01693
G1 X170.022 Y135.57 E.09093
G1 X169.486 Y135.57 E.01693
G1 X172.06 Y138.144 E.11488
G1 X172.06 Y138.681 E.01693
G1 X168.949 Y135.57 E.13883
G1 X168.412 Y135.57 E.01693
G1 X172.06 Y139.218 E.16277
G1 X172.06 Y139.754 E.01693
G1 X167.876 Y135.57 E.18672
G1 X167.339 Y135.57 E.01693
G1 X172.06 Y140.291 E.21066
G1 X172.06 Y140.828 E.01693
G1 X166.802 Y135.57 E.23461
G1 X166.266 Y135.57 E.01693
G1 X172.06 Y141.364 E.25855
G1 X172.06 Y141.901 E.01693
G1 X165.729 Y135.57 E.2825
G1 X165.192 Y135.57 E.01693
G1 X172.23 Y142.607 E.31402
M204 S1000
;WIPE_START
G1 F8640
G1 X169.902 Y140.28 E-.76
;WIPE_END
G1 E-.04 F2100
G1 Z.6 F720
G1 X173.846 Y143.15 F10800
G1 Z.2 F720
G1 E.8 F2100
M204 S800
G1 F1200
G1 X174.06 Y143.364 E.00955
G1 X174.06 Y143.901 E.01693
G1 X173.479 Y143.32 E.02593
G1 X172.942 Y143.32 E.01693
G1 X174.06 Y144.438 E.04987
G1 X174.06 Y144.974 E.01693
G1 X172.406 Y143.32 E.07382
G1 X172.06 Y143.32 E.01091
G1 X172.06 Y142.974 E.01091
G1 X164.656 Y135.57 E.33039
G1 X164.119 Y135.57 E.01693
G1 X174.06 Y145.511 E.44358
G1 X174.06 Y146.047 E.01693
G1 X163.583 Y135.57 E.46753
G1 X163.046 Y135.57 E.01693
G1 X173.656 Y146.18 E.47345
G1 X173.12 Y146.18 E.01693
G1 X162.509 Y135.57 E.47345
G1 X161.973 Y135.57 E.01693
G1 X172.583 Y146.18 E.47345
G1 X172.06 Y146.18 E.01649
G1 X172.06 Y146.194 E.00044
G1 X161.436 Y135.57 E.47407
G1 X160.899 Y135.57 E.01693
G1 X172.06 Y146.731 E.49801
G1 X172.06 Y147.267 E.01693
G1 X160.363 Y135.57 E.52196
G1 X159.826 Y135.57 E.01693
G1 X172.06 Y147.804 E.54591
G1 X172.06 Y148.341 E.01693
M73 P2 R41
M73 Q2 S41
G1 X159.289 Y135.57 E.56985
G1 X158.753 Y135.57 E.01693
G1 X172.06 Y148.877 E.5938
G1 X172.06 Y149.414 E.01693
G1 X158.216 Y135.57 E.61774
G1 X157.68 Y135.57 E.01693
G1 X172.06 Y149.95 E.64169
G1 X172.06 Y150.487 E.01693
G1 X157.143 Y135.57 E.66563
G1 X156.606 Y135.57 E.01693
G1 X172.06 Y151.024 E.68958
G1 X172.06 Y151.56 E.01693
G1 X156.07 Y135.57 E.71353
G1 X155.533 Y135.57 E.01693
G1 X172.06 Y152.097 E.73747
G1 X172.06 Y152.634 E.01693
G1 X154.996 Y135.57 E.76142
G1 X154.46 Y135.57 E.01693
G1 X172.06 Y153.17 E.78536
G1 X172.06 Y153.707 E.01693
G1 X153.923 Y135.57 E.80931
G1 X153.386 Y135.57 E.01693
G1 X171.747 Y153.93 E.81927
G1 X171.21 Y153.93 E.01693
G1 X152.85 Y135.57 E.81927
G1 X152.313 Y135.57 E.01693
G1 X170.673 Y153.93 E.81927
G1 X170.137 Y153.93 E.01693
G1 X151.776 Y135.57 E.81927
G1 X151.24 Y135.57 E.01693
G1 X169.6 Y153.93 E.81927
G1 X169.063 Y153.93 E.01693
G1 X150.703 Y135.57 E.81927
G1 X150.167 Y135.57 E.01693
G1 X168.527 Y153.93 E.81927
G1 X167.99 Y153.93 E.01693
G1 X149.63 Y135.57 E.81927
G1 X149.093 Y135.57 E.01693
G1 X167.454 Y153.93 E.81927
G1 X166.917 Y153.93 E.01693
G1 X148.78 Y135.793 E.80931
G1 X148.78 Y136.33 E.01693
M73 P3 R41
M73 Q3 S41
G1 X166.38 Y153.93 E.78536
G1 X165.844 Y153.93 E.01693
G1 X148.78 Y136.866 E.76141
G1 X148.78 Y137.403 E.01693
G1 X165.307 Y153.93 E.73747
G1 X164.77 Y153.93 E.01693
G1 X148.78 Y137.94 E.71352
G1 X148.78 Y138.476 E.01693
G1 X164.234 Y153.93 E.68958
G1 X163.697 Y153.93 E.01693
G1 X148.78 Y139.013 E.66563
G1 X148.78 Y139.55 E.01693
G1 X163.16 Y153.93 E.64169
G1 X162.624 Y153.93 E.01693
G1 X148.78 Y140.086 E.61774
G1 X148.78 Y140.623 E.01693
G1 X162.087 Y153.93 E.59379
G1 X161.55 Y153.93 E.01693
M73 P3 R40
G1 X148.78 Y141.16 E.56985
G1 X148.78 Y141.696 E.01693
G1 X161.014 Y153.93 E.5459
G1 X160.477 Y153.93 E.01693
G1 X148.78 Y142.233 E.52196
G1 X148.78 Y142.769 E.01693
G1 X159.941 Y153.93 E.49801
G1 X159.404 Y153.93 E.01693
M73 Q3 S40
G1 X148.78 Y143.306 E.47406
G1 X148.78 Y143.32 E.00044
G1 X148.257 Y143.32 E.0165
G1 X158.867 Y153.93 E.47345
G1 X158.331 Y153.93 E.01693
G1 X147.72 Y143.32 E.47345
G1 X147.184 Y143.32 E.01693
G1 X157.794 Y153.93 E.47345
G1 X157.257 Y153.93 E.01693
G1 X146.78 Y143.453 E.46752
G1 X146.78 Y143.989 E.01693
G1 X156.721 Y153.93 E.44358
G1 X156.184 Y153.93 E.01693
G1 X148.78 Y146.526 E.33039
G1 X148.78 Y146.18 E.01091
G1 X148.434 Y146.18 E.01091
G1 X146.78 Y144.526 E.07381
G1 X146.78 Y145.063 E.01693
G1 X147.897 Y146.18 E.04987
G1 X147.361 Y146.18 E.01693
G1 X146.78 Y145.599 E.02592
G1 X146.78 Y146.136 E.01693
G1 X146.994 Y146.35 E.00955
M204 S1000
;WIPE_START
G1 F8640
G1 X146.78 Y146.136 E-.06987
G1 X146.78 Y145.599 E-.12391
G1 X147.361 Y146.18 E-.1897
G1 X147.897 Y146.18 E-.12391
G1 X147.124 Y145.407 E-.25261
;WIPE_END
G1 E-.04 F2100
G1 Z.6 F720
G1 X148.61 Y146.893 F10800
G1 Z.2 F720
G1 E.8 F2100
M204 S800
G1 F1200
G1 X155.647 Y153.93 E.31401
G1 X155.111 Y153.93 E.01693
G1 X148.78 Y147.599 E.2825
G1 X148.78 Y148.136 E.01693
G1 X154.574 Y153.93 E.25855
G1 X154.038 Y153.93 E.01693
G1 X148.78 Y148.672 E.23461
G1 X148.78 Y149.209 E.01693
G1 X153.501 Y153.93 E.21066
G1 X152.964 Y153.93 E.01693
G1 X148.78 Y149.746 E.18671
G1 X148.78 Y150.282 E.01693
G1 X152.428 Y153.93 E.16277
G1 X151.891 Y153.93 E.01693
G1 X148.78 Y150.819 E.13882
G1 X148.78 Y151.356 E.01693
G1 X151.354 Y153.93 E.11488
G1 X150.818 Y153.93 E.01693
G1 X148.78 Y151.892 E.09093
G1 X148.78 Y152.429 E.01693
G1 X150.281 Y153.93 E.06698
G1 X149.744 Y153.93 E.01693
G1 X148.78 Y152.966 E.04304
G1 X148.78 Y153.502 E.01693
G1 X149.377 Y154.1 E.02666
M204 S1000
; stop printing object Diffuser.stl id:0 copy 11
; printing object Diffuser.stl id:0 copy 3
;WIPE_START
G1 F8640
G1 X148.78 Y153.502 E-.19513
G1 X148.78 Y152.966 E-.12391
G1 X149.744 Y153.93 E-.31496
G1 X150.281 Y153.93 E-.12391
G1 X150.275 Y153.924 E-.00208
;WIPE_END
G1 E-.04 F2100
G1 Z.6 F720
G1 X172.343 Y116.537 F10800
G1 Z.2 F720
G1 E.8 F2100
M204 S800
;TYPE:Perimeter
;WIDTH:0.42
G1 F1200
M73 Q4 S40
G1 X174.343 Y116.537 E.06271
G1 X174.343 Y119.963 E.10741
G1 X172.343 Y119.963 E.06271
M73 P4 R40
G1 X172.343 Y127.713 E.243
G1 X148.497 Y127.713 E.74767
G1 X148.497 Y119.963 E.243
G1 X146.497 Y119.963 E.06271
G1 X146.497 Y116.537 E.10741
G1 X148.497 Y116.537 E.06271
G1 X148.497 Y108.787 E.243
G1 X172.343 Y108.787 E.74767
G1 X172.343 Y116.477 E.24111
M204 S1000
G1 X172.72 Y116.16 F10800
M204 S800
;TYPE:External perimeter
G1 F1200
G1 X174.72 Y116.16 E.06271
G1 X174.72 Y120.34 E.13106
G1 X172.72 Y120.34 E.06271
G1 X172.72 Y128.09 E.243
G1 X148.12 Y128.09 E.77132
G1 X148.12 Y120.34 E.243
G1 X146.12 Y120.34 E.06271
G1 X146.12 Y116.16 E.13106
G1 X148.12 Y116.16 E.06271
G1 X148.12 Y108.41 E.243
G1 X172.72 Y108.41 E.77132
G1 X172.72 Y116.1 E.24111
M204 S1000
G1 X172.884 Y116.525 F10800
;WIPE_START
G1 F8640
G1 X174.72 Y116.16 E-.46201
G1 X174.72 Y117.451 E-.29799
;WIPE_END
G1 E-.04 F2100
G1 Z.6 F720
G1 X171.462 Y108.9 F10800
G1 Z.2 F720
G1 E.8 F2100
M204 S800
;TYPE:Solid infill
;WIDTH:0.422382
G1 F1200
G1 X172.06 Y109.498 E.02667
G1 X172.06 Y110.034 E.01693
G1 X171.096 Y109.07 E.04304
G1 X170.559 Y109.07 E.01693
G1 X172.06 Y110.571 E.06699
G1 X172.06 Y111.108 E.01693
G1 X170.022 Y109.07 E.09093
G1 X169.486 Y109.07 E.01693
G1 X172.06 Y111.644 E.11488
G1 X172.06 Y112.181 E.01693
G1 X168.949 Y109.07 E.13883
G1 X168.412 Y109.07 E.01693
G1 X172.06 Y112.718 E.16277
G1 X172.06 Y113.254 E.01693
G1 X167.876 Y109.07 E.18672
G1 X167.339 Y109.07 E.01693
G1 X172.06 Y113.791 E.21066
G1 X172.06 Y114.328 E.01693
G1 X166.802 Y109.07 E.23461
G1 X166.266 Y109.07 E.01693
G1 X172.06 Y114.864 E.25855
G1 X172.06 Y115.401 E.01693
G1 X165.729 Y109.07 E.2825
G1 X165.192 Y109.07 E.01693
G1 X172.23 Y116.107 E.31402
M204 S1000
;WIPE_START
G1 F8640
G1 X169.902 Y113.78 E-.76
;WIPE_END
G1 E-.04 F2100
G1 Z.6 F720
G1 X173.846 Y116.65 F10800
G1 Z.2 F720
G1 E.8 F2100
M204 S800
G1 F1200
G1 X174.06 Y116.864 E.00955
G1 X174.06 Y117.401 E.01693
G1 X173.479 Y116.82 E.02593
G1 X172.942 Y116.82 E.01693
G1 X174.06 Y117.938 E.04987
G1 X174.06 Y118.474 E.01693
G1 X172.406 Y116.82 E.07382
G1 X172.06 Y116.82 E.01091
G1 X172.06 Y116.474 E.01091
G1 X164.656 Y109.07 E.33039
G1 X164.119 Y109.07 E.01693
G1 X174.06 Y119.011 E.44358
G1 X174.06 Y119.547 E.01693
G1 X163.583 Y109.07 E.46753
G1 X163.046 Y109.07 E.01693
G1 X173.656 Y119.68 E.47345
G1 X173.12 Y119.68 E.01693
G1 X162.509 Y109.07 E.47345
G1 X161.973 Y109.07 E.01693
G1 X172.583 Y119.68 E.47345
G1 X172.06 Y119.68 E.01649
G1 X172.06 Y119.694 E.00044
G1 X161.436 Y109.07 E.47407
G1 X160.899 Y109.07 E.01693
G1 X172.06 Y120.231 E.49801
G1 X172.06 Y120.767 E.01693
G1 X160.363 Y109.07 E.52196
G1 X159.826 Y109.07 E.01693
G1 X172.06 Y121.304 E.54591
G1 X172.06 Y121.841 E.01693
G1 X159.289 Y109.07 E.56985
G1 X158.753 Y109.07 E.01693
G1 X172.06 Y122.377 E.5938
G1 X172.06 Y122.914 E.01693
G1 X158.216 Y109.07 E.61774
G1 X157.68 Y109.07 E.01693
M73 P5 R40
M73 Q5 S40
G1 X172.06 Y123.45 E.64169
G1 X172.06 Y123.987 E.01693
G1 X157.143 Y109.07 E.66563
G1 X156.606 Y109.07 E.01693
G1 X172.06 Y124.524 E.68958
G1 X172.06 Y125.06 E.01693
G1 X156.07 Y109.07 E.71353
G1 X155.533 Y109.07 E.01693
G1 X172.06 Y125.597 E.73747
G1 X172.06 Y126.134 E.01693
G1 X154.996 Y109.07 E.76142
G1 X154.46 Y109.07 E.01693
G1 X172.06 Y126.67 E.78536
G1 X172.06 Y127.207 E.01693
G1 X153.923 Y109.07 E.80931
G1 X153.386 Y109.07 E.01693
G1 X171.747 Y127.43 E.81927
G1 X171.21 Y127.43 E.01693
G1 X152.85 Y109.07 E.81927
G1 X152.313 Y109.07 E.01693
G1 X170.673 Y127.43 E.81927
G1 X170.137 Y127.43 E.01693
G1 X151.776 Y109.07 E.81927
G1 X151.24 Y109.07 E.01693
G1 X169.6 Y127.43 E.81927
G1 X169.063 Y127.43 E.01693
G1 X150.703 Y109.07 E.81927
G1 X150.167 Y109.07 E.01693
G1 X168.527 Y127.43 E.81927
G1 X167.99 Y127.43 E.01693
G1 X149.63 Y109.07 E.81927
G1 X149.093 Y109.07 E.01693
M73 P5 R39
G1 X167.454 Y127.43 E.81927
G1 X166.917 Y127.43 E.01693
G1 X148.78 Y109.293 E.80931
G1 X148.78 Y109.83 E.01693
G1 X166.38 Y127.43 E.78536
G1 X165.844 Y127.43 E.01693
M73 Q5 S39
G1 X148.78 Y110.366 E.76141
G1 X148.78 Y110.903 E.01693
M73 P6 R39
M73 Q6 S39
G1 X165.307 Y127.43 E.73747
G1 X164.77 Y127.43 E.01693
G1 X148.78 Y111.44 E.71352
G1 X148.78 Y111.976 E.01693
G1 X164.234 Y127.43 E.68958
G1 X163.697 Y127.43 E.01693
G1 X148.78 Y112.513 E.66563
G1 X148.78 Y113.05 E.01693
G1 X163.16 Y127.43 E.64169
G1 X162.624 Y127.43 E.01693
G1 X148.78 Y113.586 E.61774
G1 X148.78 Y114.123 E.01693
G1 X162.087 Y127.43 E.59379
G1 X161.55 Y127.43 E.01693
G1 X148.78 Y114.66 E.56985
G1 X148.78 Y115.196 E.01693
G1 X161.014 Y127.43 E.5459
G1 X160.477 Y127.43 E.01693
G1 X148.78 Y115.733 E.52196
G1 X148.78 Y116.269 E.01693
G1 X159.941 Y127.43 E.49801
G1 X159.404 Y127.43 E.01693
G1 X148.78 Y116.806 E.47406
G1 X148.78 Y116.82 E.00044
G1 X148.257 Y116.82 E.0165
G1 X158.867 Y127.43 E.47345
G1 X158.331 Y127.43 E.01693
G1 X147.72 Y116.82 E.47345
G1 X147.184 Y116.82 E.01693
G1 X157.794 Y127.43 E.47345
G1 X157.257 Y127.43 E.01693
G1 X146.78 Y116.953 E.46752
G1 X146.78 Y117.489 E.01693
G1 X156.721 Y127.43 E.44358
G1 X156.184 Y127.43 E.01693
G1 X148.78 Y120.026 E.33039
G1 X148.78 Y119.68 E.01091
G1 X148.434 Y119.68 E.01091
G1 X146.78 Y118.026 E.07381
G1 X146.78 Y118.563 E.01693
G1 X147.897 Y119.68 E.04987
G1 X147.361 Y119.68 E.01693
G1 X146.78 Y119.099 E.02592
G1 X146.78 Y119.636 E.01693
G1 X146.994 Y119.85 E.00955
M204 S1000
;WIPE_START
G1 F8640
G1 X146.78 Y119.636 E-.06987
G1 X146.78 Y119.099 E-.12391
G1 X147.361 Y119.68 E-.1897
G1 X147.897 Y119.68 E-.12391
G1 X147.124 Y118.907 E-.25261
;WIPE_END
G1 E-.04 F2100
G1 Z.6 F720
G1 X148.61 Y120.393 F10800
G1 Z.2 F720
G1 E.8 F2100
M204 S800
G1 F1200
G1 X155.647 Y127.43 E.31401
G1 X155.111 Y127.43 E.01693
G1 X148.78 Y121.099 E.2825
G1 X148.78 Y121.636 E.01693
G1 X154.574 Y127.43 E.25855
G1 X154.038 Y127.43 E.01693
G1 X148.78 Y122.172 E.23461
G1 X148.78 Y122.709 E.01693
G1 X153.501 Y127.43 E.21066
G1 X152.964 Y127.43 E.01693
G1 X148.78 Y123.246 E.18671
G1 X148.78 Y123.782 E.01693
G1 X152.428 Y127.43 E.16277
G1 X151.891 Y127.43 E.01693
G1 X148.78 Y124.319 E.13882
G1 X148.78 Y124.856 E.01693
G1 X151.354 Y127.43 E.11488
G1 X150.818 Y127.43 E.01693
G1 X148.78 Y125.392 E.09093
G1 X148.78 Y125.929 E.01693
G1 X150.281 Y127.43 E.06698
G1 X149.744 Y127.43 E.01693
G1 X148.78 Y126.466 E.04304
G1 X148.78 Y127.002 E.01693
G1 X149.377 Y127.6 E.02666
M204 S1000
; stop printing object Diffuser.stl id:0 copy 3
; printing object Diffuser.stl id:0 copy 2
;WIPE_START
G1 F8640
G1 X148.78 Y127.002 E-.19513
G1 X148.78 Y126.466 E-.12391
G1 X149.744 Y127.43 E-.31496
G1 X150.281 Y127.43 E-.12391
G1 X150.275 Y127.424 E-.00208
;WIPE_END
G1 E-.04 F2100
G1 Z.6 F720
G1 X172.343 Y90.037 F10800
G1 Z.2 F720
G1 E.8 F2100
M204 S800
;TYPE:Perimeter
;WIDTH:0.42
G1 F1200
G1 X174.343 Y90.037 E.06271
G1 X174.343 Y93.463 E.10741
G1 X172.343 Y93.463 E.06271
G1 X172.343 Y101.213 E.243
G1 X148.497 Y101.213 E.74767
G1 X148.497 Y93.463 E.243
G1 X146.497 Y93.463 E.06271
G1 X146.497 Y90.037 E.10741
G1 X148.497 Y90.037 E.06271
G1 X148.497 Y82.287 E.243
G1 X172.343 Y82.287 E.74767
G1 X172.343 Y89.977 E.24111
M204 S1000
M73 P7 R39
M73 Q7 S39
G1 X172.72 Y89.66 F10800
M204 S800
;TYPE:External perimeter
G1 F1200
G1 X174.72 Y89.66 E.06271
