; generated by PrusaSlicer 2.4.1+win64 on 2022-08-05 at 22:08:57 UTC

; 

; external perimeters extrusion width = 0.45mm
; perimeters extrusion width = 0.45mm
; infill extrusion width = 0.45mm
; solid infill extrusion width = 0.45mm
; top infill extrusion width = 0.40mm
; first layer extrusion width = 0.42mm

M73 P0 R6
M73 Q0 S6
M107
;TYPE:Custom
M862.3 P "MK3S" ; printer model check
M862.1 P0.4 ; nozzle diameter check
G90 ; use absolute coordinates
M83 ; extruder relative mode
M104 S215 ; set extruder temp
M140 S60 ; set bed temp
M190 S60 ; wait for bed temp
M109 S215 ; wait for extruder temp
G28 W ; home all without mesh bed level
G80 ; mesh bed leveling
G1 Y-3.0 F1000.0 ; go outside print area
G92 E0.0
G1 X60.0 E9.0 F1000.0 ; intro line
G1 X100.0 E12.5 F1000.0 ; intro line
G92 E0.0
M221 S95

; Don't change E values below. Excessive value can damage the printer.
M907 E430 ; set extruder motor current
G21 ; set units to millimeters
G90 ; use absolute coordinates
M83 ; use relative distances for extrusion
M900 K0.05 ; Filament gcode LA 1.5
M900 K30 ; Filament gcode LA 1.0
M107
;LAYER_CHANGE
;Z:0.2
;HEIGHT:0.2
;BEFORE_LAYER_CHANGE
G92 E0.0
;0.2


M73 P1 R5
M73 Q1 S5
G1 E-.8 F2100
G1 Z.4 F720
;AFTER_LAYER_CHANGE
;0.2
G1 X115.223 Y99.531 F10800
G1 Z.2 F720
M73 Q2 S5
G1 E.8 F2100
M204 S800
;TYPE:Skirt/Brim
;WIDTH:0.42
G1 F1200
G1 X116.444 Y98.88 E.04338
G1 X127.095 Y95.962 E.34626
G1 X128.263 Y95.748 E.03722
M73 P2 R5
G1 X128.998 Y95.712 E.02309
G1 X130.075 Y95.871 E.03411
G1 X131.492 Y96.456 E.04809
G1 X132.1 Y96.904 E.02367
G1 X132.728 Y97.55 E.02825
G1 X133.285 Y98.311 E.02958
G1 X133.627 Y98.97 E.02326
G1 X134.04 Y100.145 E.03905
G1 X135.847 Y106.721 E.21384
G1 X135.87 Y108.291 E.04923
G1 X135.128 Y109.675 E.04923
G1 X133.927 Y110.482 E.04538
G1 X133.672 Y110.572 E.00848
G1 X120.612 Y114.185 E.42487
G1 X119.008 Y114.189 E.05029
G1 X117.571 Y113.46 E.05051
G1 X116.56 Y111.884 E.05871
G1 X114.148 Y102.887 E.29207
G1 X114.041 Y102.035 E.02692
G1 X114.24 Y100.935 E.03506
G1 X115.189 Y99.58 E.05186
M204 S1000
G1 X115.461 Y99.823 F10800
M204 S800
G1 F1200
G1 X116.544 Y99.243 E.03852
G1 X127.187 Y96.328 E.346
G1 X128.318 Y96.121 E.03604
M73 P3 R5
M73 Q3 S5
G1 X128.981 Y96.088 E.02081
G1 X129.981 Y96.236 E.03172
G1 X131.306 Y96.783 E.04493
G1 X131.85 Y97.187 E.02124
G1 X132.448 Y97.802 E.02688
G1 X132.96 Y98.502 E.0272
G1 X133.285 Y99.127 E.02209
G1 X133.677 Y100.244 E.03713
G1 X135.483 Y106.821 E.21384
G1 X135.48 Y108.292 E.04612
G1 X134.72 Y109.551 E.04612
G1 X133.795 Y110.129 E.03421
G1 X132.511 Y110.534 E.04221
G1 X120.514 Y113.821 E.39
G1 X119.103 Y113.825 E.04424
G1 X117.822 Y113.178 E.04499
G1 X116.923 Y111.784 E.05201
G1 X114.512 Y102.789 E.29199
G1 X114.418 Y102.035 E.02383
G1 X114.596 Y101.058 E.03113
G1 X115.427 Y99.872 E.04539
M204 S1000
G1 X115.699 Y100.116 F10800
M204 S800
G1 F1200
G1 X116.644 Y99.607 E.03365
G1 X127.279 Y96.693 E.34574
G1 X128.373 Y96.494 E.03486
M73 Q4 S5
G1 X128.963 Y96.465 E.01852
G1 X129.888 Y96.602 E.02933
G1 X131.119 Y97.111 E.04176
G1 X131.6 Y97.469 E.01882
G1 X132.167 Y98.053 E.0255
G1 X132.795 Y98.981 E.03514
G1 X133.313 Y100.344 E.04572
M73 P4 R5
G1 X135.12 Y106.921 E.21384
G1 X135.088 Y108.285 E.04278
G1 X134.312 Y109.407 E.04278
G1 X133.586 Y109.805 E.02595
G1 X120.416 Y113.456 E.4285
G1 X119.199 Y113.46 E.03818
G1 X118.073 Y112.897 E.03947
G1 X117.287 Y111.685 E.0453
G1 X114.877 Y102.692 E.29192
G1 X114.796 Y102.035 E.02075
G1 X114.953 Y101.182 E.02721
G1 X115.665 Y100.165 E.03892
M204 S1000
; printing object R.stl id:0 copy 1
;WIPE_START
G1 F8640
G1 X116.644 Y99.607 E-.26028
G1 X118.731 Y99.035 E-.49972
;WIPE_END
G1 E-.04 F2100
G1 Z.6 F720
G1 X119.461 Y106.355 F10800
G1 Z.2 F720
G1 E.8 F2100
M204 S800
;TYPE:Perimeter
G1 F1200
G1 X119.252 Y106.518 E.00832
G1 X119.232 Y106.619 E.00324
G1 X119.157 Y106.258 E.01157
G1 X119.113 Y106.183 E.00272
G1 X119.227 Y106.311 E.00537
G1 X119.403 Y106.344 E.0056
M204 S1000
G1 X119.423 Y105.964 F10800
M204 S800
;TYPE:External perimeter
G1 F1200
G1 X119.145 Y105.654 E.01307
G1 X119.065 Y105.385 E.00878
G1 X119.042 Y105.241 E.00458
G1 X118.996 Y105.19 E.00217
G1 X118.91 Y104.775 E.01327
G1 X118.855 Y104.723 E.00239
G1 X118.753 Y104.181 E.01729
G1 X118.706 Y104.133 E.00212
G1 X118.596 Y103.586 E.0175
G1 X118.552 Y103.539 E.00202
G1 X118.469 Y103.209 E.01066
G1 X118.528 Y102.796 E.01308
G1 X118.632 Y102.728 E.0039
G1 X118.652 Y102.686 E.00146
G1 X118.834 Y102.534 E.00743
G1 X119.162 Y102.434 E.01075
G1 X119.424 Y102.45 E.00823
G1 X119.717 Y102.533 E.00953
G1 X119.822 Y102.631 E.00452
G1 X120.064 Y102.741 E.00832
G1 X120.133 Y102.858 E.00425
G1 X120.255 Y102.931 E.00445
G1 X120.361 Y103.183 E.00857
G1 X120.444 Y103.257 E.00348
G1 X120.53 Y103.531 E.00903
G1 X120.593 Y103.591 E.00272
G1 X120.661 Y103.855 E.00856
G1 X120.705 Y104.165 E.00981
G1 X120.753 Y104.214 E.00216
G1 X120.801 Y104.476 E.00834
G1 X120.807 Y104.713 E.00744
G1 X120.765 Y105.054 E.01077
G1 X120.697 Y105.108 E.00272
G1 X120.63 Y105.398 E.00933
G1 X120.518 Y105.592 E.00701
G1 X120.455 Y105.632 E.00236
G1 X120.396 Y105.716 E.00321
G1 X120.15 Y105.928 E.01019
G1 X119.833 Y106.042 E.01056
G1 X119.482 Y105.975 E.01122
M204 S1000
G1 X119.072 Y106.157 F10800
;WIPE_START
G1 F8640
G1 X119.145 Y105.654 E-.10756
G1 X119.065 Y105.385 E-.06468
G1 X119.042 Y105.241 E-.03375
G1 X118.996 Y105.19 E-.01595
G1 X118.91 Y104.775 E-.09774
G1 X118.855 Y104.723 E-.01758
M73 Q5 S5
G1 X118.753 Y104.181 E-.12732
G1 X118.706 Y104.133 E-.01564
G1 X118.596 Y103.586 E-.12887
G1 X118.552 Y103.539 E-.0149
G1 X118.469 Y103.209 E-.07851
G1 X118.504 Y102.962 E-.05749
;WIPE_END
G1 E-.04 F2100
G1 Z.6 F720
G1 X118.176 Y102.59 F10800
G1 Z.2 F720
G1 E.8 F2100
M204 S800
;TYPE:Perimeter
G1 F1200
M73 P5 R5
G1 X118.163 Y102.533 E.00183
G1 X118.29 Y102.501 E.00411
G1 X118.215 Y102.55 E.0028
M204 S1000
G1 X117.757 Y102.247 F10800
M204 S800
;TYPE:External perimeter
G1 F1200
G1 X118.094 Y102.162 E.01088
G1 X118.12 Y102.123 E.00147
G1 X118.522 Y102.039 E.01289
G1 X118.574 Y101.998 E.00206
G1 X119.08 Y101.947 E.01594
G1 X119.433 Y101.877 E.01129
G1 X119.827 Y101.979 E.01277
G1 X119.878 Y102.032 E.00229
G1 X120.117 Y102.107 E.00786
G1 X120.214 Y102.18 E.00381
G1 X120.267 Y102.267 E.00322
G1 X120.359 Y102.325 E.0034
G1 X120.416 Y102.418 E.00342
G1 X120.505 Y102.475 E.00329
G1 X120.556 Y102.56 E.0031
G1 X120.631 Y102.615 E.00294
G1 X120.685 Y102.712 E.00348
G1 X120.734 Y102.752 E.00196
G1 X120.817 Y102.973 E.00741
G1 X120.869 Y103.02 E.00218
G1 X120.961 Y103.387 E.01186
G1 X121.017 Y103.438 E.00238
G1 X121.107 Y103.829 E.01257
G1 X121.144 Y103.866 E.00166
G1 X121.203 Y104.456 E.01859
G1 X121.241 Y104.701 E.00778
G1 X121.267 Y104.736 E.00136
G1 X121.245 Y104.765 E.00114
G1 X121.163 Y105.3 E.01699
G1 X121.037 Y105.565 E.00919
G1 X120.915 Y105.656 E.00479
G1 X120.871 Y106.086 E.01355
G1 X120.975 Y106.404 E.01048
G1 X121.046 Y106.461 E.00285
G1 X121.124 Y106.705 E.00805
G1 X121.195 Y106.763 E.00284
G1 X121.276 Y107.004 E.00799
G1 X121.341 Y107.06 E.00269
G1 X121.424 Y107.307 E.00817
G1 X121.49 Y107.363 E.00271
G1 X121.572 Y107.609 E.00814
G1 X121.639 Y107.666 E.00274
G1 X121.72 Y107.911 E.00811
G1 X121.787 Y107.968 E.00276
G1 X121.869 Y108.212 E.00808
G1 X121.936 Y108.27 E.00276
G1 X122.018 Y108.514 E.00808
G1 X122.084 Y108.571 E.00274
G1 X122.167 Y108.815 E.00808
G1 X122.233 Y108.873 E.00273
G1 X122.316 Y109.117 E.00808
G1 X122.381 Y109.174 E.00272
G1 X122.465 Y109.418 E.00808
G1 X122.529 Y109.476 E.00271
G1 X122.614 Y109.719 E.00808
G1 X122.678 Y109.777 E.0027
G1 X122.712 Y109.875 E.00326
G1 X122.553 Y109.915 E.00514
G1 X122.524 Y109.957 E.0016
G1 X122.289 Y110.014 E.00757
G1 X122.238 Y109.861 E.00504
G1 X122.174 Y109.804 E.0027
G1 X122.09 Y109.558 E.00812
G1 X122.027 Y109.5 E.00268
G1 X121.942 Y109.255 E.00813
G1 X121.881 Y109.197 E.00266
G1 X121.795 Y108.952 E.00813
G1 X121.739 Y108.898 E.00245
G1 X121.629 Y108.526 E.01217
G1 X121.558 Y108.469 E.00286
G1 X121.48 Y108.221 E.00812
G1 X121.412 Y108.165 E.00278
G1 X121.332 Y107.919 E.00812
G1 X121.265 Y107.862 E.00277
G1 X121.184 Y107.617 E.00809
G1 X121.118 Y107.559 E.00273
G1 X121.035 Y107.315 E.0081
G1 X120.972 Y107.257 E.00267
G1 X120.886 Y107.012 E.00814
G1 X120.819 Y106.949 E.00288
G1 X120.704 Y106.654 E.00993
G1 X120.37 Y106.49 E.01165
G1 X120.027 Y106.485 E.01077
G1 X119.789 Y106.579 E.00802
G1 X119.595 Y106.729 E.00768
G1 X119.529 Y107.074 E.01104
G1 X119.592 Y107.433 E.01142
G1 X119.646 Y107.492 E.00251
G1 X119.75 Y108.031 E.01722
G1 X119.801 Y108.084 E.00232
G1 X119.903 Y108.626 E.01727
G1 X119.958 Y108.679 E.00239
G1 X120.044 Y109.093 E.01326
G1 X120.09 Y109.144 E.00217
G1 X120.133 Y109.419 E.00872
G1 X120.201 Y109.69 E.00876
G1 X120.248 Y109.74 E.00214
G1 X120.35 Y110.28 E.01723
G1 X120.402 Y110.331 E.00228
G1 X120.437 Y110.533 E.00643
G1 X119.921 Y110.648 E.01657
G1 X119.857 Y110.337 E.00996
G1 X119.81 Y110.285 E.00217
G1 X119.766 Y110.007 E.00883
G1 X119.699 Y109.739 E.00866
G1 X119.652 Y109.69 E.00213
G1 X119.55 Y109.149 E.01725
G1 X119.498 Y109.098 E.00231
G1 X119.397 Y108.555 E.0173
G1 X119.341 Y108.503 E.00238
G1 X119.256 Y108.088 E.01328
G1 X119.209 Y108.037 E.00217
G1 X119.098 Y107.491 E.01749
G1 X119.051 Y107.442 E.00213
G1 X118.949 Y106.901 E.01727
G1 X118.895 Y106.848 E.00239
G1 X118.808 Y106.434 E.01326
G1 X118.762 Y106.382 E.00217
G1 X118.719 Y106.107 E.00873
G1 X118.651 Y105.836 E.00875
G1 X118.605 Y105.787 E.00213
G1 X118.502 Y105.247 E.01723
G1 X118.45 Y105.194 E.00232
G1 X118.348 Y104.652 E.01728
G1 X118.293 Y104.6 E.00239
G1 X118.207 Y104.185 E.01327
G1 X118.158 Y104.131 E.0023
G1 X118.055 Y103.592 E.0172
G1 X118.003 Y103.539 E.00233
G1 X117.901 Y102.998 E.01724
G1 X117.851 Y102.948 E.00221
G1 X117.743 Y102.4 E.01753
G1 X117.692 Y102.352 E.00218
G1 X117.674 Y102.26 E.00294
G1 X117.698 Y102.256 E.00076
M204 S1000
G1 X118.055 Y102.426 F10800
G1 X118.016 Y102.784
M204 S800
;TYPE:Gap fill
;WIDTH:0.224552
G1 F1200
G1 X118.098 Y102.835 E.00146
M204 S1000
M204 S800
;WIDTH:0.257584
G1 X118.181 Y102.886 E.00173
M204 S1000
M204 S800
;WIDTH:0.287674
G1 X118.199 Y102.901 E.00048
M204 S1000
M204 S800
;WIDTH:0.287673
G1 X118.201 Y103.003 E.00209
M204 S1000
M204 S800
;WIDTH:0.254083
G1 X118.204 Y103.106 E.0018
M204 S1000
M204 S800
;WIDTH:0.220492
G1 X118.206 Y103.209 E.00152
M204 S1000
M204 S800
;WIDTH:0.1869
G1 X118.209 Y103.236 E.00033
M204 S1000
M204 S800
;WIDTH:0.193741
G1 X118.248 Y103.413 E.00227
M204 S1000
G1 X118.238 Y103.547 F10800
M204 S800
;WIDTH:0.167933
G1 F1200
G1 X118.439 Y104.085 E.00597
M204 S1000
M204 S800
;WIDTH:0.16658
G1 X118.475 Y104.244 E.00167
M204 S1000
M204 S800
;WIDTH:0.17754
G1 X118.487 Y104.277 E.00039
M204 S1000
M204 S800
;WIDTH:0.199987
G1 X118.506 Y104.311 E.00051
M204 S1000
M204 S800
;WIDTH:0.199987
G1 X118.672 Y105.15 E.01117
M204 S1000
G1 X118.697 Y105.064 F10800
M204 S800
;WIDTH:0.19991
G1 F1200
G1 X118.522 Y104.175 E.01184
M204 S1000
G1 X118.403 Y104.009 F10800
M204 S800
;WIDTH:0.193494
G1 F1200
G1 X118.385 Y103.924 E.00109
M204 S1000
M204 S800
;WIDTH:0.188967
G1 X118.383 Y103.917 E.00008
M204 S1000
M204 S800
;WIDTH:0.196314
G1 X118.347 Y103.708 E.00271
M204 S1000
M204 S800
;WIDTH:0.196314
G1 X118.332 Y103.679 E.00042
M204 S1000
M204 S800
;WIDTH:0.177947
G1 X118.321 Y103.648 E.00037
M204 S1000
M204 S800
;WIDTH:0.16743
G1 X118.286 Y103.492 E.00166
M204 S1000
M204 S800
;WIDTH:0.166461
G1 X118.087 Y102.967 E.00576
M204 S1000
G1 X118.463 Y102.425 F10800
M204 S800
;WIDTH:0.259682
G1 F1200
G1 X118.669 Y102.294 E.00442
M204 S1000
M204 S800
;WIDTH:0.247065
G1 X118.674 Y102.29 E.00009
M204 S1000
M204 S800
;WIDTH:0.248464
G1 X118.689 Y102.279 E.00033
M204 S1000
M204 S800
;WIDTH:0.248466
G1 X118.704 Y102.275 E.00027
M204 S1000
M204 S800
;WIDTH:0.243256
G1 X118.863 Y102.238 E.00271
M204 S1000
M204 S800
;WIDTH:0.202203
G1 X118.869 Y102.237 E.00009
M204 S1000
M204 S800
;WIDTH:0.20077
G1 X119.112 Y102.192 E.00324
M204 S1000
M204 S800
;WIDTH:0.159466
G1 X119.116 Y102.191 E.00004
M204 S1000
M204 S800
;WIDTH:0.158882
G1 X119.127 Y102.188 E.00011
M204 S1000
M204 S800
;WIDTH:0.159273
G1 X119.146 Y102.186 E.00018
M204 S1000
M204 S800
;WIDTH:0.191466
G1 X119.28 Y102.178 E.00166
M204 S1000
M204 S800
;WIDTH:0.223661
G1 X119.414 Y102.17 E.00202
M204 S1000
M204 S800
;WIDTH:0.223659
G1 X119.461 Y102.177 E.00071
M204 S1000
M204 S800
;WIDTH:0.215837
G1 X119.479 Y102.181 E.00026
M204 S1000
M204 S800
;WIDTH:0.224865
G1 X119.684 Y102.233 E.00319
M204 S1000
M204 S800
;WIDTH:0.224863
G1 X119.718 Y102.253 E.0006
M204 S1000
M204 S800
;WIDTH:0.204356
G1 X119.753 Y102.269 E.00052
M204 S1000
M204 S800
;WIDTH:0.193556
G1 X119.832 Y102.292 E.00103
M204 S1000
M204 S800
;WIDTH:0.198428
G1 X120.222 Y102.462 E.0055
M204 S1000
G1 X120.181 Y102.436 F10800
M204 S800
;WIDTH:0.181055
G1 F1200
G1 X120.417 Y102.831 E.00529
M204 S1000
G1 X120.45 Y102.907 F10800
M204 S800
;WIDTH:0.131874
G1 F1200
G1 X120.629 Y103.113 E.00202
M204 S1000
M204 S800
;WIDTH:0.126893
G1 X120.636 Y103.12 E.00007
M204 S1000
M204 S800
;WIDTH:0.132941
G1 X120.651 Y103.137 E.00017
M204 S1000
M204 S800
;WIDTH:0.138804
G1 X120.657 Y103.147 E.00009
M204 S1000
M204 S800
;WIDTH:0.138805
G1 X120.752 Y103.482 E.00278
M204 S1000
G1 X120.749 Y103.479 F10800
M204 S800
;WIDTH:0.174189
G1 F1200
G1 X120.52 Y102.905 E.00675
M204 S1000
M204 S800
;WIDTH:0.17419
G1 X120.501 Y102.88 E.00034
M204 S1000
M204 S800
;WIDTH:0.159417
G1 X120.49 Y102.862 E.0002
M204 S1000
M204 S800
;WIDTH:0.153131
G1 X120.451 Y102.781 E.00083
M204 S1000
M204 S800
;WIDTH:0.142812
G1 X120.448 Y102.777 E.00004
M204 S1000
M204 S800
;WIDTH:0.142494
G1 X120.429 Y102.76 E.00021
M204 S1000
M204 S800
;WIDTH:0.143057
G1 X120.384 Y102.73 E.00045
M204 S1000
M204 S800
;WIDTH:0.149085
G1 X120.368 Y102.717 E.00018
M204 S1000
G1 X120.37 Y102.617 F10800
M204 S800
;WIDTH:0.189728
G1 F1200
G1 X120.09 Y102.465 E.00388
M204 S1000
M204 S800
;WIDTH:0.202733
G1 X119.6 Y102.12 E.00796
M204 S1000
G1 X120.262 Y102.528 F10800
M204 S800
;WIDTH:0.249559
G1 F1200
G1 X119.986 Y102.385 E.00535
M204 S1000
M204 S800
;WIDTH:0.249559
G1 X119.967 Y102.371 E.00041
M204 S1000
M204 S800
;WIDTH:0.244347
G1 X119.95 Y102.357 E.00037
M204 S1000
M204 S800
;WIDTH:0.241948
G1 X119.977 Y102.313 E.00085
M204 S1000
M204 S800
;WIDTH:0.202218
G1 X120.004 Y102.269 E.00068
M204 S1000
G1 X119.973 Y102.259 F10800
M204 S800
;WIDTH:0.142832
G1 F1200
G1 X120.235 Y102.571 E.00338
M204 S1000
M204 S800
;WIDTH:0.134515
G1 X120.239 Y102.578 E.00007
M204 S1000
M204 S800
;WIDTH:0.139629
G1 X120.252 Y102.595 E.00017
M204 S1000
;WIPE_START
G1 F8640
G1 X120.239 Y102.578 E-.00488
;WIPE_END
G1 E-.79512 F2100
G1 Z.6 F720
G1 X120.94 Y104.165 F10800
G1 Z.2 F720
G1 E.8 F2100
M204 S800
;WIDTH:0.13965
G1 F1200
G1 X120.917 Y103.974 E.00154
M204 S1000
M204 S800
;WIDTH:0.139648
G1 X120.906 Y103.953 E.00019
M204 S1000
M204 S800
;WIDTH:0.1245
G1 X120.899 Y103.932 E.00015
M204 S1000
M204 S800
;WIDTH:0.116366
G1 X120.878 Y103.814 E.00073
M204 S1000
M204 S800
;WIDTH:0.106095
G1 X120.877 Y103.811 E.00002
M204 S1000
M204 S800
;WIDTH:0.113056
G1 X120.815 Y103.556 E.00153
M204 S1000
M204 S800
;WIDTH:0.113057
G1 X120.784 Y103.504 E.00035
M204 S1000
G1 X120.77 Y103.513 F10800
M204 S800
;WIDTH:0.101269
G1 F1200
G1 X120.954 Y104.118 E.00307
M204 S1000
M204 S800
;WIDTH:0.0948045
G1 X120.96 Y104.162 E.00019
M204 S1000
G1 X121.017 Y104.642 F10800
M204 S800
;WIDTH:0.100297
G1 F1200
G1 X121.024 Y104.722 E.00038
M204 S1000
M204 S800
;WIDTH:0.101163
G1 X121.025 Y104.726 E.00002
M204 S1000
M204 S800
;WIDTH:0.106353
G1 X121.025 Y104.745 E.0001
M204 S1000
M204 S800
;WIDTH:0.106354
G1 X120.968 Y105.157 E.00219
M204 S1000
M204 S800
;WIDTH:0.101926
G1 X120.861 Y105.461 E.00158
M204 S1000
G1 X120.835 Y105.48 F10800
M204 S800
;WIDTH:0.121522
G1 F1200
G1 X120.873 Y105.358 E.00084
M204 S1000
M204 S800
;WIDTH:0.122481
G1 X120.875 Y105.353 E.00003
M204 S1000
M204 S800
;WIDTH:0.152294
G1 X120.915 Y105.246 E.00104
M204 S1000
M204 S800
;WIDTH:0.152296
G1 X120.995 Y105.149 E.00114
M204 S1000
;WIPE_START
G1 F8640
G1 X120.915 Y105.246 E-.02895
;WIPE_END
G1 E-.77105 F2100
G1 Z.6 F720
G1 X118.523 Y104.561 F10800
G1 Z.2 F720
G1 E.8 F2100
M204 S800
