; generated by PrusaSlicer 2.4.1+win64 on 2022-08-05 at 21:39:30 UTC

; 

; external perimeters extrusion width = 0.45mm
; perimeters extrusion width = 0.45mm
; infill extrusion width = 0.45mm
; solid infill extrusion width = 0.45mm
; top infill extrusion width = 0.40mm
; first layer extrusion width = 0.42mm

M73 P0 R7
M73 Q0 S7
M107
;TYPE:Custom
M862.3 P "MK3S" ; printer model check
M862.1 P0.4 ; nozzle diameter check
G90 ; use absolute coordinates
M83 ; extruder relative mode
M104 S225 ; set extruder temp
M140 S60 ; set bed temp
M190 S60 ; wait for bed temp
M109 S225 ; wait for extruder temp
G28 W ; home all without mesh bed level
G80 ; mesh bed leveling
G1 Y-3.0 F1000.0 ; go outside print area
G92 E0.0
G1 X60.0 E9.0 F1000.0 ; intro line
G1 X100.0 E12.5 F1000.0 ; intro line
G92 E0.0
M221 S95

; Don't change E values below. Excessive value can damage the printer.
M907 E430 ; set extruder motor current
G21 ; set units to millimeters
G90 ; use absolute coordinates
M83 ; use relative distances for extrusion
M900 K0.05 ; Filament gcode LA 1.5
M900 K30 ; Filament gcode LA 1.0
M107
;LAYER_CHANGE
;Z:0.2
;HEIGHT:0.2
;BEFORE_LAYER_CHANGE
G92 E0.0
;0.2


G1 E-.8 F2100
M73 P1 R7
M73 Q1 S7
G1 Z.4 F720
;AFTER_LAYER_CHANGE
;0.2
G1 X110.694 Y79.738 F10800
G1 Z.2 F720
G1 E.8 F2100
M204 S800
;TYPE:Skirt/Brim
;WIDTH:0.42
G1 F1200
G1 X112.29 Y79.123 E.05363
G1 X137.71 Y79.123 E.79703
G1 X139.017 Y79.515 E.04278
G1 X140.012 Y80.906 E.05363
G1 X142.012 Y88.656 E.25096
G1 X142.087 Y89.25 E.01877
M73 P2 R7
M73 Q2 S7
G1 X142.087 Y120.75 E.98766
G1 X142.012 Y121.344 E.01877
G1 X140.012 Y129.094 E.25096
G1 X139.306 Y130.262 E.04278
G1 X137.71 Y130.877 E.05363
G1 X112.29 Y130.877 E.79703
G1 X110.983 Y130.485 E.04278
G1 X109.988 Y129.094 E.05363
G1 X107.988 Y121.344 E.25096
G1 X107.913 Y120.75 E.01877
G1 X107.913 Y89.25 E.98766
G1 X107.988 Y88.656 E.01877
M73 P3 R7
M73 Q3 S7
G1 X109.988 Y80.906 E.25096
G1 X110.663 Y79.79 E.0409
M204 S1000
; printing object Diffuser.stl id:0 copy 1
;WIPE_START
G1 F8640
G1 X112.29 Y79.123 E-.40599
G1 X113.823 Y79.123 E-.35401
;WIPE_END
G1 E-.04 F2100
G1 Z.6 F720
G1 X113.077 Y108.787 F10800
G1 Z.2 F720
G1 E.8 F2100
M204 S800
;TYPE:Perimeter
G1 F1200
G1 X136.923 Y108.787 E.74767
G1 X136.923 Y116.537 E.243
G1 X138.923 Y116.537 E.06271
G1 X138.923 Y119.963 E.10741
G1 X136.923 Y119.963 E.06271
M73 Q4 S7
G1 X136.923 Y127.713 E.243
G1 X113.077 Y127.713 E.74767
M73 P4 R7
G1 X113.077 Y119.963 E.243
G1 X111.077 Y119.963 E.06271
G1 X111.077 Y116.537 E.10741
G1 X113.077 Y116.537 E.06271
G1 X113.077 Y108.847 E.24111
M204 S1000
G1 X112.7 Y108.41 F10800
M204 S800
;TYPE:External perimeter
G1 F1200
G1 X137.3 Y108.41 E.77132
G1 X137.3 Y116.16 E.243
G1 X139.3 Y116.16 E.06271
M73 Q5 S7
G1 X139.3 Y120.34 E.13106
M73 P5 R7
G1 X137.3 Y120.34 E.06271
G1 X137.3 Y128.09 E.243
G1 X112.7 Y128.09 E.77132
G1 X112.7 Y120.34 E.243
G1 X110.7 Y120.34 E.06271
G1 X110.7 Y116.16 E.13106
G1 X112.7 Y116.16 E.06271
M73 P5 R6
G1 X112.7 Y108.47 E.24111
M204 S1000
G1 X113.028 Y108.638 F10800
;WIPE_START
M73 Q5 S6
G1 F8640
G1 X115.991 Y108.462 E-.76
;WIPE_END
G1 E-.04 F2100
G1 Z.6 F720
G1 X136.042 Y108.9 F10800
G1 Z.2 F720
G1 E.8 F2100
M204 S800
;TYPE:Solid infill
;WIDTH:0.422382
G1 F1200
G1 X136.64 Y109.498 E.02667
G1 X136.64 Y110.034 E.01693
G1 X135.676 Y109.07 E.04304
G1 X135.139 Y109.07 E.01693
G1 X136.64 Y110.571 E.06699
G1 X136.64 Y111.108 E.01693
G1 X134.602 Y109.07 E.09093
M73 Q6 S6
G1 X134.066 Y109.07 E.01693
G1 X136.64 Y111.644 E.11488
G1 X136.64 Y112.181 E.01693
M73 P6 R6
G1 X133.529 Y109.07 E.13883
G1 X132.992 Y109.07 E.01693
G1 X136.64 Y112.718 E.16277
G1 X136.64 Y113.254 E.01693
G1 X132.456 Y109.07 E.18672
G1 X131.919 Y109.07 E.01693
G1 X136.64 Y113.791 E.21066
G1 X136.64 Y114.328 E.01693
G1 X131.382 Y109.07 E.23461
G1 X130.846 Y109.07 E.01693
G1 X136.64 Y114.864 E.25855
G1 X136.64 Y115.401 E.01693
G1 X130.309 Y109.07 E.2825
G1 X129.772 Y109.07 E.01693
G1 X136.81 Y116.107 E.31402
M204 S1000
;WIPE_START
G1 F8640
G1 X134.482 Y113.78 E-.76
;WIPE_END
G1 E-.04 F2100
G1 Z.6 F720
G1 X138.426 Y116.65 F10800
G1 Z.2 F720
G1 E.8 F2100
M204 S800
G1 F1200
G1 X138.64 Y116.864 E.00955
G1 X138.64 Y117.401 E.01693
G1 X138.059 Y116.82 E.02593
G1 X137.522 Y116.82 E.01693
G1 X138.64 Y117.938 E.04987
G1 X138.64 Y118.474 E.01693
G1 X136.986 Y116.82 E.07382
G1 X136.64 Y116.82 E.01091
G1 X136.64 Y116.474 E.01091
G1 X129.236 Y109.07 E.33039
G1 X128.699 Y109.07 E.01693
M73 P7 R6
M73 Q7 S6
G1 X138.64 Y119.011 E.44358
G1 X138.64 Y119.547 E.01693
G1 X128.163 Y109.07 E.46753
G1 X127.626 Y109.07 E.01693
G1 X138.236 Y119.68 E.47345
G1 X137.7 Y119.68 E.01693
G1 X127.089 Y109.07 E.47345
G1 X126.553 Y109.07 E.01693
G1 X137.163 Y119.68 E.47345
G1 X136.64 Y119.68 E.01649
G1 X136.64 Y119.694 E.00044
G1 X126.016 Y109.07 E.47407
G1 X125.479 Y109.07 E.01693
M73 P8 R6
M73 Q8 S6
G1 X136.64 Y120.231 E.49801
G1 X136.64 Y120.767 E.01693
G1 X124.943 Y109.07 E.52196
G1 X124.406 Y109.07 E.01693
G1 X136.64 Y121.304 E.54591
G1 X136.64 Y121.841 E.01693
G1 X123.869 Y109.07 E.56985
G1 X123.333 Y109.07 E.01693
G1 X136.64 Y122.377 E.5938
G1 X136.64 Y122.914 E.01693
M73 P9 R6
M73 Q9 S6
G1 X122.796 Y109.07 E.61774
G1 X122.26 Y109.07 E.01693
G1 X136.64 Y123.45 E.64169
G1 X136.64 Y123.987 E.01693
G1 X121.723 Y109.07 E.66563
G1 X121.186 Y109.07 E.01693
G1 X136.64 Y124.524 E.68958
G1 X136.64 Y125.06 E.01693
M73 P10 R6
M73 Q10 S6
G1 X120.65 Y109.07 E.71353
G1 X120.113 Y109.07 E.01693
G1 X136.64 Y125.597 E.73747
G1 X136.64 Y126.134 E.01693
G1 X119.576 Y109.07 E.76142
G1 X119.04 Y109.07 E.01693
G1 X136.64 Y126.67 E.78536
G1 X136.64 Y127.207 E.01693
M73 P11 R6
M73 Q11 S6
G1 X118.503 Y109.07 E.80931
G1 X117.966 Y109.07 E.01693
G1 X136.327 Y127.43 E.81927
G1 X135.79 Y127.43 E.01693
G1 X117.43 Y109.07 E.81927
G1 X116.893 Y109.07 E.01693
M73 P12 R6
M73 Q12 S6
G1 X135.253 Y127.43 E.81927
G1 X134.717 Y127.43 E.01693
G1 X116.356 Y109.07 E.81927
G1 X115.82 Y109.07 E.01693
G1 X134.18 Y127.43 E.81927
G1 X133.643 Y127.43 E.01693
M73 Q13 S6
G1 X115.283 Y109.07 E.81927
M73 P13 R6
G1 X114.747 Y109.07 E.01693
G1 X133.107 Y127.43 E.81927
G1 X132.57 Y127.43 E.01693
G1 X114.21 Y109.07 E.81927
G1 X113.673 Y109.07 E.01693
G1 X132.034 Y127.43 E.81927
G1 X131.497 Y127.43 E.01693
M73 P14 R6
M73 Q14 S6
G1 X113.36 Y109.293 E.80931
G1 X113.36 Y109.83 E.01693
G1 X130.96 Y127.43 E.78536
G1 X130.424 Y127.43 E.01693
G1 X113.36 Y110.366 E.76141
G1 X113.36 Y110.903 E.01693
M73 P15 R6
M73 Q15 S6
G1 X129.887 Y127.43 E.73747
G1 X129.35 Y127.43 E.01693
G1 X113.36 Y111.44 E.71352
G1 X113.36 Y111.976 E.01693
G1 X128.814 Y127.43 E.68958
G1 X128.277 Y127.43 E.01693
G1 X113.36 Y112.513 E.66563
G1 X113.36 Y113.05 E.01693
M73 P16 R6
M73 Q16 S6
G1 X127.74 Y127.43 E.64169
G1 X127.204 Y127.43 E.01693
G1 X113.36 Y113.586 E.61774
G1 X113.36 Y114.123 E.01693
G1 X126.667 Y127.43 E.59379
G1 X126.13 Y127.43 E.01693
G1 X113.36 Y114.66 E.56985
G1 X113.36 Y115.196 E.01693
M73 P17 R6
M73 Q17 S6
G1 X125.594 Y127.43 E.5459
G1 X125.057 Y127.43 E.01693
G1 X113.36 Y115.733 E.52196
G1 X113.36 Y116.269 E.01693
G1 X124.521 Y127.43 E.49801
G1 X123.984 Y127.43 E.01693
G1 X113.36 Y116.806 E.47406
G1 X113.36 Y116.82 E.00044
G1 X112.837 Y116.82 E.0165
G1 X123.447 Y127.43 E.47345
G1 X122.911 Y127.43 E.01693
G1 X112.3 Y116.82 E.47345
M73 Q18 S6
G1 X111.764 Y116.82 E.01693
M73 P18 R6
G1 X122.374 Y127.43 E.47345
G1 X121.837 Y127.43 E.01693
G1 X111.36 Y116.953 E.46752
G1 X111.36 Y117.489 E.01693
G1 X121.301 Y127.43 E.44358
G1 X120.764 Y127.43 E.01693
G1 X113.36 Y120.026 E.33039
G1 X113.36 Y119.68 E.01091
G1 X113.014 Y119.68 E.01091
G1 X111.36 Y118.026 E.07381
G1 X111.36 Y118.563 E.01693
G1 X112.477 Y119.68 E.04987
G1 X111.941 Y119.68 E.01693
G1 X111.36 Y119.099 E.02592
G1 X111.36 Y119.636 E.01693
G1 X111.574 Y119.85 E.00955
M204 S1000
;WIPE_START
G1 F8640
G1 X111.36 Y119.636 E-.06987
G1 X111.36 Y119.099 E-.12391
G1 X111.941 Y119.68 E-.1897
G1 X112.477 Y119.68 E-.12391
G1 X111.704 Y118.907 E-.25261
;WIPE_END
G1 E-.04 F2100
G1 Z.6 F720
G1 X113.19 Y120.393 F10800
G1 Z.2 F720
G1 E.8 F2100
M204 S800
M73 Q19 S6
G1 F1200
G1 X120.227 Y127.43 E.31401
G1 X119.691 Y127.43 E.01693
M73 P19 R6
G1 X113.36 Y121.099 E.2825
M73 P19 R5
G1 X113.36 Y121.636 E.01693
G1 X119.154 Y127.43 E.25855
G1 X118.618 Y127.43 E.01693
M73 Q19 S5
G1 X113.36 Y122.172 E.23461
G1 X113.36 Y122.709 E.01693
G1 X118.081 Y127.43 E.21066
G1 X117.544 Y127.43 E.01693
G1 X113.36 Y123.246 E.18671
G1 X113.36 Y123.782 E.01693
G1 X117.008 Y127.43 E.16277
G1 X116.471 Y127.43 E.01693
G1 X113.36 Y124.319 E.13882
G1 X113.36 Y124.856 E.01693
G1 X115.934 Y127.43 E.11488
G1 X115.398 Y127.43 E.01693
G1 X113.36 Y125.392 E.09093
G1 X113.36 Y125.929 E.01693
G1 X114.861 Y127.43 E.06698
G1 X114.324 Y127.43 E.01693
G1 X113.36 Y126.466 E.04304
G1 X113.36 Y127.002 E.01693
G1 X113.957 Y127.6 E.02666
M204 S1000
; stop printing object Diffuser.stl id:0 copy 1
; printing object Diffuser.stl id:0 copy 0
;WIPE_START
G1 F8640
G1 X113.36 Y127.002 E-.19513
G1 X113.36 Y126.466 E-.12391
G1 X114.324 Y127.43 E-.31496
G1 X114.861 Y127.43 E-.12391
G1 X114.855 Y127.424 E-.00208
;WIPE_END
G1 E-.04 F2100
G1 Z.6 F720
G1 X136.923 Y90.037 F10800
G1 Z.2 F720
M73 Q20 S5
G1 E.8 F2100
M204 S800
;TYPE:Perimeter
;WIDTH:0.42
M73 P20 R5
G1 F1200
G1 X138.923 Y90.037 E.06271
G1 X138.923 Y93.463 E.10741
G1 X136.923 Y93.463 E.06271
G1 X136.923 Y101.213 E.243
G1 X113.077 Y101.213 E.74767
G1 X113.077 Y93.463 E.243
G1 X111.077 Y93.463 E.06271
G1 X111.077 Y90.037 E.10741
G1 X113.077 Y90.037 E.06271
G1 X113.077 Y82.287 E.243
G1 X136.923 Y82.287 E.74767
G1 X136.923 Y89.977 E.24111
M204 S1000
M73 P21 R5
M73 Q21 S5
G1 X137.3 Y89.66 F10800
M204 S800
;TYPE:External perimeter
G1 F1200
G1 X139.3 Y89.66 E.06271
G1 X139.3 Y93.84 E.13106
G1 X137.3 Y93.84 E.06271
G1 X137.3 Y101.59 E.243
G1 X112.7 Y101.59 E.77132
G1 X112.7 Y93.84 E.243
G1 X110.7 Y93.84 E.06271
G1 X110.7 Y89.66 E.13106
G1 X112.7 Y89.66 E.06271
G1 X112.7 Y81.91 E.243
G1 X137.3 Y81.91 E.77132
G1 X137.3 Y89.6 E.24111
M204 S1000
M73 P22 R5
M73 Q22 S5
G1 X137.464 Y90.025 F10800
;WIPE_START
G1 F8640
G1 X139.3 Y89.66 E-.46201
G1 X139.3 Y90.951 E-.29799
;WIPE_END
G1 E-.04 F2100
G1 Z.6 F720
G1 X136.042 Y82.4 F10800
G1 Z.2 F720
G1 E.8 F2100
M204 S800
;TYPE:Solid infill
;WIDTH:0.422382
G1 F1200
G1 X136.64 Y82.998 E.02667
G1 X136.64 Y83.534 E.01693
G1 X135.676 Y82.57 E.04304
G1 X135.139 Y82.57 E.01693
G1 X136.64 Y84.071 E.06699
G1 X136.64 Y84.608 E.01693
G1 X134.602 Y82.57 E.09093
G1 X134.066 Y82.57 E.01693
G1 X136.64 Y85.144 E.11488
G1 X136.64 Y85.681 E.01693
G1 X133.529 Y82.57 E.13883
G1 X132.992 Y82.57 E.01693
G1 X136.64 Y86.218 E.16277
G1 X136.64 Y86.754 E.01693
G1 X132.456 Y82.57 E.18672
G1 X131.919 Y82.57 E.01693
G1 X136.64 Y87.291 E.21066
G1 X136.64 Y87.828 E.01693
G1 X131.382 Y82.57 E.23461
G1 X130.846 Y82.57 E.01693
G1 X136.64 Y88.364 E.25855
G1 X136.64 Y88.901 E.01693
M73 Q23 S5
G1 X130.309 Y82.57 E.2825
G1 X129.772 Y82.57 E.01693
M73 P23 R5
G1 X136.81 Y89.607 E.31402
M204 S1000
;WIPE_START
G1 F8640
G1 X134.482 Y87.28 E-.76
;WIPE_END
G1 E-.04 F2100
G1 Z.6 F720
G1 X138.426 Y90.15 F10800
G1 Z.2 F720
G1 E.8 F2100
M204 S800
G1 F1200
G1 X138.64 Y90.364 E.00955
G1 X138.64 Y90.901 E.01693
G1 X138.059 Y90.32 E.02593
G1 X137.522 Y90.32 E.01693
G1 X138.64 Y91.438 E.04987
G1 X138.64 Y91.974 E.01693
G1 X136.986 Y90.32 E.07382
G1 X136.64 Y90.32 E.01091
G1 X136.64 Y89.974 E.01091
G1 X129.236 Y82.57 E.33039
G1 X128.699 Y82.57 E.01693
G1 X138.64 Y92.511 E.44358
G1 X138.64 Y93.047 E.01693
G1 X128.163 Y82.57 E.46753
G1 X127.626 Y82.57 E.01693
G1 X138.236 Y93.18 E.47345
G1 X137.7 Y93.18 E.01693
M73 P24 R5
M73 Q24 S5
G1 X127.089 Y82.57 E.47345
G1 X126.553 Y82.57 E.01693
G1 X137.163 Y93.18 E.47345
G1 X136.64 Y93.18 E.01649
G1 X136.64 Y93.194 E.00044
G1 X126.016 Y82.57 E.47407
G1 X125.479 Y82.57 E.01693
G1 X136.64 Y93.731 E.49801
G1 X136.64 Y94.267 E.01693
G1 X124.943 Y82.57 E.52196
G1 X124.406 Y82.57 E.01693
G1 X136.64 Y94.804 E.54591
M73 Q25 S5
G1 X136.64 Y95.341 E.01693
M73 P25 R5
G1 X123.869 Y82.57 E.56985
G1 X123.333 Y82.57 E.01693
G1 X136.64 Y95.877 E.5938
G1 X136.64 Y96.414 E.01693
G1 X122.796 Y82.57 E.61774
G1 X122.26 Y82.57 E.01693
G1 X136.64 Y96.95 E.64169
G1 X136.64 Y97.487 E.01693
M73 P26 R5
M73 Q26 S5
G1 X121.723 Y82.57 E.66563
G1 X121.186 Y82.57 E.01693
G1 X136.64 Y98.024 E.68958
G1 X136.64 Y98.56 E.01693
G1 X120.65 Y82.57 E.71353
G1 X120.113 Y82.57 E.01693
G1 X136.64 Y99.097 E.73747
G1 X136.64 Y99.634 E.01693
M73 P27 R5
M73 Q27 S5
G1 X119.576 Y82.57 E.76142
G1 X119.04 Y82.57 E.01693
G1 X136.64 Y100.17 E.78536
G1 X136.64 Y100.707 E.01693
G1 X118.503 Y82.57 E.80931
G1 X117.966 Y82.57 E.01693
G1 X136.327 Y100.93 E.81927
M73 Q28 S5
G1 X135.79 Y100.93 E.01693
M73 P28 R5
G1 X117.43 Y82.57 E.81927
G1 X116.893 Y82.57 E.01693
G1 X135.253 Y100.93 E.81927
G1 X134.717 Y100.93 E.01693
G1 X116.356 Y82.57 E.81927
G1 X115.82 Y82.57 E.01693
M73 P29 R5
M73 Q29 S5
G1 X134.18 Y100.93 E.81927
G1 X133.643 Y100.93 E.01693
G1 X115.283 Y82.57 E.81927
G1 X114.747 Y82.57 E.01693
G1 X133.107 Y100.93 E.81927
G1 X132.57 Y100.93 E.01693
M73 P30 R5
M73 Q30 S5
G1 X114.21 Y82.57 E.81927
G1 X113.673 Y82.57 E.01693
G1 X132.034 Y100.93 E.81927
G1 X131.497 Y100.93 E.01693
G1 X113.36 Y82.793 E.80931
G1 X113.36 Y83.33 E.01693
M73 Q31 S5
G1 X130.96 Y100.93 E.78536
G1 X130.424 Y100.93 E.01693
M73 P31 R5
G1 X113.36 Y83.866 E.76141
G1 X113.36 Y84.403 E.01693
G1 X129.887 Y100.93 E.73747
G1 X129.35 Y100.93 E.01693
G1 X113.36 Y84.94 E.71352
G1 X113.36 Y85.476 E.01693
M73 P32 R5
M73 Q32 S5
G1 X128.814 Y100.93 E.68958
G1 X128.277 Y100.93 E.01693
G1 X113.36 Y86.013 E.66563
G1 X113.36 Y86.55 E.01693
G1 X127.74 Y100.93 E.64169
G1 X127.204 Y100.93 E.01693
M73 P32 R4
M73 Q32 S4
G1 X113.36 Y87.086 E.61774
G1 X113.36 Y87.623 E.01693
M73 P33 R4
M73 Q33 S4
G1 X126.667 Y100.93 E.59379
G1 X126.13 Y100.93 E.01693
G1 X113.36 Y88.16 E.56985
G1 X113.36 Y88.696 E.01693
G1 X125.594 Y100.93 E.5459
G1 X125.057 Y100.93 E.01693
G1 X113.36 Y89.233 E.52196
G1 X113.36 Y89.769 E.01693
G1 X124.521 Y100.93 E.49801
G1 X123.984 Y100.93 E.01693
M73 P34 R4
M73 Q34 S4
G1 X113.36 Y90.306 E.47406
G1 X113.36 Y90.32 E.00044
G1 X112.837 Y90.32 E.0165
G1 X123.447 Y100.93 E.47345
G1 X122.911 Y100.93 E.01693
G1 X112.3 Y90.32 E.47345
G1 X111.764 Y90.32 E.01693
G1 X122.374 Y100.93 E.47345
G1 X121.837 Y100.93 E.01693
G1 X111.36 Y90.453 E.46752
G1 X111.36 Y90.989 E.01693
G1 X121.301 Y100.93 E.44358
G1 X120.764 Y100.93 E.01693
M73 P35 R4
M73 Q35 S4
G1 X113.36 Y93.526 E.33039
G1 X113.36 Y93.18 E.01091
G1 X113.014 Y93.18 E.01091
G1 X111.36 Y91.526 E.07381
G1 X111.36 Y92.063 E.01693
G1 X112.477 Y93.18 E.04987
G1 X111.941 Y93.18 E.01693
G1 X111.36 Y92.599 E.02592
G1 X111.36 Y93.136 E.01693
G1 X111.574 Y93.35 E.00955
M204 S1000
;WIPE_START
G1 F8640
G1 X111.36 Y93.136 E-.06987
G1 X111.36 Y92.599 E-.12391
G1 X111.941 Y93.18 E-.1897
G1 X112.477 Y93.18 E-.12391
G1 X111.704 Y92.407 E-.25261
;WIPE_END
G1 E-.04 F2100
G1 Z.6 F720
G1 X113.19 Y93.893 F10800
G1 Z.2 F720
G1 E.8 F2100
M204 S800
G1 F1200
G1 X120.227 Y100.93 E.31401
G1 X119.691 Y100.93 E.01693
G1 X113.36 Y94.599 E.2825
G1 X113.36 Y95.136 E.01693
G1 X119.154 Y100.93 E.25855
G1 X118.618 Y100.93 E.01693
G1 X113.36 Y95.672 E.23461
G1 X113.36 Y96.209 E.01693
G1 X118.081 Y100.93 E.21066
G1 X117.544 Y100.93 E.01693
G1 X113.36 Y96.746 E.18671
G1 X113.36 Y97.282 E.01693
M73 P36 R4
M73 Q36 S4
G1 X117.008 Y100.93 E.16277
G1 X116.471 Y100.93 E.01693
G1 X113.36 Y97.819 E.13882
G1 X113.36 Y98.356 E.01693
G1 X115.934 Y100.93 E.11488
G1 X115.398 Y100.93 E.01693
G1 X113.36 Y98.892 E.09093
G1 X113.36 Y99.429 E.01693
G1 X114.861 Y100.93 E.06698
G1 X114.324 Y100.93 E.01693
G1 X113.36 Y99.966 E.04304
G1 X113.36 Y100.502 E.01693
G1 X113.957 Y101.1 E.02666
M204 S1000
; stop printing object Diffuser.stl id:0 copy 0
M106 S255
;LAYER_CHANGE
;Z:0.4
;HEIGHT:0.2
;BEFORE_LAYER_CHANGE
G92 E0.0
;0.4


;WIPE_START
G1 F8640
G1 X113.36 Y100.502 E-.19513
G1 X113.36 Y99.966 E-.12391
G1 X114.324 Y100.93 E-.31496
G1 X114.861 Y100.93 E-.12391
G1 X114.855 Y100.924 E-.00208
;WIPE_END
G1 E-.04 F2100
G1 Z.6 F720
;AFTER_LAYER_CHANGE
;0.4
G1 X107.913 Y100.924 F10800
G1 Z.4 F720
G1 E.8 F2100
