; generated by PrusaSlicer 2.3.1+win64 on 2021-10-20 at 20:25:07 UTC

; 

; external perimeters extrusion width = 0.45mm
; perimeters extrusion width = 0.45mm
; infill extrusion width = 0.45mm
; solid infill extrusion width = 0.45mm
; top infill extrusion width = 0.40mm
; support material extrusion width = 0.35mm
; first layer extrusion width = 0.42mm

M73 P0 R241
M73 Q0 S242
M201 X1000 Y1000 Z1000 E5000 ; sets maximum accelerations, mm/sec^2
M203 X200 Y200 Z12 E120 ; sets maximum feedrates, mm/sec
M204 P1250 R1250 T1250 ; sets acceleration (P, T) and retract acceleration (R), mm/sec^2
M205 X8.00 Y8.00 Z0.40 E1.50 ; sets the jerk limits, mm/sec
M205 S0 T0 ; sets the minimum extruding and travel feed rate, mm/sec
M107
;TYPE:Custom
M862.3 P "MK3S" ; printer model check
M862.1 P0.4 ; nozzle diameter check
M115 U3.8.0 ; tell printer latest fw version
G90 ; use absolute coordinates
M83 ; extruder relative mode
M104 S215 ; set extruder temp
M140 S60 ; set bed temp
M190 S60 ; wait for bed temp
M109 S215 ; wait for extruder temp
G28 W ; home all without mesh bed level
G80 ; mesh bed leveling
G1 Y-3.0 F1000.0 ; go outside print area
G92 E0.0
G1 X60.0 E9.0 F1000.0 ; intro line
G1 X100.0 E12.5 F1000.0 ; intro line
G92 E0.0
M221 S95
G21 ; set units to millimeters
G90 ; use absolute coordinates
M83 ; use relative distances for extrusion
M900 K0.05 ; Filament gcode LA 1.5
M900 K30 ; Filament gcode LA 1.0
;LAYER_CHANGE
;Z:0.2
;HEIGHT:0.2
;BEFORE_LAYER_CHANGE
G92 E0.0
;0.2


G1 E-0.80000 F2100.000
G1 Z0.600 F10800.000
;AFTER_LAYER_CHANGE
;0.2
G1 X76.435 Y89.580
G1 Z0.200
G1 E0.80000 F2100.000
M204 S1000
;TYPE:Perimeter
;WIDTH:0.42
G1 F1200.000
G1 X76.965 Y89.188 E0.02068
G1 X77.555 Y88.891 E0.02071
G1 X78.194 Y88.697 E0.02093
G1 X78.839 Y88.614 E0.02041
G1 X79.498 Y88.642 E0.02068
G1 X80.144 Y88.781 E0.02071
G1 X80.756 Y89.027 E0.02067
G1 X81.317 Y89.373 E0.02066
G1 X81.812 Y89.809 E0.02070
G1 X82.227 Y90.323 E0.02071
G1 X82.551 Y90.906 E0.02093
G1 X82.768 Y91.520 E0.02041
G1 X82.880 Y92.170 E0.02068
G1 X82.880 Y92.830 E0.02068
G1 X82.768 Y93.480 E0.02068
G1 X82.548 Y94.102 E0.02068
G1 X82.227 Y94.678 E0.02068
G1 X81.812 Y95.191 E0.02068
G1 X81.317 Y95.627 E0.02068
G1 X80.755 Y95.973 E0.02068
G1 X80.143 Y96.219 E0.02068
G1 X79.498 Y96.358 E0.02068
G1 X78.839 Y96.386 E0.02068
G1 X78.185 Y96.302 E0.02068
G1 X77.554 Y96.109 E0.02068
G1 X76.965 Y95.812 E0.02068
G1 X76.435 Y95.420 E0.02068
G1 X75.979 Y94.943 E0.02068
G1 X75.609 Y94.397 E0.02068
G1 X75.337 Y93.796 E0.02068
G1 X75.171 Y93.157 E0.02071
G1 X75.116 Y92.491 E0.02093
G1 X75.171 Y91.843 E0.02041
G1 X75.337 Y91.204 E0.02068
G1 X75.609 Y90.603 E0.02068
G1 X75.979 Y90.057 E0.02068
G1 X76.393 Y89.624 E0.01880
G1 E-0.80000 F2100.000
G1 Z0.800 F10800.000
G1 X78.300 Y89.063
G1 Z0.200
G1 E0.80000 F2100.000
;TYPE:External perimeter
G1 F1200.000
G1 X78.855 Y88.992 E0.01755
G1 X79.450 Y89.018 E0.01867
G1 X80.033 Y89.143 E0.01870
G1 X80.585 Y89.365 E0.01865
G1 X81.092 Y89.677 E0.01865
G1 X81.539 Y90.071 E0.01869
G1 X81.913 Y90.534 E0.01868
G1 X82.206 Y91.062 E0.01892
G1 X82.402 Y91.615 E0.01841
G1 X82.503 Y92.202 E0.01867
G1 X82.503 Y92.798 E0.01867
G1 X82.402 Y93.385 E0.01867
G1 X82.204 Y93.946 E0.01867
G1 X81.913 Y94.466 E0.01867
G1 X81.539 Y94.929 E0.01867
G1 X81.092 Y95.323 E0.01867
G1 X80.585 Y95.635 E0.01867
G1 X80.032 Y95.857 E0.01867
G1 X79.450 Y95.982 E0.01867
G1 X78.855 Y96.008 E0.01867
G1 X78.265 Y95.932 E0.01867
G1 X77.695 Y95.758 E0.01867
G1 X77.164 Y95.490 E0.01867
G1 X76.685 Y95.135 E0.01867
G1 X76.273 Y94.706 E0.01867
G1 X75.940 Y94.212 E0.01867
G1 X75.694 Y93.670 E0.01867
G1 X75.544 Y93.093 E0.01868
G1 X75.494 Y92.492 E0.01892
G1 X75.544 Y91.907 E0.01841
G1 X75.694 Y91.330 E0.01867
G1 X75.940 Y90.788 E0.01867
G1 X76.273 Y90.294 E0.01867
G1 X76.685 Y89.865 E0.01867
G1 X77.164 Y89.510 E0.01867
G1 X77.696 Y89.242 E0.01868
G1 X78.242 Y89.076 E0.01790
G1 X78.424 Y88.683 F10800.000
G1 E-0.80000 F2100.000
G1 Z0.800 F10800.000
G1 X55.713 Y82.587
G1 Z0.200
G1 E0.80000 F2100.000
;TYPE:Perimeter
G1 F1200.000
G1 X83.255 Y82.587 E0.86355
G1 X106.684 Y98.916 E0.89542
G1 X106.951 Y99.138 E0.01089
G1 X107.161 Y99.383 E0.01010
G1 X107.326 Y99.659 E0.01010
G1 X107.443 Y99.960 E0.01010
G1 X107.508 Y100.275 E0.01010
G1 X107.519 Y100.592 E0.00994
G1 X107.475 Y100.918 E0.01029
G1 X107.379 Y101.224 E0.01008
G1 X107.232 Y101.511 E0.01011
G1 X107.039 Y101.769 E0.01010
G1 X106.805 Y101.991 E0.01010
G1 X106.538 Y102.171 E0.01010
G1 X106.248 Y102.301 E0.00994
G1 X105.931 Y102.384 E0.01029
G1 X105.586 Y102.413 E0.01086
G1 X74.754 Y102.413 E0.96671
G1 X51.325 Y86.084 E0.89542
G1 X51.058 Y85.862 E0.01088
G1 X50.848 Y85.617 E0.01011
G1 X50.682 Y85.341 E0.01010
G1 X50.568 Y85.045 E0.00994
G1 X50.501 Y84.724 E0.01029
G1 X50.490 Y84.402 E0.01008
G1 X50.534 Y84.083 E0.01010
G1 X50.630 Y83.776 E0.01010
G1 X50.777 Y83.489 E0.01011
G1 X50.970 Y83.231 E0.01010
G1 X51.204 Y83.009 E0.01010
G1 X51.471 Y82.829 E0.01010
G1 X51.760 Y82.699 E0.00994
G1 X52.078 Y82.616 E0.01029
G1 X52.423 Y82.587 E0.01086
G1 X55.653 Y82.587 E0.10127
G1 X55.653 Y82.210 F10800.000
;TYPE:External perimeter
G1 F1200.000
G1 X83.373 Y82.210 E0.86915
G1 X106.913 Y98.616 E0.89963
G1 X107.216 Y98.869 E0.01239
G1 X107.468 Y99.162 E0.01211
G1 X107.666 Y99.493 E0.01211
G1 X107.806 Y99.853 E0.01211
G1 X107.884 Y100.231 E0.01211
G1 X107.897 Y100.611 E0.01193
G1 X107.845 Y101.000 E0.01229
G1 X107.729 Y101.368 E0.01210
G1 X107.553 Y101.711 E0.01211
G1 X107.322 Y102.021 E0.01211
M73 Q0 S241
G1 X107.042 Y102.287 E0.01211
G1 X106.721 Y102.502 E0.01211
G1 X106.374 Y102.658 E0.01192
G1 X105.995 Y102.757 E0.01229
G1 X105.602 Y102.790 E0.01238
G1 X74.636 Y102.790 E0.97092
G1 X51.096 Y86.384 E0.89963
G1 X50.792 Y86.131 E0.01238
G1 X50.541 Y85.838 E0.01211
M73 P0 R240
G1 X50.343 Y85.507 E0.01211
G1 X50.205 Y85.153 E0.01192
G1 X50.125 Y84.769 E0.01229
G1 X50.112 Y84.383 E0.01210
G1 X50.164 Y84.001 E0.01211
G1 X50.280 Y83.632 E0.01211
G1 X50.456 Y83.289 E0.01211
G1 X50.687 Y82.979 E0.01211
G1 X50.967 Y82.713 E0.01211
G1 X51.288 Y82.498 E0.01211
G1 X51.635 Y82.342 E0.01192
G1 X52.014 Y82.243 E0.01229
G1 X52.407 Y82.210 E0.01238
G1 X55.593 Y82.210 E0.09989
G1 X55.854 Y82.556 F10800.000
G1 E-0.80000 F2100.000
G1 Z0.800 F10800.000
G1 X50.718 Y85.120
G1 Z0.200
G1 E0.80000 F2100.000
;TYPE:Solid infill
;WIDTH:0.421973
G1 F1200.000
G1 X51.259 Y85.661 E0.02413
G1 X51.497 Y85.858 E0.00972
G1 X53.133 Y86.999 E0.06287
G1 X50.781 Y84.647 E0.10483
G1 X50.774 Y84.417 E0.00726
G1 X50.812 Y84.142 E0.00876
G1 X54.902 Y88.232 E0.18232
G1 X56.671 Y89.465 E0.06796
G1 X50.959 Y83.753 E0.25459
G1 X51.018 Y83.639 E0.00405
G1 X51.173 Y83.431 E0.00818
G1 X58.440 Y90.698 E0.32390
G1 X60.209 Y91.931 E0.06796
G1 X51.457 Y83.179 E0.39010
G1 X51.609 Y83.077 E0.00576
G1 X51.804 Y82.990 E0.00674
G1 X61.978 Y93.164 E0.45350
G1 X63.747 Y94.397 E0.06796
G1 X52.237 Y82.887 E0.51305
G1 X52.756 Y82.870 E0.01638
G1 X65.516 Y95.630 E0.56875
G1 X67.285 Y96.863 E0.06796
G1 X53.292 Y82.870 E0.62371
G1 X53.828 Y82.870 E0.01690
G1 X69.054 Y98.096 E0.67867
G1 X70.823 Y99.329 E0.06796
G1 X54.365 Y82.870 E0.73363
G1 X54.901 Y82.870 E0.01690
G1 X72.592 Y100.562 E0.78858
G1 X74.361 Y101.795 E0.06796
G1 X55.437 Y82.870 E0.84354
G1 X55.973 Y82.870 E0.01690
G1 X75.233 Y102.130 E0.85850
G1 X75.769 Y102.130 E0.01690
G1 X56.509 Y82.870 E0.85850
G1 X57.045 Y82.870 E0.01690
G1 X76.305 Y102.130 E0.85850
G1 X76.841 Y102.130 E0.01690
G1 X57.581 Y82.870 E0.85850
G1 X58.117 Y82.870 E0.01690
G1 X77.377 Y102.130 E0.85850
G1 X77.913 Y102.130 E0.01690
G1 X58.653 Y82.870 E0.85850
G1 X59.189 Y82.870 E0.01690
G1 X78.449 Y102.130 E0.85850
G1 X78.985 Y102.130 E0.01690
G1 X59.725 Y82.870 E0.85850
G1 X60.261 Y82.870 E0.01690
G1 X79.521 Y102.130 E0.85850
G1 X80.058 Y102.130 E0.01690
G1 X60.797 Y82.870 E0.85850
G1 X61.333 Y82.870 E0.01690
G1 X80.594 Y102.130 E0.85850
G1 X81.130 Y102.130 E0.01690
G1 X61.869 Y82.870 E0.85850
G1 X62.405 Y82.870 E0.01690
G1 X81.666 Y102.130 E0.85850
G1 X82.202 Y102.130 E0.01690
G1 X62.942 Y82.870 E0.85850
G1 X63.478 Y82.870 E0.01690
G1 X82.908 Y102.300 E0.86606
G1 E-0.80000 F2100.000
G1 Z0.800 F10800.000
G1 X94.165 Y102.300
G1 Z0.200
G1 E0.80000 F2100.000
G1 F1200.000
G1 X82.895 Y91.030 E0.50234
G1 X83.043 Y91.448 E0.01399
G1 X83.098 Y91.769 E0.01024
G1 X93.459 Y102.130 E0.46184
G1 X92.923 Y102.130 E0.01690
G1 X83.162 Y92.370 E0.43506
G1 X83.155 Y92.898 E0.01666
G1 X92.387 Y102.130 E0.41151
G1 X91.851 Y102.130 E0.01690
G1 X83.076 Y93.356 E0.39111
G1 X83.043 Y93.552 E0.00626
G1 X82.963 Y93.778 E0.00757
G1 X91.315 Y102.130 E0.37228
G1 X90.779 Y102.130 E0.01690
G1 X82.823 Y94.174 E0.35463
G1 X82.637 Y94.524 E0.01249
G1 X90.243 Y102.130 E0.33903
G1 X89.707 Y102.130 E0.01690
G1 X82.440 Y94.864 E0.32389
G1 X82.201 Y95.160 E0.01201
G1 X89.171 Y102.130 E0.31067
G1 X88.635 Y102.130 E0.01690
G1 X81.951 Y95.446 E0.29793
G1 X81.665 Y95.697 E0.01197
G1 X88.098 Y102.130 E0.28674
G1 X87.562 Y102.130 E0.01690
G1 X81.363 Y95.931 E0.27633
G1 X81.031 Y96.135 E0.01228
G1 X87.026 Y102.130 E0.26722
G1 X86.490 Y102.130 E0.01690
G1 X80.671 Y96.311 E0.25937
G1 X80.289 Y96.465 E0.01299
G1 X85.954 Y102.130 E0.25252
G1 X85.418 Y102.130 E0.01690
G1 X79.858 Y96.570 E0.24785
G1 X79.535 Y96.639 E0.01042
G1 X79.397 Y96.645 E0.00434
G1 X84.882 Y102.130 E0.24449
G1 X84.346 Y102.130 E0.01690
G1 X78.883 Y96.667 E0.24352
G1 X78.279 Y96.599 E0.01916
G1 X83.810 Y102.130 E0.24654
G1 X83.274 Y102.130 E0.01690
G1 X77.546 Y96.402 E0.25533
G1 X77.449 Y96.372 E0.00320
G1 X76.817 Y96.053 E0.02231
G1 X76.247 Y95.633 E0.02231
G1 X75.758 Y95.122 E0.02231
G1 X75.361 Y94.535 E0.02231
G1 X75.099 Y93.956 E0.02005
G1 X64.014 Y82.870 E0.49413
G1 X64.550 Y82.870 E0.01690
G1 X74.894 Y93.214 E0.46107
G1 X74.844 Y92.628 E0.01855
G1 X65.086 Y82.870 E0.43494
G1 X65.622 Y82.870 E0.01690
G1 X74.864 Y92.112 E0.41198
G1 X74.891 Y91.795 E0.01005
G1 X74.931 Y91.643 E0.00494
G1 X66.158 Y82.870 E0.39105
G1 X66.694 Y82.870 E0.01690
G1 X75.042 Y91.218 E0.37209
G1 X75.070 Y91.110 E0.00351
G1 X75.194 Y90.834 E0.00953
G1 X67.230 Y82.870 E0.35500
G1 X67.766 Y82.870 E0.01690
G1 X75.361 Y90.465 E0.33855
G1 X75.577 Y90.145 E0.01217
G1 X68.302 Y82.870 E0.32429
G1 X68.838 Y82.870 E0.01690
G1 X75.801 Y89.833 E0.31037
G1 X76.064 Y89.559 E0.01195
G1 X69.374 Y82.870 E0.29817
G1 X69.910 Y82.870 E0.01690
G1 X76.340 Y89.299 E0.28658
G1 X76.648 Y89.071 E0.01208
G1 X70.446 Y82.870 E0.27642
G1 X70.982 Y82.870 E0.01690
G1 X76.978 Y88.865 E0.26724
G1 X77.334 Y88.686 E0.01258
G1 X71.519 Y82.870 E0.25923
G1 X72.055 Y82.870 E0.01690
G1 X77.728 Y88.543 E0.25287
G1 X78.140 Y88.419 E0.01356
G1 X72.591 Y82.870 E0.24734
G1 X73.127 Y82.870 E0.01690
G1 X78.615 Y88.358 E0.24462
G1 X78.827 Y88.331 E0.00675
G1 X79.137 Y88.344 E0.00976
G1 X73.663 Y82.870 E0.24400
G1 X74.199 Y82.870 E0.01690
G1 X79.732 Y88.403 E0.24665
G1 X80.227 Y88.510 E0.01596
G1 X80.475 Y88.610 E0.00840
G1 X74.735 Y82.870 E0.25584
G1 X75.271 Y82.870 E0.01690
G1 X94.531 Y102.130 E0.85850
M73 Q0 S240
G1 X95.067 Y102.130 E0.01690
G1 X75.807 Y82.870 E0.85850
G1 X76.343 Y82.870 E0.01690
G1 X95.603 Y102.130 E0.85850
M73 P0 R239
G1 X96.139 Y102.130 E0.01690
G1 X76.879 Y82.870 E0.85850
G1 X77.415 Y82.870 E0.01690
G1 X96.675 Y102.130 E0.85850
G1 X97.212 Y102.130 E0.01690
G1 X77.951 Y82.870 E0.85850
G1 X78.487 Y82.870 E0.01690
G1 X97.748 Y102.130 E0.85850
G1 X98.284 Y102.130 E0.01690
G1 X79.023 Y82.870 E0.85850
G1 X79.559 Y82.870 E0.01690
G1 X98.820 Y102.130 E0.85850
G1 X99.356 Y102.130 E0.01690
G1 X80.096 Y82.870 E0.85850
G1 X80.632 Y82.870 E0.01690
G1 X99.892 Y102.130 E0.85850
G1 X100.428 Y102.130 E0.01690
G1 X81.168 Y82.870 E0.85850
G1 X81.704 Y82.870 E0.01690
G1 X100.964 Y102.130 E0.85850
G1 X101.500 Y102.130 E0.01690
G1 X82.240 Y82.870 E0.85850
G1 X82.776 Y82.870 E0.01690
G1 X102.036 Y102.130 E0.85850
G1 X102.572 Y102.130 E0.01690
G1 X83.647 Y83.205 E0.84355
G1 X85.416 Y84.438 E0.06796
G1 X103.108 Y102.130 E0.78860
G1 X103.644 Y102.130 E0.01690
G1 X87.185 Y85.671 E0.73364
G1 X88.954 Y86.904 E0.06796
G1 X104.180 Y102.130 E0.67868
G1 X104.716 Y102.130 E0.01690
G1 X90.723 Y88.137 E0.62372
G1 X92.492 Y89.370 E0.06796
G1 X105.252 Y102.130 E0.56877
G1 X105.772 Y102.113 E0.01638
G1 X94.261 Y90.603 E0.51306
G1 X96.030 Y91.836 E0.06796
G1 X106.205 Y102.010 E0.45351
G1 X106.400 Y101.923 E0.00674
G1 X106.551 Y101.821 E0.00575
G1 X97.799 Y93.069 E0.39011
G1 X99.568 Y94.302 E0.06796
G1 X106.836 Y101.569 E0.32392
G1 X106.991 Y101.361 E0.00818
G1 X107.049 Y101.247 E0.00404
G1 X101.337 Y95.535 E0.25460
G1 X103.106 Y96.768 E0.06796
G1 X107.197 Y100.858 E0.18234
G1 X107.235 Y100.578 E0.00892
G1 X107.228 Y100.353 E0.00710
G1 X104.876 Y98.001 E0.10484
G1 X106.512 Y99.142 E0.06289
G1 X106.749 Y99.338 E0.00968
G1 X107.291 Y99.880 E0.02417
G1 E-0.80000 F2100.000
G1 Z0.800 F10800.000
G1 X82.227 Y115.323
G1 Z0.200
G1 E0.80000 F2100.000
;TYPE:Perimeter
;WIDTH:0.42
G1 F1200.000
G1 X82.551 Y115.906 E0.02093
G1 X82.768 Y116.520 E0.02041
G1 X82.880 Y117.170 E0.02068
G1 X82.880 Y117.830 E0.02068
G1 X82.768 Y118.480 E0.02068
G1 X82.548 Y119.102 E0.02068
G1 X82.227 Y119.678 E0.02068
G1 X81.812 Y120.191 E0.02068
G1 X81.317 Y120.627 E0.02068
G1 X80.755 Y120.973 E0.02068
G1 X80.143 Y121.219 E0.02068
G1 X79.498 Y121.358 E0.02068
G1 X78.839 Y121.386 E0.02068
G1 X78.185 Y121.302 E0.02068
G1 X77.554 Y121.109 E0.02068
G1 X76.965 Y120.812 E0.02068
G1 X76.435 Y120.420 E0.02068
G1 X75.979 Y119.943 E0.02068
G1 X75.609 Y119.397 E0.02068
G1 X75.337 Y118.796 E0.02068
G1 X75.171 Y118.157 E0.02071
G1 X75.116 Y117.491 E0.02093
G1 X75.171 Y116.843 E0.02041
G1 X75.337 Y116.204 E0.02068
G1 X75.609 Y115.603 E0.02068
G1 X75.979 Y115.057 E0.02068
G1 X76.435 Y114.580 E0.02068
G1 X76.965 Y114.188 E0.02068
G1 X77.555 Y113.891 E0.02071
G1 X78.194 Y113.697 E0.02093
G1 X78.839 Y113.614 E0.02041
G1 X79.498 Y113.642 E0.02068
G1 X80.144 Y113.781 E0.02071
G1 X80.756 Y114.027 E0.02067
G1 X81.317 Y114.373 E0.02066
G1 X81.812 Y114.809 E0.02070
G1 X82.189 Y115.276 E0.01882
G1 X81.961 Y115.620 F10800.000
;TYPE:External perimeter
G1 F1200.000
G1 X82.206 Y116.062 E0.01583
G1 X82.402 Y116.615 E0.01841
G1 X82.503 Y117.202 E0.01867
G1 X82.503 Y117.798 E0.01867
G1 X82.402 Y118.385 E0.01867
G1 X82.204 Y118.946 E0.01867
G1 X81.913 Y119.466 E0.01867
G1 X81.539 Y119.929 E0.01867
G1 X81.092 Y120.323 E0.01867
G1 X80.585 Y120.635 E0.01867
G1 X80.032 Y120.857 E0.01867
G1 X79.450 Y120.982 E0.01867
G1 X78.855 Y121.008 E0.01867
G1 X78.265 Y120.932 E0.01867
G1 X77.695 Y120.758 E0.01867
G1 X77.164 Y120.490 E0.01867
G1 X76.685 Y120.135 E0.01867
G1 X76.273 Y119.706 E0.01867
G1 X75.940 Y119.212 E0.01867
G1 X75.694 Y118.670 E0.01867
G1 X75.544 Y118.093 E0.01868
G1 X75.494 Y117.492 E0.01892
G1 X75.544 Y116.907 E0.01841
G1 X75.694 Y116.330 E0.01867
G1 X75.940 Y115.788 E0.01867
G1 X76.273 Y115.294 E0.01867
G1 X76.685 Y114.865 E0.01867
G1 X77.164 Y114.510 E0.01867
G1 X77.696 Y114.242 E0.01868
G1 X78.273 Y114.067 E0.01892
G1 X78.855 Y113.992 E0.01841
G1 X79.450 Y114.018 E0.01867
G1 X80.033 Y114.143 E0.01870
G1 X80.585 Y114.365 E0.01865
G1 X81.092 Y114.677 E0.01865
G1 X81.539 Y115.071 E0.01869
G1 X81.932 Y115.568 E0.01987
G1 X82.360 Y115.595 F10800.000
G1 E-0.80000 F2100.000
G1 Z0.800 F10800.000
G1 X86.514 Y109.858
G1 Z0.200
G1 E0.80000 F2100.000
;TYPE:Perimeter
G1 F1200.000
G1 X106.684 Y123.916 E0.77087
G1 X106.951 Y124.138 E0.01089
G1 X107.161 Y124.383 E0.01010
G1 X107.326 Y124.659 E0.01010
G1 X107.443 Y124.960 E0.01010
G1 X107.508 Y125.275 E0.01010
G1 X107.519 Y125.592 E0.00994
G1 X107.475 Y125.918 E0.01029
G1 X107.379 Y126.224 E0.01008
G1 X107.232 Y126.511 E0.01011
G1 X107.039 Y126.769 E0.01010
G1 X106.805 Y126.991 E0.01010
G1 X106.538 Y127.171 E0.01010
G1 X106.248 Y127.301 E0.00994
G1 X105.931 Y127.384 E0.01029
G1 X105.586 Y127.413 E0.01086
G1 X74.754 Y127.413 E0.96671
G1 X51.325 Y111.084 E0.89542
G1 X51.058 Y110.862 E0.01088
G1 X50.848 Y110.617 E0.01011
G1 X50.682 Y110.341 E0.01010
G1 X50.568 Y110.045 E0.00994
G1 X50.501 Y109.724 E0.01029
G1 X50.490 Y109.402 E0.01008
G1 X50.534 Y109.083 E0.01010
G1 X50.630 Y108.776 E0.01010
G1 X50.777 Y108.489 E0.01011
G1 X50.970 Y108.231 E0.01010
G1 X51.204 Y108.009 E0.01010
