; G-Code generated by Simplify3D(R) Version 4.0.0
; Feb 5, 2018 at 11:16:57 AM
; Settings Summary
;   processName,Process1
;   applyToModels,mechanic signV2R2(4),mechanic signV2R2(4)(2),mechanic signV2R2(4)(3),mechanic signV2R2(4)(4),mechanic signV2R2(4)(5)
;   profileName,Prusa Research Original Prusa i3 MK2 (modified)
;   profileVersion,2018-02-02 14:08:15
;   baseProfile,
;   printMaterial,PLA
;   printQuality,Fast
;   printExtruders,
;   extruderName,Primary Extruder
;   extruderToolheadNumber,0
;   extruderDiameter,0.4
;   extruderAutoWidth,0
;   extruderWidth,0.4
;   extrusionMultiplier,1
;   extruderUseRetract,1
;   extruderRetractionDistance,1.5
;   extruderExtraRestartDistance,0
;   extruderRetractionZLift,0
;   extruderRetractionSpeed,1800
;   extruderUseCoasting,1
;   extruderCoastingDistance,0.2
;   extruderUseWipe,1
;   extruderWipeDistance,2
;   primaryExtruder,0
;   layerHeight,0.2
;   topSolidLayers,3
;   bottomSolidLayers,3
;   perimeterOutlines,2
;   printPerimetersInsideOut,0
;   startPointOption,3
;   startPointOriginX,125
;   startPointOriginY,0
;   sequentialIslands,0
;   spiralVaseMode,0
;   firstLayerHeightPercentage,90
;   firstLayerWidthPercentage,100
;   firstLayerUnderspeed,0.5
;   useRaft,0
;   raftExtruder,0
;   raftTopLayers,2
;   raftBaseLayers,1
;   raftOffset,2
;   raftSeparationDistance,0.14
;   raftTopInfill,100
;   aboveRaftSpeedMultiplier,0.3
;   useSkirt,0
;   skirtExtruder,0
;   skirtLayers,1
;   skirtOutlines,1
;   skirtOffset,4
;   usePrimePillar,0
;   primePillarExtruder,999
;   primePillarWidth,12
;   primePillarLocation,7
;   primePillarSpeedMultiplier,1
;   useOozeShield,0
;   oozeShieldExtruder,999
;   oozeShieldOffset,2
;   oozeShieldOutlines,1
;   oozeShieldSidewallShape,1
;   oozeShieldSidewallAngle,30
;   oozeShieldSpeedMultiplier,1
;   infillExtruder,0
;   internalInfillPattern,Rectilinear
;   externalInfillPattern,Rectilinear
;   infillPercentage,15
;   outlineOverlapPercentage,30
;   infillExtrusionWidthPercentage,125
;   minInfillLength,1
;   infillLayerInterval,1
;   internalInfillAngles,45,-45
;   overlapInternalInfillAngles,0
;   externalInfillAngles,45,-45
;   generateSupport,1
;   supportExtruder,0
;   supportInfillPercentage,20
;   supportExtraInflation,0.2
;   supportBaseLayers,0
;   denseSupportExtruder,0
;   denseSupportLayers,0
;   denseSupportInfillPercentage,70
;   supportLayerInterval,1
;   supportHorizontalPartOffset,0.2
;   supportUpperSeparationLayers,1
;   supportLowerSeparationLayers,1
;   supportType,0
;   supportGridSpacing,4
;   maxOverhangAngle,45
;   supportAngles,0
;   temperatureName,Primary Extruder,Heated Bed
;   temperatureNumber,0,0
;   temperatureSetpointCount,1,1
;   temperatureSetpointLayers,1,1
;   temperatureSetpointTemperatures,230,55
;   temperatureStabilizeAtStartup,1,1
;   temperatureHeatedBed,0,1
;   temperatureRelayBetweenLayers,1,1
;   temperatureRelayBetweenLoops,0,0
;   fanLayers,1,2
;   fanSpeeds,0,100
;   blipFanToFullPower,0
;   adjustSpeedForCooling,1
;   minSpeedLayerTime,5
;   minCoolingSpeedSlowdown,10
;   increaseFanForCooling,1
;   minFanLayerTime,45
;   maxCoolingFanSpeed,100
;   increaseFanForBridging,1
;   bridgingFanSpeed,100
;   use5D,1
;   relativeEdistances,0
;   allowEaxisZeroing,1
;   independentExtruderAxes,0
;   includeM10123,0
;   stickySupport,1
;   applyToolheadOffsets,0
;   gcodeXoffset,0
;   gcodeYoffset,0
;   gcodeZoffset,0
;   overrideMachineDefinition,1
;   machineTypeOverride,0
;   strokeXoverride,250
;   strokeYoverride,210
;   strokeZoverride,200
;   originOffsetXoverride,0
;   originOffsetYoverride,0
;   originOffsetZoverride,0
;   homeXdirOverride,-1
;   homeYdirOverride,-1
;   homeZdirOverride,-1
;   flipXoverride,1
;   flipYoverride,-1
;   flipZoverride,1
;   toolheadOffsets,0,0|0,0|0,0|0,0|0,0|0,0
;   overrideFirmwareConfiguration,1
;   firmwareTypeOverride,RepRap (Marlin/Repetier/Sprinter)
;   GPXconfigOverride,r2
;   baudRateOverride,250000
;   overridePrinterModels,1
;   printerModelsOverride
;   startingGcode,M115 U3.0.7 ; use the latest firmware version,G28 W ; home all axes without mesh bed leveling,G80 ; run mesh bed leveling routine,G1 Y-3.0 F1000.0 ; prepare to prime,G92 E0 ; reset extrusion distance,G1 X60.0 E9.0  F1000.0 ; priming,G1 X100.0 E12.5  F1000.0 ; priming
;   layerChangeGcode,
;   retractionGcode,
;   toolChangeGcode,
;   endingGcode,M106 S0 ; turn off cooling fan,M104 S0 ; turn off extruder,M140 S0 ; turn off bed,G1 X0 Y200 ; part removal,M84 ; disable motors
;   exportFileFormat,gcode
;   celebration,0
;   celebrationSong,Random Song
;   postProcessing,
;   defaultSpeed,2400
;   outlineUnderspeed,1
;   solidInfillUnderspeed,1
;   supportUnderspeed,1
;   rapidXYspeed,4800
;   rapidZspeed,1002
;   minBridgingArea,50
;   bridgingExtraInflation,0
;   bridgingExtrusionMultiplier,1
;   bridgingSpeedMultiplier,1
;   useFixedBridgingAngle,0
;   fixedBridgingAngle,0
;   applyBridgingToPerimeters,0
;   filamentDiameters,1.75|1.75|1.75|1.75|1.75|1.75
;   filamentPricesPerKg,46|46|46|46|46|46
;   filamentDensities,1.25|1.25|1.25|1.25|1.25|1.25
;   useMinPrintHeight,0
;   minPrintHeight,4.58
;   useMaxPrintHeight,0
;   maxPrintHeight,4.58
;   useDiaphragm,0
;   diaphragmLayerInterval,20
;   robustSlicing,1
;   mergeAllIntoSolid,0
;   onlyRetractWhenCrossingOutline,1
;   retractBetweenLayers,0
;   useRetractionMinTravel,1
;   retractionMinTravel,3
;   retractWhileWiping,1
;   onlyWipeOutlines,1
;   avoidCrossingOutline,0
;   maxMovementDetourFactor,3
;   toolChangeRetractionDistance,12
;   toolChangeExtraRestartDistance,-0.5
;   toolChangeRetractionSpeed,600
;   externalThinWallType,0
;   internalThinWallType,1
;   thinWallAllowedOverlapPercentage,10
;   singleExtrusionMinLength,0.3
;   singleExtrusionMinPrintingWidthPercentage,25
;   singleExtrusionMaxPrintingWidthPercentage,200
;   singleExtrusionEndpointExtension,0.2
;   horizontalSizeCompensation,0
G90
M82
M106 S0
M140 S55
M190 S55
M104 S230 T0
M109 S230 T0
M115 U3.0.7 ; use the latest firmware version
G28 W ; home all axes without mesh bed leveling
G80 ; run mesh bed leveling routine
G1 Y-3.0 F1000.0 ; prepare to prime
G92 E0 ; reset extrusion distance
G1 X60.0 E9.0  F1000.0 ; priming
G1 X100.0 E12.5  F1000.0 ; priming
G92 E0
G1 E-1.5000 F1800
G1 Z0.180 F1002
; process Process1
; layer 1, Z = 0.180
M105
M105
T0
; tool H0.200 W0.400
; outer perimeter
G1 X110.849 Y82.699 F4800
G1 E0.0000 F540
G92 E0
G1 X110.849 Y96.301 E0.4524 F1200
G1 X93.348 Y96.301 E1.0345
G1 X93.348 Y82.699 E1.4869
G1 X110.649 Y82.699 E2.0623
G1 X110.849 Y82.699 F1200
G1 X110.849 Y84.699 F2400
; inner perimeter
G1 X110.449 Y83.099 F4800
G92 E0
G1 X110.449 Y95.901 E0.4258 F1200
G1 X93.748 Y95.901 E0.9813
G1 X93.748 Y83.099 E1.4070
G1 X110.249 Y83.099 E1.9559
G1 X110.449 Y83.099 F1200
; outer perimeter
G1 X107.237 Y87.230 F4800
G92 E0
G1 X106.785 Y87.185 E0.0151 F1200
G1 X106.334 Y87.230 E0.0302
G1 X105.900 Y87.362 E0.0453
G1 X105.499 Y87.575 E0.0604
G1 X105.149 Y87.863 E0.0755
G1 X104.861 Y88.214 E0.0906
G1 X104.647 Y88.614 E0.1056
G1 X104.515 Y89.048 E0.1207
G1 X104.471 Y89.500 E0.1358
G1 X104.515 Y89.952 E0.1509
G1 X104.647 Y90.386 E0.1660
G1 X104.861 Y90.786 E0.1811
G1 X105.149 Y91.137 E0.1962
G1 X105.499 Y91.425 E0.2113
G1 X105.900 Y91.638 E0.2264
G1 X106.334 Y91.770 E0.2415
G1 X106.785 Y91.815 E0.2566
G1 X107.237 Y91.770 E0.2717
G1 X107.671 Y91.638 E0.2867
G1 X108.071 Y91.425 E0.3018
G1 X108.422 Y91.137 E0.3169
G1 X108.710 Y90.786 E0.3320
G1 X108.924 Y90.386 E0.3471
G1 X109.056 Y89.952 E0.3622
G1 X109.100 Y89.500 E0.3773
G1 X109.056 Y89.048 E0.3924
G1 X108.924 Y88.614 E0.4075
G1 X108.710 Y88.214 E0.4226
G1 X108.422 Y87.863 E0.4377
G1 X108.071 Y87.575 E0.4528
G1 X107.671 Y87.362 E0.4678
G1 X107.428 Y87.288 E0.4763
G1 X107.237 Y87.230 F1200
G1 X106.785 Y87.185 F2400
G1 X106.334 Y87.230 F2400
G1 X105.900 Y87.362 F2400
G1 X105.499 Y87.575 F2400
G1 X105.356 Y87.693 F2400
; inner perimeter
G1 X107.315 Y86.836 F4800
G92 E0
G1 X106.785 Y86.783 E0.0177 F1200
G1 X106.255 Y86.836 E0.0354
G1 X105.746 Y86.990 E0.0531
G1 X105.276 Y87.241 E0.0708
G1 X104.864 Y87.579 E0.0886
G1 X104.527 Y87.991 E0.1063
G1 X104.276 Y88.460 E0.1240
G1 X104.121 Y88.970 E0.1417
G1 X104.069 Y89.500 E0.1594
G1 X104.121 Y90.030 E0.1771
G1 X104.276 Y90.540 E0.1948
G1 X104.527 Y91.009 E0.2125
G1 X104.864 Y91.421 E0.2303
G1 X105.276 Y91.759 E0.2480
G1 X105.746 Y92.010 E0.2657
G1 X106.255 Y92.164 E0.2834
G1 X106.785 Y92.217 E0.3011
G1 X107.315 Y92.164 E0.3188
G1 X107.825 Y92.010 E0.3365
G1 X108.295 Y91.759 E0.3542
G1 X108.706 Y91.421 E0.3720
G1 X109.044 Y91.009 E0.3897
G1 X109.295 Y90.540 E0.4074
G1 X109.450 Y90.030 E0.4251
G1 X109.502 Y89.500 E0.4428
G1 X109.450 Y88.970 E0.4605
G1 X109.295 Y88.460 E0.4782
G1 X109.044 Y87.991 E0.4959
G1 X108.706 Y87.579 E0.5137
G1 X108.295 Y87.241 E0.5314
G1 X107.825 Y86.990 E0.5491
G1 X107.507 Y86.894 E0.5601
G1 X107.315 Y86.836 F1200
; solid layer
G1 X109.586 Y88.455 F4800
G92 E0
G1 X110.169 Y89.038 E0.0274 F1200
G1 X110.169 Y89.604 E0.0462
G1 X109.752 Y89.187 E0.0659
G1 X109.783 Y89.500 E0.0763
G1 X109.758 Y89.758 E0.0849
G1 X110.169 Y90.169 E0.1043
G1 X110.169 Y90.735 E0.1231
G1 X109.678 Y90.243 E0.1462
G1 X109.555 Y90.647 E0.1603
G1 X109.541 Y90.673 E0.1612
G1 X110.169 Y91.301 E0.1908
G1 X110.169 Y91.866 E0.2096
G1 X109.344 Y91.041 E0.2484
G1 X109.278 Y91.166 E0.2531
G1 X109.109 Y91.372 E0.2619
G1 X110.169 Y92.432 E0.3118
G1 X110.169 Y92.998 E0.3306
G1 X108.843 Y91.671 E0.3930
G1 X108.532 Y91.926 E0.4064
G1 X110.169 Y93.563 E0.4834
G1 X110.169 Y94.129 E0.5022
G1 X108.179 Y92.138 E0.5958
G1 X107.933 Y92.270 E0.6051
G1 X107.788 Y92.314 E0.6101
G1 X110.169 Y94.695 E0.7221
G1 X110.169 Y95.260 E0.7409
G1 X107.351 Y92.442 E0.8735
G1 X106.836 Y92.493 E0.8907
G1 X109.964 Y95.621 E1.0378
G1 X109.398 Y95.621 E1.0566
G1 X106.361 Y92.584 E1.1995
G1 X106.220 Y92.442 F1200
G92 E0
G1 E-1.5000 F1800
G1 X110.168 Y83.379 F4800
G1 E0.0000 F1800
G92 E0
G1 X110.169 Y83.381 E0.0001 F1200
G1 X110.169 Y83.947 E0.0189
G1 X109.602 Y83.379 E0.0456
G1 X109.036 Y83.379 E0.0644
G1 X110.169 Y84.512 E0.1177
G1 X110.169 Y85.078 E0.1365
G1 X108.471 Y83.379 E0.2164
G1 X107.905 Y83.379 E0.2352
G1 X110.169 Y85.644 E0.3417
G1 X110.169 Y86.209 E0.3605
G1 X107.339 Y83.379 E0.4937
G1 X106.773 Y83.379 E0.5125
G1 X110.169 Y86.775 E0.6722
G1 X110.169 Y87.341 E0.6910
G1 X106.208 Y83.379 E0.8773
G1 X105.642 Y83.379 E0.8962
G1 X110.169 Y87.906 E1.1091
G1 X110.169 Y88.472 E1.1279
G1 X105.076 Y83.379 E1.3675
G1 X104.511 Y83.379 E1.3863
G1 X107.831 Y86.699 E1.5424
G1 X107.370 Y86.560 E1.5584
G1 X107.099 Y86.533 E1.5675
G1 X103.945 Y83.379 E1.7159
G1 X103.379 Y83.379 E1.7347
G1 X106.527 Y86.527 E1.8827
G1 X106.201 Y86.560 E1.8937
G1 X106.042 Y86.608 E1.8992
G1 X102.814 Y83.379 E2.0510
G1 X102.248 Y83.379 E2.0699
G1 X105.613 Y86.744 E2.2281
G1 X105.244 Y86.941 E2.2420
G1 X101.682 Y83.379 E2.4095
G1 X101.117 Y83.379 E2.4284
G1 X104.914 Y87.176 E2.6070
G1 X104.665 Y87.380 E2.6176
G1 X104.614 Y87.443 E2.6203
G1 X100.551 Y83.379 E2.8115
G1 X99.985 Y83.379 E2.8303
G1 X104.359 Y87.753 E3.0360
G1 X104.293 Y87.834 E3.0395
G1 X104.147 Y88.107 E3.0498
G1 X99.420 Y83.379 E3.2721
G1 X98.854 Y83.379 E3.2910
G1 X103.972 Y88.497 E3.5317
G1 X103.845 Y88.915 E3.5462
G1 X103.843 Y88.934 E3.5468
G1 X98.288 Y83.379 E3.8081
G1 X97.723 Y83.379 E3.8270
G1 X103.792 Y89.449 E4.1125
G1 X103.787 Y89.500 E4.1142
G1 X103.843 Y90.066 E4.1331
G1 X97.157 Y83.379 E4.4476
G1 X96.591 Y83.379 E4.4664
G1 X104.195 Y90.984 E4.8241
G1 X104.293 Y91.166 E4.8309
G1 X104.665 Y91.620 E4.8505
G1 X105.120 Y91.993 E4.8700
G1 X105.302 Y92.090 E4.8769
G1 X108.832 Y95.621 E5.0430
G1 X108.267 Y95.621 E5.0618
G1 X96.025 Y83.379 E5.6376
G1 X95.460 Y83.379 E5.6564
G1 X107.701 Y95.621 E6.2322
G1 X107.135 Y95.621 E6.2510
G1 X94.894 Y83.379 E6.8268
G1 X94.328 Y83.379 E6.8456
G1 X106.570 Y95.621 E7.4214
G1 X106.004 Y95.621 E7.4402
G1 X94.028 Y83.644 E8.0035
G1 X94.028 Y84.210 E8.0223
G1 X105.438 Y95.621 E8.5591
G1 X104.873 Y95.621 E8.5779
G1 X94.028 Y84.776 E9.0880
G1 X94.028 Y85.341 E9.1068
G1 X104.307 Y95.621 E9.5903
G1 X103.741 Y95.621 E9.6091
G1 X94.028 Y85.907 E10.0660
G1 X94.028 Y86.473 E10.0848
G1 X103.176 Y95.621 E10.5151
G1 X102.610 Y95.621 E10.5339
G1 X94.028 Y87.038 E10.9376
G1 X94.028 Y87.604 E10.9564
G1 X102.044 Y95.621 E11.3335
G1 X101.479 Y95.621 E11.3523
G1 X94.028 Y88.170 E11.7028
G1 X94.028 Y88.735 E11.7216
G1 X100.913 Y95.621 E12.0455
G1 X100.347 Y95.621 E12.0643
G1 X94.028 Y89.301 E12.3615
G1 X94.028 Y89.867 E12.3803
G1 X99.781 Y95.621 E12.6510
G1 X99.216 Y95.621 E12.6698
G1 X94.028 Y90.433 E12.9138
G1 X94.028 Y90.998 E12.9326
G1 X98.650 Y95.621 E13.1501
G1 X98.084 Y95.621 E13.1689
G1 X94.028 Y91.564 E13.3597
G1 X94.028 Y92.130 E13.3785
G1 X97.519 Y95.621 E13.5427
G1 X96.953 Y95.621 E13.5615
G1 X94.028 Y92.695 E13.6991
G1 X94.028 Y93.261 E13.7180
G1 X96.387 Y95.621 E13.8290
G1 X95.822 Y95.621 E13.8478
G1 X94.028 Y93.827 E13.9322
G1 X94.028 Y94.392 E13.9510
G1 X95.256 Y95.621 E14.0087
G1 X94.690 Y95.621 E14.0276
G1 X94.028 Y94.958 E14.0587
G1 X94.028 Y95.461 E14.0754
G1 X94.028 Y95.524 F1200
G1 X94.125 Y95.621 F1200
G92 E0
G1 E-1.5000 F1800
; outer perimeter
G1 X110.849 Y113.699 F4800
G1 E0.0000 F1800
G92 E0
G1 X110.849 Y127.301 E0.4524 F1200
G1 X93.348 Y127.301 E1.0345
G1 X93.348 Y113.699 E1.4869
G1 X110.649 Y113.699 E2.0623
G1 X110.849 Y113.699 F1200
G1 X110.849 Y115.699 F2400
; inner perimeter
G1 X110.449 Y114.099 F4800
G92 E0
G1 X110.449 Y126.901 E0.4258 F1200
G1 X93.748 Y126.901 E0.9813
G1 X93.748 Y114.099 E1.4070
G1 X110.249 Y114.099 E1.9559
G1 X110.449 Y114.099 F1200
; outer perimeter
G1 X107.237 Y118.230 F4800
G92 E0
G1 X106.785 Y118.185 E0.0151 F1200
G1 X106.334 Y118.230 E0.0302
G1 X105.900 Y118.362 E0.0453
G1 X105.499 Y118.575 E0.0604
G1 X105.149 Y118.863 E0.0755
G1 X104.861 Y119.214 E0.0906
G1 X104.647 Y119.614 E0.1056
G1 X104.515 Y120.048 E0.1207
G1 X104.471 Y120.500 E0.1358
G1 X104.515 Y120.952 E0.1509
G1 X104.647 Y121.386 E0.1660
G1 X104.861 Y121.786 E0.1811
G1 X105.149 Y122.137 E0.1962
G1 X105.499 Y122.425 E0.2113
G1 X105.900 Y122.638 E0.2264
G1 X106.334 Y122.770 E0.2415
G1 X106.785 Y122.815 E0.2566
G1 X107.237 Y122.770 E0.2717
G1 X107.671 Y122.638 E0.2867
G1 X108.071 Y122.425 E0.3018
G1 X108.422 Y122.137 E0.3169
G1 X108.710 Y121.786 E0.3320
G1 X108.924 Y121.386 E0.3471
G1 X109.056 Y120.952 E0.3622
G1 X109.100 Y120.500 E0.3773
G1 X109.056 Y120.048 E0.3924
G1 X108.924 Y119.614 E0.4075
G1 X108.710 Y119.214 E0.4226
G1 X108.422 Y118.863 E0.4377
G1 X108.071 Y118.575 E0.4528
G1 X107.671 Y118.362 E0.4678
G1 X107.428 Y118.288 E0.4763
G1 X107.237 Y118.230 F1200
G1 X106.785 Y118.185 F2400
G1 X106.334 Y118.230 F2400
G1 X105.900 Y118.362 F2400
G1 X105.499 Y118.575 F2400
G1 X105.356 Y118.693 F2400
; inner perimeter
G1 X107.315 Y117.836 F4800
G92 E0
G1 X106.785 Y117.783 E0.0177 F1200
G1 X106.255 Y117.836 E0.0354
G1 X105.746 Y117.990 E0.0531
G1 X105.276 Y118.241 E0.0708
G1 X104.864 Y118.579 E0.0886
G1 X104.527 Y118.991 E0.1063
G1 X104.276 Y119.460 E0.1240
G1 X104.121 Y119.970 E0.1417
G1 X104.069 Y120.500 E0.1594
G1 X104.121 Y121.030 E0.1771
G1 X104.276 Y121.540 E0.1948
G1 X104.527 Y122.009 E0.2125
G1 X104.864 Y122.421 E0.2303
G1 X105.276 Y122.759 E0.2480
G1 X105.746 Y123.010 E0.2657
G1 X106.255 Y123.164 E0.2834
G1 X106.785 Y123.217 E0.3011
G1 X107.315 Y123.164 E0.3188
G1 X107.825 Y123.010 E0.3365
G1 X108.295 Y122.759 E0.3542
G1 X108.706 Y122.421 E0.3720
G1 X109.044 Y122.009 E0.3897
G1 X109.295 Y121.540 E0.4074
G1 X109.450 Y121.030 E0.4251
G1 X109.502 Y120.500 E0.4428
G1 X109.450 Y119.970 E0.4605
G1 X109.295 Y119.460 E0.4782
G1 X109.044 Y118.991 E0.4959
G1 X108.706 Y118.579 E0.5137
G1 X108.295 Y118.241 E0.5314
G1 X107.825 Y117.990 E0.5491
G1 X107.507 Y117.894 E0.5601
G1 X107.315 Y117.836 F1200
; solid layer
G1 X109.635 Y119.616 F4800
G92 E0
G1 X110.169 Y120.151 E0.0251 F1200
G1 X110.169 Y120.716 E0.0439
G1 X109.765 Y120.312 E0.0630
G1 X109.783 Y120.500 E0.0693
G1 X109.748 Y120.860 E0.0813
G1 X110.169 Y121.282 E0.1011
G1 X110.169 Y121.848 E0.1199
G1 X109.651 Y121.330 E0.1443
G1 X109.555 Y121.647 E0.1553
