; generated by PrusaSlicer 2.1.1+win64 on 2020-04-27 at 16:50:50 UTC

; 

; external perimeters extrusion width = 0.45mm
; perimeters extrusion width = 0.45mm
; infill extrusion width = 0.45mm
; solid infill extrusion width = 0.45mm
; top infill extrusion width = 0.40mm
; first layer extrusion width = 0.42mm

M73 P0 R68
M73 Q0 S68
M201 X1000 Y1000 Z1000 E5000 ; sets maximum accelerations, mm/sec^2
M203 X200 Y200 Z12 E120 ; sets maximum feedrates, mm/sec
M204 P1250 R1250 T1250 ; sets acceleration (P, T) and retract acceleration (R), mm/sec^2
M205 X8.00 Y8.00 Z0.40 E1.50 ; sets the jerk limits, mm/sec
M205 S0 T0 ; sets the minimum extruding and travel feed rate, mm/sec
M107
M862.3 P "MK3S" ; printer model check
M862.1 P0.4 ; nozzle diameter check
M115 U3.8.0 ; tell printer latest fw version
G90 ; use absolute coordinates
M83 ; extruder relative mode
M104 S215 ; set extruder temp
M140 S60 ; set bed temp
M190 S60 ; wait for bed temp
M109 S215 ; wait for extruder temp
G28 W ; home all without mesh bed level
G80 ; mesh bed leveling
G1 Y-3.0 F1000.0 ; go outside print area
G92 E0.0
G1 X60.0 E9.0 F1000.0 ; intro line
M73 Q0 S68
M73 P0 R68
G1 X100.0 E12.5 F1000.0 ; intro line
G92 E0.0
M221 S95
G21 ; set units to millimeters
G90 ; use absolute coordinates
M83 ; use relative distances for extrusion
M900 K30 ; Filament gcode
;BEFORE_LAYER_CHANGE
G92 E0.0
;0.2


G1 E-0.80000 F2100.00000
G1 Z0.600 F10800.000
;AFTER_LAYER_CHANGE
;0.2
G1 X83.580 Y134.293
G1 Z0.200
G1 E0.80000 F2100.00000
M204 S1000
G1 F1200
G1 X83.494 Y134.293 E0.00269
G1 X79.580 Y120.397 E0.45268
G1 X83.580 Y120.791 E0.12603
G1 X87.580 Y120.397 E0.12603
G1 X83.665 Y134.293 E0.45268
G1 X83.640 Y134.293 E0.00080
G1 E-0.80000 F2100.00000
G1 Z0.800 F10800.000
G1 X83.580 Y135.684
G1 Z0.200
G1 E0.80000 F2100.00000
G1 F1200
G1 X83.494 Y135.684 E0.00269
G1 X79.067 Y119.967 E0.51197
G1 X83.580 Y120.412 E0.14218
G1 X88.093 Y119.967 E0.14218
G1 X83.665 Y135.684 E0.51197
G1 X83.640 Y135.684 E0.00080
G1 X83.510 Y135.635 F10800.000
G1 X83.795 Y135.894
G1 F1200
G1 X83.523 Y136.438 E0.01202
G1 E-0.80000 F2100.00000
G1 Z0.800 F10800.000
G1 X97.863 Y131.469
G1 Z0.200
G1 E0.80000 F2100.00000
G1 F1200
G1 X88.928 Y120.128 E0.45268
G1 X92.775 Y118.962 E0.12603
G1 X96.320 Y117.067 E0.12603
G1 X98.021 Y131.404 E0.45268
G1 X97.918 Y131.446 E0.00349
G1 E-0.80000 F2100.00000
G1 Z0.800 F10800.000
G1 X98.395 Y132.754
G1 Z0.200
G1 E0.80000 F2100.00000
G1 F1200
G1 X88.290 Y119.928 E0.51197
G1 X92.630 Y118.612 E0.14218
G1 X96.629 Y116.474 E0.14218
G1 X98.553 Y132.689 E0.51197
G1 X98.451 Y132.731 E0.00349
G1 X98.210 Y132.400 F10800.000
G1 E-0.80000 F2100.00000
G1 Z0.800 F10800.000
G1 X110.057 Y123.362
G1 Z0.200
G1 E0.80000 F2100.00000
G1 F1200
G1 X97.463 Y116.303 E0.45268
G1 X100.570 Y113.753 E0.12603
G1 X103.120 Y110.646 E0.12603
G1 X110.178 Y123.240 E0.45268
G1 X110.100 Y123.319 E0.00349
G1 E-0.80000 F2100.00000
G1 Z0.800 F10800.000
G1 X111.041 Y124.345
G1 Z0.200
G1 E0.80000 F2100.00000
G1 F1200
G1 X96.797 Y116.362 E0.51197
G1 X100.302 Y113.485 E0.14218
G1 X103.179 Y109.980 E0.14218
G1 X111.162 Y124.224 E0.51197
G1 X111.083 Y124.303 E0.00349
G1 X110.734 Y124.088 F10800.000
G1 E-0.80000 F2100.00000
G1 Z0.800 F10800.000
G1 X103.884 Y109.503
G1 Z0.200
G1 E0.80000 F2100.00000
G1 F1200
G1 X105.779 Y105.958 E0.12603
G1 X106.945 Y102.111 E0.12603
G1 X118.286 Y111.046 E0.45268
G1 X118.221 Y111.204 E0.00537
G1 X103.943 Y109.510 E0.45080
G1 X103.291 Y109.812 F10800.000
G1 F1200
G1 X105.429 Y105.813 E0.14218
G1 X106.745 Y101.473 E0.14218
G1 X119.571 Y111.578 E0.51197
G1 X119.506 Y111.737 E0.00537
G1 X103.350 Y109.819 E0.51009
G1 X103.601 Y109.559 F10800.000
G1 E-0.80000 F2100.00000
G1 Z0.800 F10800.000
G1 X107.214 Y100.763
G1 Z0.200
G1 E0.80000 F2100.00000
G1 F1200
G1 X107.608 Y96.763 E0.12603
G1 X107.214 Y92.763 E0.12603
G1 X121.110 Y96.677 E0.45268
G1 X121.110 Y96.848 E0.00537
G1 X107.271 Y100.747 E0.45080
G1 X106.784 Y101.276 F10800.000
G1 F1200
G1 X107.229 Y96.763 E0.14218
G1 X106.784 Y92.250 E0.14218
G1 X122.501 Y96.677 E0.51197
G1 X122.501 Y96.848 E0.00537
G1 X106.842 Y101.259 E0.51009
G1 X106.974 Y100.924 F10800.000
G1 E-0.80000 F2100.00000
G1 Z0.800 F10800.000
G1 X106.945 Y91.414
G1 Z0.200
G1 E0.80000 F2100.00000
G1 F1200
G1 X105.779 Y87.568 E0.12603
G1 X103.884 Y84.023 E0.12603
G1 X118.221 Y82.321 E0.45268
G1 X118.286 Y82.480 E0.00537
G1 X106.993 Y91.377 E0.45080
G1 X106.745 Y92.052 F10800.000
G1 F1200
G1 X105.429 Y87.713 E0.14218
G1 X103.291 Y83.713 E0.14218
G1 X119.506 Y81.789 E0.51197
G1 X119.571 Y81.947 E0.00537
G1 X106.792 Y92.015 E0.51009
G1 X106.785 Y91.654 F10800.000
G1 E-0.80000 F2100.00000
G1 Z0.800 F10800.000
G1 X103.120 Y82.880
G1 Z0.200
G1 E0.80000 F2100.00000
G1 F1200
G1 X100.570 Y79.773 E0.12603
G1 X97.463 Y77.223 E0.12603
G1 X110.057 Y70.164 E0.45268
G1 X110.178 Y70.285 E0.00537
G1 X103.149 Y82.827 E0.45080
G1 X103.179 Y83.546 F10800.000
G1 F1200
G1 X100.302 Y80.040 E0.14218
G1 X96.797 Y77.164 E0.14218
G1 X111.041 Y69.181 E0.51197
G1 X111.162 Y69.302 E0.00537
G1 X103.208 Y83.494 E0.51009
G1 X103.064 Y83.163 F10800.000
G1 E-0.80000 F2100.00000
G1 Z0.800 F10800.000
G1 X96.320 Y76.459
G1 Z0.200
G1 E0.80000 F2100.00000
G1 F1200
G1 X92.775 Y74.564 E0.12603
G1 X88.928 Y73.397 E0.12603
G1 X97.863 Y62.056 E0.45268
G1 X98.021 Y62.122 E0.00537
G1 X96.327 Y76.399 E0.45080
G1 X96.629 Y77.052 F10800.000
G1 F1200
G1 X92.630 Y74.914 E0.14218
G1 X88.290 Y73.598 E0.14218
G1 X98.395 Y60.771 E0.51197
G1 X98.553 Y60.837 E0.00537
G1 X96.636 Y76.992 E0.51009
G1 X96.376 Y76.742 F10800.000
G1 E-0.80000 F2100.00000
G1 Z0.800 F10800.000
G1 X79.580 Y73.129
G1 Z0.200
G1 E0.80000 F2100.00000
G1 F1200
G1 X83.494 Y59.232 E0.45268
G1 X83.665 Y59.232 E0.00537
G1 X87.580 Y73.129 E0.45268
G1 X83.580 Y72.735 E0.12603
G1 X79.639 Y73.123 E0.12415
G1 X79.067 Y73.558 F10800.000
G1 F1200
G1 X83.494 Y57.841 E0.51197
G1 X83.665 Y57.841 E0.00537
G1 X88.093 Y73.558 E0.51197
G1 X83.580 Y73.114 E0.14218
G1 X79.127 Y73.552 E0.14030
G1 X79.327 Y73.254 F10800.000
G1 E-0.80000 F2100.00000
G1 Z0.800 F10800.000
G1 X70.840 Y76.459
G1 Z0.200
G1 E0.80000 F2100.00000
G1 F1200
G1 X69.138 Y62.122 E0.45268
G1 X69.296 Y62.056 E0.00537
G1 X78.231 Y73.397 E0.45268
G1 X74.385 Y74.564 E0.12603
G1 X70.893 Y76.430 E0.12415
G1 X70.530 Y77.052 F10800.000
G1 F1200
G1 X68.606 Y60.837 E0.51197
G1 X68.764 Y60.771 E0.00537
G1 X78.869 Y73.598 E0.51197
G1 X74.530 Y74.914 E0.14218
G1 X70.583 Y77.023 E0.14030
G1 X70.654 Y76.671 F10800.000
G1 E-0.80000 F2100.00000
G1 Z0.800 F10800.000
G1 X64.039 Y82.880
G1 Z0.200
G1 E0.80000 F2100.00000
G1 F1200
G1 X56.981 Y70.285 E0.45268
G1 X57.102 Y70.164 E0.00537
G1 X69.697 Y77.223 E0.45268
G1 X66.589 Y79.773 E0.12603
G1 X64.078 Y82.833 E0.12415
G1 X63.981 Y83.546 F10800.000
G1 F1200
G1 X55.998 Y69.302 E0.51197
G1 X56.119 Y69.181 E0.00537
G1 X70.363 Y77.164 E0.51197
G1 X66.857 Y80.040 E0.14218
G1 X64.019 Y83.500 E0.14030
G1 X63.949 Y83.147 F10800.000
G1 E-0.80000 F2100.00000
G1 Z0.800 F10800.000
G1 X60.214 Y91.414
G1 Z0.200
G1 E0.80000 F2100.00000
G1 F1200
G1 X48.873 Y82.480 E0.45268
G1 X48.939 Y82.321 E0.00537
G1 X63.276 Y84.023 E0.45268
G1 X61.381 Y87.568 E0.12603
G1 X60.231 Y91.357 E0.12415
G1 X60.415 Y92.052 F10800.000
G1 F1200
G1 X47.588 Y81.947 E0.51197
G1 X47.654 Y81.789 E0.00537
G1 X63.869 Y83.713 E0.51197
G1 X61.731 Y87.713 E0.14218
G1 X60.432 Y91.995 E0.14030
G1 X60.233 Y91.696 F10800.000
G1 E-0.80000 F2100.00000
G1 Z0.800 F10800.000
G1 X59.946 Y100.763
G1 Z0.200
G1 E0.80000 F2100.00000
G1 F1200
G1 X46.049 Y96.848 E0.45268
G1 X46.049 Y96.677 E0.00537
G1 X59.946 Y92.763 E0.45268
M73 Q1 S67
G1 X59.552 Y96.763 E0.12603
G1 X59.940 Y100.703 E0.12415
M73 P1 R67
G1 X60.375 Y101.276 F10800.000
G1 F1200
G1 X44.658 Y96.848 E0.51197
G1 X44.658 Y96.677 E0.00537
G1 X60.375 Y92.250 E0.51197
G1 X59.931 Y96.763 E0.14218
G1 X60.369 Y101.216 E0.14030
G1 X60.071 Y101.016 F10800.000
G1 E-0.80000 F2100.00000
G1 Z0.800 F10800.000
G1 X63.276 Y109.503
G1 Z0.200
G1 E0.80000 F2100.00000
G1 F1200
G1 X48.939 Y111.204 E0.45268
G1 X48.873 Y111.046 E0.00537
G1 X60.214 Y102.111 E0.45268
G1 X61.381 Y105.958 E0.12603
G1 X63.247 Y109.450 E0.12415
G1 X63.869 Y109.812 F10800.000
G1 F1200
G1 X47.654 Y111.737 E0.51197
G1 X47.588 Y111.578 E0.00537
G1 X60.415 Y101.473 E0.51197
G1 X61.731 Y105.813 E0.14218
G1 X63.840 Y109.759 E0.14030
G1 X63.488 Y109.689 F10800.000
G1 E-0.80000 F2100.00000
G1 Z0.800 F10800.000
G1 X57.102 Y123.362
G1 Z0.200
G1 E0.80000 F2100.00000
G1 F1200
G1 X56.981 Y123.240 E0.00537
G1 X64.039 Y110.646 E0.45268
G1 X66.589 Y113.753 E0.12603
G1 X69.697 Y116.303 E0.12603
G1 X57.154 Y123.332 E0.45080
G1 E-0.80000 F2100.00000
G1 Z0.800 F10800.000
G1 X56.119 Y124.345
G1 Z0.200
G1 E0.80000 F2100.00000
G1 F1200
G1 X55.998 Y124.224 E0.00537
G1 X63.981 Y109.980 E0.51197
G1 X66.857 Y113.485 E0.14218
G1 X70.363 Y116.362 E0.14218
G1 X56.171 Y124.316 E0.51009
G1 X56.074 Y124.180 F10800.000
G1 E-0.80000 F2100.00000
G1 Z0.800 F10800.000
G1 X69.297 Y131.469
G1 Z0.200
G1 E0.80000 F2100.00000
G1 F1200
G1 X69.138 Y131.404 E0.00537
G1 X70.840 Y117.067 E0.45268
G1 X74.385 Y118.962 E0.12603
G1 X78.231 Y120.128 E0.12603
G1 X69.334 Y131.422 E0.45080
G1 E-0.80000 F2100.00000
G1 Z0.800 F10800.000
G1 X68.764 Y132.754
G1 Z0.200
G1 E0.80000 F2100.00000
G1 F1200
G1 X68.606 Y132.689 E0.00537
G1 X70.530 Y116.474 E0.51197
G1 X74.530 Y118.612 E0.14218
G1 X78.869 Y119.928 E0.14218
G1 X68.801 Y132.707 E0.51009
G1 X68.660 Y132.619 F10800.000
G1 E-0.80000 F2100.00000
G1 Z0.800 F10800.000
G1 X69.737 Y130.727
G1 Z0.200
G1 E0.80000 F2100.00000
G1 F1200
G1 X69.528 Y130.518 E0.00951
G1 X69.586 Y130.029 E0.01586
G1 X69.857 Y130.300 E0.01235
G1 X70.099 Y129.994 E0.01254
G1 X69.644 Y129.540 E0.02068
G1 X69.702 Y129.051 E0.01586
G1 X70.340 Y129.688 E0.02901
G1 X70.581 Y129.382 E0.01254
G1 X69.760 Y128.561 E0.03735
G1 X69.818 Y128.072 E0.01586
G1 X70.822 Y129.076 E0.04568
G1 X71.063 Y128.770 E0.01254
G1 X69.876 Y127.583 E0.05402
G1 X69.935 Y127.094 E0.01586
G1 X71.305 Y128.464 E0.06235
G1 X71.546 Y128.157 E0.01254
G1 X69.993 Y126.604 E0.07069
G1 X70.051 Y126.115 E0.01586
G1 X71.787 Y127.851 E0.07902
G1 X72.028 Y127.545 E0.01254
G1 X70.109 Y125.626 E0.08736
G1 X70.167 Y125.136 E0.01586
G1 X72.269 Y127.239 E0.09569
G1 X72.511 Y126.933 E0.01254
G1 X70.225 Y124.647 E0.10402
G1 X70.283 Y124.158 E0.01586
G1 X72.752 Y126.627 E0.11236
G1 X72.993 Y126.321 E0.01254
G1 X70.341 Y123.669 E0.12069
G1 X70.399 Y123.179 E0.01586
G1 X73.234 Y126.014 E0.12903
G1 X73.475 Y125.708 E0.01254
G1 X70.457 Y122.690 E0.13736
G1 X70.515 Y122.201 E0.01586
G1 X73.717 Y125.402 E0.14570
G1 X73.958 Y125.096 E0.01254
G1 X70.573 Y121.711 E0.15403
G1 X70.631 Y121.222 E0.01586
G1 X74.199 Y124.790 E0.16236
G1 X74.440 Y124.484 E0.01254
G1 X70.689 Y120.733 E0.17070
G1 X70.747 Y120.244 E0.01586
G1 X74.681 Y124.177 E0.17903
G1 X74.922 Y123.871 E0.01254
G1 X70.806 Y119.754 E0.18737
G1 X70.864 Y119.265 E0.01586
G1 X75.164 Y123.565 E0.19570
G1 X75.405 Y123.259 E0.01254
G1 X70.922 Y118.776 E0.20404
G1 X70.980 Y118.287 E0.01586
G1 X75.646 Y122.953 E0.21237
G1 X75.887 Y122.647 E0.01254
G1 X71.038 Y117.797 E0.22071
G1 X71.072 Y117.512 E0.00926
G1 X71.561 Y117.773 E0.01785
G1 X76.249 Y122.461 E0.21338
G1 X76.490 Y122.155 F10800.000
G1 F1200
G1 X72.323 Y117.988 E0.18965
G1 E-0.80000 F2100.00000
G1 Z0.800 F10800.000
G1 X73.499 Y118.617
G1 Z0.200
G1 E0.80000 F2100.00000
G1 F1200
G1 X76.611 Y121.728 E0.14161
G1 X76.852 Y121.422 E0.01254
G1 X74.819 Y119.389 E0.09253
G1 X75.605 Y119.627 E0.02642
G1 X77.093 Y121.116 E0.06775
G1 X77.334 Y120.810 E0.01254
G1 X76.390 Y119.866 E0.04297
G1 X77.176 Y120.104 E0.02642
G1 X77.696 Y120.624 E0.02369
G1 E-0.80000 F2100.00000
G1 Z0.800 F10800.000
G1 X87.257 Y121.125
G1 Z0.200
G1 E0.80000 F2100.00000
G1 F1200
G1 X86.882 Y120.750 E0.01698
G1 X86.387 Y120.798 E0.01590
G1 X87.000 Y121.412 E0.02774
G1 X86.881 Y121.836 E0.01409
G1 X85.892 Y120.847 E0.04471
G1 X85.397 Y120.896 E0.01590
G1 X86.761 Y122.260 E0.06169
G1 X86.642 Y122.685 E0.01409
G1 X84.902 Y120.945 E0.07866
G1 X84.407 Y120.993 E0.01590
G1 X86.522 Y123.109 E0.09564
G1 X86.403 Y123.533 E0.01409
G1 X83.912 Y121.042 E0.11262
G1 X83.580 Y121.075 E0.01067
G1 X83.381 Y121.055 E0.00638
G1 X86.283 Y123.957 E0.13120
G1 X86.164 Y124.381 E0.01409
G1 X82.778 Y120.996 E0.15307
G1 X82.175 Y120.936 E0.01938
G1 X86.044 Y124.806 E0.17493
G1 X85.925 Y125.230 E0.01409
G1 X81.572 Y120.877 E0.19680
G1 X80.969 Y120.818 E0.01938
G1 X85.805 Y125.654 E0.21866
G1 X85.686 Y126.078 E0.01409
G1 X80.366 Y120.758 E0.24053
G1 X79.964 Y120.719 E0.01290
G1 X80.035 Y120.972 E0.00841
G1 X85.566 Y126.503 E0.25006
G1 X85.447 Y126.927 E0.01409
G1 X80.249 Y121.729 E0.23501
G1 X80.462 Y122.486 E0.02514
G1 X85.327 Y127.351 E0.21997
G1 X85.208 Y127.775 E0.01409
G1 X80.675 Y123.243 E0.20493
G1 X80.888 Y124.000 E0.02514
G1 X85.088 Y128.200 E0.18988
G1 X84.969 Y128.624 E0.01409
G1 X81.101 Y124.757 E0.17484
G1 X81.315 Y125.514 E0.02514
G1 X84.849 Y129.048 E0.15980
G1 X84.730 Y129.472 E0.01409
G1 X81.528 Y126.271 E0.14476
G1 X81.741 Y127.027 E0.02514
G1 X84.610 Y129.896 E0.12971
G1 X84.491 Y130.321 E0.01409
G1 X81.954 Y127.784 E0.11467
G1 X82.168 Y128.541 E0.02514
G1 X84.371 Y130.745 E0.09963
G1 X84.252 Y131.169 E0.01409
G1 X82.381 Y129.298 E0.08458
G1 X82.594 Y130.055 E0.02514
G1 X84.132 Y131.593 E0.06954
G1 X84.013 Y132.018 E0.01409
G1 X82.807 Y130.812 E0.05450
G1 X83.020 Y131.569 E0.02514
G1 X83.893 Y132.442 E0.03946
G1 X83.774 Y132.866 E0.01409
G1 X83.234 Y132.326 E0.02441
G1 X83.447 Y133.083 E0.02514
G1 X83.792 Y133.428 E0.01559
G1 E-0.80000 F2100.00000
G1 Z0.800 F10800.000
G1 X92.820 Y124.886
G1 Z0.200
G1 E0.80000 F2100.00000
G1 F1200
G1 X97.715 Y129.780 E0.22022
G1 X97.787 Y130.394 F10800.000
G1 F1200
G1 X94.829 Y127.436 E0.13309
G1 E-0.80000 F2100.00000
G1 Z0.800 F10800.000
G1 X90.811 Y122.336
G1 Z0.200
G1 E0.80000 F2100.00000
G1 F1200
G1 X97.448 Y128.972 E0.29861
G1 X97.375 Y128.358 E0.01967
G1 X89.820 Y120.803 E0.33993
G1 X89.407 Y120.279 E0.02124
G1 X89.737 Y120.179 E0.01096
G1 X97.302 Y127.744 E0.34040
G1 X97.229 Y127.130 E0.01967
G1 X90.152 Y120.053 E0.31844
G1 X90.567 Y119.927 E0.01380
G1 X97.156 Y126.516 E0.29649
G1 X97.084 Y125.902 E0.01967
G1 X90.982 Y119.801 E0.27453
G1 X91.397 Y119.675 E0.01380
G1 X97.011 Y125.288 E0.25257
G1 X96.938 Y124.674 E0.01967
G1 X91.812 Y119.549 E0.23061
G1 X92.228 Y119.423 E0.01380
G1 X96.865 Y124.061 E0.20865
G1 X96.792 Y123.447 E0.01967
G1 X92.643 Y119.297 E0.18669
G1 X92.884 Y119.224 E0.00800
G1 X93.032 Y119.145 E0.00534
G1 X96.719 Y122.833 E0.16592
G1 X96.646 Y122.219 E0.01967
G1 X93.384 Y118.957 E0.14677
G1 X93.737 Y118.768 E0.01272
G1 X96.573 Y121.605 E0.12763
G1 X96.501 Y120.991 E0.01967
G1 X94.090 Y118.580 E0.10848
G1 X94.442 Y118.391 E0.01272
G1 X96.428 Y120.377 E0.08934
G1 X96.355 Y119.763 E0.01967
G1 X94.795 Y118.203 E0.07019
G1 X95.147 Y118.014 E0.01272
G1 X96.282 Y119.149 E0.05105
G1 X96.209 Y118.535 E0.01967
G1 X95.500 Y117.826 E0.03190
G1 X95.853 Y117.637 E0.01272
G1 X96.330 Y118.115 E0.02148
G1 E-0.80000 F2100.00000
G1 Z0.800 F10800.000
G1 X99.449 Y117.286
G1 Z0.200
G1 E0.80000 F2100.00000
G1 F1200
G1 X98.214 Y116.052 E0.05620
G1 X98.515 Y115.805 E0.01253
G1 X100.694 Y117.985 E0.09923
G1 E-0.80000 F2100.00000
G1 Z0.800 F10800.000
G1 X101.940 Y118.683
G1 Z0.200
G1 E0.80000 F2100.00000
G1 F1200
G1 X98.816 Y115.558 E0.14226
G1 X99.117 Y115.312 E0.01253
G1 X103.186 Y119.381 E0.18529
G1 E-0.80000 F2100.00000
G1 Z0.800 F10800.000
G1 X104.432 Y120.079
G1 Z0.200
G1 E0.80000 F2100.00000
G1 F1200
G1 X99.417 Y115.065 E0.22831
G1 X99.718 Y114.818 E0.01253
G1 X105.678 Y120.777 E0.27134
G1 E-0.80000 F2100.00000
G1 Z0.800 F10800.000
G1 X106.923 Y121.476
G1 Z0.200
G1 E0.80000 F2100.00000
G1 F1200
G1 X100.019 Y114.571 E0.31437
G1 X100.320 Y114.324 E0.01253
G1 X108.169 Y122.174 E0.35740
G1 E-0.80000 F2100.00000
G1 Z0.800 F10800.000
G1 X108.991 Y121.353
G1 Z0.200
G1 E0.80000 F2100.00000
G1 F1200
G1 X101.141 Y113.503 E0.35741
G1 X101.388 Y113.202 E0.01253
G1 X108.293 Y120.107 E0.31438
G1 E-0.80000 F2100.00000
G1 Z0.800 F10800.000
G1 X107.594 Y118.861
G1 Z0.200
G1 E0.80000 F2100.00000
G1 F1200
G1 X101.635 Y112.901 E0.27135
