; G-Code generated by Simplify3D(R) Version 4.0.0
; Feb 26, 2018 at 11:55:24 AM
; Settings Summary
;   processName,Process1
;   applyToModels,GotG Mask V2R1 Hair
;   profileName,Prusa Research Original Prusa i3 MK2 (modified)
;   profileVersion,2018-02-23 11:10:26
;   baseProfile,
;   printMaterial,PLA
;   printQuality,Medium
;   printExtruders,
;   extruderName,Primary Extruder
;   extruderToolheadNumber,0
;   extruderDiameter,0.4
;   extruderAutoWidth,0
;   extruderWidth,0.4
;   extrusionMultiplier,1
;   extruderUseRetract,1
;   extruderRetractionDistance,1.5
;   extruderExtraRestartDistance,0
;   extruderRetractionZLift,0
;   extruderRetractionSpeed,1800
;   extruderUseCoasting,1
;   extruderCoastingDistance,0.2
;   extruderUseWipe,1
;   extruderWipeDistance,2
;   primaryExtruder,0
;   layerHeight,0.2
;   topSolidLayers,3
;   bottomSolidLayers,3
;   perimeterOutlines,2
;   printPerimetersInsideOut,1
;   startPointOption,2
;   startPointOriginX,125
;   startPointOriginY,0
;   sequentialIslands,0
;   spiralVaseMode,0
;   firstLayerHeightPercentage,90
;   firstLayerWidthPercentage,100
;   firstLayerUnderspeed,0.5
;   useRaft,0
;   raftExtruder,0
;   raftTopLayers,2
;   raftBaseLayers,1
;   raftOffset,2
;   raftSeparationDistance,0.14
;   raftTopInfill,100
;   aboveRaftSpeedMultiplier,0.3
;   useSkirt,0
;   skirtExtruder,0
;   skirtLayers,1
;   skirtOutlines,1
;   skirtOffset,4
;   usePrimePillar,0
;   primePillarExtruder,999
;   primePillarWidth,12
;   primePillarLocation,7
;   primePillarSpeedMultiplier,1
;   useOozeShield,0
;   oozeShieldExtruder,999
;   oozeShieldOffset,2
;   oozeShieldOutlines,1
;   oozeShieldSidewallShape,1
;   oozeShieldSidewallAngle,30
;   oozeShieldSpeedMultiplier,1
;   infillExtruder,0
;   internalInfillPattern,Rectilinear
;   externalInfillPattern,Rectilinear
;   infillPercentage,10
;   outlineOverlapPercentage,25
;   infillExtrusionWidthPercentage,115
;   minInfillLength,1
;   infillLayerInterval,1
;   internalInfillAngles,45,-45
;   overlapInternalInfillAngles,0
;   externalInfillAngles,45,-45
;   generateSupport,1
;   supportExtruder,0
;   supportInfillPercentage,20
;   supportExtraInflation,0.2
;   supportBaseLayers,0
;   denseSupportExtruder,0
;   denseSupportLayers,0
;   denseSupportInfillPercentage,70
;   supportLayerInterval,1
;   supportHorizontalPartOffset,0.2
;   supportUpperSeparationLayers,1
;   supportLowerSeparationLayers,1
;   supportType,0
;   supportGridSpacing,4
;   maxOverhangAngle,45
;   supportAngles,0
;   temperatureName,Primary Extruder,Heated Bed
;   temperatureNumber,0,0
;   temperatureSetpointCount,1,1
;   temperatureSetpointLayers,1,1
;   temperatureSetpointTemperatures,230,55
;   temperatureStabilizeAtStartup,1,1
;   temperatureHeatedBed,0,1
;   temperatureRelayBetweenLayers,1,1
;   temperatureRelayBetweenLoops,0,0
;   fanLayers,1,2
;   fanSpeeds,0,100
;   blipFanToFullPower,0
;   adjustSpeedForCooling,1
;   minSpeedLayerTime,5
;   minCoolingSpeedSlowdown,10
;   increaseFanForCooling,1
;   minFanLayerTime,45
;   maxCoolingFanSpeed,100
;   increaseFanForBridging,1
;   bridgingFanSpeed,100
;   use5D,1
;   relativeEdistances,0
;   allowEaxisZeroing,1
;   independentExtruderAxes,0
;   includeM10123,0
;   stickySupport,1
;   applyToolheadOffsets,0
;   gcodeXoffset,0
;   gcodeYoffset,0
;   gcodeZoffset,0
;   overrideMachineDefinition,1
;   machineTypeOverride,0
;   strokeXoverride,250
;   strokeYoverride,210
;   strokeZoverride,200
;   originOffsetXoverride,0
;   originOffsetYoverride,0
;   originOffsetZoverride,0
;   homeXdirOverride,-1
;   homeYdirOverride,-1
;   homeZdirOverride,-1
;   flipXoverride,1
;   flipYoverride,-1
;   flipZoverride,1
;   toolheadOffsets,0,0|0,0|0,0|0,0|0,0|0,0
;   overrideFirmwareConfiguration,1
;   firmwareTypeOverride,RepRap (Marlin/Repetier/Sprinter)
;   GPXconfigOverride,r2
;   baudRateOverride,250000
;   overridePrinterModels,1
;   printerModelsOverride
;   startingGcode,M115 U3.0.7 ; use the latest firmware version,G28 W ; home all axes without mesh bed leveling,G80 ; run mesh bed leveling routine,G1 Y-3.0 F1000.0 ; prepare to prime,G92 E0 ; reset extrusion distance,G1 X60.0 E9.0  F1000.0 ; priming,G1 X100.0 E12.5  F1000.0 ; priming
;   layerChangeGcode,
;   retractionGcode,
;   toolChangeGcode,
;   endingGcode,M106 S0 ; turn off cooling fan,M104 S0 ; turn off extruder,M140 S0 ; turn off bed,G1 X0 Y200 ; part removal,M84 ; disable motors
;   exportFileFormat,gcode
;   celebration,0
;   celebrationSong,Random Song
;   postProcessing,
;   defaultSpeed,2400
;   outlineUnderspeed,1
;   solidInfillUnderspeed,1
;   supportUnderspeed,1
;   rapidXYspeed,4800
;   rapidZspeed,1002
;   minBridgingArea,50
;   bridgingExtraInflation,0
;   bridgingExtrusionMultiplier,1
;   bridgingSpeedMultiplier,1
;   useFixedBridgingAngle,0
;   fixedBridgingAngle,0
;   applyBridgingToPerimeters,0
;   filamentDiameters,1.75|1.75|1.75|1.75|1.75|1.75
;   filamentPricesPerKg,46|46|46|46|46|46
;   filamentDensities,1.25|1.25|1.25|1.25|1.25|1.25
;   useMinPrintHeight,0
;   minPrintHeight,4.58
;   useMaxPrintHeight,0
;   maxPrintHeight,4.58
;   useDiaphragm,0
;   diaphragmLayerInterval,20
;   robustSlicing,1
;   mergeAllIntoSolid,0
;   onlyRetractWhenCrossingOutline,1
;   retractBetweenLayers,0
;   useRetractionMinTravel,1
;   retractionMinTravel,3
;   retractWhileWiping,1
;   onlyWipeOutlines,1
;   avoidCrossingOutline,0
;   maxMovementDetourFactor,3
;   toolChangeRetractionDistance,12
;   toolChangeExtraRestartDistance,-0.5
;   toolChangeRetractionSpeed,600
;   externalThinWallType,1
;   internalThinWallType,2
;   thinWallAllowedOverlapPercentage,25
;   singleExtrusionMinLength,0.3
;   singleExtrusionMinPrintingWidthPercentage,25
;   singleExtrusionMaxPrintingWidthPercentage,200
;   singleExtrusionEndpointExtension,0.2
;   horizontalSizeCompensation,0
G90
M82
M106 S0
M140 S55
M190 S55
M104 S230 T0
M109 S230 T0
M115 U3.0.7 ; use the latest firmware version
G28 W ; home all axes without mesh bed leveling
G80 ; run mesh bed leveling routine
G1 Y-3.0 F1000.0 ; prepare to prime
G92 E0 ; reset extrusion distance
G1 X60.0 E9.0  F1000.0 ; priming
G1 X100.0 E12.5  F1000.0 ; priming
G92 E0
G1 E-1.5000 F1800
G1 Z0.180 F1002
; process Process1
; layer 1, Z = 0.180
M106 S196
M105
M105
T0
; tool H0.200 W0.400
; outer perimeter
G1 X120.276 Y102.410 F4800
G1 E0.0000 F540
G92 E0
G1 X120.453 Y102.274 E0.0074 F1200
G1 X120.780 Y102.113 E0.0195
G1 X121.090 Y102.002 E0.0305
G1 X121.090 Y103.458 E0.0789
G1 X120.813 Y103.479 E0.0881
G1 X120.794 Y103.358 E0.0922
G1 X120.741 Y103.241 E0.0965
G1 X120.605 Y103.077 E0.1036
G1 X120.276 Y102.782 E0.1183
G1 X120.276 Y102.610 E0.1240
G1 X120.276 Y102.410 F1200
G92 E0
G1 X120.453 Y102.274 E-0.1671 F2400
G1 X120.780 Y102.113 E-0.4404
G1 X121.090 Y102.002 E-0.6873
G1 X121.090 Y103.086 E-1.5000
; external single extrusion
G1 X124.946 Y104.994 F4800
G1 E0.0000 F1800
G92 E0
; tool H0.200 W0.100
G1 X125.020 Y104.992 E0.0006 F1200
G1 X125.168 Y104.989 E0.0018
; tool H0.200 W0.149
G1 X125.317 Y104.986 E0.0037
; tool H0.200 W0.186
G1 X125.391 Y104.985 E0.0048
; tool H0.200 W0.211
G1 X125.465 Y104.984 E0.0061
; tool H0.200 W0.233
G1 X125.522 Y104.982 E0.0072
; tool H0.200 W0.251
G1 X125.578 Y104.979 E0.0084
; tool H0.200 W0.268
G1 X125.659 Y104.971 E0.0102
; tool H0.200 W0.288
G1 X125.739 Y104.963 E0.0122
; tool H0.200 W0.307
G1 X125.819 Y104.955 E0.0142
; tool H0.200 W0.324
G1 X125.898 Y104.945 E0.0163
; tool H0.200 W0.357
G1 X126.214 Y104.901 E0.0258
; tool H0.200 W0.389
G1 X126.293 Y104.889 E0.0284
; tool H0.200 W0.400
G1 X126.371 Y104.877 E0.0310
; tool H0.200 W0.426
G1 X126.764 Y104.811 E0.0451
; tool H0.200 W0.452
G1 X126.842 Y104.798 E0.0481
; tool H0.200 W0.456
G1 X126.920 Y104.781 E0.0511
; tool H0.200 W0.422
G1 X126.990 Y104.731 E0.0541
; tool H0.200 W0.332
G1 X127.056 Y104.659 E0.0568
; tool H0.200 W0.273
G1 X127.060 Y104.655 E0.0570
G1 X127.214 Y104.527 F1200
; tool H0.200 W0.400
; support
G1 X128.725 Y103.000 F4800
G92 E0
G1 X136.220 Y103.000 E0.2493 F1200
G1 X136.220 Y101.000 E0.3158
G1 X127.980 Y101.000 E0.5899
G1 X127.780 Y101.000 F1200
G92 E0
G1 E-1.5000 F1800
G1 X129.780 Y105.000 F4800
G1 E0.0000 F1800
G92 E0
G1 X132.220 Y105.000 E0.0812 F1200
G1 X132.220 Y106.780 E0.1404
G1 X133.780 Y106.780 E0.1922
G1 X133.780 Y105.000 E0.2514
G1 X138.220 Y105.000 E0.3991
G1 X138.220 Y107.000 E0.4656
G1 X119.780 Y107.000 E1.0790
G1 X119.780 Y109.000 E1.1455
G1 X122.220 Y109.000 E1.2266
G1 X122.220 Y107.220 E1.2858
G1 X123.780 Y107.220 E1.3377
G1 X123.780 Y109.000 E1.3969
G1 X136.020 Y109.000 E1.8040
G1 X136.220 Y109.000 F1200
G92 E0
G1 E-1.5000 F1800
G1 X115.780 Y101.000 F4800
G1 E0.0000 F1800
G92 E0
G1 X118.220 Y101.000 E0.0812 F1200
G1 X118.220 Y103.000 E0.1477
G1 X113.780 Y103.000 E0.2953
G1 X113.780 Y105.000 E0.3619
G1 X118.220 Y105.000 E0.5095
G1 X118.220 Y105.220 E0.5169
G1 X116.220 Y105.220 E0.5834
G1 X116.220 Y107.000 E0.6426
G1 X113.980 Y107.000 E0.7171
G1 X113.780 Y107.000 F1200
G92 E0
G1 E-1.5000 F1800
; layer 2, Z = 0.380
M106 S255
M105
M105
; inner perimeter
G1 X120.127 Y104.314 F4800
G1 Z0.380 F1002
G1 E0.0000 F1800
G92 E0
G1 X120.234 Y103.845 E0.0160 F2132
G1 X120.192 Y103.551 E0.0259
G1 X120.017 Y103.244 E0.0376
G1 X119.710 Y102.915 E0.0526
G1 X119.675 Y102.861 E0.0547
G1 X119.651 Y102.809 E0.0567
G1 X119.636 Y102.725 E0.0595
G1 X119.649 Y102.623 E0.0629
G1 X119.661 Y102.598 E0.0638
G1 X119.676 Y102.572 E0.0648
G1 X119.775 Y102.453 E0.0700
G1 X119.901 Y102.355 E0.0753
G1 X120.178 Y102.207 E0.0857
G1 X120.548 Y102.078 E0.0988
G1 X120.946 Y101.986 E0.1124
G1 X121.592 Y101.896 E0.1340
G1 X122.160 Y101.855 E0.1530
G1 X122.676 Y101.838 E0.1702
G1 X123.345 Y101.839 E0.1924
G1 X124.624 Y101.885 E0.2350
G1 X125.450 Y101.940 E0.2625
G1 X126.294 Y102.042 E0.2908
G1 X126.909 Y102.174 E0.3117
G1 X126.995 Y102.503 E0.3230
G1 X127.132 Y102.791 E0.3336
G1 X127.348 Y103.057 E0.3450
G1 X127.809 Y103.401 E0.3641
G1 X127.827 Y104.121 E0.3881
G1 X127.980 Y104.439 E0.3998
G1 X127.366 Y104.457 E0.4203
G1 X127.214 Y104.571 E0.4266
G1 X126.887 Y104.696 E0.4382
G1 X126.878 Y104.737 E0.4396
G1 X126.748 Y104.766 E0.4441
G1 X126.004 Y104.758 E0.4688
G1 X125.554 Y104.737 E0.4838
G1 X124.732 Y104.821 E0.5113
G1 X124.603 Y104.823 E0.5156
G1 X124.307 Y104.574 E0.5284
G1 X124.014 Y104.485 E0.5386
G1 X123.794 Y104.456 E0.5460
G1 X122.826 Y104.366 E0.5783
G1 X122.235 Y104.279 E0.5982
G1 X122.002 Y104.271 E0.6060
G1 X121.769 Y104.298 E0.6138
G1 X121.329 Y104.397 E0.6288
G1 X121.084 Y104.436 E0.6370
G1 X120.926 Y104.445 E0.6423
G1 X120.740 Y104.430 E0.6485
G1 X120.324 Y104.351 E0.6626
G1 X120.127 Y104.314 F2132
; outer perimeter
G1 X120.160 Y104.727 F4800
G92 E0
G1 X119.729 Y104.617 E0.0148 F2132
G1 X119.502 Y104.516 E0.0231
G1 X119.779 Y104.039 E0.0414
G1 X119.827 Y103.828 E0.0486
G1 X119.807 Y103.682 E0.0535
G1 X119.693 Y103.483 E0.0611
G1 X119.394 Y103.162 E0.0757
G1 X119.325 Y103.057 E0.0799
G1 X119.273 Y102.945 E0.0840
G1 X119.264 Y102.921 E0.0849
G1 X119.231 Y102.735 E0.0911
G1 X119.256 Y102.539 E0.0977
G1 X119.290 Y102.443 E0.1011
G1 X119.343 Y102.345 E0.1048
G1 X119.496 Y102.164 E0.1127
G1 X119.681 Y102.018 E0.1205
G1 X120.017 Y101.840 E0.1332
G1 X120.437 Y101.693 E0.1480
G1 X120.873 Y101.592 E0.1629
G1 X121.550 Y101.498 E0.1856
G1 X122.139 Y101.455 E0.2052
G1 X122.670 Y101.438 E0.2229
G1 X123.353 Y101.439 E0.2456
G1 X124.645 Y101.486 E0.2886
G1 X125.487 Y101.541 E0.3167
G1 X126.361 Y101.647 E0.3459
G1 X127.111 Y101.808 E0.3715
G1 X127.352 Y101.900 E0.3801
G1 X127.324 Y102.180 E0.3894
G1 X127.373 Y102.366 E0.3958
G1 X127.472 Y102.576 E0.4036
G1 X127.627 Y102.766 E0.4117
G1 X128.067 Y103.095 E0.4300
G1 X128.150 Y103.193 E0.4342
G1 X128.207 Y103.304 E0.4384
G1 X128.225 Y104.025 E0.4624
G1 X128.309 Y104.200 E0.4688
G1 X128.306 Y104.493 E0.4786
G1 X128.422 Y104.833 E0.4905
G1 X128.186 Y104.853 E0.4984
G1 X127.968 Y104.839 E0.5057
G1 X127.505 Y104.853 E0.5211
G1 X127.409 Y104.925 E0.5250
G1 X127.232 Y104.992 E0.5314
G1 X127.215 Y105.071 E0.5340
G1 X126.790 Y105.167 E0.5485
G1 X125.992 Y105.158 E0.5751
G1 X125.565 Y105.138 E0.5893
G1 X124.757 Y105.220 E0.6163
G1 X124.460 Y105.226 E0.6262
G1 X124.113 Y104.933 E0.6413
G1 X123.930 Y104.878 E0.6477
G1 X123.749 Y104.854 E0.6537
G1 X122.778 Y104.763 E0.6861
G1 X122.199 Y104.678 E0.7056
G1 X122.018 Y104.672 E0.7116
G1 X121.836 Y104.693 E0.7177
G1 X121.404 Y104.791 E0.7325
G1 X121.126 Y104.834 E0.7418
G1 X120.920 Y104.846 E0.7487
G1 X120.686 Y104.827 E0.7565
G1 X120.357 Y104.764 E0.7676
G1 X120.160 Y104.727 F2132
G1 X119.729 Y104.617 F2400
G1 X119.502 Y104.516 F2400
G1 X119.779 Y104.039 F2400
G1 X119.827 Y103.828 F2400
G1 X119.807 Y103.682 F2400
G1 X119.693 Y103.483 F2400
G1 X119.583 Y103.365 F2400
; solid layer
G1 X120.205 Y103.006 F4800
G92 E0
G1 X120.910 Y102.302 E0.0331 F2132
G1 X121.001 Y102.281 E0.0362
G1 X121.577 Y102.201 E0.0556
G1 X120.425 Y103.353 E0.1098
G1 X120.482 Y103.452 E0.1136
G1 X120.532 Y103.811 E0.1257
G1 X122.189 Y102.154 E0.2036
G1 X122.681 Y102.138 E0.2200
G1 X122.771 Y102.138 E0.2230
G1 X120.777 Y104.131 E0.3167
G1 X120.780 Y104.132 E0.3168
G1 X120.930 Y104.144 E0.3218
G1 X121.052 Y104.137 E0.3259
G1 X121.273 Y104.103 E0.3333
G1 X121.401 Y104.074 E0.3377
G1 X123.335 Y102.139 E0.4287
G1 X123.340 Y102.139 E0.4288
G1 X123.882 Y102.159 E0.4469
G1 X122.067 Y103.973 E0.5322
G1 X122.262 Y103.980 E0.5387
G1 X122.580 Y104.026 E0.5494
G1 X124.428 Y102.178 E0.6363
G1 X124.609 Y102.185 E0.6424
G1 X124.963 Y102.208 E0.6542
G1 X123.083 Y104.089 E0.7426
G1 X123.600 Y104.137 E0.7599
G1 X125.490 Y102.247 E0.8488
G1 X125.995 Y102.308 E0.8657
G1 X124.104 Y104.199 E0.9547
G1 X124.453 Y104.304 E0.9668
G1 X124.514 Y104.355 E0.9694
G1 X126.480 Y102.389 E1.0619
G1 X126.666 Y102.429 E1.0682
G1 X126.712 Y102.606 E1.0744
G1 X126.749 Y102.685 E1.0772
G1 X124.936 Y104.498 E1.1625
G1 X125.546 Y104.436 E1.1829
G1 X125.563 Y104.437 E1.1835
G1 X126.953 Y103.047 E1.2489
G1 X127.139 Y103.275 E1.2587
G1 X127.226 Y103.340 E1.2623
G1 X126.106 Y104.459 E1.3149
G1 X126.650 Y104.465 E1.3330
G1 X126.676 Y104.456 E1.3339
G1 X127.373 Y103.758 E1.3667
G1 X127.514 Y103.617 F2132
; support
G1 X129.437 Y103.000 F4800
G92 E0
G1 X129.942 Y103.000 E0.0168 F2132
G1 X130.285 Y102.849 E0.0292
G1 X130.282 Y103.000 E0.0343
G1 X136.220 Y103.000 E0.2318
G1 X136.220 Y101.000 E0.2983
G1 X128.399 Y101.000 E0.5584
G1 X128.199 Y101.000 F2132
G92 E0
G1 E-1.5000 F1800
G1 X129.780 Y105.000 F4800
G1 E0.0000 F1800
G92 E0
G1 X132.220 Y105.000 E0.0812 F2132
G1 X132.220 Y106.780 E0.1404
G1 X133.780 Y106.780 E0.1922
G1 X133.780 Y105.000 E0.2514
G1 X138.220 Y105.000 E0.3991
G1 X138.220 Y107.000 E0.4656
G1 X119.780 Y107.000 E1.0790
G1 X119.780 Y109.000 E1.1455
G1 X122.220 Y109.000 E1.2266
G1 X122.220 Y107.220 E1.2858
G1 X123.780 Y107.220 E1.3377
G1 X123.780 Y109.000 E1.3969
G1 X136.020 Y109.000 E1.8040
G1 X136.220 Y109.000 F2132
G92 E0
G1 E-1.5000 F1800
G1 X115.780 Y101.000 F4800
G1 E0.0000 F1800
G92 E0
G1 X118.220 Y101.000 E0.0812 F2132
G1 X118.220 Y101.824 E0.1086
G1 X118.127 Y101.956 E0.1139
G1 X117.971 Y102.294 E0.1263
G1 X117.894 Y102.650 E0.1384
G1 X117.892 Y102.857 E0.1453
G1 X117.915 Y103.000 E0.1501
G1 X113.780 Y103.000 E0.2876
G1 X113.780 Y105.000 E0.3542
G1 X118.194 Y105.000 E0.5010
G1 X118.198 Y105.004 E0.5012
G1 X118.220 Y105.016 E0.5020
G1 X118.220 Y105.220 E0.5088
G1 X116.220 Y105.220 E0.5753
G1 X116.220 Y107.000 E0.6345
G1 X113.980 Y107.000 E0.7090
G1 X113.780 Y107.000 F2132
G92 E0
G1 E-1.5000 F1800
; layer 3, Z = 0.580
M105
M105
; inner perimeter
G1 X119.189 Y104.278 F4800
G1 Z0.580 F1002
G1 E0.0000 F1800
G92 E0
G1 X119.327 Y104.034 E0.0093 F2400
G1 X119.379 Y103.801 E0.0172
G1 X119.372 Y103.544 E0.0258
G1 X119.234 Y103.219 E0.0376
G1 X118.937 Y102.873 E0.0527
G1 X118.888 Y102.786 E0.0561
G1 X118.925 Y102.613 E0.0619
G1 X118.997 Y102.458 E0.0676
G1 X119.078 Y102.344 E0.0723
G1 X119.125 Y102.293 E0.0746
G1 X119.272 Y102.169 E0.0810
G1 X119.509 Y102.030 E0.0901
G1 X119.808 Y101.907 E0.1009
G1 X120.123 Y101.816 E0.1118
G1 X120.537 Y101.731 E0.1258
G1 X120.819 Y101.689 E0.1353
G1 X121.776 Y101.605 E0.1673
G1 X122.913 Y101.577 E0.2051
