; generated by PrusaSlicer 2.3.1+win64 on 2022-04-12 at 21:22:37 UTC

; 

; external perimeters extrusion width = 0.45mm
; perimeters extrusion width = 0.45mm
; infill extrusion width = 0.45mm
; solid infill extrusion width = 0.45mm
; top infill extrusion width = 0.40mm
; first layer extrusion width = 0.42mm

M73 P0 R10
M73 Q0 S10
M201 X1000 Y1000 Z1000 E5000 ; sets maximum accelerations, mm/sec^2
M203 X200 Y200 Z12 E120 ; sets maximum feedrates, mm/sec
M204 P1250 R1250 T1250 ; sets acceleration (P, T) and retract acceleration (R), mm/sec^2
M205 X8.00 Y8.00 Z0.40 E1.50 ; sets the jerk limits, mm/sec
M205 S0 T0 ; sets the minimum extruding and travel feed rate, mm/sec
M107
;TYPE:Custom
M862.3 P "MK3S" ; printer model check
M862.1 P0.4 ; nozzle diameter check
M115 U3.8.0 ; tell printer latest fw version
G90 ; use absolute coordinates
M83 ; extruder relative mode
M104 S215 ; set extruder temp
M140 S60 ; set bed temp
M190 S60 ; wait for bed temp
M109 S215 ; wait for extruder temp
G28 W ; home all without mesh bed level
G80 ; mesh bed leveling
G1 Y-3.0 F1000.0 ; go outside print area
G92 E0.0
G1 X60.0 E9.0 F1000.0 ; intro line
M73 P0 R9
M73 Q0 S9
G1 X100.0 E12.5 F1000.0 ; intro line
G92 E0.0
M221 S95
G21 ; set units to millimeters
G90 ; use absolute coordinates
M83 ; use relative distances for extrusion
M900 K0.05 ; Filament gcode LA 1.5
M900 K30 ; Filament gcode LA 1.0
;LAYER_CHANGE
;Z:0.2
;HEIGHT:0.2
;BEFORE_LAYER_CHANGE
G92 E0.0
;0.2


M73 P1 R9
M73 Q1 S9
G1 E-0.80000 F2100.000
G1 Z0.600 F10800.000
;AFTER_LAYER_CHANGE
;0.2
G1 X112.943 Y95.334
G1 Z0.200
G1 E0.80000 F2100.000
M204 S1000
;TYPE:Skirt
;WIDTH:0.42
G1 F1200.000
G1 X114.147 Y93.998 E0.05641
G1 X115.111 Y93.125 E0.04077
G1 X116.168 Y92.319 E0.04168
G1 X117.690 Y91.384 E0.05601
G1 X118.902 Y90.800 E0.04218
G1 X120.596 Y90.187 E0.05649
G1 X121.870 Y89.866 E0.04120
G1 X123.617 Y89.609 E0.05535
G1 X124.992 Y89.546 E0.04316
G1 X126.296 Y89.601 E0.04094
G1 X128.066 Y89.854 E0.05606
G1 X129.351 Y90.171 E0.04150
G1 X130.600 Y90.597 E0.04138
G1 X132.221 Y91.337 E0.05588
G1 X133.360 Y92.002 E0.04133
G1 X134.836 Y93.081 E0.05735
G1 X135.820 Y93.965 E0.04145
G1 X137.047 Y95.321 E0.05735
G1 X137.826 Y96.379 E0.04120
G1 X138.505 Y97.488 E0.04077
G1 X139.288 Y99.111 E0.05649
G1 X139.745 Y100.376 E0.04218
G1 X140.184 Y102.125 E0.05653
G1 X140.372 Y103.414 E0.04086
G1 X140.452 Y104.741 E0.04168
G1 X140.379 Y106.523 E0.05592
G1 X140.196 Y107.813 E0.04086
G1 X139.899 Y109.105 E0.04155
G1 X139.307 Y110.842 E0.05755
G1 X138.758 Y112.038 E0.04125
G1 X137.829 Y113.616 E0.05742
G1 X137.051 Y114.675 E0.04120
G1 X135.853 Y116.002 E0.05606
G1 X134.878 Y116.885 E0.04124
G1 X133.832 Y117.681 E0.04121
G1 X132.310 Y118.616 E0.05601
G1 X131.098 Y119.200 E0.04218
G1 X129.404 Y119.813 E0.05649
G1 X128.130 Y120.134 E0.04120
G1 X126.383 Y120.391 E0.05535
G1 X125.016 Y120.454 E0.04290
G1 X123.704 Y120.399 E0.04120
G1 X121.934 Y120.146 E0.05606
G1 X120.649 Y119.829 E0.04150
G1 X119.400 Y119.403 E0.04138
G1 X117.791 Y118.669 E0.05546
G1 X116.639 Y117.997 E0.04179
G1 X115.164 Y116.919 E0.05731
G1 X114.180 Y116.035 E0.04145
G1 X112.953 Y114.679 E0.05735
G1 X112.174 Y113.621 E0.04120
G1 X111.495 Y112.512 E0.04077
G1 X110.712 Y110.889 E0.05649
M73 Q2 S9
G1 X110.255 Y109.624 E0.04218
G1 X109.816 Y107.877 E0.05649
G1 X109.628 Y106.589 E0.04081
G1 X109.548 Y105.259 E0.04177
M73 P2 R9
G1 X109.621 Y103.477 E0.05592
G1 X109.807 Y102.173 E0.04129
G1 X110.247 Y100.398 E0.05735
G1 X110.693 Y99.158 E0.04133
G1 X111.242 Y97.962 E0.04125
G1 X112.171 Y96.384 E0.05742
G1 X112.907 Y95.383 E0.03897
G1 X113.574 Y95.163 F10800.000
G1 F1200.000
G1 X114.446 Y94.233 E0.03999
G1 X115.399 Y93.376 E0.04017
G1 X116.846 Y92.318 E0.05622
G1 X117.948 Y91.674 E0.04000
G1 X119.542 Y90.946 E0.05496
G1 X120.753 Y90.533 E0.04012
G1 X121.988 Y90.227 E0.03988
G1 X123.727 Y89.977 E0.05508
G1 X125.005 Y89.923 E0.04012
G1 X126.793 Y90.030 E0.05616
G1 X128.052 Y90.235 E0.04000
G1 X129.289 Y90.546 E0.03999
G1 X130.941 Y91.143 E0.05508
G1 X132.091 Y91.695 E0.03999
G1 X133.192 Y92.343 E0.04005
G1 X134.607 Y93.381 E0.05503
G1 X135.582 Y94.261 E0.04119
G1 X136.760 Y95.565 E0.05508
G1 X137.515 Y96.593 E0.04000
G1 X138.425 Y98.140 E0.05628
G1 X138.959 Y99.302 E0.04011
G1 X139.391 Y100.504 E0.04005
G1 X139.823 Y102.245 E0.05622
G1 X140.003 Y103.508 E0.04000
G1 X140.074 Y105.259 E0.05496
G1 X139.999 Y106.536 E0.04011
G1 X139.814 Y107.800 E0.04005
G1 X139.389 Y109.503 E0.05503
G1 X138.942 Y110.738 E0.04119
G1 X138.180 Y112.321 E0.05508
G1 X137.512 Y113.412 E0.04011
G1 X136.426 Y114.836 E0.05616
G1 X135.554 Y115.767 E0.04000
G1 X134.606 Y116.621 E0.04000
G1 X133.189 Y117.659 E0.05508
G1 X132.089 Y118.306 E0.03999
G1 X130.937 Y118.858 E0.04005
G1 X129.290 Y119.453 E0.05491
G1 X128.050 Y119.765 E0.04012
G1 X126.277 Y120.022 E0.05616
G1 X124.999 Y120.077 E0.04012
G1 X123.723 Y120.022 E0.04005
G1 X121.948 Y119.765 E0.05622
G1 X120.711 Y119.454 E0.03999
G1 X119.059 Y118.857 E0.05508
G1 X117.909 Y118.305 E0.04000
G1 X116.808 Y117.657 E0.04005
G1 X115.393 Y116.619 E0.05503
G1 X114.418 Y115.739 E0.04119
G1 X113.240 Y114.435 E0.05508
G1 X112.485 Y113.407 E0.04000
G1 X111.575 Y111.860 E0.05627
G1 X111.041 Y110.698 E0.04011
G1 X110.609 Y109.496 E0.04005
G1 X110.177 Y107.755 E0.05622
G1 X109.997 Y106.492 E0.04000
G1 X109.926 Y104.741 E0.05496
G1 X110.001 Y103.464 E0.04011
G1 X110.186 Y102.200 E0.04005
G1 X110.611 Y100.497 E0.05503
G1 X111.058 Y99.262 E0.04119
G1 X111.820 Y97.679 E0.05508
G1 X112.488 Y96.588 E0.04012
G1 X113.538 Y95.211 E0.05428
; printing object RUSH-FLASHER-INDICATOR.STL id:0 copy 0
G1 E-0.80000 F2100.000
G1 Z0.800 F10800.000
M73 Q3 S9
G1 X115.991 Y97.206
G1 Z0.200
G1 E0.80000 F2100.000
;TYPE:Perimeter
G1 F1200.000
G1 X116.663 Y96.491 E0.03077
G1 X117.384 Y95.840 E0.03046
M73 P3 R9
G1 X118.161 Y95.246 E0.03066
G1 X118.555 Y94.982 E0.01486
G1 X119.403 Y94.484 E0.03085
G1 X119.826 Y94.270 E0.01486
G1 X120.729 Y93.879 E0.03085
G1 X121.177 Y93.718 E0.01493
G1 X121.878 Y93.506 E0.02298
G1 X122.591 Y93.334 E0.02298
G1 X123.059 Y93.247 E0.01493
G1 X124.035 Y93.127 E0.03085
G1 X124.510 Y93.097 E0.01493
G1 X125.236 Y93.092 E0.02277
G1 X125.975 Y93.127 E0.02319
G1 X126.449 Y93.176 E0.01492
G1 X127.413 Y93.335 E0.03066
G1 X128.356 Y93.570 E0.03047
G1 X129.282 Y93.884 E0.03066
G1 X129.721 Y94.063 E0.01486
G1 X130.607 Y94.490 E0.03085
G1 X131.021 Y94.721 E0.01486
G1 X131.849 Y95.253 E0.03085
G1 X132.231 Y95.533 E0.01486
G1 X132.983 Y96.158 E0.03066
G1 X133.677 Y96.838 E0.03047
G1 X134.313 Y97.573 E0.03047
G1 X134.891 Y98.361 E0.03066
G1 X135.148 Y98.760 E0.01486
G1 X135.628 Y99.619 E0.03085
G1 X135.834 Y100.046 E0.01486
G1 X136.205 Y100.957 E0.03085
G1 X136.357 Y101.406 E0.01486
G1 X136.614 Y102.349 E0.03066
G1 X136.791 Y103.305 E0.03047
G1 X136.890 Y104.271 E0.03047
G1 X136.910 Y105.249 E0.03066
G1 X136.891 Y105.723 E0.01486
G1 X136.791 Y106.695 E0.03066
G1 X136.614 Y107.651 E0.03047
G1 X136.357 Y108.594 E0.03066
G1 X136.205 Y109.043 E0.01486
G1 X135.836 Y109.949 E0.03066
G1 X135.396 Y110.815 E0.03047
G1 X134.885 Y111.649 E0.03066
G1 X134.612 Y112.037 E0.01486
G1 X134.003 Y112.801 E0.03066
G1 X133.337 Y113.509 E0.03047
G1 X132.611 Y114.164 E0.03066
G1 X132.241 Y114.460 E0.01486
G1 X131.440 Y115.021 E0.03066
G1 X130.597 Y115.516 E0.03066
G1 X130.174 Y115.730 E0.01486
G1 X129.277 Y116.118 E0.03066
G1 X128.356 Y116.430 E0.03047
G1 X127.413 Y116.665 E0.03047
G1 X126.454 Y116.823 E0.03047
G1 X125.480 Y116.903 E0.03066
G1 X125.006 Y116.913 E0.01486
G1 X124.023 Y116.873 E0.03085
G1 X123.551 Y116.824 E0.01486
G1 X122.596 Y116.667 E0.03036
G1 X121.644 Y116.430 E0.03077
G1 X120.723 Y116.118 E0.03046
G1 X119.826 Y115.730 E0.03066
G1 X119.403 Y115.516 E0.01486
G1 X118.555 Y115.018 E0.03085
G1 X118.161 Y114.754 E0.01486
G1 X117.384 Y114.160 E0.03066
G1 X116.663 Y113.509 E0.03047
G1 X115.997 Y112.801 E0.03047
G1 X115.393 Y112.044 E0.03037
G1 X115.115 Y111.648 E0.01516
G1 X114.603 Y110.815 E0.03065
G1 X114.165 Y109.952 E0.03037
G1 X113.973 Y109.508 E0.01516
G1 X113.639 Y108.583 E0.03084
G1 X113.505 Y108.128 E0.01486
G1 X113.288 Y107.175 E0.03066
G1 X113.149 Y106.207 E0.03066
G1 X113.110 Y105.735 E0.01486
G1 X113.090 Y104.757 E0.03066
G1 X113.150 Y103.787 E0.03047
G1 X113.288 Y102.825 E0.03047
G1 X113.503 Y101.881 E0.03037
G1 X113.639 Y101.417 E0.01516
G1 X113.973 Y100.492 E0.03084
G1 X114.161 Y100.057 E0.01486
G1 X114.604 Y99.185 E0.03066
G1 X115.115 Y98.351 E0.03066
G1 X115.388 Y97.963 E0.01486
G1 X115.954 Y97.253 E0.02848
G1 X115.659 Y97.018 F10800.000
;TYPE:External perimeter
G1 F1200.000
G1 X116.399 Y96.222 E0.03409
G1 X117.143 Y95.550 E0.03143
G1 X117.941 Y94.939 E0.03150
G1 X118.354 Y94.662 E0.01559
G1 X119.222 Y94.153 E0.03157
G1 X119.666 Y93.928 E0.01559
G1 X120.590 Y93.529 E0.03157
G1 X121.058 Y93.359 E0.01561
G1 X121.779 Y93.142 E0.02362
G1 X122.512 Y92.965 E0.02362
G1 X123.001 Y92.874 E0.01561
G1 X124.000 Y92.751 E0.03157
G1 X124.497 Y92.720 E0.01561
G1 X125.244 Y92.715 E0.02341
G1 X126.003 Y92.751 E0.02383
G1 X126.498 Y92.802 E0.01561
G1 X127.490 Y92.965 E0.03150
G1 X128.462 Y93.208 E0.03143
G1 X129.414 Y93.530 E0.03150
G1 X129.874 Y93.718 E0.01559
G1 X130.781 Y94.155 E0.03157
G1 X131.215 Y94.398 E0.01559
G1 X132.062 Y94.942 E0.03157
G1 X132.463 Y95.236 E0.01559
G1 X133.236 Y95.878 E0.03150
G1 X133.952 Y96.580 E0.03143
G1 X134.609 Y97.337 E0.03143
G1 X135.202 Y98.148 E0.03150
G1 X135.471 Y98.566 E0.01559
G1 X135.963 Y99.445 E0.03157
G1 X136.178 Y99.893 E0.01559
G1 X136.559 Y100.825 E0.03157
G1 X136.718 Y101.296 E0.01559
G1 X136.982 Y102.265 E0.03150
G1 X137.165 Y103.251 E0.03143
G1 X137.267 Y104.248 E0.03143
G1 X137.287 Y105.253 E0.03150
G1 X137.267 Y105.750 E0.01559
G1 X137.165 Y106.749 E0.03150
G1 X136.982 Y107.735 E0.03143
G1 X136.718 Y108.704 E0.03150
G1 X136.559 Y109.175 E0.01559
M73 Q4 S9
G1 X136.179 Y110.105 E0.03150
G1 X135.726 Y111.000 E0.03143
G1 X135.200 Y111.856 E0.03150
G1 X134.914 Y112.263 E0.01559
G1 X134.288 Y113.048 E0.03150
G1 X133.601 Y113.778 E0.03143
G1 X132.855 Y114.452 E0.03150
M73 P4 R9
G1 X132.467 Y114.762 E0.01559
G1 X131.644 Y115.339 E0.03150
G1 X130.778 Y115.847 E0.03150
G1 X130.334 Y116.072 E0.01559
G1 X129.412 Y116.471 E0.03150
G1 X128.462 Y116.792 E0.03143
G1 X127.490 Y117.035 E0.03143
G1 X126.501 Y117.198 E0.03143
G1 X125.499 Y117.280 E0.03150
G1 X125.002 Y117.290 E0.01559
G1 X123.996 Y117.249 E0.03157
G1 X123.502 Y117.198 E0.01559
G1 X122.520 Y117.037 E0.03121
G1 X121.538 Y116.792 E0.03173
G1 X120.588 Y116.471 E0.03143
G1 X119.666 Y116.072 E0.03150
G1 X119.222 Y115.847 E0.01559
G1 X118.354 Y115.338 E0.03157
G1 X117.941 Y115.061 E0.01559
G1 X117.143 Y114.450 E0.03150
G1 X116.399 Y113.778 E0.03143
G1 X115.712 Y113.048 E0.03144
G1 X115.091 Y112.270 E0.03121
G1 X114.800 Y111.856 E0.01588
G1 X114.274 Y111.000 E0.03150
G1 X113.824 Y110.112 E0.03121
G1 X113.623 Y109.647 E0.01588
G1 X113.280 Y108.700 E0.03157
G1 X113.140 Y108.223 E0.01559
G1 X112.917 Y107.244 E0.03150
G1 X112.774 Y106.249 E0.03150
G1 X112.733 Y105.754 E0.01559
G1 X112.713 Y104.749 E0.03150
G1 X112.774 Y103.749 E0.03143
G1 X112.917 Y102.756 E0.03144
G1 X113.138 Y101.786 E0.03121
G1 X113.280 Y101.300 E0.01588
G1 X113.623 Y100.353 E0.03157
G1 X113.820 Y99.897 E0.01559
G1 X114.274 Y99.000 E0.03150
G1 X114.800 Y98.144 E0.03150
G1 X115.086 Y97.737 E0.01559
G1 X115.622 Y97.065 E0.02696
G1 X116.052 Y97.095 F10800.000
G1 E-0.80000 F2100.000
G1 Z0.800 F10800.000
G1 X131.777 Y95.341
G1 Z0.200
G1 E0.80000 F2100.000
;TYPE:Solid infill
;WIDTH:0.424048
G1 F1200.000
G1 X133.489 Y97.053 E0.07673
G1 X134.092 Y97.749 E0.02917
G1 X134.658 Y98.522 E0.03035
G1 X135.035 Y99.138 E0.02291
G1 X130.841 Y94.945 E0.18795
G1 X130.477 Y94.741 E0.01323
G1 X129.747 Y94.389 E0.02567
G1 X135.614 Y100.256 E0.26294
G1 X135.974 Y101.155 E0.03069
G1 X128.857 Y94.038 E0.31896
G1 X128.276 Y93.842 E0.01943
G1 X128.070 Y93.790 E0.00674
G1 X136.206 Y101.926 E0.36462
G1 X136.338 Y102.412 E0.01597
G1 X136.380 Y102.639 E0.00731
G1 X127.352 Y93.611 E0.40461
G1 X126.707 Y93.505 E0.02072
G1 X136.503 Y103.301 E0.43904
M73 P5 R9
M73 Q5 S9
G1 X136.568 Y103.905 E0.01927
G1 X126.086 Y93.423 E0.46980
G1 X125.512 Y93.388 E0.01820
G1 X136.612 Y104.488 E0.49744
G1 X136.623 Y105.038 E0.01744
G1 X124.962 Y93.377 E0.52262
G1 X124.431 Y93.386 E0.01681
G1 X136.614 Y105.568 E0.54599
G1 X136.571 Y106.065 E0.01579
G1 X123.931 Y93.424 E0.56651
G1 X123.451 Y93.483 E0.01532
G1 X136.521 Y106.553 E0.58578
M73 Q6 S9
G1 X136.444 Y107.015 E0.01484
G1 X122.978 Y93.549 E0.60352
M73 P6 R9
G1 X122.529 Y93.639 E0.01451
G1 X136.360 Y107.470 E0.61985
G1 X136.253 Y107.902 E0.01410
G1 X122.096 Y93.745 E0.63449
G1 X121.675 Y93.863 E0.01385
G1 X136.137 Y108.326 E0.64818
G1 X136.010 Y108.738 E0.01366
G1 X121.261 Y93.988 E0.66105
G1 X120.865 Y94.131 E0.01334
G1 X135.864 Y109.130 E0.67225
M73 P7 R9
M73 Q7 S9
G1 X135.708 Y109.513 E0.01310
G1 X120.487 Y94.292 E0.68218
G1 X120.111 Y94.455 E0.01299
G1 X135.548 Y109.892 E0.69185
G1 X135.366 Y110.249 E0.01271
G1 X119.745 Y94.628 E0.70012
G1 X119.395 Y94.817 E0.01261
G1 X135.185 Y110.607 E0.70768
G1 X134.985 Y110.946 E0.01247
G1 X119.055 Y95.016 E0.71393
M73 P8 R9
M73 Q8 S9
G1 X118.715 Y95.215 E0.01248
G1 X134.779 Y111.280 E0.71996
G1 X134.568 Y111.607 E0.01236
G1 X118.392 Y95.431 E0.72497
G1 X118.083 Y95.661 E0.01221
G1 X134.343 Y111.921 E0.72871
G1 X134.104 Y112.221 E0.01215
G1 X117.778 Y95.895 E0.73169
G1 X117.479 Y96.135 E0.01215
G1 X133.865 Y112.521 E0.73436
M73 P9 R9
M73 Q9 S9
G1 X133.610 Y112.805 E0.01210
G1 X117.196 Y96.391 E0.73566
G1 X116.913 Y96.647 E0.01209
G1 X133.349 Y113.083 E0.73664
G1 X133.139 Y113.307 E0.00972
G1 X133.084 Y113.357 E0.00236
G1 X116.648 Y96.921 E0.73662
G1 X116.387 Y97.199 E0.01208
G1 X132.800 Y113.612 E0.73563
G1 X132.517 Y113.868 E0.01209
G1 X116.132 Y97.483 E0.73434
M73 P10 R9
M73 Q10 S9
G1 X115.893 Y97.783 E0.01215
G1 X132.222 Y114.112 E0.73184
G1 X131.914 Y114.343 E0.01220
G1 X115.654 Y98.083 E0.72875
G1 X115.429 Y98.397 E0.01224
G1 X131.597 Y114.566 E0.72464
G1 X131.280 Y114.787 E0.01227
G1 X115.218 Y98.725 E0.71988
M73 P10 R8
M73 Q10 S8
G1 X115.013 Y99.059 E0.01242
G1 X130.941 Y114.987 E0.71385
M73 P11 R8
M73 Q11 S8
G1 X130.601 Y115.186 E0.01248
G1 X114.813 Y99.398 E0.70759
G1 X114.631 Y99.755 E0.01271
G1 X130.251 Y115.375 E0.70002
G1 X129.884 Y115.547 E0.01283
G1 X114.450 Y100.113 E0.69174
G1 X114.284 Y100.486 E0.01294
G1 X129.508 Y115.710 E0.68231
G1 X129.129 Y115.870 E0.01304
G1 X114.135 Y100.876 E0.67198
M73 P12 R8
M73 Q12 S8
G1 X113.992 Y101.272 E0.01334
G1 X128.726 Y116.006 E0.66035
G1 X128.323 Y116.142 E0.01347
G1 X113.858 Y101.677 E0.64832
G1 X113.743 Y102.101 E0.01393
G1 X127.895 Y116.253 E0.63428
G1 X127.464 Y116.361 E0.01409
G1 X113.643 Y102.540 E0.61944
G1 X113.550 Y102.986 E0.01445
G1 X127.009 Y116.445 E0.60320
M73 P13 R8
M73 Q13 S8
G1 X126.547 Y116.521 E0.01486
G1 X113.483 Y103.458 E0.58550
G1 X113.424 Y103.938 E0.01533
G1 X126.058 Y116.572 E0.56624
G1 X125.560 Y116.613 E0.01584
G1 X113.393 Y104.445 E0.54531
G1 X113.377 Y104.969 E0.01661
G1 X125.037 Y116.629 E0.52257
G1 X124.477 Y116.608 E0.01776
G1 X113.389 Y105.519 E0.49696
G1 X113.423 Y106.093 E0.01821
G1 X123.906 Y116.576 E0.46984
G1 X123.285 Y116.494 E0.01987
G1 X113.508 Y106.717 E0.43819
M73 P14 R8
M73 Q14 S8
G1 X113.566 Y107.123 E0.01302
G1 X113.623 Y107.370 E0.00804
G1 X122.638 Y116.386 E0.40406
G1 X121.920 Y116.207 E0.02345
G1 X113.783 Y108.070 E0.36469
G1 X113.908 Y108.495 E0.01403
G1 X114.043 Y108.869 E0.01260
G1 X121.132 Y115.958 E0.31772
G1 X120.825 Y115.854 E0.01027
G1 X120.233 Y115.598 E0.02042
G1 X114.387 Y109.752 E0.26202
G1 X114.850 Y110.677 E0.03278
G1 X114.974 Y110.878 E0.00745
G1 X119.116 Y115.020 E0.18564
G1 X118.705 Y114.779 E0.01508
G1 X118.326 Y114.524 E0.01447
G1 X117.565 Y113.942 E0.03035
G1 X116.888 Y113.331 E0.02891
G1 X115.367 Y111.810 E0.06817
; stop printing object RUSH-FLASHER-INDICATOR.STL id:0 copy 0
M106 S84.15
;LAYER_CHANGE
;Z:0.4
;HEIGHT:0.2
;BEFORE_LAYER_CHANGE
G92 E0.0
;0.4


G1 E-0.80000 F2100.000
G1 Z0.800 F10800.000
;AFTER_LAYER_CHANGE
;0.4
M104 S210 ; set temperature
G1 X112.953 Y114.679
G1 Z0.400
G1 E0.80000 F2100.000
;TYPE:Skirt
