; generated by PrusaSlicer 2.3.1+win64 on 2022-05-30 at 16:55:26 UTC

; 

; external perimeters extrusion width = 0.45mm
; perimeters extrusion width = 0.45mm
; infill extrusion width = 0.45mm
; solid infill extrusion width = 0.45mm
; top infill extrusion width = 0.40mm
; first layer extrusion width = 0.42mm

M73 P0 R360
M73 Q0 S368
M201 X1000 Y1000 Z1000 E5000 ; sets maximum accelerations, mm/sec^2
M203 X200 Y200 Z12 E120 ; sets maximum feedrates, mm/sec
M204 P1250 R1250 T1250 ; sets acceleration (P, T) and retract acceleration (R), mm/sec^2
M205 X8.00 Y8.00 Z0.40 E1.50 ; sets the jerk limits, mm/sec
M205 S0 T0 ; sets the minimum extruding and travel feed rate, mm/sec
M107
;TYPE:Custom
M862.3 P "MK3S" ; printer model check
M862.1 P0.4 ; nozzle diameter check
M115 U3.8.0 ; tell printer latest fw version
G90 ; use absolute coordinates
M83 ; extruder relative mode
M104 S215 ; set extruder temp
M140 S60 ; set bed temp
M190 S60 ; wait for bed temp
M109 S215 ; wait for extruder temp
G28 W ; home all without mesh bed level
G80 ; mesh bed leveling
G1 Y-3.0 F1000.0 ; go outside print area
G92 E0.0
G1 X60.0 E9.0 F1000.0 ; intro line
G1 X100.0 E12.5 F1000.0 ; intro line
G92 E0.0
M221 S95
G21 ; set units to millimeters
G90 ; use absolute coordinates
M83 ; use relative distances for extrusion
M900 K0.05 ; Filament gcode LA 1.5
M900 K30 ; Filament gcode LA 1.0
;LAYER_CHANGE
;Z:0.2
;HEIGHT:0.2
;BEFORE_LAYER_CHANGE
G92 E0.0
;0.2


G1 E-0.80000 F2100.000
G1 Z0.600 F10800.000
;AFTER_LAYER_CHANGE
;0.2
G1 X64.455 Y18.706
G1 Z0.200
G1 E0.80000 F2100.000
M204 S1000
;TYPE:Skirt
;WIDTH:0.42
G1 F1200.000
G1 X64.830 Y17.859 E0.02903
G1 X65.444 Y17.183 E0.02863
G1 X66.249 Y16.730 E0.02898
G1 X67.121 Y16.557 E0.02789
G1 X108.055 Y16.554 E1.28343
G1 X191.555 Y19.432 E2.61966
G1 X192.183 Y19.548 E0.02000
G1 X192.753 Y19.825 E0.01989
G1 X193.230 Y20.243 E0.01989
G1 X193.581 Y20.776 E0.02000
G1 X193.755 Y21.271 E0.01645
G1 X193.816 Y21.792 E0.01645
G1 X194.488 Y191.075 E5.30780
M73 P0 R359
G1 X194.394 Y191.733 E0.02083
G1 X194.123 Y192.335 E0.02071
G1 X193.697 Y192.840 E0.02071
G1 X193.145 Y193.210 E0.02083
G1 X192.646 Y193.385 E0.01657
G1 X192.122 Y193.446 E0.01657
G1 X134.956 Y193.445 E1.79238
G1 X65.881 Y190.765 E2.16743
G1 X65.106 Y190.620 E0.02473
G1 X64.402 Y190.269 E0.02466
G1 X63.853 Y189.781 E0.02304
G1 X63.425 Y189.129 E0.02444
G1 X63.160 Y188.178 E0.03095
G1 X55.512 Y110.229 E2.45579
M73 Q0 S367
G1 X56.740 Y96.850 E0.42125
G1 X64.449 Y18.766 E2.46017
; printing object obelisk-revised.STL id:1 copy 1
G1 E-0.80000 F2100.000
G1 Z0.800 F10800.000
G1 X58.757 Y111.030
G1 Z0.200
G1 E0.80000 F2100.000
;TYPE:Perimeter
G1 F1200.000
G1 X114.099 Y111.030 E1.73522
G1 X106.573 Y187.606 E2.41253
G1 X66.283 Y187.606 E1.26328
G1 X58.763 Y111.090 E2.41065
G1 X58.341 Y110.653 F10800.000
;TYPE:External perimeter
G1 F1200.000
G1 X114.515 Y110.653 E1.76130
G1 X106.927 Y187.868 E2.43269
G1 X106.874 Y187.965 E0.00345
G1 X106.801 Y187.983 E0.00236
G1 X66.056 Y187.983 E1.27752
G1 X65.955 Y187.939 E0.00345
G1 X65.930 Y187.868 E0.00236
G1 X58.347 Y110.713 E2.43080
G1 X58.694 Y110.842 F10800.000
G1 E-0.80000 F2100.000
G1 Z0.800 F10800.000
G1 X113.212 Y111.144
G1 Z0.200
G1 E0.80000 F2100.000
;TYPE:Solid infill
;WIDTH:0.420897
G1 F1200.000
G1 X113.751 Y111.682 E0.02395
G1 X113.703 Y112.169 E0.01537
G1 X112.847 Y111.313 E0.03804
G1 X112.313 Y111.313 E0.01680
G1 X113.655 Y112.656 E0.05967
G1 X113.608 Y113.142 E0.01537
G1 X111.778 Y111.313 E0.08130
G1 X111.244 Y111.313 E0.01680
G1 X113.560 Y113.629 E0.10294
G1 X113.512 Y114.116 E0.01537
G1 X110.709 Y111.313 E0.12457
G1 X110.175 Y111.313 E0.01680
G1 X113.464 Y114.603 E0.14620
G1 X113.416 Y115.089 E0.01537
G1 X109.640 Y111.313 E0.16783
G1 X109.106 Y111.313 E0.01680
G1 X113.368 Y115.576 E0.18947
G1 X113.321 Y116.063 E0.01537
G1 X108.571 Y111.313 E0.21110
G1 X108.037 Y111.313 E0.01680
G1 X113.273 Y116.549 E0.23273
G1 X113.225 Y117.036 E0.01537
G1 X107.502 Y111.313 E0.25437
G1 X106.968 Y111.313 E0.01680
G1 X113.177 Y117.523 E0.27600
G1 X113.129 Y118.010 E0.01537
G1 X106.433 Y111.313 E0.29763
G1 X105.898 Y111.313 E0.01680
G1 X113.081 Y118.496 E0.31926
G1 X113.034 Y118.983 E0.01537
G1 X105.364 Y111.313 E0.34090
G1 X104.829 Y111.313 E0.01680
G1 X112.986 Y119.470 E0.36253
G1 X112.938 Y119.956 E0.01537
G1 X104.295 Y111.313 E0.38416
G1 X103.760 Y111.313 E0.01680
G1 X112.890 Y120.443 E0.40579
G1 X112.842 Y120.930 E0.01537
G1 X103.226 Y111.313 E0.42743
G1 X102.691 Y111.313 E0.01680
G1 X112.794 Y121.416 E0.44906
G1 X112.747 Y121.903 E0.01537
G1 X102.157 Y111.313 E0.47069
G1 X101.622 Y111.313 E0.01680
G1 X112.699 Y122.390 E0.49233
M73 P0 R358
G1 X112.651 Y122.877 E0.01537
G1 X101.088 Y111.313 E0.51396
G1 X100.553 Y111.313 E0.01680
G1 X112.603 Y123.363 E0.53559
G1 X112.555 Y123.850 E0.01537
G1 X100.018 Y111.313 E0.55722
G1 X99.484 Y111.313 E0.01680
G1 X112.507 Y124.337 E0.57886
G1 X112.460 Y124.823 E0.01537
G1 X98.949 Y111.313 E0.60049
G1 X98.415 Y111.313 E0.01680
G1 X112.412 Y125.310 E0.62212
G1 X112.364 Y125.797 E0.01537
G1 X97.880 Y111.313 E0.64375
G1 X97.346 Y111.313 E0.01680
G1 X112.316 Y126.284 E0.66539
G1 X112.268 Y126.770 E0.01537
G1 X96.811 Y111.313 E0.68702
G1 X96.277 Y111.313 E0.01680
G1 X112.220 Y127.257 E0.70865
G1 X112.173 Y127.744 E0.01537
G1 X95.742 Y111.313 E0.73029
G1 X95.208 Y111.313 E0.01680
G1 X112.125 Y128.230 E0.75192
G1 X112.077 Y128.717 E0.01537
G1 X94.673 Y111.313 E0.77355
G1 X94.139 Y111.313 E0.01680
G1 X112.029 Y129.204 E0.79518
G1 X111.981 Y129.690 E0.01537
G1 X93.604 Y111.313 E0.81682
M73 Q0 S366
G1 X93.069 Y111.313 E0.01680
G1 X111.933 Y130.177 E0.83845
G1 X111.886 Y130.664 E0.01537
G1 X92.535 Y111.313 E0.86008
G1 X92.000 Y111.313 E0.01680
G1 X111.838 Y131.151 E0.88171
G1 X111.790 Y131.637 E0.01537
G1 X91.466 Y111.313 E0.90335
G1 X90.931 Y111.313 E0.01680
G1 X111.742 Y132.124 E0.92498
G1 X111.694 Y132.611 E0.01537
G1 X90.397 Y111.313 E0.94661
G1 X89.862 Y111.313 E0.01680
G1 X111.646 Y133.097 E0.96825
G1 X111.599 Y133.584 E0.01537
G1 X89.328 Y111.313 E0.98988
G1 X88.793 Y111.313 E0.01680
G1 X111.551 Y134.071 E1.01151
G1 X111.503 Y134.558 E0.01537
G1 X88.259 Y111.313 E1.03314
G1 X87.724 Y111.313 E0.01680
G1 X111.455 Y135.044 E1.05478
G1 X111.407 Y135.531 E0.01537
G1 X87.190 Y111.313 E1.07641
G1 X86.655 Y111.313 E0.01680
G1 X111.359 Y136.018 E1.09804
G1 X111.312 Y136.504 E0.01537
G1 X86.120 Y111.313 E1.11967
G1 X85.586 Y111.313 E0.01680
G1 X111.264 Y136.991 E1.14131
G1 X111.216 Y137.478 E0.01537
G1 X85.051 Y111.313 E1.16294
G1 X84.517 Y111.313 E0.01680
G1 X111.168 Y137.964 E1.18457
G1 X111.120 Y138.451 E0.01537
G1 X83.982 Y111.313 E1.20621
G1 X83.448 Y111.313 E0.01680
G1 X111.072 Y138.938 E1.22784
G1 X111.025 Y139.425 E0.01537
G1 X82.913 Y111.313 E1.24947
G1 X82.379 Y111.313 E0.01680
G1 X110.977 Y139.911 E1.27110
G1 X110.929 Y140.398 E0.01537
G1 X81.844 Y111.313 E1.29274
G1 X81.310 Y111.313 E0.01680
G1 X110.881 Y140.885 E1.31437
G1 X110.833 Y141.371 E0.01537
G1 X80.775 Y111.313 E1.33600
G1 X80.240 Y111.313 E0.01680
G1 X110.785 Y141.858 E1.35764
M73 P0 R357
G1 X110.738 Y142.345 E0.01537
G1 X79.706 Y111.313 E1.37927
G1 X79.171 Y111.313 E0.01680
G1 X110.690 Y142.832 E1.40090
G1 X110.642 Y143.318 E0.01537
G1 X78.637 Y111.313 E1.42253
G1 X78.102 Y111.313 E0.01680
G1 X110.594 Y143.805 E1.44417
G1 X110.546 Y144.292 E0.01537
G1 X77.568 Y111.313 E1.46580
G1 X77.033 Y111.313 E0.01680
G1 X110.498 Y144.778 E1.48743
G1 X110.451 Y145.265 E0.01537
G1 X76.499 Y111.313 E1.50906
M73 Q0 S365
G1 X75.964 Y111.313 E0.01680
G1 X110.403 Y145.752 E1.53070
G1 X110.355 Y146.238 E0.01537
G1 X75.430 Y111.313 E1.55233
G1 X74.895 Y111.313 E0.01680
G1 X110.307 Y146.725 E1.57396
G1 X110.259 Y147.212 E0.01537
G1 X74.361 Y111.313 E1.59560
G1 X73.826 Y111.313 E0.01680
G1 X110.211 Y147.699 E1.61723
G1 X110.164 Y148.185 E0.01537
G1 X73.291 Y111.313 E1.63886
G1 X72.757 Y111.313 E0.01680
G1 X110.116 Y148.672 E1.66049
G1 X110.068 Y149.159 E0.01537
G1 X72.222 Y111.313 E1.68213
G1 X71.688 Y111.313 E0.01680
G1 X110.020 Y149.645 E1.70376
G1 X109.972 Y150.132 E0.01537
G1 X71.153 Y111.313 E1.72539
G1 X70.619 Y111.313 E0.01680
G1 X109.924 Y150.619 E1.74702
G1 X109.877 Y151.106 E0.01537
G1 X70.084 Y111.313 E1.76866
G1 X69.550 Y111.313 E0.01680
G1 X109.829 Y151.592 E1.79029
G1 X109.781 Y152.079 E0.01537
G1 X69.015 Y111.313 E1.81192
G1 X68.481 Y111.313 E0.01680
G1 X109.733 Y152.566 E1.83356
G1 X109.685 Y153.052 E0.01537
G1 X67.946 Y111.313 E1.85519
M73 P0 R356
G1 X67.412 Y111.313 E0.01680
G1 X109.637 Y153.539 E1.87682
G1 X109.590 Y154.026 E0.01537
G1 X66.877 Y111.313 E1.89845
G1 X66.342 Y111.313 E0.01680
G1 X109.542 Y154.512 E1.92009
G1 X109.494 Y154.999 E0.01537
G1 X65.808 Y111.313 E1.94172
G1 X65.273 Y111.313 E0.01680
G1 X109.446 Y155.486 E1.96335
M73 Q0 S364
G1 X109.398 Y155.973 E0.01537
G1 X64.739 Y111.313 E1.98498
G1 X64.204 Y111.313 E0.01680
G1 X109.350 Y156.459 E2.00662
M73 P1 R356
G1 X109.303 Y156.946 E0.01537
G1 X63.670 Y111.313 E2.02825
G1 X63.135 Y111.313 E0.01680
M73 Q1 S364
G1 X109.255 Y157.433 E2.04988
G1 X109.207 Y157.919 E0.01537
G1 X62.601 Y111.313 E2.07152
G1 X62.066 Y111.313 E0.01680
G1 X109.159 Y158.406 E2.09315
G1 X109.111 Y158.893 E0.01537
G1 X61.532 Y111.313 E2.11478
G1 X60.997 Y111.313 E0.01680
G1 X109.063 Y159.380 E2.13641
G1 X109.016 Y159.866 E0.01537
G1 X60.463 Y111.313 E2.15805
G1 X59.928 Y111.313 E0.01680
G1 X108.968 Y160.353 E2.17968
G1 X108.920 Y160.840 E0.01537
G1 X59.393 Y111.313 E2.20131
G1 X59.069 Y111.313 E0.01019
G1 X59.092 Y111.546 E0.00736
G1 X108.872 Y161.326 E2.21259
G1 X108.824 Y161.813 E0.01537
G1 X59.150 Y112.139 E2.20787
M73 P1 R355
G1 X59.208 Y112.732 E0.01872
G1 X108.776 Y162.300 E2.20315
G1 X108.729 Y162.787 E0.01537
G1 X59.267 Y113.325 E2.19844
G1 X59.325 Y113.918 E0.01872
G1 X108.681 Y163.273 E2.19372
G1 X108.633 Y163.760 E0.01537
G1 X59.383 Y114.510 E2.18901
G1 X59.442 Y115.103 E0.01872
G1 X108.585 Y164.247 E2.18429
M73 Q1 S363
G1 X108.537 Y164.733 E0.01537
G1 X59.500 Y115.696 E2.17958
G1 X59.558 Y116.289 E0.01872
G1 X108.489 Y165.220 E2.17486
G1 X108.442 Y165.707 E0.01537
G1 X59.616 Y116.882 E2.17014
G1 X59.675 Y117.474 E0.01872
G1 X108.394 Y166.193 E2.16543
G1 X108.346 Y166.680 E0.01537
G1 X59.733 Y118.067 E2.16071
G1 X59.791 Y118.660 E0.01872
G1 X108.298 Y167.167 E2.15600
G1 X108.250 Y167.654 E0.01537
G1 X59.849 Y119.253 E2.15128
G1 X59.908 Y119.846 E0.01872
G1 X108.202 Y168.140 E2.14657
G1 X108.155 Y168.627 E0.01537
G1 X59.966 Y120.438 E2.14185
G1 X60.024 Y121.031 E0.01872
G1 X108.107 Y169.114 E2.13714
G1 X108.059 Y169.600 E0.01537
G1 X60.082 Y121.624 E2.13242
G1 X60.141 Y122.217 E0.01872
G1 X108.011 Y170.087 E2.12770
M73 P1 R354
G1 X107.963 Y170.574 E0.01537
G1 X60.199 Y122.810 E2.12299
G1 X60.257 Y123.402 E0.01872
G1 X107.915 Y171.061 E2.11827
G1 X107.868 Y171.547 E0.01537
G1 X60.315 Y123.995 E2.11356
G1 X60.374 Y124.588 E0.01872
G1 X107.820 Y172.034 E2.10884
G1 X107.772 Y172.521 E0.01537
G1 X60.432 Y125.181 E2.10413
M73 Q1 S362
G1 X60.490 Y125.774 E0.01872
G1 X107.724 Y173.007 E2.09941
G1 X107.676 Y173.494 E0.01537
G1 X60.548 Y126.366 E2.09470
G1 X60.607 Y126.959 E0.01872
G1 X107.628 Y173.981 E2.08998
G1 X107.581 Y174.467 E0.01537
G1 X60.665 Y127.552 E2.08526
G1 X60.723 Y128.145 E0.01872
G1 X107.533 Y174.954 E2.08055
G1 X107.485 Y175.441 E0.01537
G1 X60.782 Y128.738 E2.07583
G1 X60.840 Y129.330 E0.01872
G1 X107.437 Y175.928 E2.07112
G1 X107.389 Y176.414 E0.01537
G1 X60.898 Y129.923 E2.06640
G1 X60.956 Y130.516 E0.01872
G1 X107.341 Y176.901 E2.06169
G1 X107.294 Y177.388 E0.01537
G1 X61.015 Y131.109 E2.05697
G1 X61.073 Y131.702 E0.01872
G1 X107.246 Y177.874 E2.05225
G1 X107.198 Y178.361 E0.01537
G1 X61.131 Y132.294 E2.04754
G1 X61.189 Y132.887 E0.01872
G1 X107.150 Y178.848 E2.04282
M73 P1 R353
G1 X107.102 Y179.335 E0.01537
G1 X61.248 Y133.480 E2.03811
G1 X61.306 Y134.073 E0.01872
G1 X107.054 Y179.821 E2.03339
G1 X107.007 Y180.308 E0.01537
G1 X61.364 Y134.666 E2.02868
G1 X61.422 Y135.258 E0.01872
G1 X106.959 Y180.795 E2.02396
G1 X106.911 Y181.281 E0.01537
G1 X61.481 Y135.851 E2.01925
M73 Q1 S361
G1 X61.539 Y136.444 E0.01872
G1 X106.863 Y181.768 E2.01453
G1 X106.815 Y182.255 E0.01537
G1 X61.597 Y137.037 E2.00981
G1 X61.655 Y137.630 E0.01872
G1 X106.767 Y182.741 E2.00510
G1 X106.720 Y183.228 E0.01537
G1 X61.714 Y138.222 E2.00038
G1 X61.772 Y138.815 E0.01872
G1 X106.672 Y183.715 E1.99567
G1 X106.624 Y184.202 E0.01537
G1 X61.830 Y139.408 E1.99095
G1 X61.888 Y140.001 E0.01872
G1 X106.576 Y184.688 E1.98624
G1 X106.528 Y185.175 E0.01537
G1 X61.947 Y140.594 E1.98152
G1 X62.005 Y141.186 E0.01872
G1 X106.480 Y185.662 E1.97681
G1 X106.433 Y186.148 E0.01537
G1 X62.063 Y141.779 E1.97209
G1 X62.122 Y142.372 E0.01872
G1 X106.385 Y186.635 E1.96737
G1 X106.337 Y187.122 E0.01537
G1 X62.180 Y142.965 E1.96266
G1 X62.238 Y143.558 E0.01872
G1 X106.003 Y187.323 E1.94524
M73 P2 R353
G1 X105.469 Y187.323 E0.01680
G1 X62.296 Y144.150 E1.91889
M73 P2 R352
G1 X62.355 Y144.743 E0.01872
G1 X104.934 Y187.323 E1.89254
G1 X104.400 Y187.323 E0.01680
G1 X62.413 Y145.336 E1.86620
M73 Q2 S361
G1 X62.471 Y145.929 E0.01872
G1 X103.865 Y187.323 E1.83985
G1 X103.331 Y187.323 E0.01680
G1 X62.529 Y146.522 E1.81350
G1 X62.588 Y147.114 E0.01872
G1 X102.796 Y187.323 E1.78715
M73 Q2 S360
G1 X102.261 Y187.323 E0.01680
G1 X62.646 Y147.707 E1.76080
G1 X62.704 Y148.300 E0.01872
G1 X101.727 Y187.323 E1.73445
G1 X101.192 Y187.323 E0.01680
G1 X62.762 Y148.893 E1.70811
G1 X62.821 Y149.486 E0.01872
G1 X100.658 Y187.323 E1.68176
G1 X100.123 Y187.323 E0.01680
G1 X62.879 Y150.078 E1.65541
G1 X62.937 Y150.671 E0.01872
G1 X99.589 Y187.323 E1.62906
G1 X99.054 Y187.323 E0.01680
G1 X62.995 Y151.264 E1.60271
G1 X63.054 Y151.857 E0.01872
G1 X98.520 Y187.323 E1.57636
G1 X97.985 Y187.323 E0.01680
G1 X63.112 Y152.450 E1.55002
G1 X63.170 Y153.042 E0.01872
G1 X97.451 Y187.323 E1.52367
G1 X96.916 Y187.323 E0.01680
G1 X63.228 Y153.635 E1.49732
G1 X63.287 Y154.228 E0.01872
G1 X96.382 Y187.323 E1.47097
G1 X95.847 Y187.323 E0.01680
G1 X63.345 Y154.821 E1.44462
G1 X63.403 Y155.414 E0.01872
G1 X95.312 Y187.323 E1.41827
G1 X94.778 Y187.323 E0.01680
G1 X63.462 Y156.006 E1.39192
G1 X63.520 Y156.599 E0.01872
G1 X94.243 Y187.323 E1.36558
G1 X93.709 Y187.323 E0.01680
G1 X63.578 Y157.192 E1.33923
G1 X63.636 Y157.785 E0.01872
G1 X93.174 Y187.323 E1.31288
M73 P2 R351
G1 X92.640 Y187.323 E0.01680
G1 X63.695 Y158.378 E1.28653
G1 X63.753 Y158.970 E0.01872
G1 X92.105 Y187.323 E1.26018
G1 X91.571 Y187.323 E0.01680
G1 X63.811 Y159.563 E1.23383
G1 X63.869 Y160.156 E0.01872
G1 X91.036 Y187.323 E1.20749
G1 X90.502 Y187.323 E0.01680
G1 X63.928 Y160.749 E1.18114
G1 X63.986 Y161.342 E0.01872
G1 X89.967 Y187.323 E1.15479
G1 X89.432 Y187.323 E0.01680
G1 X64.044 Y161.934 E1.12844
G1 X64.102 Y162.527 E0.01872
G1 X88.898 Y187.323 E1.10209
M73 Q2 S359
G1 X88.363 Y187.323 E0.01680
G1 X64.161 Y163.120 E1.07574
G1 X64.219 Y163.713 E0.01872
G1 X87.829 Y187.323 E1.04940
G1 X87.294 Y187.323 E0.01680
G1 X64.277 Y164.306 E1.02305
G1 X64.335 Y164.898 E0.01872
G1 X86.760 Y187.323 E0.99670
G1 X86.225 Y187.323 E0.01680
G1 X64.394 Y165.491 E0.97035
G1 X64.452 Y166.084 E0.01872
G1 X85.691 Y187.323 E0.94400
G1 X85.156 Y187.323 E0.01680
G1 X64.510 Y166.677 E0.91765
G1 X64.568 Y167.270 E0.01872
G1 X84.622 Y187.323 E0.89131
G1 X84.087 Y187.323 E0.01680
G1 X64.627 Y167.862 E0.86496
G1 X64.685 Y168.455 E0.01872
G1 X83.553 Y187.323 E0.83861
G1 X83.018 Y187.323 E0.01680
G1 X64.743 Y169.048 E0.81226
G1 X64.802 Y169.641 E0.01872
G1 X82.483 Y187.323 E0.78591
G1 X81.949 Y187.323 E0.01680
G1 X64.860 Y170.234 E0.75956
G1 X64.918 Y170.826 E0.01872
G1 X81.414 Y187.323 E0.73322
G1 X80.880 Y187.323 E0.01680
G1 X64.976 Y171.419 E0.70687
G1 X65.035 Y172.012 E0.01872
G1 X80.345 Y187.323 E0.68052
G1 X79.811 Y187.323 E0.01680
G1 X65.093 Y172.605 E0.65417
G1 X65.151 Y173.198 E0.01872
G1 X79.276 Y187.323 E0.62782
G1 X78.742 Y187.323 E0.01680
G1 X65.209 Y173.790 E0.60147
G1 X65.268 Y174.383 E0.01872
G1 X78.207 Y187.323 E0.57513
G1 X77.673 Y187.323 E0.01680
G1 X65.326 Y174.976 E0.54878
G1 X65.384 Y175.569 E0.01872
G1 X77.138 Y187.323 E0.52243
G1 X76.604 Y187.323 E0.01680
G1 X65.442 Y176.162 E0.49608
