; generated by PrusaSlicer 2.4.2+win64 on 2022-07-13 at 19:32:45 UTC

; 

; external perimeters extrusion width = 0.45mm
; perimeters extrusion width = 0.45mm
; infill extrusion width = 0.45mm
; solid infill extrusion width = 0.45mm
; top infill extrusion width = 0.40mm
; first layer extrusion width = 0.42mm

M73 P0 R65
M73 Q0 S65
M107
;TYPE:Custom
M862.3 P "MK3S" ; printer model check
M862.1 P0.4 ; nozzle diameter check
M115 U3.8.0 ; tell printer latest fw version
G90 ; use absolute coordinates
M83 ; extruder relative mode
M104 S215 ; set extruder temp
M140 S60 ; set bed temp
M190 S60 ; wait for bed temp
M109 S215 ; wait for extruder temp
G28 W ; home all without mesh bed level
G80 ; mesh bed leveling
G1 Y-3.0 F1000.0 ; go outside print area
G92 E0.0
G1 X60.0 E9.0 F1000.0 ; intro line
G1 X100.0 E12.5 F1000.0 ; intro line
G92 E0.0
M221 S95
G21 ; set units to millimeters
G90 ; use absolute coordinates
M83 ; use relative distances for extrusion
M900 K0.05 ; Filament gcode LA 1.5
M900 K30 ; Filament gcode LA 1.0
M107
;LAYER_CHANGE
;Z:0.2
;HEIGHT:0.2
;BEFORE_LAYER_CHANGE
G92 E0.0
;0.2


G1 E-.8 F2100
G1 Z.6 F10800
;AFTER_LAYER_CHANGE
;0.2
G1 X40.676 Y47.537
G1 Z.2
G1 E.8 F2100
M204 S1000
;TYPE:Skirt/Brim
;WIDTH:0.42
G1 F1200
G1 X41.722 Y46.66 E.04278
G1 X42.662 Y46.467 E.03008
G1 X130.321 Y46.478 E2.74849
G1 X207.569 Y53.994 E2.4335
M73 P0 R64
G1 X208.832 Y54.51 E.04278
G1 X209.603 Y55.636 E.04278
G1 X209.716 Y56.36 E.02297
G1 X209.715 Y161.156 E3.28581
G1 X209.324 Y162.463 E.04278
G1 X208.278 Y163.34 E.04278
G1 X207.108 Y163.522 E.03713
G1 X129.86 Y156.006 E2.4335
G1 X128.91 Y155.704 E.03125
G1 X41.482 Y105.707 E3.15782
G1 X40.541 Y104.719 E.04278
M73 Q0 S64
G1 X40.285 Y103.644 E.03465
G1 X40.285 Y48.844 E1.71822
G1 X40.659 Y47.594 E.0409
; printing object obeliskFace.stl id:0 copy 1
G1 E-.8 F2100
G1 Z.8 F10800
G1 X90.538 Y85.599
G1 Z.2
G1 E.8 F2100
;TYPE:Perimeter
G1 F1200
G1 X90.536 Y86.196 E.01873
G1 X90.635 Y87.647 E.04558
G1 X89.813 Y88.173 E.0306
G1 X89.559 Y87.81 E.01391
G1 X89.559 Y86.68 E.03543
G1 X90.345 Y85.854 E.03575
G1 X90.502 Y85.647 E.00815
G1 E-.8 F2100
G1 Z.8 F10800
G1 X108.987 Y81.541
G1 Z.2
G1 E.8 F2100
G1 F1200
G1 X100.295 Y81.8 E.27265
G1 X102.045 Y92.384 E.33634
G1 X89.695 Y92.787 E.38745
G1 X92.054 Y91.37 E.0863
G1 X93.827 Y92.63 E.0682
G1 X94.696 Y92.146 E.03119
G1 X94.015 Y81.718 E.32766
G1 X108.927 Y81.541 E.46758
G1 E-.8 F2100
G1 Z.8 F10800
G1 X89.387 Y65.808
G1 Z.2
G1 E.8 F2100
G1 F1200
G1 X89.387 Y64.678 E.03543
G1 X89.641 Y64.315 E.01391
G1 X90.463 Y64.841 E.0306
G1 X90.364 Y66.292 E.04558
G1 X90.366 Y66.889 E.01873
G1 X90.173 Y66.634 E.01003
G1 X89.428 Y65.852 E.03387
G1 E-.8 F2100
G1 Z.8 F10800
G1 X109.1 Y70.951
G1 Z.2
G1 E.8 F2100
G1 F1200
G1 X93.843 Y70.77 E.4784
G1 X94.523 Y60.342 E.32766
M73 P1 R64
M73 Q1 S64
G1 X93.655 Y59.857 E.03119
G1 X91.882 Y61.118 E.0682
G1 X89.513 Y59.695 E.08666
G1 X102.045 Y60.104 E.39316
G1 X100.295 Y70.688 E.33634
G1 X109.04 Y70.949 E.27431
G1 E-.8 F2100
G1 Z.8 F10800
G1 X79.602 Y70.671
G1 Z.2
G1 E.8 F2100
G1 F1200
G1 X90.041 Y70.754 E.32732
G1 X90.074 Y70.327 E.01345
G1 X89.966 Y70.614 E.00964
G1 X85.943 Y67.422 E.161
G1 X86.167 Y62.671 E.14913
G1 X88.876 Y59.674 E.12667
G1 X76.447 Y59.269 E.38993
G1 X75.2 Y64.063 E.15534
G1 X82.89 Y64.369 E.24133
G1 X77.228 Y74.781 E.37161
G1 X73.007 Y74.74 E.13236
G1 X76.071 Y68.164 E.22749
G1 X50.288 Y67.668 E.80854
G1 X49.223 Y70.201 E.08617
G1 X45.317 Y70.101 E.12249
G1 X47.566 Y63.367 E.22261
G1 X67.76 Y63.72 E.63325
G1 X69.003 Y60.477 E.10892
G1 X72.493 Y60.585 E.10946
G1 X72.985 Y59.156 E.04738
G1 X60.051 Y58.733 E.40574
G1 X58.184 Y56.019 E.1033
G1 X58.649 Y55.169 E.03036
G1 X117.475 Y57.085 E1.84545
G1 X117.475 Y60.641 E.11151
G1 X104.905 Y60.194 E.3944
G1 X103.668 Y67.233 E.22408
G1 X117.559 Y67.57 E.43566
G1 X117.559 Y71.203 E.11392
G1 X117.154 Y71.191 E.0127
G1 X117.154 Y74.588 E.10651
G1 X77.877 Y74.535 E1.2315
G1 X79.577 Y70.726 E.1308
G1 X79.846 Y71.05 F10800
;TYPE:External perimeter
G1 F1200
G1 X90.389 Y71.134 E.33061
G1 X90.508 Y69.613 E.04783
G1 X90.575 Y69.127 E.01538
G1 X90.775 Y68.189 E.03008
G1 X90.831 Y67.749 E.01391
G1 X90.736 Y66.8 E.02988
G1 X90.741 Y66.306 E.0155
G1 X90.854 Y64.644 E.05223
G1 X89.54 Y63.802 E.04896
G1 X89.01 Y64.559 E.02899
G1 X89.01 Y65.959 E.04389
G1 X89.885 Y66.878 E.0398
G1 X90.189 Y67.279 E.01577
G1 X90.484 Y67.789 E.01848
G1 X90.136 Y69.093 E.04229
G1 X89.795 Y69.998 E.03033
G1 X86.329 Y67.247 E.13874
G1 X86.537 Y62.824 E.13884
G1 X89.16 Y59.923 E.12261
G1 X91.9 Y61.568 E.1002
G1 X93.679 Y60.303 E.06847
G1 X94.132 Y60.555 E.01625
G1 X93.441 Y71.142 E.33266
G1 X116.777 Y71.419 E.73173
G1 X116.777 Y74.21 E.08754
G1 X78.458 Y74.159 E1.20147
G1 X79.821 Y71.105 E.10487
G1 X79.657 Y70.697 F10800
G1 E-.8 F2100
G1 Z.8 F10800
G1 X74.717 Y64.422
G1 Z.2
G1 E.8 F2100
G1 F1200
G1 X82.269 Y64.722 E.23699
G1 X77.005 Y74.402 E.34549
G1 X73.596 Y74.369 E.1069
G1 X76.657 Y67.798 E.2273
G1 X50.04 Y67.286 E.83473
G1 X48.975 Y69.817 E.08611
G1 X45.837 Y69.737 E.09844
G1 X47.836 Y63.749 E.19796
G1 X68.017 Y64.102 E.63286
G1 X69.26 Y60.862 E.1088
G1 X71.995 Y60.946 E.0858
G1 X70.981 Y64.225 E.10759
G1 X71.639 Y64.225 E.02065
G1 X73.279 Y59.459 E.15803
G1 X76.008 Y59.459 E.08556
G1 X74.732 Y64.364 E.1589
G1 X75.049 Y64.199 F10800
G1 E-.8 F2100
G1 Z.8 F10800
G1 X104.59 Y59.806
G1 Z.2
G1 E.8 F2100
G1 F1200
G1 X103.221 Y67.599 E.24811
G1 X117.182 Y67.938 E.43786
M73 P1 R63
G1 X117.182 Y70.815 E.0902
G1 X100.737 Y70.324 E.51583
G1 X102.487 Y59.741 E.3363
G1 X60.254 Y58.363 E1.32491
G1 X58.626 Y55.996 E.09005
G1 X58.868 Y55.554 E.01582
G1 X117.098 Y57.45 E1.82674
G1 X117.098 Y60.251 E.08781
M73 P2 R63
M73 Q2 S64
G1 X104.65 Y59.808 E.39056
G1 X104.771 Y60.162 F10800
G1 E-.8 F2100
G1 Z.8 F10800
G1 X117.326 Y77.9
G1 Z.2
G1 E.8 F2100
;TYPE:Perimeter
G1 F1200
G1 X117.326 Y81.292 E.10634
G1 X117.559 Y81.285 E.0073
G1 X117.559 Y84.918 E.11392
G1 X103.668 Y85.255 E.43566
G1 X104.905 Y92.294 E.22408
G1 X117.475 Y91.846 E.3944
G1 X117.475 Y95.403 E.11151
G1 X58.649 Y97.318 E1.84545
G1 X58.184 Y96.469 E.03036
G1 X60.051 Y93.754 E.1033
G1 X72.985 Y93.332 E.40574
G1 X72.493 Y91.903 E.04738
G1 X69.003 Y92.011 E.10946
G1 X67.76 Y88.768 E.10892
G1 X47.566 Y89.121 E.63325
G1 X45.317 Y82.387 E.22261
G1 X49.223 Y82.287 E.12249
G1 X50.288 Y84.82 E.08617
G1 X76.071 Y84.324 E.80854
M73 Q2 S63
G1 X73.007 Y77.747 E.22749
G1 X75.14 Y77.727 E.0669
G1 X45.463 Y77.727 E.93051
G1 X45.463 Y74.817 E.09122
G1 X118.715 Y74.817 E2.29675
G1 X118.715 Y77.727 E.09122
G1 X77.239 Y77.727 E1.30043
G1 X82.89 Y88.119 E.3709
G1 X75.2 Y88.424 E.24133
G1 X76.447 Y93.219 E.15534
G1 X89.044 Y92.808 E.39517
G1 X86.339 Y89.817 E.12644
G1 X86.116 Y85.065 E.14913
G1 X90.138 Y81.873 E.161
G1 X90.246 Y82.161 E.00964
G1 X90.213 Y81.734 E.01345
G1 X79.774 Y81.817 E.32732
G1 X78.049 Y77.952 E.13268
G1 X117.266 Y77.9 E1.22962
G1 E-.8 F2100
G1 Z.8 F10800
G1 X82.269 Y87.766
G1 Z.2
G1 E.8 F2100
;TYPE:External perimeter
G1 F1200
G1 X74.717 Y88.066 E.23699
G1 X76.008 Y93.029 E.16078
G1 X73.279 Y93.029 E.08556
G1 X71.639 Y88.263 E.15803
G1 X70.981 Y88.263 E.02065
G1 X71.995 Y91.541 E.10759
G1 X69.26 Y91.626 E.0858
G1 X68.017 Y88.386 E.1088
G1 X47.836 Y88.739 E.63286
G1 X45.837 Y82.751 E.19796
G1 X48.975 Y82.671 E.09844
G1 X50.04 Y85.202 E.08611
G1 X76.657 Y84.69 E.83473
G1 X73.596 Y78.119 E.2273
G1 X77.005 Y78.086 E.1069
G1 X82.241 Y87.713 E.34361
G1 X82.376 Y88.152 F10800
G1 E-.8 F2100
G1 Z.8 F10800
G1 X45.84 Y75.194
G1 Z.2
G1 E.8 F2100
G1 F1200
G1 X118.338 Y75.194 E2.2731
G1 X118.338 Y77.35 E.06758
G1 X45.84 Y77.35 E2.2731
G1 X45.84 Y75.254 E.0657
M73 P3 R63
M73 Q3 S63
G1 X45.644 Y74.846 F10800
G1 E-.8 F2100
G1 Z.8 F10800
G1 X78.63 Y78.329
G1 Z.2
G1 E.8 F2100
G1 F1200
G1 X116.949 Y78.277 E1.20147
G1 X116.949 Y81.069 E.08754
G1 X93.613 Y81.345 E.73173
G1 X94.304 Y91.933 E.33266
G1 X93.851 Y92.185 E.01625
G1 X92.072 Y90.919 E.06847
G1 X89.332 Y92.565 E.1002
G1 X86.71 Y89.664 E.12261
G1 X86.501 Y85.241 E.13884
G1 X89.967 Y82.49 E.13874
G1 X90.308 Y83.395 E.03033
G1 X90.657 Y84.699 E.04229
G1 X90.361 Y85.208 E.01848
G1 X90.058 Y85.61 E.01577
G1 X89.182 Y86.529 E.0398
G1 X89.182 Y87.928 E.04389
G1 X89.712 Y88.686 E.02899
G1 X91.026 Y87.844 E.04896
G1 X90.913 Y86.182 E.05223
G1 X90.909 Y85.687 E.0155
G1 X91.003 Y84.739 E.02988
G1 X90.948 Y84.299 E.01391
G1 X90.747 Y83.361 E.03008
G1 X90.68 Y82.875 E.01538
G1 X90.562 Y81.354 E.04783
G1 X80.018 Y81.437 E.33061
G1 X78.654 Y78.383 E.10487
G1 X78.459 Y77.967 F10800
G1 E-.8 F2100
G1 Z.8 F10800
G1 X103.221 Y84.888
G1 Z.2
G1 E.8 F2100
G1 F1200
G1 X104.59 Y92.682 E.24811
G1 X117.098 Y92.237 E.39244
G1 X117.098 Y95.038 E.08781
G1 X58.868 Y96.934 E1.82674
G1 X58.626 Y96.491 E.01582
G1 X60.254 Y94.125 E.09005
G1 X102.487 Y92.746 E1.32491
G1 X100.737 Y82.164 E.3363
M73 P3 R62
G1 X117.182 Y81.673 E.51583
G1 X117.182 Y84.55 E.0902
G1 X103.281 Y84.887 E.43598
G1 X103.483 Y85.191 F10800
G1 E-.8 F2100
G1 Z.8 F10800
G1 X119.123 Y95.414
G1 Z.2
G1 E.8 F2100
;TYPE:Perimeter
G1 F1200
G1 X43.449 Y102.777 E2.38391
G1 X43.449 Y49.711 E1.66382
G1 X119.123 Y57.074 E2.38391
G1 X119.123 Y95.354 E1.20024
G1 X119.5 Y95.756 F10800
;TYPE:External perimeter
G1 F1200
G1 X43.072 Y103.192 E2.40767
G1 X43.072 Y49.296 E1.68988
M73 Q3 S62
G1 X119.5 Y56.732 E2.40767
G1 X119.5 Y95.696 E1.22169
M73 P4 R62
M73 Q4 S62
G1 X119.103 Y95.709 F10800
G1 E-.8 F2100
G1 Z.8 F10800
G1 X113.527 Y95.744
G1 Z.2
G1 E.8 F2100
;TYPE:Gap fill
;WIDTH:0.136627
G1 F1200
G1 X112.827 Y95.79 E.00546
;WIDTH:0.179934
G1 X112.128 Y95.835 E.00799
;WIDTH:0.22324
G1 X111.428 Y95.88 E.01051
;WIDTH:0.266546
G1 X110.729 Y95.926 E.01304
;WIDTH:0.309852
G1 X110.029 Y95.971 E.01556
;WIDTH:0.353159
G1 X109.329 Y96.017 E.01808
;WIDTH:0.396465
G1 X108.63 Y96.062 E.02061
G1 X107.946 Y95.826 F10800
;TYPE:Solid infill
;WIDTH:0.420302
G1 F1200
G1 X108.302 Y96.183 E.01581
G1 X107.815 Y96.23 E.01533
G1 X107.593 Y96.007 E.00987
G1 X107.076 Y96.024 E.01623
G1 X107.329 Y96.277 E.01122
G1 X106.843 Y96.324 E.01533
G1 X106.559 Y96.041 E.01257
G1 X106.042 Y96.058 E.01623
G1 X106.356 Y96.372 E.01393
G1 X105.87 Y96.419 E.01533
G1 X105.526 Y96.075 E.01528
G1 X105.009 Y96.092 E.01623
G1 X105.384 Y96.466 E.01663
G1 X104.897 Y96.514 E.01533
G1 X104.492 Y96.108 E.01799
G1 X103.975 Y96.125 E.01623
G1 X104.411 Y96.561 E.01934
G1 X103.924 Y96.608 E.01533
G1 X103.458 Y96.142 E.02069
G1 X102.941 Y96.159 E.01623
G1 X103.438 Y96.656 E.02205
G1 X102.952 Y96.703 E.01533
G1 X102.424 Y96.176 E.0234
G1 X101.908 Y96.193 E.01623
G1 X102.465 Y96.75 E.02475
G1 X101.979 Y96.798 E.01533
G1 X101.391 Y96.209 E.02611
G1 X100.874 Y96.226 E.01623
G1 X101.493 Y96.845 E.02746
G1 X101.006 Y96.892 E.01533
G1 X100.357 Y96.243 E.02881
G1 X99.84 Y96.26 E.01623
G1 X100.52 Y96.94 E.03017
G1 X100.033 Y96.987 E.01533
G1 X99.323 Y96.277 E.03152
G1 X98.806 Y96.294 E.01623
G1 X99.547 Y97.034 E.03287
G1 X99.061 Y97.082 E.01533
G1 X98.289 Y96.31 E.03422
G1 X97.773 Y96.327 E.01623
G1 X98.574 Y97.129 E.03558
G1 X98.088 Y97.176 E.01533
G1 X97.256 Y96.344 E.03693
G1 X96.739 Y96.361 E.01623
G1 X97.602 Y97.224 E.03828
G1 X97.115 Y97.271 E.01533
G1 X96.222 Y96.378 E.03964
G1 X95.705 Y96.395 E.01623
G1 X96.629 Y97.318 E.04099
G1 X96.142 Y97.366 E.01533
G1 X95.188 Y96.411 E.04234
G1 X94.671 Y96.428 E.01623
G1 X95.656 Y97.413 E.0437
G1 X95.17 Y97.46 E.01533
G1 X94.154 Y96.445 E.04505
G1 X93.638 Y96.462 E.01623
G1 X94.683 Y97.508 E.0464
G1 X94.197 Y97.555 E.01533
G1 X93.121 Y96.479 E.04776
G1 X92.604 Y96.496 E.01623
G1 X93.711 Y97.602 E.04911
G1 X93.224 Y97.65 E.01533
G1 X92.087 Y96.512 E.05046
G1 X91.57 Y96.529 E.01623
G1 X92.738 Y97.697 E.05182
G1 X92.251 Y97.744 E.01533
G1 X91.053 Y96.546 E.05317
G1 X90.536 Y96.563 E.01623
G1 X91.765 Y97.791 E.05452
G1 X91.279 Y97.839 E.01533
G1 X90.02 Y96.58 E.05587
G1 X89.503 Y96.597 E.01623
G1 X90.792 Y97.886 E.05723
G1 X90.306 Y97.933 E.01533
G1 X88.986 Y96.613 E.05858
G1 X88.469 Y96.63 E.01623
G1 X89.82 Y97.981 E.05993
G1 X89.333 Y98.028 E.01533
G1 X87.952 Y96.647 E.06129
G1 X87.435 Y96.664 E.01623
G1 X88.847 Y98.075 E.06264
G1 X88.36 Y98.123 E.01533
G1 X86.918 Y96.681 E.06399
G1 X86.401 Y96.698 E.01623
G1 X87.874 Y98.17 E.06535
G1 X87.388 Y98.217 E.01533
G1 X85.885 Y96.714 E.0667
G1 X85.368 Y96.731 E.01623
G1 X86.901 Y98.265 E.06805
G1 X86.415 Y98.312 E.01533
G1 X84.851 Y96.748 E.06941
G1 X84.334 Y96.765 E.01623
G1 X85.928 Y98.359 E.07076
G1 X85.442 Y98.407 E.01533
G1 X83.817 Y96.782 E.07211
G1 X83.3 Y96.799 E.01623
G1 X84.956 Y98.454 E.07347
G1 X84.469 Y98.501 E.01533
G1 X82.783 Y96.815 E.07482
G1 X82.267 Y96.832 E.01623
G1 X83.983 Y98.549 E.07617
G1 X83.497 Y98.596 E.01533
G1 X81.75 Y96.849 E.07752
G1 X81.233 Y96.866 E.01623
G1 X83.01 Y98.643 E.07888
G1 X82.524 Y98.691 E.01533
G1 X80.716 Y96.883 E.08023
G1 X80.199 Y96.9 E.01623
G1 X82.037 Y98.738 E.08158
G1 X81.551 Y98.785 E.01533
G1 X79.682 Y96.916 E.08294
G1 X79.165 Y96.933 E.01623
G1 X81.065 Y98.833 E.08429
G1 X80.578 Y98.88 E.01533
G1 X78.648 Y96.95 E.08564
G1 X78.132 Y96.967 E.01623
G1 X80.092 Y98.927 E.087
G1 X79.606 Y98.975 E.01533
G1 X77.615 Y96.984 E.08835
G1 X77.098 Y97 E.01623
G1 X79.119 Y99.022 E.0897
G1 X78.633 Y99.069 E.01533
G1 X76.581 Y97.017 E.09106
G1 X76.064 Y97.034 E.01623
G1 X78.146 Y99.116 E.09241
G1 X77.66 Y99.164 E.01533
G1 X75.547 Y97.051 E.09376
G1 X75.03 Y97.068 E.01623
G1 X77.174 Y99.211 E.09511
G1 X76.687 Y99.258 E.01533
G1 X74.514 Y97.085 E.09647
G1 X73.997 Y97.101 E.01623
G1 X76.201 Y99.306 E.09782
G1 X75.715 Y99.353 E.01533
G1 X73.48 Y97.118 E.09917
G1 X72.963 Y97.135 E.01623
G1 X75.228 Y99.4 E.10053
G1 X74.742 Y99.448 E.01533
G1 X72.446 Y97.152 E.10188
G1 X71.929 Y97.169 E.01623
G1 X74.255 Y99.495 E.10323
G1 X73.769 Y99.542 E.01533
G1 X71.412 Y97.186 E.10459
G1 X70.895 Y97.202 E.01623
G1 X73.283 Y99.59 E.10594
G1 X72.796 Y99.637 E.01533
G1 X70.379 Y97.219 E.10729
G1 X69.862 Y97.236 E.01623
G1 X72.31 Y99.684 E.10865
G1 X71.824 Y99.732 E.01533
G1 X69.345 Y97.253 E.11
G1 X68.828 Y97.27 E.01623
G1 X71.337 Y99.779 E.11135
G1 X70.851 Y99.826 E.01533
G1 X68.311 Y97.287 E.11271
G1 X67.794 Y97.303 E.01623
G1 X70.364 Y99.874 E.11406
G1 X69.878 Y99.921 E.01533
G1 X67.277 Y97.32 E.11541
G1 X66.761 Y97.337 E.01623
G1 X69.392 Y99.968 E.11676
G1 X68.905 Y100.016 E.01533
G1 X66.244 Y97.354 E.11812
G1 X65.727 Y97.371 E.01623
G1 X68.419 Y100.063 E.11947
G1 X67.933 Y100.11 E.01533
G1 X65.21 Y97.388 E.12082
G1 X64.693 Y97.404 E.01623
G1 X67.446 Y100.158 E.12218
G1 X66.96 Y100.205 E.01533
G1 X64.176 Y97.421 E.12353
G1 X63.659 Y97.438 E.01623
G1 X66.473 Y100.252 E.12488
G1 X65.987 Y100.3 E.01533
G1 X63.142 Y97.455 E.12624
G1 X62.626 Y97.472 E.01623
G1 X65.501 Y100.347 E.12759
G1 X65.014 Y100.394 E.01533
G1 X62.109 Y97.489 E.12894
G1 X61.592 Y97.505 E.01623
G1 X64.528 Y100.442 E.1303
G1 X64.042 Y100.489 E.01533
G1 X61.075 Y97.522 E.13165
G1 X60.558 Y97.539 E.01623
G1 X63.555 Y100.536 E.133
G1 X63.069 Y100.583 E.01533
G1 X60.041 Y97.556 E.13436
G1 X59.524 Y97.573 E.01623
G1 X62.582 Y100.631 E.13571
G1 X62.096 Y100.678 E.01533
G1 X58.843 Y97.425 E.14436
G1 E-.8 F2100
G1 Z.8 F10800
G1 X67.384 Y88.887
G1 Z.2
G1 E.8 F2100
G1 F1200
G1 X67.577 Y89.08 E.00856
G1 X67.909 Y89.946 E.02909
G1 X67.026 Y89.063 E.03917
G1 X66.501 Y89.072 E.01646
G1 X68.535 Y91.106 E.09027
G1 E-.8 F2100
G1 Z.8 F10800
G1 X72.125 Y92.028
G1 Z.2
G1 E.8 F2100
G1 F1200
G1 X72.295 Y92.198 E.00754
G1 X72.575 Y93.011 E.027
G1 X71.772 Y92.208 E.03563
G1 X71.254 Y92.224 E.01625
G1 X72.108 Y93.078 E.03788
G1 X71.591 Y93.095 E.01623
G1 X70.737 Y92.24 E.03792
G1 X70.219 Y92.256 E.01625
G1 X71.074 Y93.112 E.03795
G1 X70.557 Y93.129 E.01623
G1 X69.537 Y92.108 E.0453
G1 E-.8 F2100
G1 Z.8 F10800
G1 X70.205 Y93.31
G1 Z.2
G1 E.8 F2100
G1 F1200
G1 X69.184 Y92.288 E.04533
G1 X68.811 Y92.3 E.01169
G1 X68.573 Y91.677 E.02092
G1 X65.977 Y89.082 E.11519
G1 X65.452 Y89.091 E.01646
G1 X69.524 Y93.162 E.18068
G1 X69.007 Y93.179 E.01623
G1 X64.928 Y89.1 E.18102
G1 X64.403 Y89.109 E.01646
G1 X68.49 Y93.196 E.18136
G1 X67.973 Y93.213 E.01623
G1 X63.879 Y89.118 E.1817
G1 X63.354 Y89.128 E.01646
G1 X67.456 Y93.23 E.18204
G1 X66.94 Y93.247 E.01623
G1 X62.83 Y89.137 E.18239
G1 X62.305 Y89.146 E.01646
