; generated by PrusaSlicer 2.4.2+win64 on 2022-07-13 at 19:31:23 UTC

; 

; external perimeters extrusion width = 0.45mm
; perimeters extrusion width = 0.45mm
; infill extrusion width = 0.45mm
; solid infill extrusion width = 0.45mm
; top infill extrusion width = 0.40mm
; first layer extrusion width = 0.42mm

M73 P0 R172
M73 Q0 S173
M107
;TYPE:Custom
M862.3 P "MK3S" ; printer model check
M862.1 P0.4 ; nozzle diameter check
M115 U3.8.0 ; tell printer latest fw version
G90 ; use absolute coordinates
M83 ; extruder relative mode
M104 S215 ; set extruder temp
M140 S60 ; set bed temp
M190 S60 ; wait for bed temp
M109 S215 ; wait for extruder temp
G28 W ; home all without mesh bed level
G80 ; mesh bed leveling
G1 Y-3.0 F1000.0 ; go outside print area
G92 E0.0
G1 X60.0 E9.0 F1000.0 ; intro line
G1 X100.0 E12.5 F1000.0 ; intro line
G92 E0.0
M221 S95
G21 ; set units to millimeters
G90 ; use absolute coordinates
M83 ; use relative distances for extrusion
M900 K0.05 ; Filament gcode LA 1.5
M900 K30 ; Filament gcode LA 1.0
M107
;LAYER_CHANGE
;Z:0.2
;HEIGHT:0.2
;BEFORE_LAYER_CHANGE
G92 E0.0
;0.2


G1 E-.8 F2100
G1 Z.6 F10800
;AFTER_LAYER_CHANGE
;0.2
G1 X9.134 Y25.323
G1 Z.2
G1 E.8 F2100
M204 S1000
;TYPE:Skirt/Brim
;WIDTH:0.42
G1 F1200
G1 X9.844 Y25.141 E.02297
G1 X87.092 Y17.625 E2.4335
G1 X174.945 Y17.621 E2.75457
G1 X240.12 Y22.963 E2.05036
G1 X241.391 Y23.46 E.04278
G1 X242.179 Y24.574 E.04278
G1 X242.303 Y25.332 E.02409
G1 X242.303 Y112.761 E2.74127
G1 X234.776 Y190.24 E2.44071
G1 X234.259 Y191.502 E.04278
G1 X233.134 Y192.274 E.04278
G1 X232.41 Y192.386 E.02297
G1 X192.637 Y192.386 E1.24704
G1 X87.318 Y192.192 E3.30222
G1 X9.844 Y184.665 E2.44058
G1 X8.581 Y184.149 E.04278
M73 Q0 S172
G1 X7.81 Y183.023 E.04278
G1 X7.697 Y182.299 E.02297
G1 X7.697 Y27.507 E4.85341
G1 X8.089 Y26.2 E.04278
M73 P0 R171
G1 X9.089 Y25.362 E.0409
; printing object obeliskFace.stl id:1 copy 2
G1 E-.8 F2100
G1 Z.8 F10800
G1 X40.598 Y57.826
G1 Z.2
G1 E.8 F2100
;TYPE:Perimeter
G1 F1200
G1 X40.598 Y58.956 E.03543
G1 X40.343 Y59.32 E.01391
G1 X39.521 Y58.793 E.0306
G1 X39.621 Y57.343 E.04558
G1 X39.618 Y56.746 E.01873
G1 X39.811 Y57.001 E.01003
G1 X40.556 Y57.783 E.03387
G1 E-.8 F2100
G1 Z.8 F10800
G1 X20.884 Y52.684
G1 Z.2
G1 E.8 F2100
G1 F1200
G1 X36.141 Y52.865 E.4784
G1 X35.461 Y63.292 E.32766
G1 X36.329 Y63.777 E.03119
G1 X38.102 Y62.516 E.0682
G1 X40.472 Y63.939 E.08666
G1 X27.939 Y63.53 E.39316
G1 X29.689 Y52.947 E.33634
G1 X20.944 Y52.686 E.27431
G1 E-.8 F2100
G1 Z.8 F10800
G1 X40.171 Y35.461
G1 Z.2
G1 E.8 F2100
G1 F1200
G1 X40.425 Y35.825 E.01391
G1 X40.425 Y36.955 E.03543
G1 X39.639 Y37.78 E.03575
G1 X39.446 Y38.036 E.01003
G1 X39.448 Y37.438 E.01873
G1 X39.349 Y35.988 E.04558
G1 X40.121 Y35.494 E.02872
G1 E-.8 F2100
G1 Z.8 F10800
G1 X40.29 Y30.848
G1 Z.2
G1 E.8 F2100
G1 F1200
G1 X37.93 Y32.265 E.0863
G1 X36.157 Y31.004 E.0682
G1 X35.289 Y31.489 E.03119
G1 X35.969 Y41.917 E.32766
G1 X20.997 Y42.094 E.46946
G1 X29.689 Y41.834 E.27265
G1 X27.939 Y31.251 E.33634
G1 X40.23 Y30.85 E.38556
G1 E-.8 F2100
G1 Z.8 F10800
G1 X52.107 Y49.099
G1 Z.2
G1 E.8 F2100
G1 F1200
G1 X50.382 Y52.963 E.13268
G1 X39.943 Y52.88 E.32732
G1 X39.91 Y53.308 E.01345
G1 X40.018 Y53.02 E.00964
G1 X44.041 Y56.212 E.161
G1 X43.817 Y60.963 E.14913
G1 X41.108 Y63.96 E.12667
G1 X53.537 Y64.366 E.38993
G1 X54.784 Y59.571 E.15534
G1 X47.094 Y59.266 E.24133
G1 X52.756 Y48.853 E.37161
G1 X56.977 Y48.894 E.13236
G1 X53.913 Y55.471 E.22749
G1 X79.696 Y55.967 E.80854
G1 X80.761 Y53.434 E.08617
G1 X84.667 Y53.533 E.12249
G1 X82.418 Y60.268 E.22261
G1 X62.225 Y59.914 E.63325
G1 X60.981 Y63.158 E.10892
G1 X57.491 Y63.05 E.10946
G1 X57 Y64.479 E.04738
G1 X69.933 Y64.901 E.40574
G1 X71.8 Y67.615 E.1033
G1 X71.336 Y68.465 E.03036
G1 X12.509 Y66.549 E1.84545
G1 X12.509 Y62.993 E.11151
G1 X25.08 Y63.44 E.3944
G1 X26.316 Y56.402 E.22408
G1 X12.426 Y56.065 E.43566
G1 X12.426 Y52.431 E.11392
G1 X12.83 Y52.443 E.0127
G1 X12.83 Y49.047 E.10651
G1 X52.047 Y49.099 E1.22962
G1 X52.979 Y49.233 F10800
;TYPE:External perimeter
G1 F1200
G1 X56.388 Y49.265 E.1069
G1 X53.327 Y55.837 E.2273
G1 X79.945 Y56.349 E.83473
G1 X81.009 Y53.817 E.08611
G1 X84.148 Y53.897 E.09844
G1 X82.148 Y59.886 E.19796
G1 X61.967 Y59.533 E.63286
G1 X60.725 Y62.773 E.1088
G1 X57.989 Y62.688 E.0858
G1 X59.004 Y59.41 E.10759
G1 X58.345 Y59.41 E.02065
G1 X56.705 Y64.176 E.15803
G1 X53.976 Y64.176 E.08556
G1 X55.267 Y59.213 E.16078
G1 X47.715 Y58.913 E.23699
G1 X52.95 Y49.285 E.34361
G1 X52.951 Y48.834 F10800
G1 E-.8 F2100
G1 Z.8 F10800
G1 X51.526 Y49.475
G1 Z.2
G1 E.8 F2100
G1 F1200
G1 X50.139 Y52.584 E.10675
G1 X39.595 Y52.5 E.33061
G1 X39.476 Y54.021 E.04783
G1 X39.409 Y54.507 E.01538
G1 X39.209 Y55.445 E.03008
G1 X39.154 Y55.886 E.01391
G1 X39.248 Y56.834 E.02988
G1 X39.244 Y57.328 E.0155
G1 X39.13 Y58.99 E.05223
G1 X40.445 Y59.833 E.04896
G1 X40.975 Y59.075 E.02899
G1 X40.975 Y57.675 E.04389
G1 X40.099 Y56.756 E.0398
G1 X39.795 Y56.355 E.01577
G1 X39.5 Y55.845 E.01848
G1 X39.848 Y54.542 E.04229
G1 X40.189 Y53.637 E.03033
G1 X43.655 Y56.387 E.13874
G1 X43.447 Y60.811 E.13884
G1 X40.824 Y63.711 E.12261
G1 X38.085 Y62.066 E.1002
G1 X36.305 Y63.332 E.06847
G1 X35.853 Y63.079 E.01625
G1 X36.543 Y52.492 E.33266
G1 X13.207 Y52.216 E.73173
G1 X13.207 Y49.424 E.08754
G1 X51.466 Y49.475 E1.19959
G1 X51.913 Y49.577 F10800
G1 E-.8 F2100
G1 Z.8 F10800
G1 X27.497 Y63.893
G1 Z.2
G1 E.8 F2100
G1 F1200
G1 X69.731 Y65.272 E1.32491
G1 X71.358 Y67.638 E.09005
G1 X71.116 Y68.081 E.01582
G1 X12.886 Y66.184 E1.82674
G1 X12.886 Y63.384 E.08781
G1 X25.394 Y63.829 E.39244
G1 X26.763 Y56.035 E.24811
G1 X12.803 Y55.697 E.43786
G1 X12.803 Y52.82 E.0902
G1 X29.247 Y53.311 E.51583
G1 X27.507 Y63.834 E.33442
G1 X27.773 Y63.603 F10800
G1 E-.8 F2100
G1 Z.8 F10800
G1 X71.336 Y26.316
G1 Z.2
G1 E.8 F2100
;TYPE:Perimeter
G1 F1200
G1 X71.8 Y27.166 E.03036
G1 X69.933 Y29.88 E.1033
G1 X57 Y30.302 E.40574
G1 X57.491 Y31.731 E.04738
G1 X60.981 Y31.624 E.10946
G1 X62.225 Y34.867 E.10892
G1 X82.418 Y34.513 E.63325
G1 X84.667 Y41.248 E.22261
G1 X80.761 Y41.348 E.12249
M73 Q0 S171
G1 X79.696 Y38.814 E.08617
G1 X53.914 Y39.31 E.80854
G1 X56.977 Y45.887 E.22749
G1 X54.844 Y45.908 E.06689
G1 X84.521 Y45.908 E.9305
G1 X84.521 Y48.817 E.09122
G1 X11.27 Y48.817 E2.29675
G1 X11.27 Y45.908 E.09122
M73 P1 R170
M73 Q1 S171
G1 X52.745 Y45.908 E1.30043
G1 X47.094 Y35.516 E.3709
G1 X54.784 Y35.21 E.24133
G1 X53.537 Y30.415 E.15534
G1 X40.941 Y30.827 E.39517
G1 X43.645 Y33.818 E.12644
G1 X43.869 Y38.569 E.14913
G1 X39.846 Y41.761 E.161
G1 X39.738 Y41.473 E.00964
G1 X39.771 Y41.901 E.01345
G1 X50.21 Y41.818 E.32732
G1 X51.935 Y45.682 E.13268
G1 X12.658 Y45.735 E1.2315
G1 X12.658 Y42.343 E.10634
G1 X12.426 Y42.35 E.0073
G1 X12.426 Y38.717 E.11392
G1 X26.316 Y38.38 E.43566
G1 X25.08 Y31.341 E.22408
G1 X12.509 Y31.788 E.3944
G1 X12.509 Y28.232 E.11151
G1 X71.276 Y26.318 E1.84357
G1 E-.8 F2100
G1 Z.8 F10800
G1 X58.345 Y35.371
G1 Z.2
G1 E.8 F2100
;TYPE:External perimeter
G1 F1200
G1 X59.004 Y35.371 E.02065
G1 X57.989 Y32.093 E.10759
G1 X60.725 Y32.009 E.0858
G1 X61.967 Y35.249 E.1088
G1 X82.148 Y34.895 E.63286
G1 X84.148 Y40.884 E.19796
G1 X81.009 Y40.964 E.09844
G1 X79.945 Y38.432 E.08611
G1 X53.327 Y38.944 E.83473
G1 X56.388 Y45.516 E.2273
G1 X52.979 Y45.549 E.1069
G1 X47.715 Y35.868 E.34549
G1 X55.267 Y35.568 E.23699
G1 X53.976 Y30.605 E.16078
G1 X56.705 Y30.605 E.08556
G1 X58.326 Y35.314 E.15615
G1 X58.632 Y35.093 F10800
G1 E-.8 F2100
G1 Z.8 F10800
G1 X49.966 Y42.197
G1 Z.2
G1 E.8 F2100
G1 F1200
G1 X51.354 Y45.306 E.10675
G1 X13.035 Y45.357 E1.20147
G1 X13.035 Y42.565 E.08754
G1 X36.371 Y42.289 E.73173
G1 X35.68 Y31.702 E.33266
G1 X36.133 Y31.45 E.01625
G1 X37.912 Y32.715 E.06847
G1 X40.652 Y31.07 E.1002
G1 X43.275 Y33.971 E.12261
G1 X43.483 Y38.394 E.13884
G1 X40.017 Y41.144 E.13874
G1 X39.676 Y40.239 E.03033
G1 X39.328 Y38.936 E.04229
G1 X39.623 Y38.426 E.01848
G1 X39.927 Y38.025 E.01577
G1 X40.802 Y37.106 E.0398
G1 X40.802 Y35.706 E.04389
G1 X40.272 Y34.948 E.02899
G1 X38.958 Y35.791 E.04896
G1 X39.072 Y37.453 E.05223
G1 X39.076 Y37.947 E.0155
G1 X38.981 Y38.895 E.02988
G1 X39.037 Y39.336 E.01391
G1 X39.237 Y40.274 E.03008
G1 X39.304 Y40.76 E.01538
G1 X39.423 Y42.281 E.04783
G1 X49.906 Y42.198 E.32872
G1 X50.355 Y42.104 F10800
G1 E-.8 F2100
G1 Z.8 F10800
G1 X27.497 Y30.888
G1 Z.2
G1 E.8 F2100
G1 F1200
G1 X29.247 Y41.47 E.3363
G1 X12.803 Y41.961 E.51583
G1 X12.803 Y39.085 E.0902
G1 X26.763 Y38.746 E.43786
G1 X25.394 Y30.952 E.24811
G1 X12.886 Y31.397 E.39244
G1 X12.886 Y28.597 E.08781
G1 X71.116 Y26.701 E1.82674
G1 X71.358 Y27.143 E.01582
G1 X69.731 Y29.509 E.09005
G1 X27.557 Y30.886 E1.32303
G1 X27.743 Y31.204 F10800
G1 E-.8 F2100
G1 Z.8 F10800
G1 X11.647 Y46.285
G1 Z.2
G1 E.8 F2100
G1 F1200
G1 X84.144 Y46.285 E2.2731
G1 X84.144 Y48.44 E.06758
G1 X11.647 Y48.44 E2.2731
G1 X11.647 Y46.345 E.0657
G1 X11.45 Y45.936 F10800
G1 E-.8 F2100
G1 Z.8 F10800
G1 X86.535 Y20.858
G1 Z.2
G1 E.8 F2100
;TYPE:Perimeter
G1 F1200
G1 X86.535 Y73.923 E1.66382
G1 X10.861 Y66.561 E2.38391
G1 X10.861 Y28.221 E1.20212
G1 X86.476 Y20.864 E2.38203
M73 Q1 S170
G1 X86.912 Y20.442 F10800
;TYPE:External perimeter
G1 F1200
G1 X86.912 Y74.339 E1.68988
G1 X10.484 Y66.903 E2.40767
M73 P1 R169
G1 X10.484 Y27.879 E1.22357
G1 X86.853 Y20.448 E2.40578
G1 X86.778 Y20.819 F10800
G1 E-.8 F2100
G1 Z.8 F10800
G1 X86.422 Y21.744
G1 Z.2
G1 E.8 F2100
;TYPE:Solid infill
;WIDTH:0.420302
G1 F1200
G1 X85.884 Y21.205 E.02388
G1 X85.398 Y21.253 E.01533
G1 X86.252 Y22.108 E.03794
G1 X86.252 Y22.641 E.01675
G1 X84.911 Y21.3 E.05952
G1 X84.425 Y21.347 E.01533
G1 X86.252 Y23.175 E.0811
G1 X86.252 Y23.709 E.01675
G1 X83.939 Y21.395 E.10269
G1 X83.452 Y21.442 E.01533
G1 X86.252 Y24.242 E.12427
G1 X86.252 Y24.776 E.01675
G1 X82.966 Y21.489 E.14586
G1 X82.479 Y21.537 E.01533
G1 X86.252 Y25.31 E.16744
G1 X86.252 Y25.844 E.01675
G1 X81.993 Y21.584 E.18902
G1 X81.507 Y21.631 E.01533
G1 X86.252 Y26.377 E.21061
G1 X86.252 Y26.911 E.01675
G1 X81.02 Y21.679 E.23219
G1 X80.534 Y21.726 E.01533
G1 X86.252 Y27.445 E.25378
G1 X86.252 Y27.978 E.01675
G1 X80.048 Y21.773 E.27536
G1 X79.561 Y21.821 E.01533
G1 X86.252 Y28.512 E.29694
G1 X86.252 Y29.046 E.01675
G1 X79.075 Y21.868 E.31853
G1 X78.588 Y21.915 E.01533
G1 X86.252 Y29.579 E.34011
G1 X86.252 Y30.113 E.01675
G1 X78.102 Y21.963 E.3617
G1 X77.616 Y22.01 E.01533
G1 X86.252 Y30.647 E.38328
G1 X86.252 Y31.181 E.01675
G1 X77.129 Y22.057 E.40486
G1 X76.643 Y22.105 E.01533
G1 X86.252 Y31.714 E.42645
G1 X86.252 Y32.248 E.01675
G1 X76.156 Y22.152 E.44803
G1 X75.67 Y22.199 E.01533
G1 X86.252 Y32.782 E.46962
G1 X86.252 Y33.315 E.01675
G1 X75.184 Y22.247 E.4912
G1 X74.697 Y22.294 E.01533
G1 X86.252 Y33.849 E.51278
G1 X86.252 Y34.383 E.01675
G1 X74.211 Y22.341 E.53437
G1 X73.725 Y22.389 E.01533
G1 X86.252 Y34.916 E.55595
G1 X86.252 Y35.45 E.01675
G1 X73.238 Y22.436 E.57754
G1 X72.752 Y22.483 E.01533
G1 X86.252 Y35.984 E.59912
G1 X86.252 Y36.518 E.01675
G1 X72.265 Y22.531 E.6207
G1 X71.779 Y22.578 E.01533
G1 X86.252 Y37.051 E.64229
G1 X86.252 Y37.585 E.01675
G1 X71.293 Y22.625 E.66387
G1 X70.806 Y22.672 E.01533
G1 X86.252 Y38.119 E.68546
G1 X86.252 Y38.652 E.01675
G1 X83.019 Y35.418 E.14351
G1 X83.286 Y36.22 E.02651
G1 X86.252 Y39.186 E.13164
G1 X86.252 Y39.72 E.01675
G1 X83.554 Y37.021 E.11977
G1 X83.821 Y37.822 E.02651
G1 X86.252 Y40.253 E.1079
G1 X86.252 Y40.787 E.01675
G1 X84.089 Y38.623 E.09603
G1 X84.356 Y39.424 E.02651
G1 X86.252 Y41.321 E.08416
G1 X86.252 Y41.855 E.01675
G1 X84.624 Y40.226 E.07229
G1 X84.891 Y41.027 E.02651
G1 X86.252 Y42.388 E.06042
G1 X86.252 Y42.922 E.01675
G1 X84.856 Y41.526 E.06195
G1 X84.336 Y41.539 E.01634
G1 X86.252 Y43.456 E.08505
G1 X86.252 Y43.989 E.01675
G1 X83.816 Y41.552 E.10814
G1 X83.295 Y41.566 E.01634
G1 X86.252 Y44.523 E.13123
G1 X86.252 Y45.057 E.01675
G1 X82.775 Y41.579 E.15433
G1 X82.254 Y41.592 E.01634
G1 X86.252 Y45.59 E.17742
G1 X86.252 Y46.124 E.01675
G1 X81.734 Y41.606 E.20052
G1 X81.214 Y41.619 E.01634
G1 X86.422 Y46.827 E.23114
G1 E-.8 F2100
G1 Z.8 F10800
G1 X80.031 Y39.903
G1 Z.2
G1 E.8 F2100
G1 F1200
G1 X79.234 Y39.106 E.03535
G1 X78.711 Y39.116 E.01643
G1 X80.418 Y40.823 E.07577
G1 E-.8 F2100
G1 Z.8 F10800
G1 X78.021 Y38.96
G1 Z.2
G1 E.8 F2100
G1 F1200
G1 X86.252 Y47.191 E.36531
G1 X86.252 Y47.725 E.01675
G1 X84.804 Y46.277 E.06429
G1 X84.804 Y46.81 E.01675
G1 X86.252 Y48.259 E.06429
G1 X86.252 Y48.793 E.01675
G1 X84.804 Y47.344 E.06429
G1 X84.804 Y47.878 E.01675
G1 X86.252 Y49.326 E.06429
G1 X86.252 Y49.86 E.01675
G1 X84.804 Y48.411 E.06429
G1 X84.804 Y48.945 E.01675
G1 X86.252 Y50.394 E.06429
G1 X86.252 Y50.927 E.01675
G1 X84.425 Y49.1 E.08109
G1 X83.891 Y49.1 E.01675
G1 X86.252 Y51.461 E.10478
G1 X86.252 Y51.995 E.01675
G1 X83.358 Y49.1 E.12846
G1 X82.824 Y49.1 E.01675
G1 X86.252 Y52.528 E.15214
G1 X86.252 Y53.062 E.01675
G1 X82.29 Y49.1 E.17583
G1 X81.757 Y49.1 E.01675
G1 X86.252 Y53.596 E.19951
G1 X86.252 Y54.13 E.01675
G1 X81.223 Y49.1 E.2232
G1 X80.689 Y49.1 E.01675
G1 X86.252 Y54.663 E.24688
G1 X86.252 Y55.197 E.01675
G1 X84.871 Y53.815 E.06132
G1 X84.737 Y54.215 E.01324
G1 X86.252 Y55.731 E.06725
G1 X86.252 Y56.264 E.01675
G1 X84.604 Y54.615 E.07317
G1 X84.47 Y55.016 E.01324
G1 X86.252 Y56.798 E.0791
G1 X86.252 Y57.332 E.01675
G1 X84.336 Y55.416 E.08503
G1 X84.203 Y55.816 E.01324
G1 X86.252 Y57.865 E.09096
G1 X86.252 Y58.399 E.01675
G1 X84.069 Y56.216 E.09689
G1 X83.936 Y56.616 E.01324
G1 X86.252 Y58.933 E.10281
G1 X86.252 Y59.467 E.01675
G1 X83.802 Y57.016 E.10874
G1 X83.668 Y57.416 E.01324
G1 X86.252 Y60 E.11467
G1 X86.252 Y60.534 E.01675
G1 X83.535 Y57.816 E.1206
G1 X83.401 Y58.216 E.01324
G1 X86.252 Y61.068 E.12653
G1 X86.252 Y61.601 E.01675
G1 X83.268 Y58.617 E.13245
G1 X83.134 Y59.017 E.01324
G1 X86.252 Y62.135 E.13838
G1 X86.252 Y62.669 E.01675
G1 X83.001 Y59.417 E.14431
G1 X82.867 Y59.817 E.01324
G1 X86.252 Y63.202 E.15024
G1 X86.252 Y63.736 E.01675
G1 X82.733 Y60.217 E.15617
G1 X82.621 Y60.554 E.01115
G1 X82.535 Y60.553 E.00268
G1 X86.252 Y64.27 E.16496
G1 X86.252 Y64.804 E.01675
G1 X81.992 Y60.543 E.18906
G1 X81.449 Y60.534 E.01705
G1 X86.252 Y65.337 E.21317
G1 X86.252 Y65.871 E.01675
G1 X80.906 Y60.524 E.23728
G1 X80.362 Y60.515 E.01705
G1 X86.252 Y66.405 E.26138
G1 X86.252 Y66.938 E.01675
G1 X79.819 Y60.505 E.28549
G1 X79.276 Y60.496 E.01705
G1 X86.252 Y67.472 E.30959
G1 X86.252 Y68.006 E.01675
G1 X78.733 Y60.486 E.3337
G1 X78.19 Y60.477 E.01705
G1 X86.252 Y68.539 E.35781
M73 P2 R169
G1 X86.252 Y69.073 E.01675
M73 Q2 S170
G1 X77.646 Y60.467 E.38191
G1 X77.103 Y60.458 E.01705
G1 X86.252 Y69.607 E.40602
G1 X86.252 Y70.141 E.01675
G1 X76.56 Y60.448 E.43012
G1 X76.017 Y60.439 E.01705
G1 X86.252 Y70.674 E.45423
G1 X86.252 Y71.208 E.01675
G1 X75.474 Y60.429 E.47834
G1 X74.93 Y60.42 E.01705
G1 X86.252 Y71.742 E.50244
G1 X86.252 Y72.275 E.01675
G1 X74.387 Y60.41 E.52655
G1 X73.844 Y60.401 E.01705
G1 X86.252 Y72.809 E.55065
G1 X86.252 Y73.343 E.01675
G1 X73.301 Y60.391 E.57476
G1 X72.758 Y60.382 E.01705
G1 X85.959 Y73.583 E.58585
G1 X85.368 Y73.526 E.01864
M73 Q2 S169
G1 X72.214 Y60.372 E.58372
G1 X71.671 Y60.362 E.01705
G1 X84.777 Y73.468 E.58159
G1 X84.185 Y73.411 E.01864
G1 X71.128 Y60.353 E.57946
G1 X70.585 Y60.343 E.01705
G1 X83.594 Y73.353 E.57733
G1 X83.003 Y73.295 E.01864
G1 X70.042 Y60.334 E.5752
G1 X69.498 Y60.324 E.01705
G1 X82.412 Y73.238 E.57306
G1 X81.821 Y73.18 E.01864
M73 P2 R168
G1 X68.955 Y60.315 E.57093
G1 X68.412 Y60.305 E.01705
G1 X81.229 Y73.123 E.5688
G1 X80.638 Y73.065 E.01864
G1 X67.869 Y60.296 E.56667
G1 X67.325 Y60.286 E.01705
G1 X80.047 Y73.008 E.56454
G1 X79.456 Y72.95 E.01864
G1 X66.782 Y60.277 E.56241
G1 X66.239 Y60.267 E.01705
G1 X78.864 Y72.893 E.56028
G1 X78.273 Y72.835 E.01864
G1 X65.696 Y60.258 E.55815
G1 X65.153 Y60.248 E.01705
G1 X69.509 Y64.604 E.1933
G1 X68.957 Y64.586 E.01732
G1 X64.609 Y60.239 E.19293
G1 X64.066 Y60.229 E.01705
G1 X68.405 Y64.568 E.19255
G1 X67.853 Y64.55 E.01732
G1 X63.523 Y60.22 E.19217
G1 X62.98 Y60.21 E.01705
G1 X67.302 Y64.532 E.19179
G1 X66.75 Y64.514 E.01732
G1 X62.437 Y60.201 E.19142
G1 X62.418 Y60.201 E.00059
G1 X62.275 Y60.573 E.01252
G1 X66.198 Y64.496 E.17411
