; generated by PrusaSlicer 2.3.1+win64 on 2021-11-26 at 17:28:52 UTC

; 

; external perimeters extrusion width = 0.45mm
; perimeters extrusion width = 0.45mm
; infill extrusion width = 0.45mm
; solid infill extrusion width = 0.45mm
; top infill extrusion width = 0.40mm
; support material extrusion width = 0.35mm
; first layer extrusion width = 0.42mm

M73 P0 R13
M73 Q0 S13
M201 X1000 Y1000 Z1000 E5000 ; sets maximum accelerations, mm/sec^2
M203 X200 Y200 Z12 E120 ; sets maximum feedrates, mm/sec
M204 P1250 R1250 T1250 ; sets acceleration (P, T) and retract acceleration (R), mm/sec^2
M205 X8.00 Y8.00 Z0.40 E1.50 ; sets the jerk limits, mm/sec
M205 S0 T0 ; sets the minimum extruding and travel feed rate, mm/sec
M107
;TYPE:Custom
M862.3 P "MK3S" ; printer model check
M862.1 P0.4 ; nozzle diameter check
M115 U3.8.0 ; tell printer latest fw version
G90 ; use absolute coordinates
M83 ; extruder relative mode
M104 S215 ; set extruder temp
M140 S60 ; set bed temp
M190 S60 ; wait for bed temp
M109 S215 ; wait for extruder temp
G28 W ; home all without mesh bed level
G80 ; mesh bed leveling
G1 Y-3.0 F1000.0 ; go outside print area
G92 E0.0
G1 X60.0 E9.0 F1000.0 ; intro line
G1 X100.0 E12.5 F1000.0 ; intro line
G92 E0.0
M221 S95
G21 ; set units to millimeters
G90 ; use absolute coordinates
M83 ; use relative distances for extrusion
M900 K0.05 ; Filament gcode LA 1.5
M900 K30 ; Filament gcode LA 1.0
;LAYER_CHANGE
;Z:0.2
;HEIGHT:0.2
;BEFORE_LAYER_CHANGE
G92 E0.0
;0.2


G1 E-0.80000 F2100.000
G1 Z0.600 F10800.000
;AFTER_LAYER_CHANGE
;0.2
G1 X116.712 Y100.569
G1 Z0.200
G1 E0.80000 F2100.000
M204 S1000
;TYPE:Perimeter
;WIDTH:0.42
G1 F1200.000
G1 X122.609 Y100.569 E0.18489
G1 X122.609 Y109.431 E0.27788
M73 P1 R13
M73 Q1 S13
G1 X116.661 Y109.431 E0.18651
G1 X116.661 Y111.431 E0.06271
G1 X114.783 Y111.431 E0.05886
G1 X114.783 Y98.569 E0.40330
G1 X116.661 Y98.569 E0.05886
G1 X116.661 Y100.560 E0.06245
G1 X117.038 Y100.192 F10800.000
;TYPE:External perimeter
G1 F1200.000
G1 X122.986 Y100.192 E0.18651
G1 X122.986 Y109.808 E0.30153
G1 X117.038 Y109.808 E0.18651
G1 X117.038 Y111.808 E0.06271
G1 X114.406 Y111.808 E0.08251
G1 X114.406 Y98.192 E0.42695
G1 X117.038 Y98.192 E0.08251
G1 X117.038 Y100.132 E0.06083
G1 X117.159 Y100.573 F10800.000
G1 X116.547 Y99.274
;TYPE:Solid infill
;WIDTH:0.423749
G1 F1200.000
G1 X116.125 Y98.851 E0.01890
G1 X115.587 Y98.851 E0.01705
G1 X116.378 Y99.642 E0.03542
G1 X116.378 Y100.181 E0.01705
G1 X115.066 Y98.869 E0.05875
G1 X115.066 Y99.408 E0.01705
G1 X122.326 Y106.668 E0.32513
G1 X122.326 Y106.129 E0.01705
G1 X117.048 Y100.851 E0.23636
G1 X117.587 Y100.851 E0.01705
G1 X122.326 Y105.591 E0.21224
G1 X122.326 Y105.052 E0.01705
G1 X118.125 Y100.851 E0.18813
G1 X118.664 Y100.851 E0.01705
G1 X122.326 Y104.514 E0.16401
G1 X122.326 Y103.975 E0.01705
G1 X119.202 Y100.851 E0.13989
G1 X119.741 Y100.851 E0.01705
G1 X122.326 Y103.437 E0.11577
G1 X122.326 Y102.898 E0.01705
G1 X120.280 Y100.851 E0.09165
G1 X120.818 Y100.851 E0.01705
G1 X122.326 Y102.359 E0.06753
G1 X122.326 Y101.821 E0.01705
G1 X121.357 Y100.851 E0.04341
G1 X121.895 Y100.851 E0.01705
G1 X122.496 Y101.452 E0.02689
G1 E-0.80000 F2100.000
G1 Z0.800 F10800.000
G1 X122.496 Y107.376
G1 Z0.200
G1 E0.80000 F2100.000
G1 F1200.000
G1 X115.066 Y99.946 E0.33273
M73 P2 R13
M73 Q2 S13
G1 X115.066 Y100.485 E0.01705
G1 X122.326 Y107.745 E0.32513
G1 X122.326 Y108.284 E0.01705
G1 X115.066 Y101.023 E0.32513
G1 X115.066 Y101.562 E0.01705
G1 X122.326 Y108.822 E0.32513
G1 X122.326 Y109.149 E0.01033
G1 X122.114 Y109.149 E0.00672
G1 X115.066 Y102.101 E0.31562
G1 X115.066 Y102.639 E0.01705
G1 X121.575 Y109.149 E0.29151
G1 X121.037 Y109.149 E0.01705
G1 X115.066 Y103.178 E0.26739
G1 X115.066 Y103.716 E0.01705
G1 X120.498 Y109.149 E0.24327
G1 X119.960 Y109.149 E0.01705
G1 X115.066 Y104.255 E0.21915
G1 X115.066 Y104.794 E0.01705
G1 X119.421 Y109.149 E0.19503
G1 X118.882 Y109.149 E0.01705
G1 X115.066 Y105.332 E0.17091
G1 X115.066 Y105.871 E0.01705
G1 X118.344 Y109.149 E0.14679
G1 X117.805 Y109.149 E0.01705
G1 X115.066 Y106.409 E0.12267
G1 X115.066 Y106.948 E0.01705
G1 X117.267 Y109.149 E0.09856
G1 X116.728 Y109.149 E0.01705
G1 X115.066 Y107.486 E0.07444
G1 X115.066 Y108.025 E0.01705
G1 X116.378 Y109.337 E0.05875
G1 X116.378 Y109.875 E0.01705
G1 X115.066 Y108.564 E0.05875
G1 X115.066 Y109.102 E0.01705
G1 X116.378 Y110.414 E0.05875
G1 X116.378 Y110.952 E0.01705
G1 X115.066 Y109.641 E0.05875
G1 X115.066 Y110.179 E0.01705
G1 X116.035 Y111.149 E0.04341
G1 X115.497 Y111.149 E0.01705
G1 X114.896 Y110.548 E0.02689
G1 E-0.80000 F2100.000
G1 Z0.800 F10800.000
G1 X125.789 Y94.759
G1 Z0.200
G1 E0.80000 F2100.000
;TYPE:Perimeter
;WIDTH:0.42
G1 F1200.000
G1 X125.788 Y87.118 E0.23955
G1 X128.908 Y87.118 E0.09782
G1 X128.909 Y121.287 E1.07133
M73 P3 R13
M73 Q3 S13
G1 X128.875 Y121.630 E0.01081
G1 X128.778 Y121.939 E0.01016
G1 X128.675 Y122.135 E0.00694
G1 X128.487 Y122.382 E0.00972
G1 X128.245 Y122.592 E0.01005
G1 X127.966 Y122.748 E0.01005
G1 X127.656 Y122.845 E0.01016
G1 X127.351 Y122.875 E0.00962
G1 X127.029 Y122.844 E0.01014
G1 X126.830 Y122.789 E0.00648
G1 X126.643 Y122.708 E0.00639
G1 X126.357 Y122.522 E0.01069
G1 X126.215 Y122.390 E0.00608
G1 X126.020 Y122.135 E0.01006
G1 X125.917 Y121.938 E0.00697
G1 X125.849 Y121.748 E0.00632
G1 X125.792 Y121.413 E0.01065
G1 X125.789 Y94.819 E0.83386
G1 X125.412 Y94.819 F10800.000
;TYPE:External perimeter
G1 F1200.000
G1 X125.411 Y86.741 E0.25326
G1 X129.285 Y86.741 E0.12147
G1 X129.287 Y121.306 E1.08375
G1 X129.246 Y121.706 E0.01261
G1 X129.127 Y122.084 E0.01241
G1 X128.995 Y122.339 E0.00900
G1 X128.763 Y122.641 E0.01193
G1 X128.463 Y122.902 E0.01247
G1 X128.116 Y123.097 E0.01249
G1 X127.732 Y123.217 E0.01260
G1 X127.351 Y123.254 E0.01199
G1 X126.960 Y123.216 E0.01232
G1 X126.704 Y123.146 E0.00833
G1 X126.463 Y123.042 E0.00823
G1 X126.124 Y122.820 E0.01272
G1 X125.935 Y122.644 E0.00810
G1 X125.701 Y122.338 E0.01206
G1 X125.571 Y122.090 E0.00881
G1 X125.483 Y121.844 E0.00818
G1 X125.415 Y121.446 E0.01267
G1 X125.412 Y94.879 E0.83299
G1 X125.758 Y94.618 F10800.000
G1 E-0.80000 F2100.000
G1 Z0.800 F10800.000
G1 X125.966 Y121.738
G1 Z0.200
G1 E0.80000 F2100.000
;TYPE:Solid infill
;WIDTH:0.423161
G1 F1200.000
G1 X126.532 Y122.299 E0.02520
G1 X126.777 Y122.458 E0.00924
G1 X127.081 Y122.565 E0.01018
G1 X127.356 Y122.591 E0.00876
G1 X126.074 Y121.309 E0.05732
M73 Q4 S13
G1 X126.074 Y120.771 E0.01700
G1 X127.806 Y122.502 E0.07741
G1 X128.082 Y122.359 E0.00982
G1 X128.145 Y122.304 E0.00267
G1 X126.074 Y120.233 E0.09260
M73 P4 R13
G1 X126.074 Y119.695 E0.01700
G1 X128.404 Y122.025 E0.10416
G1 X128.515 Y121.831 E0.00708
G1 X128.571 Y121.654 E0.00585
G1 X126.074 Y119.158 E0.11163
G1 X126.074 Y118.620 E0.01700
G1 X128.627 Y121.172 E0.11413
G1 X128.627 Y120.634 E0.01700
G1 X126.074 Y118.082 E0.11413
G1 X126.074 Y117.544 E0.01700
G1 X128.627 Y120.097 E0.11413
G1 X128.627 Y119.559 E0.01700
G1 X126.074 Y117.006 E0.11414
G1 X126.074 Y116.469 E0.01700
G1 X128.627 Y119.021 E0.11414
G1 X128.627 Y118.484 E0.01700
G1 X126.074 Y115.931 E0.11414
G1 X126.074 Y115.393 E0.01700
G1 X128.627 Y117.946 E0.11414
G1 X128.627 Y117.408 E0.01700
G1 X126.074 Y114.855 E0.11415
G1 X126.074 Y114.317 E0.01700
G1 X128.627 Y116.870 E0.11415
G1 X128.627 Y116.333 E0.01700
G1 X126.074 Y113.780 E0.11415
M73 P4 R12
G1 X126.074 Y113.242 E0.01700
G1 X128.627 Y115.795 E0.11415
G1 X128.627 Y115.257 E0.01700
G1 X126.074 Y112.704 E0.11416
G1 X126.074 Y112.166 E0.01700
G1 X128.627 Y114.719 E0.11416
G1 X128.627 Y114.182 E0.01700
G1 X126.073 Y111.628 E0.11416
G1 X126.073 Y111.091 E0.01700
G1 X128.627 Y113.644 E0.11416
M73 Q4 S12
G1 X128.627 Y113.106 E0.01700
G1 X126.073 Y110.553 E0.11417
G1 X126.073 Y110.015 E0.01700
G1 X128.627 Y112.568 E0.11417
G1 X128.627 Y112.031 E0.01700
G1 X126.073 Y109.477 E0.11417
G1 X126.073 Y108.939 E0.01700
G1 X128.627 Y111.493 E0.11417
G1 X128.627 Y110.955 E0.01700
G1 X126.073 Y108.402 E0.11418
G1 X126.073 Y107.864 E0.01700
G1 X128.627 Y110.417 E0.11418
G1 X128.627 Y109.880 E0.01700
G1 X126.073 Y107.326 E0.11418
G1 X126.073 Y106.788 E0.01700
G1 X128.627 Y109.342 E0.11418
G1 X128.627 Y108.804 E0.01700
G1 X126.073 Y106.250 E0.11418
G1 X126.073 Y105.713 E0.01700
G1 X128.627 Y108.266 E0.11418
G1 X128.627 Y107.729 E0.01700
G1 X126.073 Y105.175 E0.11419
G1 X126.073 Y104.637 E0.01700
G1 X128.626 Y107.191 E0.11419
G1 X128.626 Y106.653 E0.01700
G1 X126.073 Y104.099 E0.11419
G1 X126.073 Y103.561 E0.01700
G1 X128.626 Y106.115 E0.11419
G1 X128.626 Y105.577 E0.01700
G1 X126.073 Y103.024 E0.11419
G1 X126.073 Y102.486 E0.01700
G1 X128.626 Y105.040 E0.11419
G1 X128.626 Y104.502 E0.01700
G1 X126.072 Y101.948 E0.11419
G1 X126.072 Y101.410 E0.01700
M73 Q5 S12
G1 X128.626 Y103.964 E0.11419
G1 X128.626 Y103.426 E0.01700
G1 X126.072 Y100.872 E0.11419
M73 P5 R12
G1 X126.072 Y100.335 E0.01700
G1 X128.626 Y102.889 E0.11419
G1 X128.626 Y102.351 E0.01700
G1 X126.072 Y99.797 E0.11420
G1 X126.072 Y99.259 E0.01700
G1 X128.626 Y101.813 E0.11420
G1 X128.626 Y101.275 E0.01700
G1 X126.072 Y98.721 E0.11420
G1 X126.072 Y98.183 E0.01700
G1 X128.626 Y100.737 E0.11420
G1 X128.626 Y100.200 E0.01700
G1 X126.072 Y97.646 E0.11420
G1 X126.072 Y97.108 E0.01700
G1 X128.626 Y99.662 E0.11420
G1 X128.626 Y99.124 E0.01700
G1 X126.072 Y96.570 E0.11420
G1 X126.072 Y96.032 E0.01700
G1 X128.626 Y98.586 E0.11420
G1 X128.626 Y98.049 E0.01700
G1 X126.072 Y95.494 E0.11420
G1 X126.072 Y94.957 E0.01700
G1 X128.626 Y97.511 E0.11420
G1 X128.626 Y96.973 E0.01700
G1 X126.072 Y94.419 E0.11421
G1 X126.072 Y93.881 E0.01700
G1 X128.626 Y96.435 E0.11421
G1 X128.626 Y95.898 E0.01700
G1 X126.072 Y93.343 E0.11421
G1 X126.072 Y92.806 E0.01700
G1 X128.626 Y95.360 E0.11421
G1 X128.626 Y94.822 E0.01700
G1 X126.071 Y92.268 E0.11421
G1 X126.071 Y91.730 E0.01700
G1 X128.626 Y94.284 E0.11421
G1 X128.626 Y93.746 E0.01700
G1 X126.071 Y91.192 E0.11421
G1 X126.071 Y90.654 E0.01700
G1 X128.626 Y93.209 E0.11421
G1 X128.626 Y92.671 E0.01700
G1 X126.071 Y90.117 E0.11421
G1 X126.071 Y89.579 E0.01700
G1 X128.626 Y92.133 E0.11421
G1 X128.626 Y91.595 E0.01700
G1 X126.071 Y89.041 E0.11422
G1 X126.071 Y88.503 E0.01700
G1 X128.625 Y91.058 E0.11422
G1 X128.625 Y90.520 E0.01700
G1 X126.071 Y87.965 E0.11422
G1 X126.071 Y87.428 E0.01700
G1 X128.625 Y89.982 E0.11422
G1 X128.625 Y89.444 E0.01700
G1 X126.582 Y87.401 E0.09135
G1 X127.120 Y87.401 E0.01700
G1 X128.625 Y88.906 E0.06730
G1 X128.625 Y88.369 E0.01700
G1 X127.658 Y87.401 E0.04326
G1 X128.196 Y87.401 E0.01700
G1 X128.795 Y88.001 E0.02680
G1 E-0.80000 F2100.000
G1 Z0.800 F10800.000
G1 X132.964 Y122.716
G1 Z0.200
G1 E0.80000 F2100.000
;TYPE:Perimeter
;WIDTH:0.42
G1 F1200.000
G1 X132.661 Y122.522 E0.01126
G1 X132.519 Y122.390 E0.00608
G1 X132.324 Y122.135 E0.01006
G1 X132.221 Y121.938 E0.00697
G1 X132.153 Y121.748 E0.00632
G1 X132.096 Y121.413 E0.01065
G1 X132.092 Y87.118 E1.07529
M73 P6 R12
M73 Q6 S12
G1 X135.212 Y87.118 E0.09782
G1 X135.213 Y121.287 E1.07133
G1 X135.179 Y121.630 E0.01081
G1 X135.082 Y121.939 E0.01016
G1 X134.979 Y122.135 E0.00694
G1 X134.791 Y122.382 E0.00972
G1 X134.549 Y122.592 E0.01005
G1 X134.269 Y122.748 E0.01005
G1 X133.960 Y122.845 E0.01016
G1 X133.655 Y122.875 E0.00962
G1 X133.333 Y122.844 E0.01014
G1 X133.019 Y122.740 E0.01039
G1 X132.869 Y123.086 F10800.000
;TYPE:External perimeter
G1 F1200.000
G1 X132.767 Y123.042 E0.00347
G1 X132.428 Y122.820 E0.01272
G1 X132.239 Y122.644 E0.00810
G1 X132.005 Y122.338 E0.01206
G1 X131.875 Y122.090 E0.00881
G1 X131.787 Y121.844 E0.00818
G1 X131.719 Y121.446 E0.01267
G1 X131.715 Y86.741 E1.08813
G1 X135.589 Y86.741 E0.12147
G1 X135.590 Y121.306 E1.08375
G1 X135.550 Y121.706 E0.01261
G1 X135.431 Y122.084 E0.01241
G1 X135.298 Y122.339 E0.00900
G1 X135.067 Y122.641 E0.01193
G1 X134.767 Y122.902 E0.01247
G1 X134.419 Y123.097 E0.01249
G1 X134.036 Y123.217 E0.01260
G1 X133.655 Y123.254 E0.01199
G1 X133.264 Y123.216 E0.01232
G1 X132.924 Y123.109 E0.01118
G1 X132.849 Y122.977 F10800.000
G1 E-0.80000 F2100.000
G1 Z0.800 F10800.000
G1 X135.099 Y88.001
G1 Z0.200
G1 E0.80000 F2100.000
;TYPE:Solid infill
;WIDTH:0.423161
G1 F1200.000
G1 X134.500 Y87.401 E0.02680
G1 X133.962 Y87.401 E0.01700
G1 X134.929 Y88.369 E0.04326
M73 Q7 S12
G1 X134.929 Y88.906 E0.01700
G1 X133.424 Y87.401 E0.06730
G1 X132.886 Y87.401 E0.01700
G1 X134.929 Y89.444 E0.09135
G1 X134.929 Y89.982 E0.01700
G1 X132.375 Y87.428 E0.11422
M73 P7 R12
G1 X132.375 Y87.965 E0.01700
G1 X134.929 Y90.520 E0.11422
G1 X134.929 Y91.058 E0.01700
G1 X132.375 Y88.503 E0.11422
G1 X132.375 Y89.041 E0.01700
G1 X134.929 Y91.595 E0.11422
G1 X134.929 Y92.133 E0.01700
G1 X132.375 Y89.579 E0.11421
G1 X132.375 Y90.117 E0.01700
G1 X134.929 Y92.671 E0.11421
G1 X134.930 Y93.209 E0.01700
G1 X132.375 Y90.654 E0.11421
G1 X132.375 Y91.192 E0.01700
G1 X134.930 Y93.746 E0.11421
G1 X134.930 Y94.284 E0.01700
G1 X132.375 Y91.730 E0.11421
G1 X132.375 Y92.268 E0.01700
G1 X134.930 Y94.822 E0.11421
G1 X134.930 Y95.360 E0.01700
G1 X132.375 Y92.806 E0.11421
G1 X132.375 Y93.343 E0.01700
G1 X134.930 Y95.898 E0.11421
G1 X134.930 Y96.435 E0.01700
G1 X132.376 Y93.881 E0.11421
G1 X132.376 Y94.419 E0.01700
G1 X134.930 Y96.973 E0.11421
G1 X134.930 Y97.511 E0.01700
G1 X132.376 Y94.957 E0.11420
G1 X132.376 Y95.494 E0.01700
G1 X134.930 Y98.049 E0.11420
G1 X134.930 Y98.586 E0.01700
G1 X132.376 Y96.032 E0.11420
G1 X132.376 Y96.570 E0.01700
G1 X134.930 Y99.124 E0.11420
G1 X134.930 Y99.662 E0.01700
G1 X132.376 Y97.108 E0.11420
G1 X132.376 Y97.646 E0.01700
G1 X134.930 Y100.200 E0.11420
G1 X134.930 Y100.737 E0.01700
G1 X132.376 Y98.183 E0.11420
G1 X132.376 Y98.721 E0.01700
G1 X134.930 Y101.275 E0.11420
G1 X134.930 Y101.813 E0.01700
G1 X132.376 Y99.259 E0.11420
G1 X132.376 Y99.797 E0.01700
G1 X134.930 Y102.351 E0.11420
G1 X134.930 Y102.889 E0.01700
G1 X132.376 Y100.335 E0.11419
G1 X132.376 Y100.872 E0.01700
G1 X134.930 Y103.426 E0.11419
G1 X134.930 Y103.964 E0.01700
G1 X132.376 Y101.410 E0.11419
G1 X132.376 Y101.948 E0.01700
G1 X134.930 Y104.502 E0.11419
G1 X134.930 Y105.040 E0.01700
G1 X132.376 Y102.486 E0.11419
G1 X132.376 Y103.024 E0.01700
G1 X134.930 Y105.577 E0.11419
G1 X134.930 Y106.115 E0.01700
G1 X132.377 Y103.561 E0.11419
G1 X132.377 Y104.099 E0.01700
G1 X134.930 Y106.653 E0.11419
G1 X134.930 Y107.191 E0.01700
G1 X132.377 Y104.637 E0.11419
G1 X132.377 Y105.175 E0.01700
G1 X134.930 Y107.729 E0.11419
G1 X134.930 Y108.266 E0.01700
G1 X132.377 Y105.713 E0.11418
M73 Q8 S12
G1 X132.377 Y106.250 E0.01700
G1 X134.930 Y108.804 E0.11418
G1 X134.931 Y109.342 E0.01700
G1 X132.377 Y106.788 E0.11418
M73 P8 R12
G1 X132.377 Y107.326 E0.01700
G1 X134.931 Y109.880 E0.11418
G1 X134.931 Y110.417 E0.01700
G1 X132.377 Y107.864 E0.11418
G1 X132.377 Y108.402 E0.01700
G1 X134.931 Y110.955 E0.11418
G1 X134.931 Y111.493 E0.01700
G1 X132.377 Y108.939 E0.11417
G1 X132.377 Y109.477 E0.01700
G1 X134.931 Y112.031 E0.11417
G1 X134.931 Y112.568 E0.01700
G1 X132.377 Y110.015 E0.11417
G1 X132.377 Y110.553 E0.01700
G1 X134.931 Y113.106 E0.11417
G1 X134.931 Y113.644 E0.01700
G1 X132.377 Y111.091 E0.11416
G1 X132.377 Y111.628 E0.01700
G1 X134.931 Y114.182 E0.11416
G1 X134.931 Y114.719 E0.01700
G1 X132.377 Y112.166 E0.11416
G1 X132.377 Y112.704 E0.01700
G1 X134.931 Y115.257 E0.11416
G1 X134.931 Y115.795 E0.01700
G1 X132.378 Y113.242 E0.11415
G1 X132.378 Y113.780 E0.01700
G1 X134.931 Y116.333 E0.11415
G1 X134.931 Y116.870 E0.01700
G1 X132.378 Y114.317 E0.11415
G1 X132.378 Y114.855 E0.01700
G1 X134.931 Y117.408 E0.11415
G1 X134.931 Y117.946 E0.01700
G1 X132.378 Y115.393 E0.11414
G1 X132.378 Y115.931 E0.01700
G1 X134.931 Y118.484 E0.11414
G1 X134.931 Y119.021 E0.01700
G1 X132.378 Y116.469 E0.11414
G1 X132.378 Y117.006 E0.01700
G1 X134.931 Y119.559 E0.11414
G1 X134.931 Y120.097 E0.01700
G1 X132.378 Y117.544 E0.11413
G1 X132.378 Y118.082 E0.01700
G1 X134.931 Y120.634 E0.11413
G1 X134.931 Y121.172 E0.01700
G1 X132.378 Y118.620 E0.11413
G1 X132.378 Y119.158 E0.01700
G1 X134.875 Y121.654 E0.11163
G1 X134.819 Y121.831 E0.00585
G1 X134.708 Y122.025 E0.00708
G1 X132.378 Y119.695 E0.10416
G1 X132.378 Y120.233 E0.01700
G1 X134.449 Y122.304 E0.09260
G1 X134.385 Y122.359 E0.00267
