; generated by PrusaSlicer 2.3.1+win64 on 2021-11-10 at 20:05:57 UTC

; 

; external perimeters extrusion width = 0.45mm
; perimeters extrusion width = 0.45mm
; infill extrusion width = 0.45mm
; solid infill extrusion width = 0.45mm
; top infill extrusion width = 0.40mm
; support material extrusion width = 0.35mm
; first layer extrusion width = 0.42mm

M73 P0 R14
M73 Q0 S14
M201 X1000 Y1000 Z1000 E5000 ; sets maximum accelerations, mm/sec^2
M203 X200 Y200 Z12 E120 ; sets maximum feedrates, mm/sec
M204 P1250 R1250 T1250 ; sets acceleration (P, T) and retract acceleration (R), mm/sec^2
M205 X8.00 Y8.00 Z0.40 E1.50 ; sets the jerk limits, mm/sec
M205 S0 T0 ; sets the minimum extruding and travel feed rate, mm/sec
M107
;TYPE:Custom
M862.3 P "MK3S" ; printer model check
M862.1 P0.4 ; nozzle diameter check
M115 U3.8.0 ; tell printer latest fw version
G90 ; use absolute coordinates
M83 ; extruder relative mode
M104 S215 ; set extruder temp
M140 S60 ; set bed temp
M190 S60 ; wait for bed temp
M109 S215 ; wait for extruder temp
G28 W ; home all without mesh bed level
G80 ; mesh bed leveling
G1 Y-3.0 F1000.0 ; go outside print area
G92 E0.0
G1 X60.0 E9.0 F1000.0 ; intro line
G1 X100.0 E12.5 F1000.0 ; intro line
G92 E0.0
M221 S95
G21 ; set units to millimeters
G90 ; use absolute coordinates
M83 ; use relative distances for extrusion
M900 K0.05 ; Filament gcode LA 1.5
M900 K30 ; Filament gcode LA 1.0
;LAYER_CHANGE
;Z:0.2
;HEIGHT:0.2
;BEFORE_LAYER_CHANGE
G92 E0.0
;0.2


G1 E-0.80000 F2100.000
G1 Z0.600 F10800.000
;AFTER_LAYER_CHANGE
;0.2
G1 X118.569 Y94.383
G1 Z0.200
G1 E0.80000 F2100.000
M204 S1000
;TYPE:Perimeter
;WIDTH:0.42
G1 F1200.000
G1 X131.431 Y94.383 E0.40330
G1 X131.431 Y96.261 E0.05886
G1 X129.431 Y96.261 E0.06271
G1 X129.431 Y102.209 E0.18651
M73 Q1 S14
G1 X120.569 Y102.209 E0.27788
M73 P1 R14
G1 X120.569 Y96.261 E0.18651
G1 X118.569 Y96.261 E0.06271
G1 X118.569 Y94.443 E0.05698
G1 E-0.80000 F2100.000
G1 Z0.800 F10800.000
G1 X129.808 Y96.638
G1 Z0.200
G1 E0.80000 F2100.000
;TYPE:External perimeter
G1 F1200.000
G1 X129.808 Y102.586 E0.18651
G1 X120.192 Y102.586 E0.30153
G1 X120.192 Y96.638 E0.18651
G1 X118.192 Y96.638 E0.06271
G1 X118.192 Y94.006 E0.08251
G1 X131.808 Y94.006 E0.42695
G1 X131.808 Y96.638 E0.08251
G1 X129.868 Y96.638 E0.06083
G1 X129.427 Y96.759 F10800.000
G1 E-0.80000 F2100.000
G1 Z0.800 F10800.000
G1 X131.318 Y95.267
G1 Z0.200
G1 E0.80000 F2100.000
;TYPE:Solid infill
;WIDTH:0.423749
G1 F1200.000
G1 X130.718 Y94.666 E0.02689
G1 X130.179 Y94.666 E0.01705
G1 X131.149 Y95.635 E0.04341
G1 X131.149 Y95.978 E0.01084
G1 X130.952 Y95.978 E0.00621
G1 X129.641 Y94.666 E0.05875
G1 X129.102 Y94.666 E0.01705
G1 X130.414 Y95.978 E0.05875
G1 X129.875 Y95.978 E0.01705
G1 X128.563 Y94.666 E0.05875
G1 X128.025 Y94.666 E0.01705
G1 X129.337 Y95.978 E0.05875
G1 X129.149 Y95.978 E0.00595
G1 X129.149 Y96.328 E0.01110
G1 X127.486 Y94.666 E0.07444
G1 X126.948 Y94.666 E0.01705
G1 X129.149 Y96.867 E0.09856
G1 X129.149 Y97.405 E0.01705
G1 X126.409 Y94.666 E0.12268
G1 X125.871 Y94.666 E0.01705
G1 X129.149 Y97.944 E0.14680
G1 X129.149 Y98.483 E0.01705
G1 X125.332 Y94.666 E0.17092
G1 X124.793 Y94.666 E0.01705
G1 X129.149 Y99.021 E0.19504
G1 X129.149 Y99.560 E0.01705
G1 X124.255 Y94.666 E0.21915
G1 X123.716 Y94.666 E0.01705
G1 X129.149 Y100.098 E0.24327
G1 X129.149 Y100.637 E0.01705
G1 X123.178 Y94.666 E0.26739
G1 X122.639 Y94.666 E0.01705
G1 X129.149 Y101.175 E0.29151
G1 X129.149 Y101.714 E0.01705
G1 X122.101 Y94.666 E0.31563
M73 Q2 S14
G1 X121.562 Y94.666 E0.01705
G1 X128.822 Y101.926 E0.32513
M73 P2 R14
G1 X128.284 Y101.926 E0.01705
G1 X121.023 Y94.666 E0.32513
G1 X120.485 Y94.666 E0.01705
G1 X127.745 Y101.926 E0.32513
G1 X127.206 Y101.926 E0.01705
G1 X119.946 Y94.666 E0.32513
G1 X119.408 Y94.666 E0.01705
G1 X126.668 Y101.926 E0.32513
G1 X126.129 Y101.926 E0.01705
G1 X120.851 Y96.648 E0.23636
G1 X120.851 Y97.187 E0.01705
G1 X125.591 Y101.926 E0.21224
G1 X125.052 Y101.926 E0.01705
G1 X120.851 Y97.725 E0.18812
G1 X120.851 Y98.264 E0.01705
G1 X124.514 Y101.926 E0.16400
G1 X123.975 Y101.926 E0.01705
G1 X120.851 Y98.803 E0.13988
G1 X120.851 Y99.341 E0.01705
G1 X123.436 Y101.926 E0.11576
G1 X122.898 Y101.926 E0.01705
G1 X120.851 Y99.880 E0.09165
G1 X120.851 Y100.418 E0.01705
G1 X122.359 Y101.926 E0.06753
G1 X121.821 Y101.926 E0.01705
G1 X120.851 Y100.957 E0.04341
G1 X120.851 Y101.495 E0.01705
G1 X121.452 Y102.096 E0.02689
G1 E-0.80000 F2100.000
G1 Z0.800 F10800.000
G1 X120.351 Y96.147
G1 Z0.200
G1 E0.80000 F2100.000
G1 F1200.000
G1 X118.869 Y94.666 E0.06634
G1 X118.851 Y94.666 E0.00056
G1 X118.851 Y95.187 E0.01650
G1 X119.642 Y95.978 E0.03542
G1 X119.104 Y95.978 E0.01705
G1 X118.682 Y95.556 E0.01890
G1 E-0.80000 F2100.000
G1 Z0.800 F10800.000
G1 X105.402 Y105.388
G1 Z0.200
G1 E0.80000 F2100.000
;TYPE:Perimeter
;WIDTH:0.42
G1 F1200.000
G1 X142.896 Y105.390 E1.17560
G1 X143.187 Y105.425 E0.00921
G1 X143.532 Y105.533 E0.01132
G1 X143.762 Y105.654 E0.00813
G1 X144.043 Y105.871 E0.01114
G1 X144.272 Y106.135 E0.01095
G1 X144.448 Y106.451 E0.01135
G1 X144.560 Y106.806 E0.01168
G1 X144.591 Y107.049 E0.00767
G1 X144.579 Y107.372 E0.01014
G1 X144.492 Y107.733 E0.01165
G1 X144.334 Y108.069 E0.01165
G1 X144.206 Y108.250 E0.00694
G1 X143.946 Y108.510 E0.01154
M73 Q3 S14
G1 X143.645 Y108.709 E0.01131
G1 X143.400 Y108.813 E0.00834
G1 X143.065 Y108.892 E0.01079
G1 X142.813 Y108.909 E0.00792
G1 X105.402 Y108.908 E1.17300
M73 P3 R14
G1 X105.402 Y105.448 E0.10848
G1 X105.025 Y105.011 F10800.000
;TYPE:External perimeter
G1 F1200.000
G1 X142.919 Y105.013 E1.18813
G1 X143.267 Y105.055 E0.01101
G1 X143.677 Y105.184 E0.01347
G1 X143.966 Y105.335 E0.01022
G1 X144.303 Y105.595 E0.01336
G1 X144.582 Y105.917 E0.01334
G1 X144.797 Y106.301 E0.01379
G1 X144.930 Y106.725 E0.01396
G1 X144.969 Y107.032 E0.00970
G1 X144.954 Y107.423 E0.01228
G1 X144.850 Y107.859 E0.01404
G1 X144.661 Y108.259 E0.01389
G1 X144.496 Y108.493 E0.00897
G1 X144.186 Y108.804 E0.01377
G1 X143.824 Y109.043 E0.01359
G1 X143.518 Y109.173 E0.01042
G1 X143.122 Y109.266 E0.01276
G1 X142.826 Y109.287 E0.00930
G1 X105.025 Y109.285 E1.18523
G1 X105.025 Y105.071 E0.13213
G1 X105.425 Y105.026 F10800.000
G1 E-0.80000 F2100.000
G1 Z0.800 F10800.000
G1 X144.380 Y106.611
G1 Z0.200
G1 E0.80000 F2100.000
;TYPE:Solid infill
;WIDTH:0.422697
G1 F1200.000
G1 X143.844 Y106.075 E0.02392
G1 X143.608 Y105.893 E0.00941
G1 X143.423 Y105.796 E0.00661
G1 X143.128 Y105.703 E0.00978
G1 X142.909 Y105.676 E0.00696
G1 X144.307 Y107.075 E0.06244
G1 X144.297 Y107.333 E0.00817
G1 X144.245 Y107.550 E0.00704
G1 X142.368 Y105.673 E0.08384
G1 X141.831 Y105.673 E0.01696
G1 X144.087 Y107.928 E0.10073
G1 X143.989 Y108.067 E0.00536
G1 X143.839 Y108.218 E0.00671
G1 X141.294 Y105.673 E0.11365
G1 X140.757 Y105.673 E0.01696
G1 X143.530 Y108.446 E0.12385
G1 X143.312 Y108.543 E0.00756
G1 X143.133 Y108.586 E0.00580
G1 X140.220 Y105.673 E0.13009
G1 X139.683 Y105.673 E0.01696
M73 Q4 S14
G1 X142.637 Y108.627 E0.13192
G1 X142.099 Y108.627 E0.01696
G1 X139.145 Y105.673 E0.13192
M73 P4 R14
G1 X138.608 Y105.673 E0.01696
G1 X141.562 Y108.627 E0.13192
G1 X141.025 Y108.627 E0.01696
G1 X138.071 Y105.673 E0.13192
G1 X137.534 Y105.673 E0.01696
G1 X140.488 Y108.627 E0.13192
G1 X139.951 Y108.627 E0.01696
G1 X136.997 Y105.673 E0.13192
G1 X136.460 Y105.672 E0.01696
G1 X139.414 Y108.627 E0.13192
G1 X138.877 Y108.626 E0.01696
G1 X135.923 Y105.672 E0.13192
G1 X135.386 Y105.672 E0.01696
G1 X138.340 Y108.626 E0.13192
G1 X137.803 Y108.626 E0.01696
G1 X134.849 Y105.672 E0.13192
G1 X134.311 Y105.672 E0.01696
G1 X137.266 Y108.626 E0.13192
G1 X136.728 Y108.626 E0.01696
G1 X133.774 Y105.672 E0.13192
G1 X133.237 Y105.672 E0.01696
G1 X136.191 Y108.626 E0.13193
G1 X135.654 Y108.626 E0.01696
G1 X132.700 Y105.672 E0.13193
G1 X132.163 Y105.672 E0.01696
G1 X135.117 Y108.626 E0.13193
G1 X134.580 Y108.626 E0.01696
G1 X131.626 Y105.672 E0.13193
G1 X131.089 Y105.672 E0.01696
G1 X134.043 Y108.626 E0.13193
G1 X133.506 Y108.626 E0.01696
G1 X130.552 Y105.672 E0.13193
G1 X130.015 Y105.672 E0.01696
G1 X132.969 Y108.626 E0.13193
G1 X132.432 Y108.626 E0.01696
G1 X129.477 Y105.672 E0.13193
G1 X128.940 Y105.672 E0.01696
G1 X131.894 Y108.626 E0.13193
M73 P4 R13
G1 X131.357 Y108.626 E0.01696
G1 X128.403 Y105.672 E0.13193
G1 X127.866 Y105.672 E0.01696
G1 X130.820 Y108.626 E0.13193
G1 X130.283 Y108.626 E0.01696
G1 X127.329 Y105.672 E0.13193
G1 X126.792 Y105.672 E0.01696
G1 X129.746 Y108.626 E0.13193
G1 X129.209 Y108.626 E0.01696
G1 X126.255 Y105.672 E0.13193
G1 X125.718 Y105.672 E0.01696
G1 X128.672 Y108.626 E0.13193
G1 X128.135 Y108.626 E0.01696
G1 X125.181 Y105.672 E0.13193
G1 X124.643 Y105.672 E0.01696
G1 X127.598 Y108.626 E0.13193
M73 Q4 S13
G1 X127.061 Y108.626 E0.01696
G1 X124.106 Y105.672 E0.13193
G1 X123.569 Y105.672 E0.01696
G1 X126.523 Y108.626 E0.13193
G1 X125.986 Y108.626 E0.01696
G1 X123.032 Y105.672 E0.13193
G1 X122.495 Y105.672 E0.01696
G1 X125.449 Y108.626 E0.13193
G1 X124.912 Y108.626 E0.01696
G1 X121.958 Y105.672 E0.13193
G1 X121.421 Y105.672 E0.01696
G1 X124.375 Y108.626 E0.13193
M73 Q5 S13
G1 X123.838 Y108.626 E0.01696
G1 X120.884 Y105.672 E0.13193
M73 P5 R13
G1 X120.347 Y105.672 E0.01696
G1 X123.301 Y108.626 E0.13193
G1 X122.764 Y108.626 E0.01696
G1 X119.809 Y105.672 E0.13193
G1 X119.272 Y105.672 E0.01696
G1 X122.227 Y108.626 E0.13193
G1 X121.689 Y108.626 E0.01696
G1 X118.735 Y105.672 E0.13193
G1 X118.198 Y105.672 E0.01696
G1 X121.152 Y108.626 E0.13193
G1 X120.615 Y108.626 E0.01696
G1 X117.661 Y105.672 E0.13193
G1 X117.124 Y105.672 E0.01696
G1 X120.078 Y108.626 E0.13193
G1 X119.541 Y108.626 E0.01696
G1 X116.587 Y105.671 E0.13194
G1 X116.050 Y105.671 E0.01696
G1 X119.004 Y108.626 E0.13194
G1 X118.467 Y108.626 E0.01696
G1 X115.513 Y105.671 E0.13194
G1 X114.975 Y105.671 E0.01696
G1 X117.930 Y108.626 E0.13194
G1 X117.393 Y108.626 E0.01696
G1 X114.438 Y105.671 E0.13194
G1 X113.901 Y105.671 E0.01696
G1 X116.855 Y108.626 E0.13194
G1 X116.318 Y108.626 E0.01696
G1 X113.364 Y105.671 E0.13194
G1 X112.827 Y105.671 E0.01696
G1 X115.781 Y108.626 E0.13194
G1 X115.244 Y108.626 E0.01696
G1 X112.290 Y105.671 E0.13194
G1 X111.753 Y105.671 E0.01696
G1 X114.707 Y108.626 E0.13194
G1 X114.170 Y108.626 E0.01696
G1 X111.216 Y105.671 E0.13194
G1 X110.678 Y105.671 E0.01696
G1 X113.633 Y108.626 E0.13194
G1 X113.096 Y108.626 E0.01696
G1 X110.141 Y105.671 E0.13194
G1 X109.604 Y105.671 E0.01696
G1 X112.559 Y108.625 E0.13194
G1 X112.022 Y108.625 E0.01696
G1 X109.067 Y105.671 E0.13194
G1 X108.530 Y105.671 E0.01696
G1 X111.484 Y108.625 E0.13194
G1 X110.947 Y108.625 E0.01696
G1 X107.993 Y105.671 E0.13194
G1 X107.456 Y105.671 E0.01696
G1 X110.410 Y108.625 E0.13194
G1 X109.873 Y108.625 E0.01696
G1 X106.919 Y105.671 E0.13194
G1 X106.382 Y105.671 E0.01696
G1 X109.336 Y108.625 E0.13194
G1 X108.799 Y108.625 E0.01696
G1 X105.844 Y105.671 E0.13194
G1 X105.685 Y105.671 E0.00504
G1 X105.685 Y106.048 E0.01192
G1 X108.262 Y108.625 E0.11509
G1 X107.725 Y108.625 E0.01696
G1 X105.685 Y106.585 E0.09110
G1 X105.685 Y107.122 E0.01696
G1 X107.188 Y108.625 E0.06711
G1 X106.650 Y108.625 E0.01696
G1 X105.685 Y107.660 E0.04313
G1 X105.685 Y108.197 E0.01696
G1 X106.283 Y108.795 E0.02672
G1 E-0.80000 F2100.000
G1 Z0.800 F10800.000
G1 X105.402 Y112.092
G1 Z0.200
G1 E0.80000 F2100.000
;TYPE:Perimeter
;WIDTH:0.42
G1 F1200.000
G1 X142.896 Y112.094 E1.17560
M73 P6 R13
M73 Q6 S13
G1 X143.187 Y112.129 E0.00921
G1 X143.532 Y112.237 E0.01132
G1 X143.762 Y112.358 E0.00813
G1 X144.043 Y112.575 E0.01114
G1 X144.272 Y112.839 E0.01095
G1 X144.448 Y113.155 E0.01135
G1 X144.560 Y113.510 E0.01168
G1 X144.591 Y113.753 E0.00767
G1 X144.579 Y114.076 E0.01014
G1 X144.492 Y114.437 E0.01165
G1 X144.334 Y114.773 E0.01165
G1 X144.206 Y114.954 E0.00694
G1 X143.946 Y115.214 E0.01154
G1 X143.645 Y115.413 E0.01131
G1 X143.400 Y115.517 E0.00834
G1 X143.065 Y115.596 E0.01079
G1 X142.813 Y115.613 E0.00792
G1 X105.402 Y115.612 E1.17300
G1 X105.402 Y112.152 E0.10848
G1 X105.025 Y111.715 F10800.000
;TYPE:External perimeter
G1 F1200.000
G1 X142.919 Y111.717 E1.18813
G1 X143.267 Y111.759 E0.01101
G1 X143.677 Y111.888 E0.01347
G1 X143.966 Y112.039 E0.01022
G1 X144.303 Y112.299 E0.01336
G1 X144.582 Y112.621 E0.01334
G1 X144.797 Y113.004 E0.01379
G1 X144.930 Y113.429 E0.01396
G1 X144.969 Y113.736 E0.00970
G1 X144.954 Y114.127 E0.01228
G1 X144.850 Y114.563 E0.01404
G1 X144.661 Y114.963 E0.01389
G1 X144.496 Y115.197 E0.00897
G1 X144.186 Y115.508 E0.01377
G1 X143.824 Y115.747 E0.01359
G1 X143.518 Y115.877 E0.01042
G1 X143.122 Y115.970 E0.01276
G1 X142.826 Y115.990 E0.00930
G1 X105.025 Y115.989 E1.18523
G1 X105.025 Y111.775 E0.13213
G1 X105.425 Y111.730 F10800.000
G1 E-0.80000 F2100.000
G1 Z0.800 F10800.000
M73 Q7 S13
G1 X144.380 Y113.314
M73 P7 R13
G1 Z0.200
G1 E0.80000 F2100.000
;TYPE:Solid infill
;WIDTH:0.422697
G1 F1200.000
G1 X143.844 Y112.779 E0.02392
G1 X143.608 Y112.597 E0.00941
G1 X143.423 Y112.500 E0.00661
G1 X143.128 Y112.407 E0.00978
G1 X142.909 Y112.380 E0.00696
G1 X144.307 Y113.779 E0.06244
G1 X144.297 Y114.037 E0.00817
G1 X144.245 Y114.254 E0.00704
G1 X142.368 Y112.377 E0.08384
G1 X141.831 Y112.377 E0.01696
G1 X144.087 Y114.632 E0.10073
G1 X143.989 Y114.771 E0.00536
G1 X143.839 Y114.922 E0.00671
G1 X141.294 Y112.377 E0.11365
G1 X140.757 Y112.377 E0.01696
G1 X143.530 Y115.150 E0.12385
G1 X143.312 Y115.247 E0.00756
G1 X143.133 Y115.290 E0.00580
G1 X140.220 Y112.377 E0.13009
G1 X139.683 Y112.377 E0.01696
G1 X142.637 Y115.331 E0.13192
G1 X142.099 Y115.331 E0.01696
G1 X139.145 Y112.377 E0.13192
G1 X138.608 Y112.376 E0.01696
G1 X141.562 Y115.330 E0.13192
G1 X141.025 Y115.330 E0.01696
G1 X138.071 Y112.376 E0.13192
G1 X137.534 Y112.376 E0.01696
G1 X140.488 Y115.330 E0.13192
G1 X139.951 Y115.330 E0.01696
G1 X136.997 Y112.376 E0.13192
G1 X136.460 Y112.376 E0.01696
G1 X139.414 Y115.330 E0.13192
G1 X138.877 Y115.330 E0.01696
G1 X135.923 Y112.376 E0.13192
G1 X135.386 Y112.376 E0.01696
G1 X138.340 Y115.330 E0.13192
G1 X137.803 Y115.330 E0.01696
G1 X134.849 Y112.376 E0.13192
G1 X134.311 Y112.376 E0.01696
G1 X137.266 Y115.330 E0.13192
G1 X136.728 Y115.330 E0.01696
G1 X133.774 Y112.376 E0.13192
G1 X133.237 Y112.376 E0.01696
G1 X136.191 Y115.330 E0.13193
G1 X135.654 Y115.330 E0.01696
G1 X132.700 Y112.376 E0.13193
G1 X132.163 Y112.376 E0.01696
G1 X135.117 Y115.330 E0.13193
G1 X134.580 Y115.330 E0.01696
G1 X131.626 Y112.376 E0.13193
G1 X131.089 Y112.376 E0.01696
G1 X134.043 Y115.330 E0.13193
G1 X133.506 Y115.330 E0.01696
G1 X130.552 Y112.376 E0.13193
G1 X130.015 Y112.376 E0.01696
G1 X132.969 Y115.330 E0.13193
G1 X132.432 Y115.330 E0.01696
G1 X129.477 Y112.376 E0.13193
G1 X128.940 Y112.376 E0.01696
G1 X131.894 Y115.330 E0.13193
G1 X131.357 Y115.330 E0.01696
G1 X128.403 Y112.376 E0.13193
G1 X127.866 Y112.376 E0.01696
G1 X130.820 Y115.330 E0.13193
G1 X130.283 Y115.330 E0.01696
G1 X127.329 Y112.376 E0.13193
G1 X126.792 Y112.376 E0.01696
G1 X129.746 Y115.330 E0.13193
G1 X129.209 Y115.330 E0.01696
G1 X126.255 Y112.376 E0.13193
G1 X125.718 Y112.376 E0.01696
G1 X128.672 Y115.330 E0.13193
M73 Q8 S13
G1 X128.135 Y115.330 E0.01696
G1 X125.181 Y112.376 E0.13193
G1 X124.643 Y112.376 E0.01696
G1 X127.598 Y115.330 E0.13193
M73 P8 R13
G1 X127.061 Y115.330 E0.01696
G1 X124.106 Y112.376 E0.13193
G1 X123.569 Y112.376 E0.01696
G1 X126.523 Y115.330 E0.13193
G1 X125.986 Y115.330 E0.01696
G1 X123.032 Y112.376 E0.13193
G1 X122.495 Y112.376 E0.01696
G1 X125.449 Y115.330 E0.13193
G1 X124.912 Y115.330 E0.01696
G1 X121.958 Y112.376 E0.13193
G1 X121.421 Y112.376 E0.01696
G1 X124.375 Y115.330 E0.13193
G1 X123.838 Y115.330 E0.01696
G1 X120.884 Y112.376 E0.13193
G1 X120.347 Y112.376 E0.01696
G1 X123.301 Y115.330 E0.13193
G1 X122.764 Y115.330 E0.01696
G1 X119.809 Y112.376 E0.13193
G1 X119.272 Y112.376 E0.01696
G1 X122.227 Y115.330 E0.13193
G1 X121.689 Y115.330 E0.01696
G1 X118.735 Y112.375 E0.13193
G1 X118.198 Y112.375 E0.01696
G1 X121.152 Y115.330 E0.13193
G1 X120.615 Y115.330 E0.01696
G1 X117.661 Y112.375 E0.13193
G1 X117.124 Y112.375 E0.01696
G1 X120.078 Y115.330 E0.13193
G1 X119.541 Y115.330 E0.01696
G1 X116.587 Y112.375 E0.13194
G1 X116.050 Y112.375 E0.01696
G1 X119.004 Y115.330 E0.13194
