; generated by PrusaSlicer 2.3.1+win64 on 2021-11-18 at 16:19:53 UTC

; 

; external perimeters extrusion width = 0.45mm
; perimeters extrusion width = 0.45mm
; infill extrusion width = 0.45mm
; solid infill extrusion width = 0.45mm
; top infill extrusion width = 0.40mm
; support material extrusion width = 0.35mm
; first layer extrusion width = 0.42mm

M73 P0 R29
M73 Q0 S29
M201 X1000 Y1000 Z1000 E5000 ; sets maximum accelerations, mm/sec^2
M203 X200 Y200 Z12 E120 ; sets maximum feedrates, mm/sec
M204 P1250 R1250 T1250 ; sets acceleration (P, T) and retract acceleration (R), mm/sec^2
M205 X8.00 Y8.00 Z0.40 E1.50 ; sets the jerk limits, mm/sec
M205 S0 T0 ; sets the minimum extruding and travel feed rate, mm/sec
M107
;TYPE:Custom
M862.3 P "MK3S" ; printer model check
M862.1 P0.4 ; nozzle diameter check
M115 U3.8.0 ; tell printer latest fw version
G90 ; use absolute coordinates
M83 ; extruder relative mode
M104 S215 ; set extruder temp
M140 S60 ; set bed temp
M190 S60 ; wait for bed temp
M109 S215 ; wait for extruder temp
G28 W ; home all without mesh bed level
G80 ; mesh bed leveling
G1 Y-3.0 F1000.0 ; go outside print area
G92 E0.0
M73 P0 R28
G1 X60.0 E9.0 F1000.0 ; intro line
M73 Q0 S28
G1 X100.0 E12.5 F1000.0 ; intro line
G92 E0.0
M221 S95
G21 ; set units to millimeters
G90 ; use absolute coordinates
M83 ; use relative distances for extrusion
M900 K0.05 ; Filament gcode LA 1.5
M900 K30 ; Filament gcode LA 1.0
;LAYER_CHANGE
;Z:0.2
;HEIGHT:0.2
;BEFORE_LAYER_CHANGE
G92 E0.0
;0.2


G1 E-0.80000 F2100.000
G1 Z0.600 F10800.000
;AFTER_LAYER_CHANGE
;0.2
G1 X134.215 Y113.496
G1 Z0.200
G1 E0.80000 F2100.000
M204 S1000
;TYPE:Perimeter
;WIDTH:0.42
G1 F1200.000
G1 X133.270 Y114.284 E0.03855
G1 X132.831 Y114.309 E0.01380
G1 X132.864 Y112.770 E0.04827
G1 X130.645 Y114.360 E0.08559
G1 X130.318 Y114.350 E0.01026
G1 X130.553 Y112.803 E0.04908
G1 X128.120 Y114.212 E0.08818
G1 X127.831 Y114.179 E0.00912
G1 X128.272 Y112.627 E0.05059
G1 X125.668 Y113.859 E0.09033
G1 X125.441 Y113.814 E0.00728
G1 X126.053 Y112.337 E0.05012
G1 X123.228 Y113.297 E0.09353
G1 X122.987 Y113.229 E0.00785
G1 X123.794 Y111.816 E0.05103
G1 X120.801 Y112.509 E0.09635
G1 X120.576 Y112.422 E0.00755
G1 X121.564 Y111.083 E0.05216
G1 X118.462 Y111.523 E0.09821
G1 X118.287 Y111.437 E0.00612
G1 X119.459 Y110.172 E0.05407
G1 X116.288 Y110.381 E0.09964
G1 X116.071 Y110.252 E0.00791
G1 X130.688 Y95.635 E0.64814
G1 X134.289 Y95.635 E0.11291
G1 X134.289 Y113.434 E0.55807
G1 X134.261 Y113.457 E0.00117
G1 X134.502 Y113.747 F10800.000
;TYPE:External perimeter
G1 F1200.000
G1 X133.417 Y114.653 E0.04433
G1 X132.445 Y114.710 E0.03051
G1 X132.471 Y113.516 E0.03744
G1 X130.761 Y114.740 E0.06594
G1 X129.881 Y114.715 E0.02761
G1 X130.062 Y113.523 E0.03781
G1 X128.201 Y114.601 E0.06746
G1 X127.347 Y114.503 E0.02696
G1 X127.682 Y113.324 E0.03845
G1 X125.717 Y114.254 E0.06818
G1 X124.916 Y114.093 E0.02559
G1 X125.385 Y112.962 E0.03839
G1 X123.239 Y113.691 E0.07108
G1 X122.423 Y113.456 E0.02662
G1 X123.039 Y112.378 E0.03892
G1 X120.773 Y112.903 E0.07294
G1 X119.980 Y112.595 E0.02666
G1 X120.727 Y111.583 E0.03944
G1 X118.401 Y111.913 E0.07366
G1 X117.666 Y111.553 E0.02564
G1 X118.539 Y110.611 E0.04028
G1 X116.195 Y110.765 E0.07365
G1 X115.463 Y110.327 E0.02676
G1 X130.532 Y95.258 E0.66820
G1 X134.666 Y95.258 E0.12963
G1 X134.666 Y113.610 E0.57543
G1 X134.548 Y113.709 E0.00482
G1 X134.103 Y113.722 F10800.000
G1 X133.758 Y113.730
;TYPE:Solid infill
;WIDTH:0.420812
G1 F1200.000
G1 X133.140 Y113.111 E0.02747
G1 X133.129 Y113.634 E0.01644
G1 X133.467 Y113.973 E0.01503
G1 E-0.80000 F2100.000
G1 Z0.800 F10800.000
G1 X131.500 Y113.609
G1 Z0.200
G1 E0.80000 F2100.000
G1 F1200.000
G1 X130.820 Y112.929 E0.03019
G1 X130.750 Y113.393 E0.01474
G1 X131.066 Y113.710 E0.01408
G1 X130.755 Y113.933 E0.01204
G1 X130.530 Y113.708 E0.01000
G1 E-0.80000 F2100.000
G1 Z0.800 F10800.000
G1 X129.206 Y113.453
G1 Z0.200
G1 E0.80000 F2100.000
G1 F1200.000
G1 X128.525 Y112.772 E0.03025
G1 X128.407 Y113.188 E0.01359
G1 X128.743 Y113.524 E0.01495
G1 X128.405 Y113.721 E0.01229
G1 X128.151 Y113.467 E0.01128
G1 E-0.80000 F2100.000
G1 Z0.800 F10800.000
G1 X126.810 Y113.194
G1 Z0.200
G1 E0.80000 F2100.000
G1 F1200.000
G1 X126.240 Y112.624 E0.02531
G1 X126.083 Y113.002 E0.01285
G1 X126.319 Y113.238 E0.01049
M73 Q1 S28
G1 X125.957 Y113.410 E0.01261
G1 X125.797 Y113.250 E0.00710
G1 E-0.80000 F2100.000
G1 Z0.800 F10800.000
G1 X122.426 Y112.017
G1 Z0.200
G1 E0.80000 F2100.000
G1 F1200.000
G1 X121.736 Y111.327 E0.03067
M73 P1 R28
G1 X121.509 Y111.634 E0.01201
G1 X121.850 Y111.976 E0.01518
G1 X121.417 Y112.076 E0.01400
G1 X121.161 Y111.820 E0.01137
G1 X120.465 Y111.125 F10800.000
G1 F1200.000
G1 X119.684 Y110.344 E0.03469
G1 X119.428 Y110.622 E0.01188
G1 X119.847 Y111.041 E0.01864
G1 X119.379 Y111.108 E0.01485
G1 X119.051 Y110.779 E0.01459
G1 E-0.80000 F2100.000
G1 Z0.800 F10800.000
G1 X116.575 Y109.907
G1 Z0.200
G1 E0.80000 F2100.000
G1 F1200.000
G1 X116.736 Y110.068 E0.00714
G1 X117.237 Y110.035 E0.01579
G1 X116.963 Y109.760 E0.01221
G1 X117.230 Y109.493 E0.01187
G1 X117.739 Y110.002 E0.02262
G1 X118.240 Y109.969 E0.01579
G1 X117.497 Y109.226 E0.03302
G1 X117.764 Y108.959 E0.01187
G1 X118.741 Y109.936 E0.04343
G1 X119.243 Y109.903 E0.01579
G1 X118.031 Y108.691 E0.05383
G1 X118.299 Y108.424 E0.01187
G1 X120.783 Y110.908 E0.11040
G1 X121.251 Y110.842 E0.01485
G1 X118.566 Y108.157 E0.11932
G1 X118.833 Y107.890 E0.01187
G1 X122.718 Y111.775 E0.17265
G1 X123.152 Y111.674 E0.01400
G1 X119.100 Y107.623 E0.18005
G1 X119.367 Y107.355 E0.01187
G1 X123.727 Y111.715 E0.19375
G1 X123.501 Y112.558 F10800.000
G1 F1200.000
G1 X123.761 Y112.817 E0.01154
G1 X124.159 Y112.682 E0.01324
G1 X123.820 Y112.342 E0.01510
G1 X124.014 Y112.002 E0.01231
G1 X124.558 Y112.546 E0.02420
G1 X124.957 Y112.411 E0.01324
G1 X119.635 Y107.088 E0.23652
G1 X119.902 Y106.821 E0.01187
G1 X125.356 Y112.275 E0.24238
G1 X125.755 Y112.140 E0.01324
G1 X120.169 Y106.554 E0.24823
G1 X120.436 Y106.286 E0.01187
G1 X127.045 Y112.895 E0.29367
G1 X127.408 Y112.723 E0.01261
G1 X120.704 Y106.019 E0.29791
G1 X120.971 Y105.752 E0.01187
G1 X127.770 Y112.552 E0.30216
G1 X128.133 Y112.380 E0.01261
G1 X121.238 Y105.485 E0.30640
G1 X121.505 Y105.218 E0.01187
G1 X129.420 Y113.132 E0.35171
G1 X129.758 Y112.936 E0.01229
G1 X121.772 Y104.950 E0.35488
G1 X122.040 Y104.683 E0.01187
G1 X130.097 Y112.740 E0.35804
G1 X130.435 Y112.544 E0.01229
G1 X122.307 Y104.416 E0.36120
G1 X122.574 Y104.149 E0.01187
G1 X131.689 Y113.264 E0.40506
G1 X132.001 Y113.041 E0.01204
G1 X122.841 Y103.882 E0.40702
G1 X123.108 Y103.614 E0.01187
G1 X132.312 Y112.818 E0.40899
G1 X132.623 Y112.595 E0.01204
G1 X123.376 Y103.347 E0.41095
G1 X123.643 Y103.080 E0.01187
G1 X133.929 Y113.366 E0.45708
G1 X134.006 Y113.301 E0.00318
G1 X134.006 Y112.909 E0.01232
G1 X123.910 Y102.813 E0.44866
G1 X124.177 Y102.546 E0.01187
G1 X134.006 Y112.375 E0.43678
G1 X134.006 Y111.840 E0.01679
G1 X124.444 Y102.278 E0.42491
G1 X124.712 Y102.011 E0.01187
G1 X134.006 Y111.306 E0.41303
G1 X134.006 Y110.771 E0.01679
G1 X124.979 Y101.744 E0.40116
G1 X125.246 Y101.477 E0.01187
G1 X134.006 Y110.237 E0.38929
G1 X134.006 Y109.703 E0.01679
G1 X125.513 Y101.209 E0.37741
G1 X125.781 Y100.942 E0.01187
G1 X134.006 Y109.168 E0.36554
M73 P2 R28
M73 Q2 S28
G1 X134.006 Y108.634 E0.01679
G1 X126.048 Y100.675 E0.35366
G1 X126.315 Y100.408 E0.01187
G1 X134.006 Y108.099 E0.34179
G1 X134.006 Y107.565 E0.01679
G1 X126.582 Y100.141 E0.32992
G1 X126.849 Y99.873 E0.01187
G1 X134.006 Y107.031 E0.31804
G1 X134.006 Y106.496 E0.01679
G1 X127.117 Y99.606 E0.30617
G1 X127.384 Y99.339 E0.01187
G1 X134.006 Y105.962 E0.29429
G1 X134.006 Y105.427 E0.01679
G1 X127.651 Y99.072 E0.28242
G1 X127.918 Y98.805 E0.01187
G1 X134.006 Y104.893 E0.27055
G1 X134.006 Y104.358 E0.01679
G1 X128.185 Y98.537 E0.25867
G1 X128.453 Y98.270 E0.01187
G1 X134.006 Y103.824 E0.24680
G1 X134.006 Y103.290 E0.01679
G1 X128.720 Y98.003 E0.23492
G1 X128.987 Y97.736 E0.01187
G1 X134.006 Y102.755 E0.22305
G1 X134.006 Y102.221 E0.01679
G1 X129.254 Y97.469 E0.21118
G1 X129.521 Y97.201 E0.01187
G1 X134.006 Y101.686 E0.19930
G1 X134.006 Y101.152 E0.01679
G1 X129.789 Y96.934 E0.18743
G1 X130.056 Y96.667 E0.01187
G1 X134.006 Y100.617 E0.17555
G1 X134.006 Y100.083 E0.01679
G1 X130.323 Y96.400 E0.16368
G1 X130.590 Y96.132 E0.01187
G1 X134.006 Y99.549 E0.15181
G1 X134.006 Y99.014 E0.01679
G1 X130.910 Y95.918 E0.13761
G1 X131.444 Y95.918 E0.01679
G1 X134.006 Y98.480 E0.11386
G1 X134.006 Y97.945 E0.01679
G1 X131.979 Y95.918 E0.09011
G1 X132.513 Y95.918 E0.01679
G1 X134.006 Y97.411 E0.06637
G1 X134.006 Y96.877 E0.01679
G1 X133.047 Y95.918 E0.04262
G1 X133.582 Y95.918 E0.01679
G1 X134.176 Y96.512 E0.02641
M106 S84.15
;LAYER_CHANGE
;Z:0.4
;HEIGHT:0.2
;BEFORE_LAYER_CHANGE
G92 E0.0
;0.4


G1 E-0.80000 F2100.000
G1 Z0.800 F10800.000
;AFTER_LAYER_CHANGE
;0.4
M104 S210 ; set temperature
G1 X121.715 Y104.671
G1 Z0.400
G1 E0.80000 F2100.000
M204 S800
;TYPE:Perimeter
;WIDTH:0.45
G1 F2571
G1 X130.707 Y95.680 E0.43042
G1 X134.244 Y95.680 E0.11974
G1 X134.244 Y113.413 E0.60024
G1 X133.253 Y114.240 E0.04370
G1 X132.877 Y114.262 E0.01275
G1 X132.911 Y112.681 E0.05350
G1 X130.631 Y114.314 E0.09493
G1 X130.370 Y114.307 E0.00884
G1 X130.612 Y112.717 E0.05444
G1 X128.110 Y114.166 E0.09787
G1 X127.889 Y114.141 E0.00755
G1 X128.343 Y112.544 E0.05618
G1 X125.662 Y113.812 E0.10037
G1 X125.503 Y113.780 E0.00550
G1 X126.133 Y112.263 E0.05561
G1 X123.227 Y113.250 E0.10387
G1 X123.055 Y113.201 E0.00605
G1 X123.885 Y111.749 E0.05662
G1 X120.804 Y112.462 E0.10704
G1 X120.647 Y112.402 E0.00569
G1 X121.664 Y111.024 E0.05795
G1 X118.470 Y111.477 E0.10919
G1 X118.361 Y111.424 E0.00409
G1 X119.568 Y110.120 E0.06015
G1 X116.299 Y110.335 E0.11092
G1 X116.144 Y110.243 E0.00611
G1 X121.673 Y104.714 E0.26467
M204 S1000
G1 X121.385 Y104.426 F10800.000
M204 S800
;TYPE:External perimeter
G1 F2100.000
G1 X130.538 Y95.273 E0.43816
G1 X134.651 Y95.273 E0.13923
G1 X134.651 Y113.603 E0.62046
G1 X133.411 Y114.638 E0.05469
G1 X132.461 Y114.694 E0.03222
G1 X132.487 Y113.486 E0.04088
G1 X130.757 Y114.725 E0.07203
G1 X129.898 Y114.700 E0.02906
G1 X130.082 Y113.494 E0.04130
G1 X128.198 Y114.586 E0.07371
G1 X127.366 Y114.490 E0.02833
G1 X127.706 Y113.296 E0.04203
G1 X125.715 Y114.238 E0.07456
G1 X124.937 Y114.082 E0.02684
G1 X125.412 Y112.937 E0.04195
G1 X123.238 Y113.676 E0.07770
G1 X122.446 Y113.447 E0.02793
G1 X123.069 Y112.356 E0.04254
G1 X120.774 Y112.887 E0.07975
G1 X120.004 Y112.589 E0.02796
G1 X120.760 Y111.563 E0.04313
G1 X118.403 Y111.898 E0.08058
G1 X117.691 Y111.549 E0.02685
G1 X118.575 Y110.593 E0.04407
G1 X116.199 Y110.750 E0.08063
G1 X115.487 Y110.324 E0.02808
G1 X121.342 Y104.468 E0.28031
M204 S1000
G1 X121.774 Y104.517 F10800.000
G1 E-0.80000 F2100.000
G1 Z1.000 F10800.000
G1 X133.013 Y113.620
G1 Z0.400
G1 E0.80000 F2100.000
M204 S1250
;TYPE:Solid infill
;WIDTH:0.454948
G1 F2571
G1 X133.939 Y112.694 E0.04486
G1 X133.939 Y112.112 E0.01996
G1 X133.213 Y112.837 E0.03516
G1 X133.226 Y112.242 E0.02041
G1 X133.939 Y111.529 E0.03454
G1 X133.939 Y110.946 E0.01996
G1 X131.742 Y113.144 E0.10646
G1 X130.748 Y113.856 E0.04190
G1 X130.801 Y113.501 E0.01228
G1 X133.939 Y110.364 E0.15202
G1 X133.939 Y109.781 E0.01996
G1 X130.906 Y112.814 E0.14695
G1 X131.009 Y112.134 E0.02357
G1 X130.995 Y112.142 E0.00056
G1 X133.939 Y109.198 E0.14263
G1 X133.939 Y108.615 E0.01996
G1 X129.610 Y112.944 E0.20973
G1 X128.336 Y113.682 E0.05044
G1 X128.355 Y113.617 E0.00233
G1 X133.939 Y108.033 E0.27055
G1 X133.939 Y107.450 E0.01996
G1 X128.586 Y112.803 E0.25934
G1 X128.818 Y111.988 E0.02900
G1 X133.939 Y106.867 E0.24812
M73 Q3 S28
G1 X133.939 Y106.285 E0.01996
G1 X127.725 Y112.498 E0.30106
G1 X126.619 Y113.022 E0.04193
M73 P3 R28
G1 X133.939 Y105.702 E0.35466
G1 X133.939 Y105.119 E0.01996
G1 X126.227 Y112.831 E0.37363
G1 X126.640 Y111.835 E0.03693
G1 X133.939 Y104.537 E0.35363
G1 X133.939 Y103.954 E0.01996
G1 X125.860 Y112.033 E0.39144
G1 X124.978 Y112.333 E0.03193
G1 X133.939 Y103.371 E0.43419
G1 X133.939 Y102.789 E0.01996
G1 X124.095 Y112.632 E0.47694
G1 X123.644 Y112.786 E0.01633
G1 X124.023 Y112.122 E0.02620
G1 X133.939 Y102.206 E0.48043
G1 X133.939 Y101.623 E0.01996
G1 X124.200 Y111.362 E0.47188
G1 X123.441 Y111.538 E0.02667
G1 X133.939 Y101.040 E0.50863
G1 X133.939 Y100.458 E0.01996
G1 X122.683 Y111.714 E0.54537
G1 X121.925 Y111.889 E0.02667
G1 X133.939 Y99.875 E0.58212
G1 X133.939 Y99.292 E0.01996
G1 X121.580 Y111.651 E0.59880
G1 X122.341 Y110.619 E0.04393
G1 X121.978 Y110.671 E0.01257
G1 X133.939 Y98.710 E0.57953
G1 X133.939 Y98.127 E0.01996
G1 X121.299 Y110.767 E0.61243
G1 X120.620 Y110.863 E0.02350
G1 X133.939 Y97.544 E0.64533
G1 X133.939 Y96.962 E0.01996
G1 X119.941 Y110.960 E0.67824
G1 X119.262 Y111.056 E0.02350
G1 X133.939 Y96.379 E0.71114
G1 X133.939 Y95.985 E0.01349
G1 X133.750 Y95.985 E0.00647
G1 X119.946 Y109.789 E0.66881
G1 X119.323 Y109.830 E0.02142
G1 X133.167 Y95.985 E0.67080
G1 X132.585 Y95.985 E0.01996
G1 X118.699 Y109.871 E0.67280
G1 X118.075 Y109.912 E0.02142
G1 X132.002 Y95.985 E0.67479
M73 P3 R27
G1 X131.419 Y95.985 E0.01996
G1 X117.451 Y109.953 E0.67678
G1 X116.827 Y109.994 E0.02142
G1 X131.020 Y95.802 E0.68765
M204 S1000
M106 S170.85
;LAYER_CHANGE
;Z:0.6
;HEIGHT:0.2
;BEFORE_LAYER_CHANGE
G92 E0.0
;0.6


M73 Q3 S27
G1 E-0.80000 F2100.000
G1 Z1.000 F10800.000
;AFTER_LAYER_CHANGE
;0.6
G1 X126.212 Y113.552
G1 Z0.600
G1 E0.80000 F2100.000
M204 S800
;TYPE:Perimeter
;WIDTH:0.45
G1 F2661
G1 X125.662 Y113.812 E0.02057
G1 X125.503 Y113.780 E0.00550
G1 X126.133 Y112.263 E0.05561
G1 X123.227 Y113.250 E0.10387
G1 X123.055 Y113.201 E0.00605
G1 X123.885 Y111.749 E0.05662
G1 X120.804 Y112.462 E0.10704
G1 X120.647 Y112.402 E0.00569
G1 X121.664 Y111.024 E0.05795
G1 X118.470 Y111.477 E0.10919
G1 X118.361 Y111.424 E0.00409
G1 X119.568 Y110.120 E0.06015
G1 X116.299 Y110.335 E0.11092
G1 X116.144 Y110.243 E0.00611
G1 X130.707 Y95.680 E0.69712
G1 X134.244 Y95.680 E0.11974
G1 X134.244 Y113.413 E0.60024
G1 X133.253 Y114.240 E0.04370
G1 X132.877 Y114.262 E0.01275
G1 X132.911 Y112.681 E0.05350
G1 X130.631 Y114.314 E0.09493
G1 X130.370 Y114.307 E0.00884
G1 X130.612 Y112.717 E0.05444
G1 X128.110 Y114.166 E0.09787
G1 X127.889 Y114.141 E0.00755
G1 X128.343 Y112.544 E0.05618
G1 X126.266 Y113.527 E0.07777
M204 S1000
G1 X126.440 Y113.895 F10800.000
M204 S800
;TYPE:External perimeter
G1 F2100.000
G1 X125.715 Y114.238 E0.02716
G1 X124.937 Y114.082 E0.02684
G1 X125.412 Y112.937 E0.04195
G1 X123.238 Y113.676 E0.07770
G1 X122.446 Y113.447 E0.02793
G1 X123.069 Y112.356 E0.04254
G1 X120.774 Y112.887 E0.07975
G1 X120.004 Y112.589 E0.02796
G1 X120.760 Y111.563 E0.04313
G1 X118.403 Y111.898 E0.08058
G1 X117.691 Y111.549 E0.02685
G1 X118.575 Y110.593 E0.04407
G1 X116.199 Y110.750 E0.08063
G1 X115.487 Y110.324 E0.02808
G1 X130.538 Y95.273 E0.72050
G1 X134.651 Y95.273 E0.13923
G1 X134.651 Y113.603 E0.62046
G1 X133.411 Y114.638 E0.05469
G1 X132.461 Y114.694 E0.03222
G1 X132.487 Y113.486 E0.04088
G1 X130.757 Y114.725 E0.07203
G1 X129.898 Y114.700 E0.02906
G1 X130.082 Y113.494 E0.04130
G1 X128.198 Y114.586 E0.07371
G1 X127.366 Y114.490 E0.02833
G1 X127.706 Y113.296 E0.04203
G1 X126.494 Y113.869 E0.04536
M204 S1000
G1 X126.205 Y113.571 F10800.000
G1 X126.536 Y113.264
M204 S1250
;TYPE:Solid infill
;WIDTH:0.450735
G1 F2661
G1 X126.191 Y112.918 E0.01656
G1 X126.360 Y112.511 E0.01497
G1 X126.928 Y113.078 E0.02723
M204 S1000
G1 E-0.80000 F2100.000
G1 Z1.200 F10800.000
G1 X128.265 Y113.262
G1 Z0.600
G1 E0.80000 F2100.000
M204 S1250
G1 F2661
G1 X128.557 Y113.554 E0.01400
G1 X128.922 Y113.343 E0.01431
G1 X128.541 Y112.961 E0.01828
G1 X128.669 Y112.512 E0.01583
G1 X129.422 Y113.265 E0.03610
M204 S1000
G1 E-0.80000 F2100.000
G1 Z1.200 F10800.000
G1 X130.517 Y112.630
G1 Z0.600
G1 E0.80000 F2100.000
M204 S1250
G1 F2661
G1 X122.352 Y104.466 E0.39155
M73 Q4 S27
G1 X122.064 Y104.754 E0.01383
G1 X130.018 Y112.708 E0.38144
M73 P4 R27
G1 X129.653 Y112.920 E0.01431
G1 X121.776 Y105.042 E0.37775
G1 X121.487 Y105.331 E0.01383
G1 X128.356 Y112.200 E0.32941
G1 X127.965 Y112.385 E0.01469
G1 X121.199 Y105.619 E0.32446
