; generated by PrusaSlicer 2.3.1+win64 on 2021-11-10 at 19:50:15 UTC

; 

; external perimeters extrusion width = 0.45mm
; perimeters extrusion width = 0.45mm
; infill extrusion width = 0.45mm
; solid infill extrusion width = 0.45mm
; top infill extrusion width = 0.40mm
; support material extrusion width = 0.35mm
; first layer extrusion width = 0.42mm

M73 P0 R14
M73 Q0 S14
M201 X1000 Y1000 Z1000 E5000 ; sets maximum accelerations, mm/sec^2
M203 X200 Y200 Z12 E120 ; sets maximum feedrates, mm/sec
M204 P1250 R1250 T1250 ; sets acceleration (P, T) and retract acceleration (R), mm/sec^2
M205 X8.00 Y8.00 Z0.40 E1.50 ; sets the jerk limits, mm/sec
M205 S0 T0 ; sets the minimum extruding and travel feed rate, mm/sec
M107
;TYPE:Custom
M862.3 P "MK3S" ; printer model check
M862.1 P0.4 ; nozzle diameter check
M115 U3.8.0 ; tell printer latest fw version
G90 ; use absolute coordinates
M83 ; extruder relative mode
M104 S215 ; set extruder temp
M140 S60 ; set bed temp
M190 S60 ; wait for bed temp
M109 S215 ; wait for extruder temp
G28 W ; home all without mesh bed level
G80 ; mesh bed leveling
G1 Y-3.0 F1000.0 ; go outside print area
G92 E0.0
G1 X60.0 E9.0 F1000.0 ; intro line
G1 X100.0 E12.5 F1000.0 ; intro line
G92 E0.0
M221 S95
G21 ; set units to millimeters
G90 ; use absolute coordinates
M83 ; use relative distances for extrusion
M900 K0.05 ; Filament gcode LA 1.5
M900 K30 ; Filament gcode LA 1.0
;LAYER_CHANGE
;Z:0.2
;HEIGHT:0.2
;BEFORE_LAYER_CHANGE
G92 E0.0
;0.2


G1 E-0.80000 F2100.000
G1 Z0.600 F10800.000
;AFTER_LAYER_CHANGE
;0.2
G1 X126.599 Y91.438
G1 Z0.200
G1 E0.80000 F2100.000
M204 S1000
;TYPE:Perimeter
;WIDTH:0.42
G1 F1200.000
G1 X126.646 Y90.807 E0.01985
G1 X126.738 Y90.130 E0.02141
G1 X126.870 Y89.460 E0.02141
G1 X127.033 Y88.834 E0.02031
G1 X127.253 Y88.149 E0.02253
G1 X127.502 Y87.515 E0.02138
G1 X127.789 Y86.895 E0.02141
G1 X128.112 Y86.294 E0.02141
G1 X128.471 Y85.713 E0.02141
G1 X128.864 Y85.154 E0.02141
G1 X129.290 Y84.621 E0.02141
G1 X129.747 Y84.113 E0.02141
G1 X130.234 Y83.634 E0.02141
G1 X130.748 Y83.185 E0.02141
G1 X131.288 Y82.767 E0.02141
G1 X131.852 Y82.382 E0.02141
G1 X132.408 Y82.050 E0.02031
G1 X133.045 Y81.717 E0.02253
G1 X133.668 Y81.440 E0.02138
G1 X134.307 Y81.200 E0.02141
G1 X134.960 Y80.999 E0.02141
G1 X135.589 Y80.845 E0.02031
G1 X136.296 Y80.715 E0.02253
M73 Q1 S14
G1 X136.973 Y80.633 E0.02138
G1 X137.655 Y80.592 E0.02141
G1 X138.338 Y80.592 E0.02141
G1 X138.984 Y80.631 E0.02031
G1 X139.698 Y80.715 E0.02253
G1 X140.369 Y80.837 E0.02138
G1 X141.032 Y80.999 E0.02141
G1 X141.685 Y81.200 E0.02141
G1 X142.324 Y81.440 E0.02141
M73 P1 R14
G1 X142.948 Y81.718 E0.02141
G1 X143.554 Y82.032 E0.02141
G1 X144.140 Y82.382 E0.02141
G1 X144.704 Y82.767 E0.02141
G1 X145.217 Y83.163 E0.02031
G1 X145.759 Y83.635 E0.02253
G1 X146.245 Y84.113 E0.02138
G1 X146.702 Y84.621 E0.02141
G1 X147.128 Y85.154 E0.02141
G1 X147.521 Y85.713 E0.02141
G1 X147.880 Y86.294 E0.02141
G1 X148.203 Y86.895 E0.02141
G1 X148.490 Y87.515 E0.02141
G1 X148.740 Y88.150 E0.02141
G1 X148.951 Y88.800 E0.02141
G1 X149.123 Y89.460 E0.02141
G1 X149.255 Y90.130 E0.02141
G1 X149.346 Y90.807 E0.02141
G1 X149.397 Y91.488 E0.02141
G1 X149.408 Y92.171 E0.02141
G1 X149.377 Y92.853 E0.02141
G1 X149.305 Y93.532 E0.02141
G1 X149.199 Y94.171 E0.02031
G1 X149.041 Y94.872 E0.02253
G1 X148.850 Y95.527 E0.02138
G1 X148.620 Y96.170 E0.02141
M73 P1 R13
G1 X148.351 Y96.797 E0.02141
G1 X148.046 Y97.408 E0.02141
G1 X147.705 Y97.999 E0.02141
G1 X147.328 Y98.569 E0.02141
G1 X146.919 Y99.116 E0.02141
G1 X146.477 Y99.637 E0.02141
G1 X146.006 Y100.130 E0.02141
G1 X145.505 Y100.595 E0.02141
G1 X144.978 Y101.028 E0.02141
G1 X144.425 Y101.430 E0.02141
G1 X143.850 Y101.797 E0.02141
G1 X143.284 Y102.113 E0.02031
G1 X142.637 Y102.426 E0.02253
G1 X142.006 Y102.685 E0.02138
G1 X141.360 Y102.906 E0.02141
G1 X140.702 Y103.087 E0.02141
G1 X140.034 Y103.229 E0.02141
G1 X139.359 Y103.331 E0.02141
G1 X138.679 Y103.392 E0.02141
G1 X137.996 Y103.413 E0.02141
G1 X137.314 Y103.392 E0.02141
G1 X136.634 Y103.331 E0.02141
G1 X135.958 Y103.229 E0.02141
G1 X135.290 Y103.087 E0.02141
G1 X134.632 Y102.906 E0.02141
G1 X133.986 Y102.685 E0.02141
G1 X133.354 Y102.426 E0.02141
G1 X132.739 Y102.130 E0.02141
G1 X132.143 Y101.797 E0.02141
G1 X131.567 Y101.430 E0.02141
G1 X131.043 Y101.049 E0.02031
G1 X130.487 Y100.594 E0.02253
G1 X129.987 Y100.130 E0.02138
G1 X129.515 Y99.637 E0.02141
G1 X129.073 Y99.116 E0.02141
G1 X128.664 Y98.569 E0.02141
G1 X128.288 Y97.999 E0.02141
G1 X127.946 Y97.408 E0.02141
G1 X127.641 Y96.797 E0.02141
G1 X127.372 Y96.170 E0.02141
G1 X127.142 Y95.527 E0.02141
G1 X126.951 Y94.871 E0.02141
G1 X126.799 Y94.206 E0.02141
G1 X126.687 Y93.532 E0.02141
G1 X126.615 Y92.853 E0.02141
G1 X126.585 Y92.171 E0.02141
G1 X126.595 Y91.498 E0.02109
G1 X126.218 Y91.493 F10800.000
;TYPE:External perimeter
G1 F1200.000
G1 X126.271 Y90.768 E0.02279
G1 X126.365 Y90.069 E0.02212
G1 X126.502 Y89.376 E0.02212
G1 X126.670 Y88.728 E0.02100
G1 X126.897 Y88.023 E0.02324
G1 X127.155 Y87.366 E0.02211
G1 X127.451 Y86.726 E0.02212
G1 X127.786 Y86.105 E0.02212
G1 X128.157 Y85.505 E0.02212
G1 X128.563 Y84.928 E0.02212
G1 X129.002 Y84.377 E0.02212
G1 X129.474 Y83.852 E0.02212
G1 X129.977 Y83.357 E0.02212
G1 X130.508 Y82.893 E0.02212
G1 X131.066 Y82.462 E0.02212
G1 X131.649 Y82.064 E0.02212
G1 X132.224 Y81.721 E0.02100
G1 X132.881 Y81.378 E0.02324
G1 X133.525 Y81.091 E0.02211
G1 X134.186 Y80.843 E0.02212
G1 X134.860 Y80.635 E0.02212
G1 X135.510 Y80.476 E0.02100
G1 X136.239 Y80.342 E0.02324
G1 X136.939 Y80.258 E0.02211
G1 X137.643 Y80.215 E0.02212
G1 X138.349 Y80.215 E0.02212
G1 X139.017 Y80.255 E0.02100
M73 Q1 S13
G1 X139.754 Y80.342 E0.02324
G1 X140.447 Y80.468 E0.02211
G1 X141.133 Y80.635 E0.02212
G1 X141.807 Y80.843 E0.02212
G1 X142.467 Y81.091 E0.02212
G1 X143.112 Y81.378 E0.02212
G1 X143.738 Y81.703 E0.02212
G1 X144.343 Y82.064 E0.02212
G1 X144.926 Y82.462 E0.02212
G1 X145.456 Y82.872 E0.02100
G1 X146.016 Y83.358 E0.02324
G1 X146.518 Y83.852 E0.02211
G1 X146.990 Y84.377 E0.02212
G1 X147.430 Y84.928 E0.02212
G1 X147.836 Y85.505 E0.02212
G1 X148.206 Y86.105 E0.02212
G1 X148.541 Y86.726 E0.02212
G1 X148.837 Y87.366 E0.02212
G1 X149.095 Y88.023 E0.02212
G1 X149.313 Y88.694 E0.02212
G1 X149.490 Y89.377 E0.02212
G1 X149.627 Y90.069 E0.02212
G1 X149.721 Y90.768 E0.02212
G1 X149.774 Y91.471 E0.02212
G1 X149.785 Y92.176 E0.02212
G1 X149.753 Y92.881 E0.02212
G1 X149.679 Y93.583 E0.02212
G1 X149.570 Y94.243 E0.02100
G1 X149.407 Y94.966 E0.02324
G1 X149.209 Y95.643 E0.02211
G1 X148.971 Y96.307 E0.02212
G1 X148.694 Y96.956 E0.02212
G1 X148.378 Y97.587 E0.02212
G1 X148.026 Y98.198 E0.02212
G1 X147.637 Y98.786 E0.02212
G1 X147.214 Y99.351 E0.02212
G1 X146.758 Y99.889 E0.02212
G1 X146.270 Y100.399 E0.02212
G1 X145.753 Y100.879 E0.02212
G1 X145.208 Y101.327 E0.02212
G1 X144.638 Y101.741 E0.02212
G1 X144.043 Y102.121 E0.02212
G1 X143.458 Y102.447 E0.02100
G1 X142.791 Y102.771 E0.02324
G1 X142.139 Y103.038 E0.02211
G1 X141.471 Y103.266 E0.02212
G1 X140.791 Y103.454 E0.02212
G1 X140.101 Y103.600 E0.02212
G1 X139.404 Y103.706 E0.02212
G1 X138.701 Y103.769 E0.02212
G1 X137.996 Y103.790 E0.02212
G1 X137.291 Y103.769 E0.02212
G1 X136.588 Y103.706 E0.02212
G1 X135.891 Y103.600 E0.02212
G1 X135.201 Y103.454 E0.02212
G1 X134.521 Y103.266 E0.02212
G1 X133.853 Y103.038 E0.02212
G1 X133.201 Y102.771 E0.02212
G1 X132.565 Y102.465 E0.02212
G1 X131.949 Y102.121 E0.02212
G1 X131.355 Y101.741 E0.02212
G1 X130.813 Y101.348 E0.02100
G1 X130.239 Y100.878 E0.02324
G1 X129.722 Y100.399 E0.02211
G1 X129.235 Y99.889 E0.02212
G1 X128.778 Y99.351 E0.02212
G1 X128.355 Y98.786 E0.02212
G1 X127.967 Y98.198 E0.02212
G1 X127.614 Y97.587 E0.02212
G1 X127.298 Y96.956 E0.02212
G1 X127.021 Y96.307 E0.02212
G1 X126.783 Y95.643 E0.02212
G1 X126.585 Y94.966 E0.02212
G1 X126.428 Y94.278 E0.02212
G1 X126.313 Y93.583 E0.02212
G1 X126.239 Y92.881 E0.02212
G1 X126.208 Y92.176 E0.02212
G1 X126.217 Y91.553 E0.01956
G1 X126.573 Y91.308 F10800.000
G1 E-0.80000 F2100.000
G1 Z0.800 F10800.000
G1 X147.235 Y85.503
G1 Z0.200
G1 E0.80000 F2100.000
;TYPE:Solid infill
;WIDTH:0.420145
G1 F1200.000
G1 X145.567 Y83.842 E0.07382
G1 X145.037 Y83.382 E0.02201
G1 X144.538 Y82.996 E0.01980
G1 X143.988 Y82.621 E0.02089
G1 X143.569 Y82.370 E0.01531
G1 X147.636 Y86.438 E0.18043
G1 X147.950 Y87.022 E0.02079
G1 X148.178 Y87.513 E0.01700
G1 X142.487 Y81.822 E0.25246
G1 X141.602 Y81.471 E0.02984
G1 X148.520 Y88.389 E0.30685
M73 P2 R13
M73 Q2 S13
G1 X148.750 Y89.152 E0.02503
G1 X140.841 Y81.243 E0.35085
G1 X140.149 Y81.084 E0.02228
G1 X148.910 Y89.846 E0.38866
G1 X149.017 Y90.486 E0.02037
G1 X139.508 Y80.977 E0.42181
G1 X138.907 Y80.910 E0.01897
G1 X149.084 Y91.086 E0.45140
G1 X149.117 Y91.653 E0.01781
G1 X138.340 Y80.876 E0.47805
G1 X137.806 Y80.875 E0.01675
G1 X149.123 Y92.193 E0.50204
G1 X149.100 Y92.703 E0.01603
G1 X137.294 Y80.897 E0.52370
G1 X136.802 Y80.939 E0.01549
G1 X149.057 Y93.193 E0.54359
G1 X148.997 Y93.666 E0.01496
G1 X136.327 Y80.997 E0.56201
G1 X135.876 Y81.080 E0.01437
G1 X148.920 Y94.124 E0.57861
M73 P3 R13
M73 Q3 S13
G1 X148.822 Y94.559 E0.01400
G1 X135.437 Y81.173 E0.59377
G1 X135.009 Y81.279 E0.01381
G1 X148.714 Y94.984 E0.60793
G1 X148.593 Y95.397 E0.01349
G1 X134.601 Y81.405 E0.62067
G1 X134.204 Y81.541 E0.01318
G1 X148.455 Y95.792 E0.63216
G1 X148.308 Y96.179 E0.01298
G1 X133.816 Y81.686 E0.64287
G1 X133.445 Y81.849 E0.01271
G1 X148.149 Y96.553 E0.65224
G1 X147.977 Y96.914 E0.01256
G1 X133.080 Y82.018 E0.66079
G1 X132.730 Y82.201 E0.01240
G1 X147.799 Y97.270 E0.66844
M73 P4 R13
M73 Q4 S13
G1 X147.604 Y97.608 E0.01225
G1 X132.387 Y82.392 E0.67499
G1 X132.053 Y82.591 E0.01220
G1 X147.404 Y97.942 E0.68093
G1 X147.192 Y98.263 E0.01208
G1 X131.734 Y82.805 E0.68570
G1 X131.418 Y83.024 E0.01203
G1 X146.970 Y98.575 E0.68987
G1 X146.742 Y98.880 E0.01195
G1 X131.118 Y83.256 E0.69307
G1 X130.823 Y83.495 E0.01190
G1 X146.500 Y99.172 E0.69544
G1 X146.255 Y99.460 E0.01187
G1 X130.538 Y83.743 E0.69718
M73 Q5 S13
G1 X130.263 Y84.002 E0.01184
G1 X145.994 Y99.733 E0.69781
M73 P5 R13
G1 X145.729 Y100.001 E0.01183
G1 X129.994 Y84.267 E0.69796
G1 X129.739 Y84.545 E0.01184
G1 X145.452 Y100.258 E0.69701
G1 X145.167 Y100.506 E0.01186
G1 X129.487 Y84.827 E0.69552
G1 X129.251 Y85.124 E0.01191
G1 X144.874 Y100.747 E0.69304
G1 X144.569 Y100.975 E0.01195
G1 X129.019 Y85.426 E0.68977
G1 X128.799 Y85.739 E0.01201
G1 X144.260 Y101.200 E0.68582
G1 X143.934 Y101.408 E0.01212
G1 X128.588 Y86.062 E0.68073
M73 P6 R13
M73 Q6 S13
G1 X128.385 Y86.391 E0.01216
G1 X143.604 Y101.611 E0.67510
G1 X143.261 Y101.801 E0.01230
G1 X128.196 Y86.736 E0.66829
G1 X128.012 Y87.086 E0.01239
G1 X142.907 Y101.981 E0.66073
G1 X142.548 Y102.155 E0.01252
G1 X127.843 Y87.450 E0.65229
G1 X127.684 Y87.825 E0.01276
G1 X142.171 Y102.312 E0.64263
G1 X141.787 Y102.461 E0.01293
G1 X127.534 Y88.208 E0.63226
G1 X127.402 Y88.609 E0.01326
G1 X141.389 Y102.597 E0.62047
M73 Q7 S13
G1 X140.977 Y102.718 E0.01348
M73 P7 R13
G1 X127.277 Y89.018 E0.60772
G1 X127.167 Y89.441 E0.01372
G1 X140.555 Y102.829 E0.59388
G1 X140.115 Y102.923 E0.01411
G1 X127.075 Y89.883 E0.57845
G1 X126.995 Y90.337 E0.01445
G1 X139.658 Y103.000 E0.56173
G1 X139.187 Y103.062 E0.01490
G1 X126.931 Y90.806 E0.54366
G1 X126.893 Y91.301 E0.01556
G1 X138.698 Y103.107 E0.52368
G1 X138.182 Y103.124 E0.01619
G1 X126.873 Y91.815 E0.50167
G1 X126.876 Y92.351 E0.01683
G1 X137.644 Y103.119 E0.47765
G1 X137.078 Y103.087 E0.01777
G1 X126.906 Y92.915 E0.45121
G1 X126.970 Y93.513 E0.01885
G1 X136.479 Y103.022 E0.42182
M73 P8 R13
M73 Q8 S13
G1 X135.839 Y102.915 E0.02037
G1 X127.077 Y94.152 E0.38868
G1 X127.238 Y94.848 E0.02239
G1 X135.144 Y102.754 E0.35070
G1 X134.377 Y102.520 E0.02517
G1 X127.475 Y95.618 E0.30614
G1 X127.636 Y96.066 E0.01493
G1 X127.819 Y96.496 E0.01465
G1 X133.506 Y102.183 E0.25227
G1 X132.869 Y101.879 E0.02215
G1 X132.416 Y101.626 E0.01627
G1 X127.947 Y97.157 E0.19825
G1 E-0.80000 F2100.000
G1 Z0.800 F10800.000
G1 X109.076 Y103.033
M73 P8 R12
G1 Z0.200
G1 E0.80000 F2100.000
;TYPE:Perimeter
;WIDTH:0.42
G1 F1200.000
G1 X108.315 Y102.805 E0.02489
G1 X107.676 Y102.566 E0.02141
G1 X107.052 Y102.288 E0.02141
G1 X106.477 Y101.989 E0.02031
G1 X105.859 Y101.623 E0.02253
G1 X105.296 Y101.238 E0.02138
G1 X104.756 Y100.821 E0.02141
G1 X104.241 Y100.371 E0.02141
G1 X103.755 Y99.892 E0.02141
G1 X103.298 Y99.385 E0.02141
G1 X102.872 Y98.851 E0.02141
G1 X102.479 Y98.293 E0.02141
G1 X102.120 Y97.712 E0.02141
G1 X101.813 Y97.141 E0.02031
G1 X101.509 Y96.490 E0.02253
G1 X101.260 Y95.855 E0.02138
G1 X101.049 Y95.206 E0.02141
G1 X100.877 Y94.545 E0.02141
G1 X100.745 Y93.875 E0.02141
G1 X100.654 Y93.198 E0.02141
G1 X100.603 Y92.517 E0.02141
G1 X100.593 Y91.835 E0.02141
G1 X100.623 Y91.152 E0.02141
G1 X100.695 Y90.473 E0.02141
G1 X100.806 Y89.800 E0.02141
G1 X100.958 Y89.134 E0.02141
G1 X101.150 Y88.479 E0.02141
G1 X101.380 Y87.836 E0.02141
G1 X101.635 Y87.240 E0.02031
G1 X101.954 Y86.597 E0.02253
G1 X102.295 Y86.006 E0.02138
G1 X102.672 Y85.436 E0.02141
G1 X103.081 Y84.890 E0.02141
G1 X103.523 Y84.369 E0.02141
G1 X103.995 Y83.875 E0.02141
G1 X104.495 Y83.411 E0.02141
G1 X105.022 Y82.977 E0.02141
G1 X105.575 Y82.576 E0.02141
G1 X106.150 Y82.208 E0.02141
G1 X106.747 Y81.876 E0.02141
G1 X107.362 Y81.579 E0.02141
G1 X107.994 Y81.320 E0.02141
G1 X108.640 Y81.100 E0.02141
G1 X109.298 Y80.918 E0.02141
G1 X109.966 Y80.776 E0.02141
G1 X110.641 Y80.674 E0.02141
G1 X111.321 Y80.613 E0.02141
G1 X112.004 Y80.593 E0.02141
G1 X112.651 Y80.612 E0.02031
G1 X113.367 Y80.674 E0.02253
G1 X114.042 Y80.776 E0.02138
G1 X114.710 Y80.918 E0.02141
G1 X115.368 Y81.100 E0.02141
G1 X116.014 Y81.320 E0.02141
G1 X116.646 Y81.579 E0.02141
G1 X117.261 Y81.876 E0.02141
G1 X117.857 Y82.208 E0.02141
G1 X118.433 Y82.576 E0.02141
G1 X118.985 Y82.977 E0.02141
G1 X119.513 Y83.411 E0.02141
G1 X120.013 Y83.875 E0.02141
G1 X120.485 Y84.369 E0.02141
G1 X120.927 Y84.890 E0.02141
G1 X121.336 Y85.436 E0.02141
G1 X121.712 Y86.006 E0.02141
G1 X122.054 Y86.597 E0.02141
G1 X122.359 Y87.208 E0.02141
G1 X122.628 Y87.836 E0.02141
G1 X122.858 Y88.479 E0.02141
G1 X123.049 Y89.134 E0.02141
G1 X123.201 Y89.800 E0.02141
G1 X123.313 Y90.473 E0.02141
M73 Q8 S12
G1 X123.385 Y91.153 E0.02141
G1 X123.415 Y91.835 E0.02141
G1 X123.405 Y92.517 E0.02141
G1 X123.354 Y93.198 E0.02141
G1 X123.262 Y93.875 E0.02141
G1 X123.130 Y94.545 E0.02141
G1 X122.967 Y95.172 E0.02031
G1 X122.747 Y95.856 E0.02253
G1 X122.498 Y96.491 E0.02138
G1 X122.211 Y97.110 E0.02141
G1 X121.888 Y97.712 E0.02141
G1 X121.529 Y98.293 E0.02141
G1 X121.136 Y98.851 E0.02141
G1 X120.710 Y99.385 E0.02141
G1 X120.253 Y99.892 E0.02141
G1 X119.766 Y100.371 E0.02141
G1 X119.252 Y100.821 E0.02141
G1 X118.712 Y101.238 E0.02141
G1 X118.148 Y101.623 E0.02141
G1 X117.592 Y101.955 E0.02031
G1 X116.955 Y102.288 E0.02253
G1 X116.332 Y102.566 E0.02138
G1 X115.693 Y102.805 E0.02141
G1 X115.040 Y103.007 E0.02141
G1 X114.377 Y103.169 E0.02141
G1 X113.705 Y103.291 E0.02141
G1 X113.027 Y103.372 E0.02141
G1 X112.345 Y103.413 E0.02141
G1 X111.662 Y103.413 E0.02141
G1 X110.981 Y103.372 E0.02141
G1 X110.303 Y103.291 E0.02141
G1 X109.631 Y103.169 E0.02141
G1 X109.134 Y103.047 E0.01605
G1 X109.044 Y103.414 F10800.000
;TYPE:External perimeter
G1 F1200.000
G1 X108.193 Y103.162 E0.02783
G1 X107.533 Y102.915 E0.02212
G1 X106.888 Y102.628 E0.02212
G1 X106.294 Y102.319 E0.02100
G1 X105.657 Y101.941 E0.02324
G1 X105.074 Y101.544 E0.02211
G1 X104.516 Y101.112 E0.02212
G1 X103.985 Y100.648 E0.02212
G1 X103.482 Y100.153 E0.02212
G1 X103.010 Y99.629 E0.02212
G1 X102.570 Y99.077 E0.02212
G1 X102.164 Y98.500 E0.02212
G1 X101.794 Y97.900 E0.02212
G1 X101.476 Y97.310 E0.02100
G1 X101.163 Y96.639 E0.02324
G1 X100.905 Y95.982 E0.02211
G1 X100.687 Y95.312 E0.02212
G1 X100.510 Y94.629 E0.02212
G1 X100.373 Y93.937 E0.02212
G1 X100.279 Y93.238 E0.02212
G1 X100.226 Y92.534 E0.02212
G1 X100.215 Y91.829 E0.02212
G1 X100.247 Y91.124 E0.02212
M73 Q9 S12
G1 X100.321 Y90.423 E0.02212
G1 X100.436 Y89.727 E0.02212
G1 X100.593 Y89.039 E0.02212
M73 P9 R12
G1 X100.791 Y88.362 E0.02212
G1 X101.029 Y87.698 E0.02212
