; generated by PrusaSlicer 2.2.0+win64 on 2020-08-03 at 17:13:18 UTC

; 

; external perimeters extrusion width = 0.45mm
; perimeters extrusion width = 0.45mm
; infill extrusion width = 0.45mm
; solid infill extrusion width = 0.45mm
; top infill extrusion width = 0.40mm
; support material extrusion width = 0.35mm
; first layer extrusion width = 0.42mm

M73 P0 R10
M73 Q0 S10
M201 X1000 Y1000 Z1000 E5000 ; sets maximum accelerations, mm/sec^2
M203 X200 Y200 Z12 E120 ; sets maximum feedrates, mm/sec
M204 P1250 R1250 T1250 ; sets acceleration (P, T) and retract acceleration (R), mm/sec^2
M205 X8.00 Y8.00 Z0.40 E1.50 ; sets the jerk limits, mm/sec
M205 S0 T0 ; sets the minimum extruding and travel feed rate, mm/sec
M107
M862.3 P "MK3S" ; printer model check
M862.1 P0.4 ; nozzle diameter check
M115 U3.8.0 ; tell printer latest fw version
G90 ; use absolute coordinates
M83 ; extruder relative mode
M104 S215 ; set extruder temp
M140 S60 ; set bed temp
M190 S60 ; wait for bed temp
M109 S215 ; wait for extruder temp
G28 W ; home all without mesh bed level
G80 ; mesh bed leveling
G1 Y-3.0 F1000.0 ; go outside print area
G92 E0.0
G1 X60.0 E9.0 F1000.0 ; intro line
M73 Q0 S10
M73 P0 R10
G1 X100.0 E12.5 F1000.0 ; intro line
G92 E0.0
M221 S95
G21 ; set units to millimeters
G90 ; use absolute coordinates
M83 ; use relative distances for extrusion
M900 K0.06 ; Filament gcode LA 1.5
M900 K30 ; Filament gcode LA 1.0
;BEFORE_LAYER_CHANGE
G92 E0.0
;0.2


G1 E-0.80000 F2100.00000
G1 Z0.600 F10800.000
;AFTER_LAYER_CHANGE
;0.2
G1 X130.996 Y125.023
G1 Z0.200
G1 E0.80000 F2100.00000
M204 S1000
G1 F1200.000
G1 X131.192 Y125.043 E0.00864
G1 X131.441 Y125.112 E0.01129
G1 X131.636 Y125.216 E0.00967
G1 X131.811 Y125.360 E0.00988
G1 X131.954 Y125.535 E0.00988
G1 X132.061 Y125.734 E0.00988
G1 X132.127 Y125.950 E0.00988
G1 X132.149 Y126.175 E0.00988
G1 X132.127 Y126.400 E0.00988
G1 X132.061 Y126.616 E0.00988
G1 X131.954 Y126.816 E0.00988
G1 X131.811 Y126.990 E0.00988
G1 X131.636 Y127.134 E0.00988
G1 X131.437 Y127.240 E0.00988
G1 X131.221 Y127.306 E0.00988
G1 X130.996 Y127.328 E0.00988
G1 X130.771 Y127.306 E0.00988
G1 X130.555 Y127.240 E0.00988
G1 X130.355 Y127.134 E0.00988
G1 X130.181 Y126.990 E0.00988
G1 X130.037 Y126.816 E0.00988
G1 X129.931 Y126.616 E0.00988
G1 X129.865 Y126.400 E0.00988
G1 X129.843 Y126.175 E0.00988
G1 X129.865 Y125.950 E0.00988
G1 X129.931 Y125.734 E0.00988
G1 X130.037 Y125.535 E0.00988
G1 X130.181 Y125.360 E0.00988
G1 X130.355 Y125.216 E0.00988
G1 X130.555 Y125.110 E0.00988
G1 X130.771 Y125.044 E0.00988
G1 X130.936 Y125.027 E0.00725
G1 X131.095 Y124.852 F10800.000
G1 E-0.80000 F2100.00000
G1 Z0.800 F10800.000
G1 X130.996 Y117.208
G1 Z0.200
G1 E0.80000 F2100.00000
G1 F1200.000
G1 X130.771 Y117.186 E0.00988
G1 X130.555 Y117.121 E0.00988
G1 X130.355 Y117.014 E0.00988
G1 X130.181 Y116.871 E0.00988
G1 X130.037 Y116.696 E0.00988
G1 X129.931 Y116.497 E0.00988
G1 X129.865 Y116.280 E0.00988
G1 X129.843 Y116.056 E0.00988
G1 X129.865 Y115.831 E0.00988
G1 X129.931 Y115.614 E0.00988
G1 X130.037 Y115.415 E0.00988
G1 X130.181 Y115.240 E0.00988
G1 X130.355 Y115.097 E0.00988
G1 X130.555 Y114.990 E0.00988
G1 X130.771 Y114.925 E0.00988
G1 X130.996 Y114.903 E0.00988
G1 X131.192 Y114.924 E0.00864
G1 X131.441 Y114.993 E0.01129
G1 X131.636 Y115.097 E0.00967
G1 X131.811 Y115.240 E0.00988
G1 X131.954 Y115.415 E0.00988
G1 X132.061 Y115.614 E0.00988
G1 X132.127 Y115.831 E0.00988
G1 X132.149 Y116.056 E0.00988
G1 X132.127 Y116.280 E0.00988
G1 X132.061 Y116.497 E0.00988
G1 X131.954 Y116.696 E0.00988
G1 X131.811 Y116.871 E0.00988
G1 X131.636 Y117.014 E0.00988
G1 X131.437 Y117.121 E0.00988
G1 X131.221 Y117.186 E0.00988
G1 X131.056 Y117.203 E0.00726
G1 X130.883 Y117.404 F10800.000
G1 E-0.80000 F2100.00000
G1 Z0.800 F10800.000
G1 X141.115 Y117.208
G1 Z0.200
G1 E0.80000 F2100.00000
G1 F1200.000
G1 X140.890 Y117.186 E0.00988
G1 X140.674 Y117.121 E0.00988
G1 X140.475 Y117.014 E0.00988
G1 X140.300 Y116.871 E0.00988
G1 X140.157 Y116.696 E0.00988
G1 X140.050 Y116.497 E0.00988
G1 X139.985 Y116.280 E0.00988
G1 X139.962 Y116.056 E0.00988
G1 X139.985 Y115.831 E0.00988
G1 X140.050 Y115.614 E0.00988
G1 X140.157 Y115.415 E0.00988
G1 X140.300 Y115.240 E0.00988
G1 X140.475 Y115.097 E0.00988
G1 X140.674 Y114.990 E0.00988
G1 X140.890 Y114.925 E0.00988
G1 X141.115 Y114.903 E0.00988
G1 X141.312 Y114.924 E0.00864
G1 X141.561 Y114.993 E0.01129
G1 X141.756 Y115.097 E0.00967
G1 X141.931 Y115.240 E0.00988
G1 X142.074 Y115.415 E0.00988
G1 X142.180 Y115.614 E0.00988
G1 X142.246 Y115.831 E0.00988
G1 X142.268 Y116.056 E0.00988
G1 X142.246 Y116.280 E0.00988
G1 X142.180 Y116.497 E0.00988
G1 X142.074 Y116.696 E0.00988
G1 X141.931 Y116.871 E0.00988
G1 X141.756 Y117.014 E0.00988
G1 X141.556 Y117.121 E0.00988
G1 X141.340 Y117.186 E0.00988
G1 X141.175 Y117.203 E0.00726
G1 X141.002 Y117.404 F10800.000
G1 E-0.80000 F2100.00000
G1 Z0.800 F10800.000
G1 X141.115 Y107.089
G1 Z0.200
G1 E0.80000 F2100.00000
G1 F1200.000
G1 X140.890 Y107.067 E0.00988
G1 X140.674 Y107.001 E0.00988
G1 X140.475 Y106.895 E0.00988
G1 X140.300 Y106.751 E0.00988
G1 X140.157 Y106.577 E0.00988
G1 X140.050 Y106.377 E0.00988
G1 X139.985 Y106.161 E0.00988
G1 X139.962 Y105.936 E0.00988
G1 X139.985 Y105.711 E0.00988
G1 X140.050 Y105.495 E0.00988
G1 X140.157 Y105.296 E0.00988
G1 X140.300 Y105.121 E0.00988
G1 X140.475 Y104.977 E0.00988
G1 X140.674 Y104.871 E0.00988
G1 X140.890 Y104.805 E0.00988
G1 X141.115 Y104.784 E0.00988
G1 X141.312 Y104.804 E0.00864
G1 X141.561 Y104.873 E0.01129
G1 X141.756 Y104.977 E0.00967
G1 X141.931 Y105.121 E0.00988
G1 X142.074 Y105.296 E0.00988
G1 X142.180 Y105.495 E0.00988
G1 X142.246 Y105.711 E0.00988
G1 X142.268 Y105.936 E0.00988
G1 X142.246 Y106.161 E0.00988
G1 X142.180 Y106.377 E0.00988
G1 X142.074 Y106.577 E0.00988
G1 X141.931 Y106.751 E0.00988
G1 X141.756 Y106.895 E0.00988
G1 X141.556 Y107.001 E0.00988
G1 X141.340 Y107.067 E0.00988
G1 X141.175 Y107.084 E0.00726
G1 X141.002 Y107.285 F10800.000
G1 E-0.80000 F2100.00000
G1 Z0.800 F10800.000
G1 X130.996 Y107.089
G1 Z0.200
G1 E0.80000 F2100.00000
G1 F1200.000
G1 X130.771 Y107.067 E0.00988
G1 X130.555 Y107.001 E0.00988
G1 X130.355 Y106.895 E0.00988
G1 X130.181 Y106.751 E0.00988
G1 X130.037 Y106.577 E0.00988
G1 X129.931 Y106.377 E0.00988
G1 X129.865 Y106.161 E0.00988
G1 X129.843 Y105.936 E0.00988
G1 X129.865 Y105.711 E0.00988
G1 X129.931 Y105.495 E0.00988
G1 X130.037 Y105.296 E0.00988
G1 X130.181 Y105.121 E0.00988
G1 X130.355 Y104.977 E0.00988
G1 X130.555 Y104.871 E0.00988
G1 X130.771 Y104.805 E0.00988
G1 X130.996 Y104.784 E0.00988
G1 X131.192 Y104.804 E0.00864
G1 X131.441 Y104.873 E0.01129
G1 X131.636 Y104.977 E0.00967
G1 X131.811 Y105.121 E0.00988
G1 X131.954 Y105.296 E0.00988
G1 X132.061 Y105.495 E0.00988
G1 X132.127 Y105.711 E0.00988
G1 X132.149 Y105.936 E0.00988
G1 X132.127 Y106.161 E0.00988
G1 X132.061 Y106.377 E0.00988
G1 X131.954 Y106.577 E0.00988
G1 X131.811 Y106.751 E0.00988
G1 X131.636 Y106.895 E0.00988
G1 X131.437 Y107.001 E0.00988
G1 X131.221 Y107.067 E0.00988
G1 X131.056 Y107.084 E0.00726
G1 X130.883 Y107.285 F10800.000
G1 E-0.80000 F2100.00000
G1 Z0.800 F10800.000
G1 X131.619 Y97.074
G1 Z0.200
G1 E0.80000 F2100.00000
G1 F1200.000
G1 X131.300 Y97.043 E0.01004
G1 X130.994 Y96.950 E0.01004
G1 X130.712 Y96.799 E0.01004
G1 X130.464 Y96.596 E0.01004
G1 X130.261 Y96.349 E0.01004
G1 X130.110 Y96.066 E0.01004
G1 X130.017 Y95.760 E0.01004
G1 X129.986 Y95.441 E0.01004
G1 X130.017 Y95.123 E0.01004
G1 X130.110 Y94.817 E0.01004
G1 X130.261 Y94.534 E0.01004
G1 X130.464 Y94.287 E0.01004
G1 X130.712 Y94.084 E0.01004
G1 X130.994 Y93.933 E0.01004
G1 X131.300 Y93.840 E0.01003
G1 X131.614 Y93.809 E0.00991
G1 X131.937 Y93.840 E0.01015
G1 X132.244 Y93.933 E0.01006
G1 X132.526 Y94.084 E0.01004
G1 X132.773 Y94.287 E0.01004
G1 X132.976 Y94.534 E0.01004
G1 X133.127 Y94.817 E0.01004
G1 X133.220 Y95.123 E0.01004
G1 X133.251 Y95.441 E0.01004
G1 X133.220 Y95.760 E0.01004
G1 X133.127 Y96.066 E0.01004
G1 X132.976 Y96.349 E0.01004
G1 X132.773 Y96.596 E0.01004
G1 X132.526 Y96.799 E0.01004
G1 X132.244 Y96.950 E0.01004
G1 X131.937 Y97.043 E0.01004
G1 X131.678 Y97.068 E0.00815
G1 X131.619 Y96.695 F10800.000
G1 F1200.000
G1 X131.374 Y96.671 E0.00771
G1 X131.139 Y96.600 E0.00771
G1 X130.922 Y96.484 E0.00771
G1 X130.732 Y96.328 E0.00771
G1 X130.576 Y96.138 E0.00771
G1 X130.460 Y95.921 E0.00771
G1 X130.389 Y95.686 E0.00771
G1 X130.365 Y95.441 E0.00771
G1 X130.389 Y95.197 E0.00771
G1 X130.460 Y94.962 E0.00771
G1 X130.576 Y94.745 E0.00771
G1 X130.732 Y94.555 E0.00771
G1 X130.922 Y94.399 E0.00771
G1 X131.139 Y94.283 E0.00771
G1 X131.374 Y94.212 E0.00770
G1 X131.615 Y94.188 E0.00759
G1 X131.863 Y94.212 E0.00782
G1 X132.099 Y94.283 E0.00771
G1 X132.315 Y94.399 E0.00771
G1 X132.505 Y94.555 E0.00771
G1 X132.661 Y94.745 E0.00771
G1 X132.777 Y94.962 E0.00771
G1 X132.848 Y95.197 E0.00771
G1 X132.873 Y95.441 E0.00771
G1 X132.848 Y95.686 E0.00771
G1 X132.777 Y95.921 E0.00771
G1 X132.661 Y96.138 E0.00771
G1 X132.505 Y96.328 E0.00771
G1 X132.315 Y96.484 E0.00771
G1 X132.099 Y96.600 E0.00771
G1 X131.863 Y96.671 E0.00771
G1 X131.678 Y96.689 E0.00583
G1 X131.496 Y96.908 F10800.000
G1 X131.619 Y97.351
G1 F1200.000
G1 X131.246 Y97.315 E0.01174
G1 X130.888 Y97.206 E0.01174
G1 X130.558 Y97.030 E0.01174
G1 X130.268 Y96.792 E0.01174
G1 X130.031 Y96.503 E0.01174
G1 X129.854 Y96.172 E0.01174
G1 X129.745 Y95.814 E0.01174
G1 X129.709 Y95.441 E0.01174
G1 X129.745 Y95.069 E0.01174
G1 X129.854 Y94.710 E0.01174
G1 X130.031 Y94.380 E0.01174
G1 X130.268 Y94.091 E0.01174
G1 X130.558 Y93.853 E0.01174
G1 X130.888 Y93.677 E0.01174
G1 X131.260 Y93.564 E0.01220
G1 X131.425 Y93.539 E0.00523
G1 X131.665 Y93.533 E0.00754
G1 X131.989 Y93.567 E0.01020
G1 X132.350 Y93.677 E0.01182
G1 X132.680 Y93.853 E0.01174
G1 X132.969 Y94.091 E0.01174
G1 X133.207 Y94.380 E0.01174
G1 X133.383 Y94.710 E0.01174
G1 X133.492 Y95.069 E0.01174
G1 X133.529 Y95.441 E0.01174
G1 X133.492 Y95.814 E0.01174
G1 X133.383 Y96.172 E0.01174
G1 X133.207 Y96.503 E0.01174
G1 X132.969 Y96.792 E0.01174
G1 X132.680 Y97.030 E0.01174
G1 X132.350 Y97.206 E0.01174
G1 X131.991 Y97.315 E0.01174
G1 X131.678 Y97.346 E0.00986
G1 X131.619 Y97.730 F10800.000
G1 F1200.000
G1 X131.172 Y97.686 E0.01407
G1 X130.743 Y97.556 E0.01407
G1 X130.347 Y97.345 E0.01407
G1 X130.000 Y97.060 E0.01407
G1 X129.716 Y96.713 E0.01407
G1 X129.504 Y96.317 E0.01407
G1 X129.374 Y95.888 E0.01407
G1 X129.330 Y95.441 E0.01407
G1 X129.374 Y94.995 E0.01407
G1 X129.504 Y94.565 E0.01407
G1 X129.716 Y94.170 E0.01407
G1 X130.000 Y93.823 E0.01407
G1 X130.347 Y93.538 E0.01407
G1 X130.743 Y93.327 E0.01407
G1 X131.177 Y93.195 E0.01423
G1 X131.392 Y93.163 E0.00681
G1 X131.680 Y93.155 E0.00904
G1 X132.064 Y93.196 E0.01211
G1 X132.495 Y93.327 E0.01410
G1 X132.890 Y93.538 E0.01407
G1 X133.237 Y93.823 E0.01407
G1 X133.522 Y94.170 E0.01407
G1 X133.733 Y94.565 E0.01407
G1 X133.864 Y94.995 E0.01407
G1 X133.908 Y95.441 E0.01407
G1 X133.864 Y95.888 E0.01407
G1 X133.733 Y96.317 E0.01407
G1 X133.522 Y96.713 E0.01407
G1 X133.237 Y97.060 E0.01407
G1 X132.890 Y97.345 E0.01407
G1 X132.495 Y97.556 E0.01407
G1 X132.065 Y97.686 E0.01407
G1 X131.678 Y97.725 E0.01219
G1 X131.419 Y97.384 F10800.000
G1 E-0.80000 F2100.00000
G1 Z0.800 F10800.000
G1 X131.619 Y85.957
G1 Z0.200
G1 E0.80000 F2100.00000
G1 F1200.000
G1 X131.300 Y85.925 E0.01004
G1 X130.994 Y85.832 E0.01004
G1 X130.712 Y85.682 E0.01004
G1 X130.464 Y85.478 E0.01004
G1 X130.261 Y85.231 E0.01004
G1 X130.110 Y84.949 E0.01004
G1 X130.017 Y84.642 E0.01004
G1 X129.986 Y84.324 E0.01004
G1 X130.017 Y84.005 E0.01004
G1 X130.110 Y83.699 E0.01004
G1 X130.261 Y83.417 E0.01004
G1 X130.464 Y83.169 E0.01004
G1 X130.712 Y82.966 E0.01004
G1 X130.994 Y82.816 E0.01004
G1 X131.300 Y82.723 E0.01003
G1 X131.614 Y82.691 E0.00991
G1 X131.937 Y82.722 E0.01015
G1 X132.244 Y82.816 E0.01006
G1 X132.526 Y82.966 E0.01004
G1 X132.773 Y83.169 E0.01004
G1 X132.976 Y83.417 E0.01004
G1 X133.127 Y83.699 E0.01004
G1 X133.220 Y84.005 E0.01004
G1 X133.251 Y84.324 E0.01004
G1 X133.220 Y84.642 E0.01004
G1 X133.127 Y84.949 E0.01004
G1 X132.976 Y85.231 E0.01004
G1 X132.773 Y85.478 E0.01004
G1 X132.526 Y85.682 E0.01004
G1 X132.244 Y85.832 E0.01004
G1 X131.937 Y85.925 E0.01004
G1 X131.678 Y85.951 E0.00815
G1 X131.619 Y85.578 F10800.000
G1 F1200.000
G1 X131.374 Y85.554 E0.00771
G1 X131.139 Y85.482 E0.00771
G1 X130.922 Y85.366 E0.00771
G1 X130.732 Y85.211 E0.00771
G1 X130.576 Y85.021 E0.00771
G1 X130.460 Y84.804 E0.00771
G1 X130.389 Y84.569 E0.00771
G1 X130.365 Y84.324 E0.00771
G1 X130.389 Y84.079 E0.00771
G1 X130.460 Y83.844 E0.00771
G1 X130.576 Y83.627 E0.00771
G1 X130.732 Y83.437 E0.00771
G1 X130.922 Y83.281 E0.00771
G1 X131.139 Y83.166 E0.00771
G1 X131.374 Y83.094 E0.00770
G1 X131.615 Y83.070 E0.00759
G1 X131.863 Y83.094 E0.00782
G1 X132.099 Y83.166 E0.00771
G1 X132.315 Y83.281 E0.00771
G1 X132.505 Y83.437 E0.00771
G1 X132.661 Y83.627 E0.00771
G1 X132.777 Y83.844 E0.00771
G1 X132.848 Y84.079 E0.00771
G1 X132.873 Y84.324 E0.00771
G1 X132.848 Y84.569 E0.00771
G1 X132.777 Y84.804 E0.00771
G1 X132.661 Y85.021 E0.00771
G1 X132.505 Y85.211 E0.00771
G1 X132.315 Y85.366 E0.00771
G1 X132.099 Y85.482 E0.00771
G1 X131.863 Y85.554 E0.00771
G1 X131.678 Y85.572 E0.00583
G1 X131.496 Y85.791 F10800.000
G1 X131.619 Y86.234
G1 F1200.000
G1 X131.246 Y86.197 E0.01174
G1 X130.888 Y86.089 E0.01174
G1 X130.558 Y85.912 E0.01174
G1 X130.268 Y85.675 E0.01174
G1 X130.031 Y85.385 E0.01174
G1 X129.854 Y85.055 E0.01174
G1 X129.745 Y84.697 E0.01174
G1 X129.709 Y84.324 E0.01174
G1 X129.745 Y83.951 E0.01174
G1 X129.854 Y83.593 E0.01174
G1 X130.031 Y83.263 E0.01174
G1 X130.268 Y82.973 E0.01174
G1 X130.558 Y82.736 E0.01174
G1 X130.888 Y82.559 E0.01174
G1 X131.260 Y82.446 E0.01220
G1 X131.425 Y82.422 E0.00523
G1 X131.665 Y82.415 E0.00754
G1 X131.989 Y82.450 E0.01020
G1 X132.350 Y82.559 E0.01182
G1 X132.680 Y82.736 E0.01174
G1 X132.969 Y82.973 E0.01174
G1 X133.207 Y83.263 E0.01174
G1 X133.383 Y83.593 E0.01174
G1 X133.492 Y83.951 E0.01174
G1 X133.529 Y84.324 E0.01174
G1 X133.492 Y84.697 E0.01174
G1 X133.383 Y85.055 E0.01174
G1 X133.207 Y85.385 E0.01174
G1 X132.969 Y85.675 E0.01174
G1 X132.680 Y85.912 E0.01174
G1 X132.350 Y86.089 E0.01174
G1 X131.991 Y86.197 E0.01174
G1 X131.678 Y86.228 E0.00986
G1 X131.619 Y86.613 F10800.000
G1 F1200.000
G1 X131.172 Y86.569 E0.01407
G1 X130.743 Y86.439 E0.01407
G1 X130.347 Y86.227 E0.01407
G1 X130.000 Y85.942 E0.01407
G1 X129.716 Y85.596 E0.01407
G1 X129.504 Y85.200 E0.01407
G1 X129.374 Y84.771 E0.01407
G1 X129.330 Y84.324 E0.01407
G1 X129.374 Y83.877 E0.01407
G1 X129.504 Y83.448 E0.01407
G1 X129.716 Y83.052 E0.01407
G1 X130.000 Y82.705 E0.01407
G1 X130.347 Y82.421 E0.01407
G1 X130.743 Y82.209 E0.01407
G1 X131.177 Y82.077 E0.01423
G1 X131.392 Y82.046 E0.00681
G1 X131.680 Y82.038 E0.00904
G1 X132.064 Y82.079 E0.01211
G1 X132.495 Y82.209 E0.01410
G1 X132.890 Y82.421 E0.01407
G1 X133.237 Y82.705 E0.01407
G1 X133.522 Y83.052 E0.01407
G1 X133.733 Y83.448 E0.01407
G1 X133.864 Y83.877 E0.01407
G1 X133.908 Y84.324 E0.01407
G1 X133.864 Y84.771 E0.01407
G1 X133.733 Y85.200 E0.01407
G1 X133.522 Y85.596 E0.01407
G1 X133.237 Y85.942 E0.01407
G1 X132.890 Y86.227 E0.01407
G1 X132.495 Y86.439 E0.01407
G1 X132.065 Y86.569 E0.01407
G1 X131.678 Y86.607 E0.01219
G1 X131.419 Y86.267 F10800.000
G1 E-0.80000 F2100.00000
G1 Z0.800 F10800.000
G1 X120.501 Y85.957
G1 Z0.200
G1 E0.80000 F2100.00000
G1 F1200.000
G1 X120.183 Y85.925 E0.01004
G1 X119.876 Y85.832 E0.01004
G1 X119.594 Y85.682 E0.01004
G1 X119.347 Y85.478 E0.01004
G1 X119.144 Y85.231 E0.01004
G1 X118.993 Y84.949 E0.01004
G1 X118.900 Y84.642 E0.01004
G1 X118.868 Y84.324 E0.01004
G1 X118.900 Y84.005 E0.01004
G1 X118.993 Y83.699 E0.01004
G1 X119.144 Y83.417 E0.01004
G1 X119.347 Y83.169 E0.01004
G1 X119.594 Y82.966 E0.01004
G1 X119.876 Y82.816 E0.01004
G1 X120.182 Y82.723 E0.01003
G1 X120.497 Y82.691 E0.00991
G1 X120.819 Y82.722 E0.01015
G1 X121.126 Y82.816 E0.01006
G1 X121.408 Y82.966 E0.01004
G1 X121.656 Y83.169 E0.01004
G1 X121.859 Y83.417 E0.01004
G1 X122.010 Y83.699 E0.01004
G1 X122.103 Y84.005 E0.01004
G1 X122.134 Y84.324 E0.01004
G1 X122.103 Y84.642 E0.01004
