; generated by PrusaSlicer 2.2.0+win64 on 2021-04-27 at 19:34:00 UTC

; 

; external perimeters extrusion width = 0.45mm
; perimeters extrusion width = 0.45mm
; infill extrusion width = 0.45mm
; solid infill extrusion width = 0.45mm
; top infill extrusion width = 0.40mm
; support material extrusion width = 0.35mm
; first layer extrusion width = 0.42mm

M73 P0 R292
M73 Q0 S304
M201 X1000 Y1000 Z1000 E5000 ; sets maximum accelerations, mm/sec^2
M203 X200 Y200 Z12 E120 ; sets maximum feedrates, mm/sec
M204 P1250 R1250 T1250 ; sets acceleration (P, T) and retract acceleration (R), mm/sec^2
M205 X8.00 Y8.00 Z0.40 E1.50 ; sets the jerk limits, mm/sec
M205 S0 T0 ; sets the minimum extruding and travel feed rate, mm/sec
M107
M862.3 P "MK3S" ; printer model check
M862.1 P0.4 ; nozzle diameter check
M115 U3.8.0 ; tell printer latest fw version
G90 ; use absolute coordinates
M83 ; extruder relative mode
M104 S215 ; set extruder temp
M140 S60 ; set bed temp
M190 S60 ; wait for bed temp
M109 S215 ; wait for extruder temp
G28 W ; home all without mesh bed level
G80 ; mesh bed leveling
G1 Y-3.0 F1000.0 ; go outside print area
G92 E0.0
G1 X60.0 E9.0 F1000.0 ; intro line
M73 Q0 S304
M73 P0 R292
G1 X100.0 E12.5 F1000.0 ; intro line
G92 E0.0
M221 S95
G21 ; set units to millimeters
G90 ; use absolute coordinates
M83 ; use relative distances for extrusion
M900 K0.05 ; Filament gcode LA 1.5
M900 K30 ; Filament gcode LA 1.0
;BEFORE_LAYER_CHANGE
G92 E0.0
;0.2


G1 E-0.80000 F2100.00000
G1 Z0.600 F10800.000
;AFTER_LAYER_CHANGE
;0.2
G1 X161.506 Y122.696
G1 Z0.200
G1 E0.80000 F2100.00000
M204 S1000
G1 F1200.000
G1 X161.506 Y87.276 E1.11057
G1 X167.926 Y87.276 E0.20129
G1 X167.926 Y122.696 E1.11057
G1 X161.566 Y122.696 E0.19941
G1 X161.148 Y122.875 F10800.000
G1 E-0.80000 F2100.00000
G1 Z0.800 F10800.000
G1 X162.006 Y81.696
G1 Z0.200
G1 E0.80000 F2100.00000
G1 F1200.000
G1 X162.006 Y46.276 E1.11057
G1 X167.926 Y46.276 E0.18562
G1 X167.926 Y81.696 E1.11057
G1 X162.066 Y81.696 E0.18374
G1 X161.649 Y81.877 F10800.000
G1 E-0.80000 F2100.00000
G1 Z0.800 F10800.000
G1 X148.466 Y165.899
G1 Z0.200
G1 E0.80000 F2100.00000
G1 F1200.000
G1 X129.488 Y165.899 E0.59503
G1 X129.342 Y165.888 E0.00460
G1 X129.154 Y165.842 E0.00606
G1 X128.934 Y165.724 E0.00784
G1 X128.792 Y165.599 E0.00592
G1 X128.646 Y165.383 E0.00817
G1 X128.564 Y165.110 E0.00893
G1 X128.553 Y45.009 E3.76571
G1 X128.564 Y44.861 E0.00463
G1 X128.610 Y44.675 E0.00602
G1 X128.729 Y44.453 E0.00788
G1 X128.853 Y44.313 E0.00588
G1 X129.016 Y44.194 E0.00633
G1 X129.162 Y44.129 E0.00501
G1 X129.341 Y44.085 E0.00579
G1 X167.439 Y44.074 E1.19453
G1 X167.667 Y44.099 E0.00720
G1 X167.807 Y44.143 E0.00460
G1 X167.957 Y44.222 E0.00532
G1 X168.138 Y44.374 E0.00743
G1 X168.226 Y44.486 E0.00445
G1 X168.310 Y44.645 E0.00565
G1 X168.353 Y44.785 E0.00458
G1 X168.379 Y45.019 E0.00738
G1 X168.379 Y45.899 E0.02761
G1 X161.629 Y45.899 E0.21164
G1 X161.629 Y82.073 E1.13422
G1 X168.379 Y82.073 E0.21164
G1 X168.379 Y86.899 E0.15131
G1 X161.129 Y86.899 E0.22732
G1 X161.129 Y123.073 E1.13421
G1 X168.379 Y123.073 E0.22732
G1 X168.379 Y127.899 E0.15131
G1 X160.129 Y127.899 E0.25867
G1 X160.129 Y164.073 E1.13421
G1 X168.379 Y164.073 E0.25867
G1 X168.368 Y165.110 E0.03252
G1 X168.286 Y165.383 E0.00893
G1 X168.203 Y165.519 E0.00499
G1 X168.087 Y165.652 E0.00553
G1 X168.006 Y165.720 E0.00331
G1 X167.778 Y165.842 E0.00810
G1 X167.590 Y165.888 E0.00606
G1 X167.444 Y165.899 E0.00460
G1 X148.526 Y165.899 E0.59315
G1 E-0.80000 F2100.00000
G1 Z0.800 F10800.000
G1 X160.506 Y163.696
G1 Z0.200
G1 E0.80000 F2100.00000
G1 F1200.000
G1 X160.506 Y128.276 E1.11057
G1 X167.926 Y128.276 E0.23265
G1 X167.926 Y163.696 E1.11057
G1 X160.566 Y163.696 E0.23077
G1 X160.147 Y163.872 F10800.000
G1 E-0.80000 F2100.00000
G1 Z0.800 F10800.000
G1 X148.466 Y166.276
G1 Z0.200
G1 E0.80000 F2100.00000
G1 F1200.000
G1 X129.474 Y166.276 E0.59548
G1 X129.282 Y166.262 E0.00603
G1 X129.035 Y166.201 E0.00797
G1 X128.898 Y166.143 E0.00468
G1 X128.709 Y166.029 E0.00690
G1 X128.520 Y165.862 E0.00792
G1 X128.425 Y165.746 E0.00468
G1 X128.309 Y165.555 E0.00702
G1 X128.252 Y165.417 E0.00468
G1 X128.191 Y165.170 E0.00797
G1 X128.176 Y164.978 E0.00603
G1 X128.176 Y44.994 E3.76202
G1 X128.191 Y44.802 E0.00606
G1 X128.251 Y44.556 E0.00793
G1 X128.309 Y44.418 E0.00468
G1 X128.424 Y44.229 E0.00695
G1 X128.590 Y44.041 E0.00788
G1 X128.836 Y43.862 E0.00954
G1 X129.038 Y43.771 E0.00695
G1 X129.281 Y43.711 E0.00785
G1 X129.474 Y43.696 E0.00606
G1 X167.460 Y43.696 E1.19103
G1 X167.745 Y43.728 E0.00899
G1 X167.952 Y43.793 E0.00680
G1 X168.169 Y43.907 E0.00768
G1 X168.411 Y44.111 E0.00994
G1 X168.544 Y44.280 E0.00675
G1 X168.659 Y44.500 E0.00779
G1 X168.724 Y44.707 E0.00679
G1 X168.756 Y44.998 E0.00917
G1 X168.756 Y164.978 E3.76190
G1 X168.742 Y165.170 E0.00603
G1 X168.681 Y165.417 E0.00797
G1 X168.623 Y165.555 E0.00468
G1 X168.509 Y165.743 E0.00691
G1 X168.351 Y165.923 E0.00749
G1 X168.225 Y166.028 E0.00512
G1 X168.035 Y166.143 E0.00700
G1 X167.897 Y166.201 E0.00468
G1 X167.650 Y166.262 E0.00797
G1 X167.458 Y166.276 E0.00603
G1 X148.526 Y166.276 E0.59360
G1 X148.266 Y165.930 F10800.000
G1 E-0.80000 F2100.00000
G1 Z0.800 F10800.000
G1 X160.016 Y163.817
G1 Z0.200
G1 E0.80000 F2100.00000
G1 F1200.000
G1 X128.836 Y132.637 E1.38524
G1 X128.836 Y132.103 E0.01679
G1 X159.846 Y163.113 E1.37771
G1 X159.846 Y162.579 E0.01679
G1 X128.836 Y131.568 E1.37771
M73 Q0 S303
M73 P0 R291
G1 X128.836 Y131.034 E0.01679
G1 X159.846 Y162.044 E1.37771
G1 X159.846 Y161.510 E0.01679
G1 X128.836 Y130.500 E1.37771
G1 X128.836 Y129.965 E0.01679
G1 X159.846 Y160.976 E1.37771
G1 X159.846 Y160.441 E0.01679
G1 X128.836 Y129.431 E1.37771
G1 X128.836 Y128.897 E0.01679
G1 X159.846 Y159.907 E1.37771
G1 X159.846 Y159.373 E0.01679
G1 X128.836 Y128.362 E1.37771
G1 X128.836 Y127.828 E0.01679
G1 X159.846 Y158.838 E1.37771
G1 X159.846 Y158.304 E0.01679
G1 X128.836 Y127.294 E1.37771
G1 X128.836 Y126.760 E0.01679
G1 X159.846 Y157.770 E1.37771
G1 X159.846 Y157.236 E0.01679
G1 X128.836 Y126.225 E1.37771
G1 X128.836 Y125.691 E0.01679
G1 X159.846 Y156.701 E1.37771
G1 X159.846 Y156.167 E0.01679
G1 X128.836 Y125.157 E1.37771
G1 X128.836 Y124.622 E0.01679
G1 X159.846 Y155.633 E1.37771
G1 X159.846 Y155.098 E0.01679
G1 X128.836 Y124.088 E1.37771
G1 X128.836 Y123.554 E0.01679
G1 X159.846 Y154.564 E1.37771
G1 X159.846 Y154.030 E0.01679
G1 X128.836 Y123.019 E1.37771
G1 X128.836 Y122.485 E0.01679
G1 X159.846 Y153.495 E1.37771
G1 X159.846 Y152.961 E0.01679
G1 X128.836 Y121.951 E1.37771
G1 X128.836 Y121.417 E0.01679
G1 X159.846 Y152.427 E1.37771
G1 X159.846 Y151.892 E0.01679
G1 X128.836 Y120.882 E1.37771
G1 X128.836 Y120.348 E0.01679
G1 X159.846 Y151.358 E1.37771
G1 X159.846 Y150.824 E0.01679
G1 X128.836 Y119.814 E1.37771
G1 X128.836 Y119.279 E0.01679
G1 X159.846 Y150.290 E1.37771
G1 X159.846 Y149.755 E0.01679
G1 X128.836 Y118.745 E1.37771
G1 X128.836 Y118.211 E0.01679
G1 X159.846 Y149.221 E1.37771
G1 X159.846 Y148.687 E0.01679
G1 X128.836 Y117.676 E1.37771
G1 X128.836 Y117.142 E0.01679
G1 X159.846 Y148.152 E1.37771
M73 Q0 S302
M73 P0 R290
G1 X159.846 Y147.618 E0.01679
G1 X128.836 Y116.608 E1.37771
G1 X128.836 Y116.074 E0.01679
G1 X159.846 Y147.084 E1.37771
G1 X159.846 Y146.549 E0.01679
G1 X128.836 Y115.539 E1.37771
G1 X128.836 Y115.005 E0.01679
G1 X159.846 Y146.015 E1.37771
G1 X159.846 Y145.481 E0.01679
G1 X128.836 Y114.471 E1.37771
G1 X128.836 Y113.936 E0.01679
G1 X159.846 Y144.947 E1.37771
G1 X159.846 Y144.412 E0.01679
G1 X128.836 Y113.402 E1.37771
G1 X128.836 Y112.868 E0.01679
G1 X159.846 Y143.878 E1.37771
G1 X159.846 Y143.344 E0.01679
G1 X128.836 Y112.333 E1.37771
G1 X128.836 Y111.799 E0.01679
G1 X159.846 Y142.809 E1.37771
G1 X159.846 Y142.275 E0.01679
G1 X128.836 Y111.265 E1.37771
G1 X128.836 Y110.730 E0.01679
G1 X159.846 Y141.741 E1.37771
G1 X159.846 Y141.206 E0.01679
G1 X128.836 Y110.196 E1.37771
G1 X128.836 Y109.662 E0.01679
G1 X159.846 Y140.672 E1.37771
G1 X159.846 Y140.138 E0.01679
G1 X128.836 Y109.128 E1.37771
G1 X128.836 Y108.593 E0.01679
G1 X159.846 Y139.604 E1.37771
G1 X159.846 Y139.069 E0.01679
G1 X128.836 Y108.059 E1.37771
G1 X128.836 Y107.525 E0.01679
G1 X159.846 Y138.535 E1.37771
G1 X159.846 Y138.001 E0.01679
G1 X128.836 Y106.990 E1.37771
G1 X128.836 Y106.456 E0.01679
G1 X159.846 Y137.466 E1.37771
G1 X159.846 Y136.932 E0.01679
G1 X128.836 Y105.922 E1.37771
G1 X128.836 Y105.387 E0.01679
G1 X159.846 Y136.398 E1.37771
G1 X159.846 Y135.863 E0.01679
G1 X128.836 Y104.853 E1.37771
G1 X128.836 Y104.319 E0.01679
G1 X159.846 Y135.329 E1.37771
G1 X159.846 Y134.795 E0.01679
G1 X128.836 Y103.785 E1.37771
G1 X128.836 Y103.250 E0.01679
G1 X159.846 Y134.261 E1.37771
G1 X159.846 Y133.726 E0.01679
G1 X128.836 Y102.716 E1.37771
M73 Q1 S301
M73 P1 R289
G1 X128.836 Y102.182 E0.01679
G1 X159.846 Y133.192 E1.37771
G1 X159.846 Y132.658 E0.01679
G1 X128.836 Y101.647 E1.37771
G1 X128.836 Y101.113 E0.01679
G1 X159.846 Y132.123 E1.37771
G1 X159.846 Y131.589 E0.01679
G1 X128.836 Y100.579 E1.37771
G1 X128.836 Y100.044 E0.01679
G1 X159.846 Y131.055 E1.37771
G1 X159.846 Y130.520 E0.01679
G1 X128.836 Y99.510 E1.37771
G1 X128.836 Y98.976 E0.01679
G1 X159.846 Y129.986 E1.37771
G1 X159.846 Y129.452 E0.01679
G1 X128.836 Y98.442 E1.37771
G1 X128.836 Y97.907 E0.01679
G1 X159.846 Y128.917 E1.37771
G1 X159.846 Y128.383 E0.01679
G1 X128.836 Y97.373 E1.37771
G1 X128.836 Y96.839 E0.01679
G1 X159.846 Y127.849 E1.37771
G1 X159.846 Y127.616 E0.00730
G1 X160.148 Y127.616 E0.00948
G1 X128.836 Y96.304 E1.39112
G1 X128.836 Y95.770 E0.01679
G1 X160.682 Y127.616 E1.41485
G1 X161.217 Y127.616 E0.01679
G1 X128.836 Y95.236 E1.43859
G1 X128.836 Y94.701 E0.01679
G1 X161.751 Y127.616 E1.46233
G1 X162.285 Y127.616 E0.01679
G1 X128.836 Y94.167 E1.48607
G1 X128.836 Y93.633 E0.01679
G1 X162.820 Y127.616 E1.50980
G1 X163.354 Y127.616 E0.01679
G1 X128.836 Y93.099 E1.53354
G1 X128.836 Y92.564 E0.01679
G1 X163.888 Y127.616 E1.55728
G1 X164.422 Y127.616 E0.01679
G1 X128.836 Y92.030 E1.58102
G1 X128.836 Y91.496 E0.01679
G1 X164.957 Y127.616 E1.60475
G1 X165.491 Y127.616 E0.01679
G1 X161.231 Y123.356 E0.18927
G1 X160.846 Y123.356 E0.01208
G1 X160.846 Y122.972 E0.01208
G1 X128.836 Y90.961 E1.42213
G1 X128.836 Y90.427 E0.01679
G1 X160.846 Y122.437 E1.42213
G1 X160.846 Y121.903 E0.01679
G1 X128.836 Y89.893 E1.42213
G1 X128.836 Y89.358 E0.01679
G1 X160.846 Y121.369 E1.42213
G1 X160.846 Y120.834 E0.01679
G1 X128.836 Y88.824 E1.42213
M73 Q1 S300
M73 P1 R288
G1 X128.836 Y88.290 E0.01679
G1 X160.846 Y120.300 E1.42213
G1 X160.846 Y119.766 E0.01679
G1 X128.836 Y87.755 E1.42213
G1 X128.836 Y87.221 E0.01679
G1 X160.846 Y119.231 E1.42213
G1 X160.846 Y118.697 E0.01679
G1 X128.836 Y86.687 E1.42213
G1 X128.836 Y86.153 E0.01679
G1 X160.846 Y118.163 E1.42213
G1 X160.846 Y117.629 E0.01679
G1 X128.836 Y85.618 E1.42213
G1 X128.836 Y85.084 E0.01679
G1 X160.846 Y117.094 E1.42213
G1 X160.846 Y116.560 E0.01679
G1 X128.836 Y84.550 E1.42213
G1 X128.836 Y84.015 E0.01679
G1 X160.846 Y116.026 E1.42213
G1 X160.846 Y115.491 E0.01679
G1 X128.836 Y83.481 E1.42213
G1 X128.836 Y82.947 E0.01679
G1 X160.846 Y114.957 E1.42213
G1 X160.846 Y114.423 E0.01679
G1 X128.836 Y82.412 E1.42213
G1 X128.836 Y81.878 E0.01679
G1 X160.846 Y113.888 E1.42213
G1 X160.846 Y113.354 E0.01679
G1 X128.836 Y81.344 E1.42213
G1 X128.836 Y80.810 E0.01679
G1 X160.846 Y112.820 E1.42213
G1 X160.846 Y112.285 E0.01679
G1 X128.836 Y80.275 E1.42213
G1 X128.836 Y79.741 E0.01679
G1 X160.846 Y111.751 E1.42213
G1 X160.846 Y111.217 E0.01679
G1 X128.836 Y79.207 E1.42213
G1 X128.836 Y78.672 E0.01679
G1 X160.846 Y110.683 E1.42213
G1 X160.846 Y110.148 E0.01679
G1 X128.836 Y78.138 E1.42213
G1 X128.836 Y77.604 E0.01679
G1 X160.846 Y109.614 E1.42213
G1 X160.846 Y109.080 E0.01679
G1 X128.836 Y77.069 E1.42213
G1 X128.836 Y76.535 E0.01679
G1 X160.846 Y108.545 E1.42213
G1 X160.846 Y108.011 E0.01679
G1 X128.836 Y76.001 E1.42213
G1 X128.836 Y75.467 E0.01679
G1 X160.846 Y107.477 E1.42213
G1 X160.846 Y106.942 E0.01679
G1 X128.836 Y74.932 E1.42213
G1 X128.836 Y74.398 E0.01679
G1 X160.846 Y106.408 E1.42213
M73 Q1 S299
M73 P1 R287
G1 X160.846 Y105.874 E0.01679
G1 X128.836 Y73.864 E1.42213
G1 X128.836 Y73.329 E0.01679
G1 X160.846 Y105.340 E1.42213
G1 X160.846 Y104.805 E0.01679
G1 X128.836 Y72.795 E1.42213
G1 X128.836 Y72.261 E0.01679
G1 X160.846 Y104.271 E1.42213
G1 X160.846 Y103.737 E0.01679
G1 X128.836 Y71.726 E1.42213
G1 X128.836 Y71.192 E0.01679
G1 X160.846 Y103.202 E1.42213
G1 X160.846 Y102.668 E0.01679
G1 X128.836 Y70.658 E1.42213
G1 X128.836 Y70.124 E0.01679
G1 X160.846 Y102.134 E1.42213
G1 X160.846 Y101.599 E0.01679
G1 X128.836 Y69.589 E1.42213
G1 X128.836 Y69.055 E0.01679
G1 X160.846 Y101.065 E1.42213
G1 X160.846 Y100.531 E0.01679
G1 X128.836 Y68.521 E1.42213
G1 X128.836 Y67.986 E0.01679
G1 X160.846 Y99.997 E1.42213
G1 X160.846 Y99.462 E0.01679
G1 X128.836 Y67.452 E1.42213
G1 X128.836 Y66.918 E0.01679
G1 X160.846 Y98.928 E1.42213
G1 X160.846 Y98.394 E0.01679
G1 X128.836 Y66.383 E1.42213
G1 X128.836 Y65.849 E0.01679
G1 X160.846 Y97.859 E1.42213
G1 X160.846 Y97.325 E0.01679
G1 X128.836 Y65.315 E1.42213
G1 X128.836 Y64.780 E0.01679
G1 X160.846 Y96.791 E1.42213
G1 X160.846 Y96.256 E0.01679
G1 X128.836 Y64.246 E1.42213
G1 X128.836 Y63.712 E0.01679
G1 X160.846 Y95.722 E1.42213
G1 X160.846 Y95.188 E0.01679
G1 X128.836 Y63.178 E1.42213
G1 X128.836 Y62.643 E0.01679
G1 X160.846 Y94.653 E1.42213
G1 X160.846 Y94.119 E0.01679
G1 X128.836 Y62.109 E1.42213
G1 X128.836 Y61.575 E0.01679
G1 X160.846 Y93.585 E1.42213
G1 X160.846 Y93.051 E0.01679
G1 X128.836 Y61.040 E1.42213
G1 X128.836 Y60.506 E0.01679
G1 X160.846 Y92.516 E1.42213
G1 X160.846 Y91.982 E0.01679
G1 X128.836 Y59.972 E1.42213
M73 Q2 S298
M73 P2 R286
G1 X128.836 Y59.437 E0.01679
G1 X160.846 Y91.448 E1.42213
G1 X160.846 Y90.913 E0.01679
G1 X128.836 Y58.903 E1.42213
G1 X128.836 Y58.369 E0.01679
G1 X160.846 Y90.379 E1.42213
G1 X160.846 Y89.845 E0.01679
G1 X128.836 Y57.835 E1.42213
G1 X128.836 Y57.300 E0.01679
G1 X160.846 Y89.310 E1.42213
G1 X160.846 Y88.776 E0.01679
G1 X128.836 Y56.766 E1.42213
G1 X128.836 Y56.232 E0.01679
G1 X160.846 Y88.242 E1.42213
G1 X160.846 Y87.708 E0.01679
G1 X128.836 Y55.697 E1.42213
G1 X128.836 Y55.163 E0.01679
G1 X160.846 Y87.173 E1.42213
G1 X160.846 Y86.639 E0.01679
G1 X128.836 Y54.629 E1.42213
G1 X128.836 Y54.094 E0.01679
G1 X161.358 Y86.616 E1.44487
G1 X161.892 Y86.616 E0.01679
G1 X128.836 Y53.560 E1.46861
G1 X128.836 Y53.026 E0.01679
G1 X162.427 Y86.616 E1.49234
G1 X162.961 Y86.616 E0.01679
G1 X128.836 Y52.492 E1.51608
G1 X128.836 Y51.957 E0.01679
G1 X163.495 Y86.616 E1.53982
G1 X164.029 Y86.616 E0.01679
G1 X128.836 Y51.423 E1.56356
G1 X128.836 Y50.889 E0.01679
G1 X164.564 Y86.616 E1.58729
G1 X165.098 Y86.616 E0.01679
G1 X128.836 Y50.354 E1.61103
G1 X128.836 Y49.820 E0.01679
G1 X165.632 Y86.616 E1.63477
G1 X166.167 Y86.616 E0.01679
G1 X161.906 Y82.356 E0.18927
G1 X162.441 Y82.356 E0.01679
G1 X166.701 Y86.616 E0.18927
G1 X167.235 Y86.616 E0.01679
G1 X162.975 Y82.356 E0.18927
G1 X163.509 Y82.356 E0.01679
G1 X167.770 Y86.616 E0.18927
G1 X168.096 Y86.616 E0.01026
G1 X168.096 Y86.409 E0.00652
G1 X164.044 Y82.356 E0.18005
G1 X164.578 Y82.356 E0.01679
G1 X168.096 Y85.874 E0.15631
G1 X168.096 Y85.340 E0.01679
G1 X165.112 Y82.356 E0.13257
G1 X165.647 Y82.356 E0.01679
G1 X168.096 Y84.806 E0.10883
G1 X168.096 Y84.272 E0.01679
G1 X166.181 Y82.356 E0.08509
G1 X166.715 Y82.356 E0.01679
G1 X168.096 Y83.737 E0.06136
G1 X168.096 Y83.203 E0.01679
G1 X167.249 Y82.356 E0.03762
G1 X167.784 Y82.356 E0.01679
G1 X168.266 Y82.838 E0.02142
G1 X168.341 Y81.885 F10800.000
G1 F1200.000
G1 X168.341 Y46.088 E1.34819
G1 X168.266 Y45.437 F10800.000
G1 F1200.000
G1 X167.185 Y44.356 E0.04802
G1 X166.651 Y44.356 E0.01679
G1 X167.911 Y45.616 E0.05598
G1 X167.377 Y45.616 E0.01679
G1 X166.117 Y44.356 E0.05598
G1 X165.582 Y44.356 E0.01679
G1 X166.842 Y45.616 E0.05598
G1 X166.308 Y45.616 E0.01679
G1 X165.048 Y44.356 E0.05598
G1 X164.514 Y44.356 E0.01679
G1 X165.774 Y45.616 E0.05598
G1 X165.239 Y45.616 E0.01679
G1 X163.979 Y44.356 E0.05598
G1 X163.445 Y44.356 E0.01679
G1 X164.705 Y45.616 E0.05598
