; generated by PrusaSlicer 2.0.0+ on 2019-09-13 at 14:40:46

; 

; external perimeters extrusion width = 0.45mm
; perimeters extrusion width = 0.45mm
; infill extrusion width = 0.45mm
; solid infill extrusion width = 0.45mm
; top infill extrusion width = 0.40mm
; support material extrusion width = 0.35mm
; first layer extrusion width = 0.42mm

M73 P0 R148
M73 Q0 S150
M201 X1000 Y1000 Z1000 E5000 ; sets maximum accelerations, mm/sec^2
M203 X200 Y200 Z12 E120 ; sets maximum feedrates, mm/sec
M204 P1250 R1250 T1250 ; sets acceleration (P, T) and retract acceleration (R), mm/sec^2
M205 X8.00 Y8.00 Z0.40 E1.50 ; sets the jerk limits, mm/sec
M205 S0 T0 ; sets the minimum extruding and travel feed rate, mm/sec
M107
M115 U3.7.2 ; tell printer latest fw version
G90 ; use absolute coordinates
M83 ; extruder relative mode
M104 S215 ; set extruder temp
M140 S60 ; set bed temp
M190 S60 ; wait for bed temp
M109 S215 ; wait for extruder temp
G28 W ; home all without mesh bed level
G80 ; mesh bed leveling
G1 Y-3.0 F1000.0 ; go outside print area
G92 E0.0
G1 X60.0 E9.0 F1000.0 ; intro line
M73 Q0 S150
M73 P0 R148
G1 X100.0 E12.5 F1000.0 ; intro line
G92 E0.0
M221 S95
M900 K30 ; Filament gcode
G21 ; set units to millimeters
G90 ; use absolute coordinates
M83 ; use relative distances for extrusion
;BEFORE_LAYER_CHANGE
G92 E0.0
;0.2


G1 E-0.80000 F2100.00000
G1 Z0.600 F10800.000
;AFTER_LAYER_CHANGE
;0.2
G1 X94.576 Y148.384
G1 Z0.200
G1 E0.80000 F2100.00000
M204 S1000
G1 F1200
G1 X94.339 Y147.512 E0.02833
G1 X92.720 Y107.540 E1.25433
G1 X92.720 Y80.397 E0.85105
G1 X92.779 Y79.798 E0.01887
G1 X92.943 Y79.194 E0.01961
G1 X93.207 Y78.625 E0.01969
G1 X93.556 Y78.120 E0.01924
G1 X94.096 Y77.586 E0.02381
G1 X94.825 Y77.128 E0.02700
G1 X95.651 Y76.851 E0.02732
G1 X96.359 Y76.772 E0.02232
G1 X153.597 Y76.771 E1.79466
G1 X154.298 Y76.840 E0.02209
G1 X155.062 Y77.077 E0.02508
G1 X155.681 Y77.419 E0.02216
G1 X156.193 Y77.843 E0.02084
G1 X156.626 Y78.361 E0.02119
G1 X156.967 Y78.970 E0.02187
G1 X157.208 Y79.731 E0.02505
G1 X157.280 Y80.410 E0.02141
G1 X157.280 Y107.557 E0.85117
G1 X155.662 Y147.496 E1.25328
G1 X155.520 Y148.169 E0.02157
G1 X155.178 Y148.762 E0.02146
G1 X154.836 Y149.101 E0.01510
G1 X154.425 Y149.358 E0.01521
G1 X153.970 Y149.518 E0.01510
G1 X153.488 Y149.574 E0.01521
G1 X96.505 Y149.574 E1.78666
G1 X95.786 Y149.446 E0.02293
G1 X95.148 Y149.088 E0.02293
G1 X94.614 Y148.430 E0.02656
G1 F8640
G1 X94.339 Y147.512 E-0.22136
G1 X94.244 Y145.181 E-0.53864
G1 E-0.04000 F2100.00000
G1 Z0.800 F10800.000
G1 X99.507 Y131.320
G1 Z0.200
G1 E0.80000 F2100.00000
G1 F1200
G1 X99.507 Y136.077 E0.14915
G1 X99.769 Y136.932 E0.02802
G1 X100.261 Y137.909 E0.03430
G1 X100.261 Y130.086 E0.24527
G1 X100.746 Y129.298 E0.02900
G1 X101.016 Y128.993 E0.01277
G1 X101.016 Y138.998 E0.31371
G1 X101.167 Y139.203 E0.00799
G1 X101.770 Y139.780 E0.02617
G1 X101.770 Y128.181 E0.36367
G1 X102.524 Y127.572 E0.03039
G1 X102.524 Y140.393 E0.40197
G1 X103.278 Y140.894 E0.02840
G1 X103.278 Y127.114 E0.43206
G1 X103.840 Y126.800 E0.02018
G1 X104.032 Y126.733 E0.00639
G1 X104.032 Y141.235 E0.45472
G1 X104.462 Y141.429 E0.01477
G1 X104.786 Y141.514 E0.01053
G1 X104.786 Y126.466 E0.47181
G1 X105.102 Y126.355 E0.01049
G1 X105.541 Y126.279 E0.01396
G1 X105.541 Y141.710 E0.48382
G1 X105.757 Y141.766 E0.00700
G1 X106.295 Y141.812 E0.01693
G1 X106.295 Y126.150 E0.49108
G1 X106.421 Y126.128 E0.00401
G1 X107.049 Y126.128 E0.01969
G1 X107.049 Y132.758 E0.20788
G1 X106.377 Y132.758 E0.02107
G1 X106.377 Y133.750 E0.03108
G1 X107.049 Y133.750 E0.02107
G1 X107.049 Y141.876 E0.25480
G1 X107.803 Y141.819 E0.02371
G1 X107.803 Y126.136 E0.49174
G1 X108.557 Y126.265 E0.02399
G1 X108.557 Y141.732 E0.48494
G1 X109.311 Y141.535 E0.02443
G1 X109.311 Y126.437 E0.47339
G1 X110.066 Y126.704 E0.02508
G1 X110.066 Y141.272 E0.45680
G1 X110.820 Y140.931 E0.02595
G1 X110.820 Y127.068 E0.43466
G1 X111.508 Y127.453 E0.02473
G1 X111.574 Y127.506 E0.00265
G1 X111.574 Y140.448 E0.40579
G1 X112.047 Y140.129 E0.01789
G1 X112.328 Y139.859 E0.01222
G1 X112.328 Y128.115 E0.36822
G1 X112.549 Y128.294 E0.00892
G1 X113.082 Y128.899 E0.02529
G1 X113.082 Y139.109 E0.32012
G1 X113.836 Y138.072 E0.04021
G1 X113.836 Y129.953 E0.25457
G1 X114.135 Y130.438 E0.01787
G1 X114.591 Y131.571 E0.03829
G1 X114.591 Y136.925 E0.16787
G1 F8640
G1 X114.591 Y133.634 E-0.76000
G1 E-0.04000 F2100.00000
G1 Z0.800 F10800.000
G1 X117.607 Y130.848
G1 Z0.200
G1 E0.80000 F2100.00000
G1 F1200
G1 X117.607 Y136.697 E0.18340
G1 X117.679 Y136.932 E0.00769
G1 X118.281 Y138.127 E0.04196
G1 X118.361 Y138.235 E0.00421
G1 X118.361 Y129.778 E0.26516
G1 X118.656 Y129.298 E0.01765
G1 X119.115 Y128.777 E0.02178
G1 X119.115 Y139.239 E0.32804
G1 X119.870 Y139.962 E0.03275
G1 X119.870 Y128.028 E0.37418
G1 X120.624 Y127.430 E0.03019
G1 X120.624 Y140.521 E0.41047
G1 X121.152 Y140.878 E0.01999
G1 X121.378 Y140.980 E0.00777
G1 X121.378 Y127.008 E0.43808
G1 X121.750 Y126.800 E0.01337
G1 X122.132 Y126.665 E0.01270
G1 X122.132 Y141.321 E0.45951
G1 X122.372 Y141.429 E0.00824
G1 X122.886 Y141.563 E0.01668
G1 X122.886 Y126.399 E0.47547
G1 X123.012 Y126.355 E0.00418
G1 X123.640 Y126.247 E0.01999
G1 X123.640 Y141.760 E0.48639
G1 X124.395 Y141.828 E0.02374
G1 X124.395 Y126.128 E0.49226
G1 X125.149 Y126.128 E0.02365
G1 X125.149 Y132.758 E0.20788
G1 X124.833 Y132.758 E0.00988
G1 X124.833 Y133.750 E0.03108
G1 X125.149 Y133.750 E0.00988
G1 X125.149 Y141.867 E0.25452
G1 X125.903 Y141.803 E0.02373
G1 X125.903 Y126.169 E0.49021
G1 X126.657 Y126.298 E0.02399
G1 X126.657 Y141.682 E0.48237
G1 X127.411 Y141.486 E0.02443
G1 X127.411 Y126.504 E0.46974
G1 X128.165 Y126.771 E0.02508
G1 X128.165 Y141.187 E0.45200
G1 X128.848 Y140.878 E0.02349
G1 X128.920 Y140.830 E0.00271
G1 X128.920 Y127.175 E0.42815
G1 X129.418 Y127.453 E0.01791
G1 X129.674 Y127.659 E0.01030
G1 X129.674 Y140.320 E0.39696
G1 X129.957 Y140.129 E0.01071
G1 X130.428 Y139.677 E0.02046
G1 X130.428 Y128.268 E0.35771
G1 X131.182 Y129.115 E0.03555
G1 X131.182 Y138.852 E0.30531
G1 X131.719 Y138.127 E0.02829
G1 X131.936 Y137.695 E0.01516
G1 X131.936 Y130.261 E0.23309
G1 X132.045 Y130.438 E0.00652
G1 X132.544 Y131.680 E0.04196
G1 X132.690 Y132.358 E0.02176
G1 X132.690 Y136.305 E0.12377
G1 F8640
G1 X132.690 Y133.014 E-0.76000
G1 E-0.04000 F2100.00000
G1 Z0.800 F10800.000
G1 X135.707 Y130.376
G1 Z0.200
G1 E0.80000 F2100.00000
G1 F1200
G1 X135.707 Y137.166 E0.21290
G1 X136.191 Y138.127 E0.03374
G1 X136.461 Y138.491 E0.01422
G1 X136.461 Y129.469 E0.28287
G1 X136.566 Y129.298 E0.00630
G1 X137.215 Y128.561 E0.03079
G1 X137.215 Y139.421 E0.34051
G1 X137.969 Y140.140 E0.03265
G1 X137.969 Y127.875 E0.38455
G1 X138.492 Y127.453 E0.02105
G1 X138.724 Y127.324 E0.00832
G1 X138.724 Y140.649 E0.41782
G1 X139.062 Y140.878 E0.01281
G1 X139.478 Y141.066 E0.01430
G1 X139.478 Y126.902 E0.44409
G1 X139.660 Y126.800 E0.00655
G1 X140.232 Y126.598 E0.01901
G1 X140.232 Y141.407 E0.46431
G1 X140.282 Y141.429 E0.00171
G1 X140.986 Y141.613 E0.02283
G1 X140.986 Y126.344 E0.47875
G1 X141.740 Y126.214 E0.02399
G1 X141.740 Y141.780 E0.48806
G1 X142.494 Y141.845 E0.02373
G1 X142.494 Y126.128 E0.49277
G1 X143.249 Y126.128 E0.02365
G1 X143.249 Y141.851 E0.49297
G1 X144.003 Y141.787 E0.02373
G1 X144.003 Y126.201 E0.48868
G1 X144.757 Y126.330 E0.02399
G1 X144.757 Y141.633 E0.47980
G1 X145.511 Y141.436 E0.02443
G1 X145.511 Y126.571 E0.46609
G1 X146.160 Y126.800 E0.02158
G1 X146.265 Y126.859 E0.00378
G1 X146.265 Y141.101 E0.44653
G1 X146.758 Y140.878 E0.01695
G1 X147.019 Y140.701 E0.00989
G1 X147.019 Y127.281 E0.42080
G1 X147.328 Y127.453 E0.01109
G1 X147.773 Y127.813 E0.01795
G1 X147.773 Y140.192 E0.38813
M73 Q0 S149
G1 X147.867 Y140.129 E0.00352
G1 X148.528 Y139.495 E0.02871
G1 X148.528 Y128.474 E0.34557
M73 P0 R147
G1 X149.282 Y129.344 E0.03612
G1 X149.282 Y138.596 E0.29007
G1 X149.629 Y138.127 E0.01828
G1 X150.036 Y137.319 E0.02838
G1 X150.036 Y130.639 E0.20943
G1 X150.454 Y131.680 E0.03516
G1 X150.736 Y132.988 E0.04196
G1 X150.790 Y134.261 E0.03995
G1 X150.790 Y135.682 E0.04456
G1 F8640
G1 X150.790 Y134.261 E-0.32816
G1 X150.736 Y132.988 E-0.29420
G1 X150.610 Y132.405 E-0.13764
G1 E-0.04000 F2100.00000
G1 Z0.800 F10800.000
G1 X115.976 Y134.367
G1 Z0.200
G1 E0.80000 F2100.00000
G1 F1200
G1 X115.785 Y135.864 E0.04730
G1 X115.343 Y137.306 E0.04730
G1 X114.664 Y138.653 E0.04730
G1 X113.767 Y139.866 E0.04730
G1 X112.678 Y140.910 E0.04730
G1 X111.428 Y141.755 E0.04730
G1 X110.053 Y142.376 E0.04730
G1 X108.593 Y142.756 E0.04730
G1 X107.090 Y142.884 E0.04730
G1 X105.587 Y142.756 E0.04730
G1 X104.127 Y142.376 E0.04730
G1 X102.752 Y141.755 E0.04730
G1 X101.502 Y140.910 E0.04730
G1 X100.413 Y139.866 E0.04730
G1 X99.516 Y138.653 E0.04730
G1 X98.849 Y137.329 E0.04651
G1 X98.396 Y135.865 E0.04806
G1 X98.204 Y134.367 E0.04733
G1 X98.268 Y132.860 E0.04730
G1 X98.586 Y131.386 E0.04730
G1 X99.148 Y129.986 E0.04730
G1 X99.939 Y128.701 E0.04730
G1 X100.919 Y127.588 E0.04651
G1 X102.109 Y126.621 E0.04806
G1 X103.426 Y125.885 E0.04733
G1 X104.849 Y125.383 E0.04730
G1 X106.336 Y125.128 E0.04730
G1 X107.844 Y125.128 E0.04730
G1 X109.306 Y125.379 E0.04651
G1 X110.753 Y125.885 E0.04806
G1 X112.071 Y126.621 E0.04733
G1 X113.244 Y127.569 E0.04730
G1 X114.241 Y128.701 E0.04730
G1 X115.032 Y129.986 E0.04730
G1 X115.585 Y131.362 E0.04650
G1 X115.912 Y132.859 E0.04806
G1 X115.974 Y134.308 E0.04545
G1 X115.597 Y134.324 F10800.000
G1 F1200
G1 X115.415 Y135.784 E0.04615
G1 X114.992 Y137.165 E0.04529
G1 X114.341 Y138.455 E0.04529
G1 X113.483 Y139.616 E0.04529
G1 X112.440 Y140.616 E0.04529
G1 X111.243 Y141.424 E0.04529
G1 X109.927 Y142.019 E0.04529
G1 X108.529 Y142.383 E0.04529
G1 X107.090 Y142.506 E0.04529
G1 X105.651 Y142.383 E0.04529
G1 X104.253 Y142.019 E0.04529
G1 X102.937 Y141.424 E0.04529
G1 X101.740 Y140.616 E0.04529
G1 X100.697 Y139.616 E0.04529
G1 X99.839 Y138.455 E0.04529
G1 X99.199 Y137.187 E0.04451
G1 X98.765 Y135.784 E0.04604
G1 X98.582 Y134.351 E0.04530
G1 X98.643 Y132.908 E0.04529
G1 X98.948 Y131.496 E0.04529
G1 X99.486 Y130.156 E0.04529
G1 X100.243 Y128.926 E0.04529
G1 X101.181 Y127.861 E0.04451
G1 X102.321 Y126.935 E0.04604
G1 X103.582 Y126.230 E0.04530
G1 X104.944 Y125.749 E0.04529
G1 X106.368 Y125.505 E0.04529
G1 X107.812 Y125.505 E0.04529
G1 X109.211 Y125.745 E0.04451
G1 X110.597 Y126.230 E0.04604
G1 X111.859 Y126.935 E0.04530
G1 X112.982 Y127.842 E0.04529
G1 X113.937 Y128.926 E0.04529
G1 X114.694 Y130.156 E0.04529
G1 X115.223 Y131.473 E0.04451
G1 X115.537 Y132.908 E0.04604
G1 X115.594 Y134.264 E0.04254
G1 X115.935 Y134.537 F10800.000
G1 X116.117 Y134.286
G1 F1200
G1 X116.178 Y132.860 E0.04474
G1 X116.496 Y131.386 E0.04730
G1 X117.058 Y129.986 E0.04730
G1 X117.849 Y128.701 E0.04730
G1 X118.846 Y127.569 E0.04730
G1 X120.019 Y126.621 E0.04730
G1 X121.336 Y125.885 E0.04730
G1 X122.759 Y125.383 E0.04730
G1 X124.246 Y125.128 E0.04730
G1 X125.754 Y125.128 E0.04730
G1 X127.216 Y125.379 E0.04650
G1 X128.663 Y125.885 E0.04806
G1 X129.981 Y126.621 E0.04733
G1 X131.154 Y127.569 E0.04730
G1 X132.151 Y128.701 E0.04730
G1 X132.942 Y129.986 E0.04730
G1 X133.495 Y131.362 E0.04651
G1 X133.822 Y132.859 E0.04806
G1 X133.886 Y134.367 E0.04733
G1 X133.695 Y135.864 E0.04730
G1 X133.253 Y137.306 E0.04730
G1 X132.574 Y138.653 E0.04730
G1 X131.677 Y139.866 E0.04730
G1 X130.588 Y140.910 E0.04730
G1 X129.338 Y141.755 E0.04730
G1 X127.963 Y142.376 E0.04730
G1 X126.503 Y142.756 E0.04730
G1 X125.000 Y142.884 E0.04730
G1 X123.497 Y142.756 E0.04730
G1 X122.037 Y142.376 E0.04730
G1 X120.662 Y141.755 E0.04730
G1 X119.412 Y140.910 E0.04730
G1 X118.323 Y139.866 E0.04730
G1 X117.426 Y138.653 E0.04730
G1 X116.759 Y137.329 E0.04651
G1 X116.306 Y135.865 E0.04806
G1 X116.115 Y134.346 E0.04800
G1 X116.492 Y134.351 F10800.000
G1 F1200
G1 X116.553 Y132.908 E0.04529
G1 X116.858 Y131.496 E0.04529
G1 X117.396 Y130.156 E0.04529
G1 X118.153 Y128.926 E0.04529
G1 X119.108 Y127.842 E0.04529
G1 X120.231 Y126.935 E0.04529
G1 X121.492 Y126.230 E0.04529
G1 X122.854 Y125.749 E0.04529
G1 X124.278 Y125.505 E0.04529
G1 X125.722 Y125.505 E0.04529
G1 X127.121 Y125.745 E0.04451
G1 X128.507 Y126.230 E0.04604
G1 X129.769 Y126.935 E0.04530
G1 X130.892 Y127.842 E0.04529
G1 X131.847 Y128.926 E0.04529
G1 X132.604 Y130.156 E0.04529
G1 X133.133 Y131.473 E0.04451
G1 X133.447 Y132.908 E0.04604
G1 X133.508 Y134.351 E0.04530
G1 X133.325 Y135.784 E0.04529
G1 X132.902 Y137.165 E0.04529
G1 X132.251 Y138.455 E0.04529
G1 X131.393 Y139.616 E0.04529
G1 X130.350 Y140.616 E0.04529
G1 X129.153 Y141.424 E0.04529
G1 X127.837 Y142.019 E0.04529
G1 X126.439 Y142.383 E0.04529
G1 X125.000 Y142.506 E0.04529
G1 X123.561 Y142.383 E0.04529
G1 X122.163 Y142.019 E0.04529
G1 X120.847 Y141.424 E0.04529
G1 X119.650 Y140.616 E0.04529
G1 X118.607 Y139.616 E0.04529
G1 X117.749 Y138.455 E0.04529
G1 X117.109 Y137.187 E0.04451
G1 X116.675 Y135.784 E0.04604
G1 X116.500 Y134.411 E0.04342
G1 X116.137 Y134.167 F10800.000
G1 F8640
G1 X116.553 Y132.908 E-0.34717
G1 X116.858 Y131.496 E-0.33351
G1 X116.986 Y131.178 E-0.07932
G1 E-0.04000 F2100.00000
G1 Z0.800 F10800.000
G1 X134.024 Y134.367
G1 Z0.200
G1 E0.80000 F2100.00000
G1 F1200
G1 X134.088 Y132.860 E0.04730
G1 X134.406 Y131.386 E0.04730
G1 X134.968 Y129.986 E0.04730
G1 X135.759 Y128.701 E0.04730
G1 X136.756 Y127.569 E0.04730
G1 X137.929 Y126.621 E0.04730
G1 X139.246 Y125.885 E0.04730
G1 X140.669 Y125.383 E0.04730
G1 X142.156 Y125.128 E0.04730
G1 X143.664 Y125.128 E0.04730
G1 X145.126 Y125.379 E0.04650
G1 X146.573 Y125.885 E0.04806
G1 X147.891 Y126.621 E0.04733
G1 X149.064 Y127.569 E0.04730
G1 X150.061 Y128.701 E0.04730
G1 X150.852 Y129.986 E0.04730
G1 X151.405 Y131.362 E0.04651
G1 X151.732 Y132.859 E0.04806
G1 X151.796 Y134.367 E0.04733
G1 X151.605 Y135.864 E0.04730
G1 X151.163 Y137.306 E0.04730
G1 X150.484 Y138.653 E0.04730
G1 X149.587 Y139.866 E0.04730
G1 X148.498 Y140.910 E0.04730
G1 X147.269 Y141.741 E0.04650
G1 X145.874 Y142.376 E0.04806
G1 X144.413 Y142.756 E0.04733
G1 X142.910 Y142.884 E0.04730
G1 X141.407 Y142.756 E0.04730
G1 X139.947 Y142.376 E0.04730
G1 X138.572 Y141.755 E0.04730
G1 X137.322 Y140.910 E0.04730
G1 X136.252 Y139.884 E0.04651
G1 X135.337 Y138.654 E0.04806
G1 X134.657 Y137.306 E0.04733
G1 X134.215 Y135.864 E0.04730
G1 X134.031 Y134.427 E0.04542
G1 X134.405 Y134.379 F10800.000
G1 F1200
G1 X134.463 Y132.908 E0.04615
G1 X134.768 Y131.496 E0.04529
G1 X135.306 Y130.156 E0.04529
G1 X136.063 Y128.926 E0.04529
G1 X137.018 Y127.842 E0.04529
G1 X138.141 Y126.935 E0.04529
G1 X139.402 Y126.230 E0.04529
G1 X140.764 Y125.749 E0.04529
G1 X142.188 Y125.505 E0.04529
G1 X143.632 Y125.505 E0.04529
G1 X145.031 Y125.745 E0.04451
G1 X146.417 Y126.230 E0.04604
G1 X147.679 Y126.935 E0.04530
G1 X148.802 Y127.842 E0.04529
G1 X149.757 Y128.926 E0.04529
G1 X150.514 Y130.156 E0.04529
G1 X151.043 Y131.473 E0.04451
G1 X151.357 Y132.908 E0.04604
G1 X151.418 Y134.351 E0.04530
G1 X151.235 Y135.784 E0.04529
G1 X150.812 Y137.165 E0.04529
G1 X150.161 Y138.455 E0.04529
G1 X149.303 Y139.616 E0.04529
G1 X148.260 Y140.616 E0.04529
G1 X147.084 Y141.410 E0.04451
G1 X145.747 Y142.019 E0.04604
G1 X144.349 Y142.383 E0.04530
G1 X142.910 Y142.506 E0.04529
G1 X141.471 Y142.383 E0.04529
G1 X140.073 Y142.019 E0.04529
G1 X138.757 Y141.424 E0.04529
G1 X137.560 Y140.616 E0.04529
G1 X136.535 Y139.633 E0.04451
G1 X135.659 Y138.455 E0.04604
G1 X135.008 Y137.165 E0.04530
G1 X134.585 Y135.784 E0.04529
G1 X134.413 Y134.439 E0.04253
G1 X134.050 Y134.195 F10800.000
G1 F8640
G1 X134.463 Y132.908 E-0.35353
G1 X134.768 Y131.496 E-0.33351
G1 X134.885 Y131.203 E-0.07296
G1 E-0.04000 F2100.00000
G1 Z0.800 F10800.000
G1 X152.875 Y146.786
G1 Z0.200
G1 E0.80000 F2100.00000
G1 F1200
G1 X97.125 Y146.786 E1.74802
G1 X97.125 Y121.194 E0.80243
G1 X152.875 Y121.194 E1.74802
G1 X152.875 Y146.726 E0.80054
G1 X153.252 Y147.163 F10800.000
G1 F1200
G1 X96.748 Y147.163 E1.77166
G1 X96.748 Y120.817 E0.82607
G1 X153.252 Y120.817 E1.77166
G1 X153.252 Y147.103 E0.82419
G1 X152.857 Y147.105 F10800.000
G1 F8640
G1 X149.961 Y147.107 E-0.76000
G1 E-0.04000 F2100.00000
G1 Z0.800 F10800.000
G1 X152.762 Y131.725
G1 Z0.200
G1 E0.80000 F2100.00000
G1 F1200
G1 X151.247 Y130.210 E0.06757
