; generated by PrusaSlicer 2.1.0+ on 2019-09-23 at 22:06:15 UTC

; 

; external perimeters extrusion width = 0.45mm
; perimeters extrusion width = 0.45mm
; infill extrusion width = 0.45mm
; solid infill extrusion width = 0.45mm
; top infill extrusion width = 0.40mm
; support material extrusion width = 0.35mm
; first layer extrusion width = 0.42mm

M73 P0 R81
M73 Q0 S82
M201 X1000 Y1000 Z1000 E5000 ; sets maximum accelerations, mm/sec^2
M203 X200 Y200 Z12 E120 ; sets maximum feedrates, mm/sec
M204 P1250 R1250 T1250 ; sets acceleration (P, T) and retract acceleration (R), mm/sec^2
M205 X8.00 Y8.00 Z0.40 E1.50 ; sets the jerk limits, mm/sec
M205 S0 T0 ; sets the minimum extruding and travel feed rate, mm/sec
M107
M862.3 P "MK3S" ; printer model check
M862.1 P0.4 ; nozzle diameter check
M115 U3.8.0 ; tell printer latest fw version
G90 ; use absolute coordinates
M83 ; extruder relative mode
M104 S215 ; set extruder temp
M140 S60 ; set bed temp
M190 S60 ; wait for bed temp
M109 S215 ; wait for extruder temp
G28 W ; home all without mesh bed level
G80 ; mesh bed leveling
G1 Y-3.0 F1000.0 ; go outside print area
G92 E0.0
G1 X60.0 E9.0 F1000.0 ; intro line
M73 Q0 S82
M73 P0 R81
G1 X100.0 E12.5 F1000.0 ; intro line
G92 E0.0
M221 S95
G21 ; set units to millimeters
G90 ; use absolute coordinates
M83 ; use relative distances for extrusion
M900 K30 ; Filament gcode
;BEFORE_LAYER_CHANGE
G92 E0.0
;0.2


G1 E-0.80000 F2100.00000
G1 Z0.600 F10800.000
;AFTER_LAYER_CHANGE
;0.2
G1 X95.634 Y73.180
G1 Z0.200
G1 E0.80000 F2100.00000
M204 S1000
G1 F1200
G1 X96.500 Y72.991 E0.02777
G1 X153.480 Y72.991 E1.78658
G1 X154.303 Y73.153 E0.02631
G1 X155.005 Y73.613 E0.02631
G1 X155.482 Y74.304 E0.02631
G1 X155.664 Y75.123 E0.02631
G1 X155.665 Y134.842 E1.87246
G1 X155.511 Y135.627 E0.02507
G1 X155.085 Y136.304 E0.02507
G1 X154.359 Y136.823 E0.02799
G1 X153.482 Y137.009 E0.02810
G1 X96.502 Y137.009 E1.78658
G1 X95.717 Y136.855 E0.02507
G1 X95.040 Y136.429 E0.02507
G1 X94.521 Y135.703 E0.02799
G1 X94.335 Y134.826 E0.02810
G1 X94.335 Y75.158 E1.87086
G1 X94.489 Y74.373 E0.02507
G1 X94.915 Y73.696 E0.02507
G1 X95.586 Y73.215 E0.02589
G1 F8640
G1 X96.500 Y72.991 E-0.21728
G1 X98.850 Y72.991 E-0.54272
G1 E-0.04000 F2100.00000
G1 Z0.800 F10800.000
G1 X99.507 Y85.906
G1 Z0.200
G1 E0.80000 F2100.00000
G1 F1200
G1 X99.507 Y90.663 E0.14915
G1 X99.769 Y91.517 E0.02802
G1 X100.261 Y92.494 E0.03430
G1 X100.261 Y84.671 E0.24527
G1 X100.746 Y83.884 E0.02900
G1 X101.016 Y83.578 E0.01277
G1 X101.016 Y93.583 E0.31371
G1 X101.167 Y93.788 E0.00799
G1 X101.770 Y94.365 E0.02617
G1 X101.770 Y82.767 E0.36367
G1 X102.524 Y82.158 E0.03039
G1 X102.524 Y94.978 E0.40197
G1 X103.278 Y95.480 E0.02840
G1 X103.278 Y81.700 E0.43206
G1 X103.840 Y81.386 E0.02018
G1 X104.032 Y81.318 E0.00639
G1 X104.032 Y95.820 E0.45472
G1 X104.462 Y96.015 E0.01477
G1 X104.786 Y96.099 E0.01053
G1 X104.786 Y81.051 E0.47181
G1 X105.102 Y80.940 E0.01049
G1 X105.541 Y80.865 E0.01396
G1 X105.541 Y96.296 E0.48382
G1 X105.757 Y96.352 E0.00700
G1 X106.295 Y96.398 E0.01693
G1 X106.295 Y80.735 E0.49108
G1 X106.421 Y80.714 E0.00401
G1 X107.049 Y80.714 E0.01969
G1 X107.049 Y87.344 E0.20788
G1 X106.377 Y87.344 E0.02107
G1 X106.377 Y88.335 E0.03108
G1 X107.049 Y88.335 E0.02107
G1 X107.049 Y96.462 E0.25480
G1 X107.803 Y96.405 E0.02371
G1 X107.803 Y80.721 E0.49174
G1 X108.557 Y80.851 E0.02399
G1 X108.557 Y96.317 E0.48494
G1 X109.311 Y96.121 E0.02443
G1 X109.311 Y81.022 E0.47339
G1 X110.066 Y81.289 E0.02508
G1 X110.066 Y95.858 E0.45680
G1 X110.820 Y95.517 E0.02595
G1 X110.820 Y81.654 E0.43466
G1 X111.508 Y82.038 E0.02473
G1 X111.574 Y82.091 E0.00265
G1 X111.574 Y95.033 E0.40579
G1 X112.047 Y94.714 E0.01789
G1 X112.328 Y94.444 E0.01222
G1 X112.328 Y82.700 E0.36822
G1 X112.549 Y82.879 E0.00892
G1 X113.082 Y83.484 E0.02529
G1 X113.082 Y93.694 E0.32012
G1 X113.836 Y92.657 E0.04021
G1 X113.836 Y84.538 E0.25457
G1 X114.135 Y85.023 E0.01787
G1 X114.591 Y86.156 E0.03829
G1 X114.591 Y91.510 E0.16787
G1 F8640
G1 X114.591 Y88.219 E-0.76000
G1 E-0.04000 F2100.00000
G1 Z0.800 F10800.000
G1 X117.607 Y85.433
G1 Z0.200
G1 E0.80000 F2100.00000
G1 F1200
G1 X117.607 Y91.282 E0.18340
G1 X117.679 Y91.517 E0.00769
G1 X118.281 Y92.712 E0.04196
G1 X118.361 Y92.820 E0.00421
G1 X118.361 Y84.363 E0.26516
G1 X118.656 Y83.884 E0.01765
G1 X119.115 Y83.362 E0.02178
G1 X119.115 Y93.825 E0.32804
G1 X119.870 Y94.547 E0.03275
G1 X119.870 Y82.613 E0.37418
G1 X120.624 Y82.015 E0.03019
G1 X120.624 Y95.106 E0.41047
G1 X121.152 Y95.463 E0.01999
G1 X121.378 Y95.565 E0.00777
G1 X121.378 Y81.594 E0.43808
G1 X121.750 Y81.386 E0.01337
G1 X122.132 Y81.251 E0.01270
G1 X122.132 Y95.906 E0.45951
G1 X122.372 Y96.015 E0.00824
G1 X122.886 Y96.149 E0.01668
G1 X122.886 Y80.984 E0.47547
G1 X123.012 Y80.940 E0.00418
G1 X123.640 Y80.832 E0.01999
G1 X123.640 Y96.345 E0.48639
G1 X124.395 Y96.414 E0.02374
G1 X124.395 Y80.714 E0.49226
G1 X125.149 Y80.714 E0.02365
G1 X125.149 Y87.344 E0.20788
G1 X124.833 Y87.344 E0.00988
G1 X124.833 Y88.335 E0.03108
G1 X125.149 Y88.335 E0.00988
G1 X125.149 Y96.453 E0.25452
G1 X125.903 Y96.388 E0.02373
G1 X125.903 Y80.754 E0.49021
G1 X126.657 Y80.883 E0.02399
G1 X126.657 Y96.267 E0.48237
G1 X127.411 Y96.071 E0.02443
G1 X127.411 Y81.089 E0.46974
G1 X128.165 Y81.356 E0.02508
G1 X128.165 Y95.772 E0.45200
G1 X128.848 Y95.463 E0.02349
G1 X128.920 Y95.415 E0.00271
G1 X128.920 Y81.760 E0.42815
G1 X129.418 Y82.038 E0.01791
G1 X129.674 Y82.245 E0.01030
G1 X129.674 Y94.905 E0.39696
G1 X129.957 Y94.714 E0.01071
G1 X130.428 Y94.262 E0.02046
G1 X130.428 Y82.854 E0.35771
G1 X131.182 Y83.700 E0.03555
G1 X131.182 Y93.437 E0.30531
G1 X131.719 Y92.712 E0.02829
G1 X131.936 Y92.280 E0.01516
G1 X131.936 Y84.846 E0.23309
G1 X132.045 Y85.023 E0.00652
G1 X132.544 Y86.265 E0.04196
G1 X132.690 Y86.943 E0.02176
G1 X132.690 Y90.891 E0.12377
G1 F8640
G1 X132.690 Y87.599 E-0.76000
G1 E-0.04000 F2100.00000
G1 Z0.800 F10800.000
G1 X135.707 Y84.961
G1 Z0.200
G1 E0.80000 F2100.00000
G1 F1200
G1 X135.707 Y91.751 E0.21290
G1 X136.191 Y92.712 E0.03374
G1 X136.461 Y93.077 E0.01422
G1 X136.461 Y84.055 E0.28287
G1 X136.566 Y83.884 E0.00630
G1 X137.215 Y83.146 E0.03079
G1 X137.215 Y94.007 E0.34051
G1 X137.969 Y94.725 E0.03265
G1 X137.969 Y82.460 E0.38455
G1 X138.492 Y82.038 E0.02105
G1 X138.724 Y81.909 E0.00832
G1 X138.724 Y95.235 E0.41782
G1 X139.062 Y95.463 E0.01281
G1 X139.478 Y95.651 E0.01430
G1 X139.478 Y81.488 E0.44409
G1 X139.660 Y81.386 E0.00655
G1 X140.232 Y81.184 E0.01901
G1 X140.232 Y95.992 E0.46431
G1 X140.282 Y96.015 E0.00171
G1 X140.986 Y96.198 E0.02283
G1 X140.986 Y80.929 E0.47875
G1 X141.740 Y80.800 E0.02399
G1 X141.740 Y96.366 E0.48806
G1 X142.494 Y96.430 E0.02373
G1 X142.494 Y80.714 E0.49277
G1 X143.249 Y80.714 E0.02365
G1 X143.249 Y96.436 E0.49297
G1 X144.003 Y96.372 E0.02373
G1 X144.003 Y80.786 E0.48868
G1 X144.757 Y80.916 E0.02399
G1 X144.757 Y96.218 E0.47980
G1 X145.511 Y96.022 E0.02443
G1 X145.511 Y81.156 E0.46609
G1 X146.160 Y81.386 E0.02158
G1 X146.265 Y81.445 E0.00378
G1 X146.265 Y95.686 E0.44653
G1 X146.758 Y95.463 E0.01695
G1 X147.019 Y95.287 E0.00989
G1 X147.019 Y81.866 E0.42080
G1 X147.328 Y82.038 E0.01109
G1 X147.774 Y82.398 E0.01795
G1 X147.774 Y94.777 E0.38813
G1 X147.867 Y94.714 E0.00352
G1 X148.528 Y94.080 E0.02871
G1 X148.528 Y83.059 E0.34557
G1 X149.282 Y83.930 E0.03612
G1 X149.282 Y93.181 E0.29007
G1 X149.629 Y92.712 E0.01828
G1 X150.036 Y91.904 E0.02838
G1 X150.036 Y85.224 E0.20943
G1 X150.454 Y86.265 E0.03516
G1 X150.736 Y87.573 E0.04196
G1 X150.790 Y88.846 E0.03995
M73 Q1 S81
G1 X150.790 Y90.267 E0.04456
G1 F8640
G1 X150.790 Y88.846 E-0.32816
G1 X150.736 Y87.573 E-0.29420
G1 X150.610 Y86.990 E-0.13764
G1 E-0.04000 F2100.00000
G1 Z0.800 F10800.000
G1 X115.976 Y88.953
G1 Z0.200
G1 E0.80000 F2100.00000
M73 P1 R80
G1 F1200
G1 X115.785 Y90.449 E0.04730
G1 X115.343 Y91.892 E0.04730
G1 X114.664 Y93.239 E0.04730
G1 X113.767 Y94.451 E0.04730
G1 X112.678 Y95.495 E0.04730
G1 X111.449 Y96.326 E0.04650
G1 X110.054 Y96.961 E0.04806
G1 X108.593 Y97.342 E0.04733
G1 X107.090 Y97.469 E0.04730
G1 X105.587 Y97.342 E0.04730
G1 X104.127 Y96.961 E0.04730
G1 X102.752 Y96.340 E0.04730
G1 X101.502 Y95.495 E0.04730
G1 X100.413 Y94.451 E0.04730
G1 X99.516 Y93.239 E0.04730
G1 X98.849 Y91.914 E0.04651
G1 X98.396 Y90.450 E0.04806
G1 X98.204 Y88.953 E0.04733
G1 X98.268 Y87.446 E0.04730
G1 X98.586 Y85.971 E0.04730
G1 X99.148 Y84.571 E0.04730
G1 X99.939 Y83.286 E0.04730
G1 X100.919 Y82.173 E0.04651
G1 X102.109 Y81.207 E0.04806
G1 X103.426 Y80.471 E0.04733
G1 X104.849 Y79.968 E0.04730
G1 X106.336 Y79.713 E0.04730
G1 X107.844 Y79.713 E0.04730
G1 X109.306 Y79.964 E0.04651
G1 X110.753 Y80.470 E0.04806
G1 X112.071 Y81.206 E0.04733
G1 X113.244 Y82.154 E0.04730
G1 X114.241 Y83.286 E0.04730
G1 X115.032 Y84.571 E0.04730
G1 X115.585 Y85.947 E0.04650
G1 X115.912 Y87.445 E0.04806
G1 X115.974 Y88.893 E0.04545
G1 X115.597 Y88.909 F10800.000
G1 F1200
G1 X115.415 Y90.369 E0.04615
G1 X114.992 Y91.750 E0.04529
G1 X114.341 Y93.040 E0.04529
G1 X113.483 Y94.201 E0.04529
G1 X112.440 Y95.201 E0.04529
G1 X111.264 Y95.996 E0.04451
G1 X109.927 Y96.605 E0.04604
G1 X108.529 Y96.969 E0.04530
G1 X107.090 Y97.091 E0.04529
G1 X105.651 Y96.969 E0.04529
G1 X104.253 Y96.605 E0.04529
G1 X102.937 Y96.010 E0.04529
G1 X101.740 Y95.201 E0.04529
G1 X100.697 Y94.201 E0.04529
G1 X99.839 Y93.040 E0.04529
G1 X99.199 Y91.773 E0.04451
G1 X98.765 Y90.370 E0.04604
G1 X98.582 Y88.937 E0.04530
G1 X98.643 Y87.494 E0.04529
G1 X98.948 Y86.082 E0.04529
G1 X99.486 Y84.741 E0.04529
G1 X100.243 Y83.512 E0.04529
G1 X101.181 Y82.446 E0.04451
G1 X102.321 Y81.520 E0.04604
G1 X103.582 Y80.815 E0.04530
G1 X104.944 Y80.334 E0.04529
G1 X106.368 Y80.090 E0.04529
G1 X107.812 Y80.090 E0.04529
G1 X109.211 Y80.330 E0.04451
G1 X110.597 Y80.815 E0.04604
G1 X111.859 Y81.520 E0.04530
G1 X112.982 Y82.427 E0.04529
G1 X113.937 Y83.512 E0.04529
G1 X114.694 Y84.741 E0.04529
G1 X115.223 Y86.059 E0.04451
G1 X115.537 Y87.493 E0.04604
G1 X115.594 Y88.849 E0.04254
G1 X115.935 Y89.122 F10800.000
G1 X116.117 Y88.871
G1 F1200
G1 X116.178 Y87.446 E0.04474
G1 X116.496 Y85.971 E0.04730
G1 X117.058 Y84.571 E0.04730
G1 X117.849 Y83.286 E0.04730
G1 X118.846 Y82.154 E0.04730
G1 X120.019 Y81.206 E0.04730
G1 X121.336 Y80.471 E0.04730
G1 X122.759 Y79.968 E0.04730
G1 X124.246 Y79.713 E0.04730
G1 X125.754 Y79.713 E0.04730
G1 X127.216 Y79.964 E0.04650
G1 X128.663 Y80.470 E0.04806
G1 X129.981 Y81.206 E0.04733
G1 X131.154 Y82.154 E0.04730
G1 X132.151 Y83.286 E0.04730
G1 X132.942 Y84.571 E0.04730
G1 X133.495 Y85.947 E0.04651
G1 X133.822 Y87.445 E0.04806
G1 X133.886 Y88.953 E0.04733
G1 X133.695 Y90.449 E0.04730
G1 X133.253 Y91.892 E0.04730
G1 X132.574 Y93.239 E0.04730
G1 X131.677 Y94.451 E0.04730
G1 X130.588 Y95.495 E0.04730
G1 X129.359 Y96.326 E0.04650
G1 X127.964 Y96.961 E0.04806
G1 X126.503 Y97.342 E0.04733
G1 X125.000 Y97.469 E0.04730
G1 X123.497 Y97.342 E0.04730
G1 X122.037 Y96.961 E0.04730
G1 X120.662 Y96.340 E0.04730
G1 X119.412 Y95.495 E0.04730
G1 X118.323 Y94.451 E0.04730
G1 X117.426 Y93.239 E0.04730
G1 X116.759 Y91.914 E0.04651
G1 X116.306 Y90.450 E0.04806
G1 X116.115 Y88.931 E0.04800
G1 X116.492 Y88.937 F10800.000
G1 F1200
G1 X116.553 Y87.494 E0.04529
G1 X116.858 Y86.082 E0.04529
G1 X117.396 Y84.741 E0.04529
G1 X118.153 Y83.512 E0.04529
G1 X119.108 Y82.427 E0.04529
G1 X120.231 Y81.520 E0.04529
G1 X121.492 Y80.815 E0.04529
G1 X122.854 Y80.334 E0.04529
G1 X124.278 Y80.090 E0.04529
G1 X125.722 Y80.090 E0.04529
G1 X127.121 Y80.330 E0.04451
G1 X128.507 Y80.815 E0.04604
G1 X129.769 Y81.520 E0.04530
G1 X130.892 Y82.427 E0.04529
G1 X131.847 Y83.512 E0.04529
G1 X132.604 Y84.741 E0.04529
G1 X133.133 Y86.059 E0.04451
G1 X133.447 Y87.493 E0.04604
G1 X133.508 Y88.937 E0.04530
G1 X133.325 Y90.369 E0.04529
G1 X132.902 Y91.750 E0.04529
G1 X132.251 Y93.040 E0.04529
G1 X131.393 Y94.201 E0.04529
G1 X130.350 Y95.201 E0.04529
G1 X129.174 Y95.996 E0.04451
G1 X127.837 Y96.605 E0.04604
G1 X126.439 Y96.969 E0.04530
G1 X125.000 Y97.091 E0.04529
G1 X123.561 Y96.969 E0.04529
G1 X122.163 Y96.605 E0.04529
G1 X120.847 Y96.010 E0.04529
G1 X119.650 Y95.201 E0.04529
G1 X118.607 Y94.201 E0.04529
G1 X117.749 Y93.040 E0.04529
G1 X117.109 Y91.773 E0.04451
G1 X116.675 Y90.370 E0.04604
G1 X116.500 Y88.996 E0.04342
G1 X116.137 Y88.752 F10800.000
G1 F8640
G1 X116.553 Y87.494 E-0.34717
G1 X116.858 Y86.082 E-0.33351
G1 X116.986 Y85.763 E-0.07932
G1 E-0.04000 F2100.00000
G1 Z0.800 F10800.000
G1 X134.024 Y88.953
G1 Z0.200
G1 E0.80000 F2100.00000
G1 F1200
G1 X134.088 Y87.446 E0.04730
G1 X134.406 Y85.971 E0.04730
G1 X134.968 Y84.571 E0.04730
G1 X135.759 Y83.286 E0.04730
G1 X136.756 Y82.154 E0.04730
G1 X137.929 Y81.206 E0.04730
G1 X139.246 Y80.471 E0.04730
G1 X140.669 Y79.968 E0.04730
G1 X142.156 Y79.713 E0.04730
G1 X143.664 Y79.713 E0.04730
G1 X145.126 Y79.964 E0.04650
G1 X146.573 Y80.470 E0.04806
G1 X147.891 Y81.206 E0.04733
G1 X149.064 Y82.154 E0.04730
G1 X150.061 Y83.286 E0.04730
G1 X150.852 Y84.571 E0.04730
G1 X151.405 Y85.947 E0.04651
G1 X151.732 Y87.445 E0.04806
G1 X151.796 Y88.953 E0.04733
G1 X151.605 Y90.449 E0.04730
G1 X151.163 Y91.892 E0.04730
G1 X150.484 Y93.239 E0.04730
G1 X149.587 Y94.451 E0.04730
G1 X148.498 Y95.495 E0.04730
G1 X147.269 Y96.326 E0.04650
G1 X145.874 Y96.961 E0.04806
G1 X144.413 Y97.342 E0.04733
G1 X142.910 Y97.469 E0.04730
G1 X141.407 Y97.342 E0.04730
G1 X139.947 Y96.961 E0.04730
G1 X138.572 Y96.340 E0.04730
G1 X137.322 Y95.495 E0.04730
G1 X136.252 Y94.469 E0.04651
G1 X135.337 Y93.239 E0.04806
G1 X134.657 Y91.892 E0.04733
G1 X134.215 Y90.449 E0.04730
G1 X134.031 Y89.012 E0.04542
G1 X134.405 Y88.964 F10800.000
G1 F1200
G1 X134.463 Y87.494 E0.04615
G1 X134.768 Y86.082 E0.04529
G1 X135.306 Y84.741 E0.04529
G1 X136.063 Y83.512 E0.04529
G1 X137.018 Y82.427 E0.04529
G1 X138.141 Y81.520 E0.04529
G1 X139.402 Y80.815 E0.04529
G1 X140.764 Y80.334 E0.04529
G1 X142.188 Y80.090 E0.04529
G1 X143.632 Y80.090 E0.04529
G1 X145.031 Y80.330 E0.04451
G1 X146.417 Y80.815 E0.04604
G1 X147.679 Y81.520 E0.04530
G1 X148.802 Y82.427 E0.04529
G1 X149.757 Y83.512 E0.04529
G1 X150.514 Y84.741 E0.04529
G1 X151.043 Y86.059 E0.04451
G1 X151.357 Y87.493 E0.04604
G1 X151.418 Y88.937 E0.04530
G1 X151.235 Y90.369 E0.04529
G1 X150.812 Y91.750 E0.04529
G1 X150.161 Y93.040 E0.04529
G1 X149.303 Y94.201 E0.04529
G1 X148.260 Y95.201 E0.04529
G1 X147.084 Y95.996 E0.04451
G1 X145.747 Y96.605 E0.04604
G1 X144.349 Y96.969 E0.04530
G1 X142.910 Y97.091 E0.04529
G1 X141.471 Y96.969 E0.04529
G1 X140.073 Y96.605 E0.04529
G1 X138.757 Y96.010 E0.04529
G1 X137.560 Y95.201 E0.04529
G1 X136.535 Y94.219 E0.04451
G1 X135.659 Y93.040 E0.04604
G1 X135.008 Y91.750 E0.04530
G1 X134.585 Y90.369 E0.04529
G1 X134.413 Y89.024 E0.04253
G1 X134.050 Y88.780 F10800.000
G1 F8640
G1 X134.463 Y87.494 E-0.35353
G1 X134.768 Y86.082 E-0.33351
G1 X134.885 Y85.788 E-0.07296
G1 E-0.04000 F2100.00000
G1 Z0.800 F10800.000
G1 X152.875 Y101.371
G1 Z0.200
G1 E0.80000 F2100.00000
G1 F1200
G1 X97.125 Y101.371 E1.74802
G1 X97.125 Y75.779 E0.80243
G1 X152.875 Y75.779 E1.74802
G1 X152.875 Y101.311 E0.80054
G1 X153.252 Y101.748 F10800.000
G1 F1200
G1 X96.748 Y101.748 E1.77166
G1 X96.748 Y75.402 E0.82607
G1 X153.252 Y75.402 E1.77166
G1 X153.252 Y101.688 E0.82419
G1 X152.857 Y101.690 F10800.000
G1 F8640
G1 X149.961 Y101.692 E-0.76000
G1 E-0.04000 F2100.00000
G1 Z0.800 F10800.000
G1 X152.762 Y86.310
G1 Z0.200
G1 E0.80000 F2100.00000
G1 F1200
G1 X151.247 Y84.795 E0.06757
G1 X151.607 Y85.691 E0.03046
G1 X152.592 Y86.677 E0.04394
G1 X152.592 Y87.213 E0.01690
G1 X151.797 Y86.418 E0.03546
G1 X151.947 Y87.104 E0.02214
G1 X152.592 Y87.749 E0.02877
G1 X152.592 Y88.286 E0.01690
G1 X152.027 Y87.720 E0.02522
G1 X152.051 Y88.280 E0.01767
G1 X152.592 Y88.822 E0.02416
G1 X152.592 Y89.358 E0.01690
G1 X152.074 Y88.840 E0.02309
G1 X152.080 Y88.965 E0.00394
G1 X152.032 Y89.334 E0.01174
G1 X152.592 Y89.894 E0.02497
G1 X152.592 Y90.430 E0.01690
G1 X151.972 Y89.809 E0.02768
G1 X151.911 Y90.285 E0.01511
G1 X152.592 Y90.967 E0.03039
G1 X152.592 Y91.503 E0.01690
G1 X151.816 Y90.726 E0.03464
G1 X151.690 Y91.136 E0.01353
G1 X152.592 Y92.039 E0.04024
G1 X152.592 Y92.575 E0.01690
