; generated by PrusaSlicer 2.2.0+win64 on 2020-12-14 at 23:53:27 UTC

; 

; external perimeters extrusion width = 0.45mm
; perimeters extrusion width = 0.45mm
; infill extrusion width = 0.45mm
; solid infill extrusion width = 0.45mm
; top infill extrusion width = 0.40mm
; first layer extrusion width = 0.42mm

M73 P0 R97
M73 Q0 S98
M201 X1000 Y1000 Z1000 E5000 ; sets maximum accelerations, mm/sec^2
M203 X200 Y200 Z12 E120 ; sets maximum feedrates, mm/sec
M204 P1250 R1250 T1250 ; sets acceleration (P, T) and retract acceleration (R), mm/sec^2
M205 X8.00 Y8.00 Z0.40 E1.50 ; sets the jerk limits, mm/sec
M205 S0 T0 ; sets the minimum extruding and travel feed rate, mm/sec
M107
M862.3 P "MK3S" ; printer model check
M862.1 P0.4 ; nozzle diameter check
M115 U3.8.0 ; tell printer latest fw version
G90 ; use absolute coordinates
M83 ; extruder relative mode
M104 S215 ; set extruder temp
M140 S60 ; set bed temp
M190 S60 ; wait for bed temp
M109 S215 ; wait for extruder temp
G28 W ; home all without mesh bed level
G80 ; mesh bed leveling
G1 Y-3.0 F1000.0 ; go outside print area
G92 E0.0
G1 X60.0 E9.0 F1000.0 ; intro line
M73 Q0 S97
M73 P0 R97
G1 X100.0 E12.5 F1000.0 ; intro line
G92 E0.0
M221 S95
G21 ; set units to millimeters
G90 ; use absolute coordinates
M83 ; use relative distances for extrusion
M900 K0.05 ; Filament gcode LA 1.5
M900 K30 ; Filament gcode LA 1.0
;BEFORE_LAYER_CHANGE
G92 E0.0
;0.2


G1 E-0.80000 F2100.00000
G1 Z0.600 F10800.000
;AFTER_LAYER_CHANGE
;0.2
G1 X135.304 Y102.141
G1 Z0.200
G1 E0.80000 F2100.00000
M204 S1000
G1 F1200.000
G1 X135.639 Y101.806 E0.01486
G1 X136.028 Y101.534 E0.01486
G1 X136.457 Y101.334 E0.01486
G1 X136.915 Y101.211 E0.01486
G1 X137.387 Y101.170 E0.01486
G1 X137.860 Y101.211 E0.01486
G1 X138.317 Y101.334 E0.01486
G1 X138.747 Y101.534 E0.01486
G1 X139.135 Y101.806 E0.01486
G1 X139.471 Y102.141 E0.01486
G1 X139.742 Y102.529 E0.01486
G1 X139.943 Y102.959 E0.01486
G1 X140.065 Y103.417 E0.01486
G1 X140.107 Y103.889 E0.01486
G1 X140.065 Y104.361 E0.01486
G1 X139.943 Y104.819 E0.01486
G1 X139.742 Y105.249 E0.01486
G1 X139.471 Y105.637 E0.01486
G1 X139.135 Y105.972 E0.01486
G1 X138.747 Y106.244 E0.01486
G1 X138.317 Y106.444 E0.01486
G1 X137.860 Y106.567 E0.01486
G1 X137.387 Y106.608 E0.01486
G1 X136.915 Y106.567 E0.01486
G1 X136.457 Y106.444 E0.01486
G1 X136.028 Y106.244 E0.01486
G1 X135.639 Y105.972 E0.01486
G1 X135.304 Y105.637 E0.01486
G1 X135.032 Y105.249 E0.01486
G1 X134.832 Y104.819 E0.01486
G1 X134.709 Y104.361 E0.01486
G1 X134.668 Y103.889 E0.01486
G1 X134.709 Y103.417 E0.01486
G1 X134.832 Y102.959 E0.01486
G1 X135.032 Y102.529 E0.01486
G1 X135.270 Y102.190 E0.01298
G1 X135.579 Y102.406 F10800.000
G1 F1200.000
G1 X135.883 Y102.096 E0.01363
G1 X136.217 Y101.862 E0.01279
G1 X136.587 Y101.689 E0.01279
G1 X136.981 Y101.584 E0.01279
G1 X137.387 Y101.548 E0.01279
G1 X137.794 Y101.584 E0.01279
G1 X138.188 Y101.689 E0.01279
G1 X138.558 Y101.862 E0.01279
G1 X138.892 Y102.096 E0.01279
G1 X139.181 Y102.384 E0.01279
G1 X139.415 Y102.719 E0.01279
G1 X139.587 Y103.088 E0.01279
G1 X139.693 Y103.482 E0.01279
G1 X139.728 Y103.889 E0.01279
G1 X139.693 Y104.295 E0.01279
G1 X139.587 Y104.690 E0.01279
G1 X139.415 Y105.059 E0.01279
G1 X139.181 Y105.394 E0.01279
G1 X138.892 Y105.682 E0.01279
G1 X138.558 Y105.916 E0.01279
G1 X138.188 Y106.089 E0.01279
G1 X137.794 Y106.194 E0.01279
G1 X137.387 Y106.230 E0.01279
G1 X136.981 Y106.194 E0.01279
G1 X136.587 Y106.089 E0.01279
G1 X136.217 Y105.916 E0.01279
G1 X135.883 Y105.682 E0.01279
G1 X135.594 Y105.394 E0.01279
G1 X135.360 Y105.059 E0.01279
G1 X135.188 Y104.690 E0.01279
G1 X135.082 Y104.295 E0.01279
G1 X135.047 Y103.889 E0.01279
G1 X135.082 Y103.482 E0.01279
G1 X135.188 Y103.088 E0.01279
G1 X135.360 Y102.719 E0.01279
G1 X135.544 Y102.456 E0.01007
G1 X135.439 Y102.032 F10800.000
G1 X135.288 Y102.127
G1 F1200.000
G1 X135.621 Y101.794 E0.01479
G1 X136.018 Y101.515 E0.01518
G1 X136.450 Y101.314 E0.01496
G1 X136.911 Y101.190 E0.01498
G1 X137.388 Y101.148 E0.01501
G1 X137.863 Y101.190 E0.01494
G1 X138.328 Y101.315 E0.01510
G1 X138.758 Y101.515 E0.01487
G1 X139.149 Y101.789 E0.01498
G1 X139.487 Y102.127 E0.01498
G1 X139.761 Y102.518 E0.01498
G1 X139.963 Y102.952 E0.01498
G1 X140.086 Y103.413 E0.01498
G1 X140.128 Y103.889 E0.01498
G1 X140.086 Y104.365 E0.01498
G1 X139.963 Y104.826 E0.01498
G1 X139.761 Y105.259 E0.01498
G1 X139.486 Y105.652 E0.01503
G1 X139.145 Y105.991 E0.01507
G1 X138.758 Y106.262 E0.01484
G1 X138.327 Y106.463 E0.01489
G1 X137.863 Y106.588 E0.01507
G1 X137.387 Y106.630 E0.01497
G1 X136.911 Y106.588 E0.01498
G1 X136.450 Y106.464 E0.01498
G1 X136.017 Y106.262 E0.01498
G1 X135.625 Y105.988 E0.01502
G1 X135.288 Y105.651 E0.01492
G1 X135.011 Y105.254 E0.01517
G1 X134.812 Y104.826 E0.01480
G1 X134.688 Y104.365 E0.01498
G1 X134.647 Y103.889 E0.01498
G1 X134.688 Y103.413 E0.01498
G1 X134.812 Y102.952 E0.01498
G1 X135.016 Y102.515 E0.01512
G1 X135.253 Y102.176 E0.01296
G1 X134.945 Y101.960 F10800.000
G1 F1200.000
G1 X134.998 Y101.884 E0.00291
G1 X135.378 Y101.504 E0.01685
G1 X135.828 Y101.188 E0.01725
G1 X136.321 Y100.958 E0.01704
G1 X136.846 Y100.817 E0.01705
G1 X137.389 Y100.770 E0.01708
G1 X137.929 Y100.817 E0.01701
G1 X138.458 Y100.959 E0.01717
G1 X138.947 Y101.188 E0.01693
G1 X139.392 Y101.499 E0.01705
G1 X139.777 Y101.884 E0.01705
G1 X140.089 Y102.329 E0.01704
G1 X140.318 Y102.822 E0.01705
G1 X140.459 Y103.347 E0.01705
G1 X140.507 Y103.889 E0.01705
G1 X140.459 Y104.431 E0.01705
G1 X140.318 Y104.956 E0.01705
G1 X140.089 Y105.449 E0.01705
G1 X139.776 Y105.895 E0.01710
G1 X139.388 Y106.281 E0.01714
G1 X138.947 Y106.590 E0.01690
G1 X138.457 Y106.819 E0.01696
G1 X137.929 Y106.961 E0.01714
G1 X137.387 Y107.008 E0.01705
G1 X136.846 Y106.961 E0.01705
G1 X136.321 Y106.820 E0.01705
G1 X135.828 Y106.590 E0.01705
G1 X135.381 Y106.277 E0.01709
G1 X134.998 Y105.894 E0.01700
G1 X134.683 Y105.443 E0.01724
G1 X134.456 Y104.956 E0.01686
G1 X134.316 Y104.431 E0.01705
G1 X134.268 Y103.889 E0.01705
G1 X134.316 Y103.347 E0.01705
G1 X134.456 Y102.822 E0.01706
G1 X134.689 Y102.325 E0.01719
G1 X134.910 Y102.009 E0.01211
G1 X135.037 Y101.965 F10800.000
G1 E-0.80000 F2100.00000
G1 Z0.800 F10800.000
G1 X129.002 Y103.388
G1 Z0.200
G1 E0.80000 F2100.00000
G1 F1200.000
G1 X129.118 Y102.423 E0.03050
G1 X132.704 Y82.593 E0.63184
G1 X132.911 Y81.833 E0.02467
G1 X133.264 Y81.083 E0.02599
G1 X133.741 Y80.406 E0.02599
G1 X134.329 Y79.821 E0.02599
G1 X135.009 Y79.347 E0.02599
G1 X135.761 Y78.997 E0.02599
G1 X136.562 Y78.784 E0.02599
G1 X137.387 Y78.712 E0.02599
G1 X138.213 Y78.784 E0.02599
G1 X139.014 Y78.997 E0.02599
G1 X139.766 Y79.347 E0.02599
G1 X140.446 Y79.821 E0.02599
G1 X141.034 Y80.406 E0.02599
G1 X141.511 Y81.083 E0.02599
G1 X141.864 Y81.833 E0.02599
G1 X142.071 Y82.593 E0.02467
G1 X145.657 Y102.423 E0.63184
G1 X145.773 Y103.388 E0.03050
G1 X145.773 Y104.390 E0.03140
G1 X145.657 Y105.355 E0.03050
G1 X142.071 Y125.185 E0.63184
G1 X141.864 Y125.945 E0.02467
G1 X141.511 Y126.695 E0.02599
G1 X141.034 Y127.372 E0.02599
G1 X140.446 Y127.957 E0.02599
G1 X139.766 Y128.431 E0.02599
G1 X139.014 Y128.780 E0.02599
G1 X138.213 Y128.994 E0.02599
G1 X137.387 Y129.066 E0.02599
G1 X136.562 Y128.994 E0.02599
G1 X135.761 Y128.780 E0.02599
G1 X135.009 Y128.431 E0.02599
G1 X134.329 Y127.957 E0.02599
G1 X133.741 Y127.372 E0.02599
G1 X133.264 Y126.695 E0.02599
G1 X132.911 Y125.945 E0.02599
G1 X132.704 Y125.185 E0.02467
G1 X129.118 Y105.355 E0.63184
G1 X129.002 Y104.390 E0.03050
G1 X129.002 Y103.448 E0.02952
G1 E-0.80000 F2100.00000
G1 Z0.800 F10800.000
G1 X130.167 Y98.739
G1 Z0.200
G1 E0.80000 F2100.00000
G1 F1200.000
G1 X130.971 Y97.778 E0.03927
G1 X132.092 Y96.780 E0.04709
G1 X133.295 Y96.026 E0.04448
G1 X134.599 Y95.475 E0.04442
G1 X135.975 Y95.138 E0.04442
G1 X137.382 Y95.025 E0.04426
G1 X138.800 Y95.138 E0.04458
G1 X140.184 Y95.478 E0.04471
G1 X141.480 Y96.026 E0.04412
G1 X142.668 Y96.771 E0.04396
G1 X143.743 Y97.711 E0.04478
G1 X144.608 Y98.738 E0.04209
G1 X145.284 Y102.479 E0.11918
G1 X145.396 Y103.411 E0.02944
G1 X145.396 Y104.367 E0.02999
G1 X145.284 Y105.299 E0.02944
G1 X144.608 Y109.039 E0.11915
G1 X143.804 Y110.000 E0.03927
G1 X142.682 Y110.998 E0.04709
G1 X141.480 Y111.751 E0.04448
G1 X140.176 Y112.303 E0.04441
G1 X138.806 Y112.638 E0.04421
G1 X137.388 Y112.753 E0.04462
G1 X135.975 Y112.640 E0.04443
G1 X134.591 Y112.300 E0.04470
G1 X133.295 Y111.751 E0.04412
G1 X132.106 Y111.007 E0.04396
G1 X131.031 Y110.067 E0.04478
G1 X130.167 Y109.040 E0.04209
G1 X129.491 Y105.299 E0.11918
G1 X129.379 Y104.367 E0.02944
G1 X129.379 Y103.411 E0.02999
G1 X129.491 Y102.479 E0.02944
G1 X130.156 Y98.798 E0.11727
G1 X130.520 Y98.904 F10800.000
G1 F1200.000
G1 X131.242 Y98.042 E0.03527
G1 X132.320 Y97.083 E0.04523
G1 X133.469 Y96.362 E0.04254
G1 X134.718 Y95.834 E0.04252
G1 X136.036 Y95.512 E0.04252
G1 X137.382 Y95.403 E0.04236
G1 X138.739 Y95.512 E0.04268
G1 X140.065 Y95.837 E0.04281
G1 X141.306 Y96.362 E0.04223
G1 X142.443 Y97.074 E0.04208
G1 X143.473 Y97.976 E0.04293
G1 X144.254 Y98.904 E0.03804
G1 X144.911 Y102.535 E0.11568
G1 X145.019 Y103.433 E0.02838
G1 X145.019 Y104.345 E0.02857
G1 X144.911 Y105.243 E0.02838
G1 X144.255 Y108.873 E0.11567
G1 X143.533 Y109.736 E0.03527
G1 X142.455 Y110.695 E0.04523
G1 X141.306 Y111.416 E0.04254
G1 X140.056 Y111.944 E0.04252
G1 X138.746 Y112.265 E0.04232
G1 X137.387 Y112.375 E0.04272
G1 X136.035 Y112.266 E0.04253
G1 X134.710 Y111.941 E0.04280
G1 X133.469 Y111.416 E0.04223
G1 X132.332 Y110.704 E0.04208
G1 X131.301 Y109.802 E0.04293
G1 X130.520 Y108.874 E0.03804
G1 X129.864 Y105.243 E0.11568
G1 X129.756 Y104.345 E0.02838
G1 X129.756 Y103.433 E0.02857
G1 X129.864 Y102.535 E0.02838
G1 X130.510 Y98.964 E0.11379
G1 X130.319 Y98.559 F10800.000
G1 X130.266 Y98.189
G1 F1200.000
G1 X133.072 Y82.676 E0.49431
G1 X133.266 Y81.964 E0.02313
G1 X133.591 Y81.274 E0.02393
G1 X134.031 Y80.650 E0.02393
G1 X134.572 Y80.111 E0.02393
G1 X135.198 Y79.675 E0.02393
G1 X135.890 Y79.353 E0.02393
G1 X136.627 Y79.156 E0.02393
G1 X137.387 Y79.090 E0.02393
G1 X138.148 Y79.156 E0.02393
G1 X138.885 Y79.353 E0.02393
G1 X139.577 Y79.675 E0.02393
G1 X140.203 Y80.111 E0.02393
G1 X140.744 Y80.650 E0.02393
G1 X141.184 Y81.274 E0.02393
G1 X141.509 Y81.964 E0.02393
G1 X141.703 Y82.676 E0.02313
G1 X144.508 Y98.189 E0.49431
G1 X142.341 Y96.511 E0.08595
G1 X141.216 Y95.871 E0.04058
G1 X139.985 Y95.391 E0.04142
G1 X138.696 Y95.099 E0.04147
G1 X137.387 Y95.003 E0.04113
G1 X136.079 Y95.099 E0.04113
G1 X134.789 Y95.391 E0.04147
G1 X133.558 Y95.871 E0.04142
G1 X132.434 Y96.511 E0.04058
G1 X130.314 Y98.153 E0.08407
G1 X130.812 Y97.290 F10800.000
G1 F1200.000
G1 X133.440 Y82.759 E0.46299
G1 X133.621 Y82.095 E0.02158
G1 X133.918 Y81.464 E0.02187
G1 X134.320 Y80.894 E0.02187
G1 X134.814 Y80.402 E0.02187
G1 X135.386 Y80.003 E0.02187
G1 X136.019 Y79.709 E0.02187
G1 X136.693 Y79.529 E0.02187
G1 X137.387 Y79.469 E0.02187
G1 X138.082 Y79.529 E0.02187
G1 X138.756 Y79.709 E0.02187
G1 X139.388 Y80.003 E0.02187
G1 X139.961 Y80.402 E0.02187
G1 X140.455 Y80.894 E0.02187
G1 X140.857 Y81.464 E0.02187
G1 X141.154 Y82.095 E0.02187
G1 X141.335 Y82.759 E0.02158
G1 X143.963 Y97.290 E0.46299
G1 X142.551 Y96.197 E0.05598
G1 X141.379 Y95.529 E0.04228
G1 X140.096 Y95.030 E0.04317
G1 X138.751 Y94.725 E0.04323
G1 X137.387 Y94.625 E0.04288
G1 X136.023 Y94.725 E0.04288
G1 X134.679 Y95.030 E0.04323
G1 X133.396 Y95.529 E0.04317
G1 X132.224 Y96.197 E0.04228
G1 X130.860 Y97.253 E0.05410
G1 X130.414 Y97.322 F10800.000
G1 E-0.80000 F2100.00000
G1 Z0.800 F10800.000
G1 X130.266 Y109.588
G1 Z0.200
G1 E0.80000 F2100.00000
G1 F1200.000
G1 X132.434 Y111.267 E0.08595
G1 X133.558 Y111.907 E0.04058
G1 X134.789 Y112.387 E0.04142
G1 X136.079 Y112.678 E0.04147
G1 X137.382 Y112.775 E0.04096
G1 X138.696 Y112.678 E0.04131
G1 X139.976 Y112.390 E0.04113
G1 X141.198 Y111.917 E0.04109
G1 X142.391 Y111.231 E0.04314
G1 X144.509 Y109.584 E0.08412
G1 X141.703 Y125.102 E0.49444
G1 X141.509 Y125.814 E0.02313
G1 X141.184 Y126.504 E0.02393
G1 X140.744 Y127.128 E0.02393
G1 X140.203 Y127.666 E0.02393
G1 X139.577 Y128.103 E0.02393
G1 X138.885 Y128.425 E0.02393
G1 X138.148 Y128.622 E0.02393
G1 X137.387 Y128.688 E0.02393
G1 X136.627 Y128.622 E0.02393
G1 X135.890 Y128.425 E0.02393
G1 X135.198 Y128.103 E0.02393
G1 X134.572 Y127.666 E0.02393
G1 X134.031 Y127.128 E0.02393
G1 X133.591 Y126.504 E0.02393
G1 X133.266 Y125.814 E0.02393
G1 X133.072 Y125.102 E0.02313
G1 X130.277 Y109.647 E0.49243
G1 X130.812 Y110.488 F10800.000
G1 F1200.000
G1 X132.224 Y111.581 E0.05598
G1 X133.396 Y112.249 E0.04228
G1 X134.679 Y112.748 E0.04317
G1 X136.023 Y113.052 E0.04323
G1 X137.382 Y113.153 E0.04271
G1 X138.752 Y113.052 E0.04306
G1 X140.086 Y112.752 E0.04289
G1 X141.361 Y112.258 E0.04287
G1 X142.601 Y111.545 E0.04487
G1 X143.963 Y110.487 E0.05406
G1 X141.335 Y125.019 E0.46304
G1 X141.154 Y125.683 E0.02158
G1 X140.857 Y126.314 E0.02187
G1 X140.455 Y126.884 E0.02187
G1 X139.961 Y127.376 E0.02187
G1 X139.388 Y127.775 E0.02187
G1 X138.756 Y128.069 E0.02187
G1 X138.082 Y128.249 E0.02187
G1 X137.387 Y128.309 E0.02187
G1 X136.693 Y128.249 E0.02187
G1 X136.019 Y128.069 E0.02187
G1 X135.386 Y127.775 E0.02187
G1 X134.814 Y127.376 E0.02187
G1 X134.320 Y126.884 E0.02187
G1 X133.918 Y126.314 E0.02187
G1 X133.621 Y125.683 E0.02187
G1 X133.440 Y125.019 E0.02158
G1 X130.823 Y110.547 E0.46111
G1 X130.960 Y110.116 F10800.000
G1 X129.971 Y110.701
G1 F1200.000
G1 X129.017 Y105.432 E0.16790
G1 X128.894 Y104.404 E0.03245
G1 X128.893 Y103.398 E0.03154
G1 X129.018 Y102.345 E0.03324
G1 X132.579 Y82.655 E0.62739
G1 X132.812 Y81.797 E0.02788
G1 X133.173 Y81.031 E0.02656
G1 X133.661 Y80.338 E0.02656
G1 X134.262 Y79.740 E0.02657
G1 X134.944 Y79.264 E0.02610
G1 X135.750 Y78.892 E0.02781
G1 X136.543 Y78.681 E0.02573
G1 X137.398 Y78.607 E0.02693
G1 X138.231 Y78.680 E0.02621
G1 X139.050 Y78.899 E0.02657
G1 X139.818 Y79.256 E0.02657
G1 X140.498 Y79.730 E0.02598
G1 X141.127 Y80.356 E0.02781
G1 X141.601 Y81.030 E0.02587
G1 X141.962 Y81.797 E0.02657
G1 X142.196 Y82.655 E0.02788
G1 X145.757 Y102.346 E0.62741
G1 X145.881 Y103.374 E0.03245
G1 X145.882 Y104.380 E0.03154
G1 X145.757 Y105.433 E0.03324
G1 X142.196 Y125.123 E0.62739
G1 X141.962 Y125.981 E0.02788
G1 X141.601 Y126.748 E0.02657
G1 X141.127 Y127.422 E0.02587
G1 X140.498 Y128.048 E0.02781
G1 X139.818 Y128.522 E0.02598
G1 X139.050 Y128.879 E0.02657
G1 X138.231 Y129.098 E0.02656
G1 X137.387 Y129.171 E0.02656
G1 X136.543 Y129.098 E0.02656
G1 X135.725 Y128.879 E0.02656
G1 X134.956 Y128.522 E0.02657
G1 X134.276 Y128.048 E0.02598
G1 X133.648 Y127.422 E0.02781
G1 X133.173 Y126.748 E0.02587
G1 X132.812 Y125.981 E0.02657
G1 X132.579 Y125.123 E0.02788
G1 X129.981 Y110.760 E0.45763
G1 X129.610 Y110.827 F10800.000
G1 F1200.000
G1 X128.644 Y105.488 E0.17013
G1 X128.517 Y104.427 E0.03350
G1 X128.516 Y103.376 E0.03295
G1 X128.645 Y102.290 E0.03431
G1 X132.211 Y82.572 E0.62826
G1 X132.457 Y81.666 E0.02943
G1 X132.846 Y80.840 E0.02863
G1 X133.372 Y80.094 E0.02863
G1 X134.019 Y79.450 E0.02863
G1 X134.756 Y78.935 E0.02818
G1 X135.621 Y78.536 E0.02988
G1 X136.477 Y78.308 E0.02778
G1 X137.399 Y78.229 E0.02900
G1 X138.297 Y78.308 E0.02826
G1 X139.179 Y78.543 E0.02863
G1 X140.007 Y78.928 E0.02863
G1 X140.741 Y79.439 E0.02805
G1 X141.416 Y80.112 E0.02988
G1 X141.929 Y80.840 E0.02792
G1 X142.318 Y81.666 E0.02863
G1 X142.564 Y82.572 E0.02943
G1 X146.130 Y102.290 E0.62828
G1 X146.258 Y103.351 E0.03350
G1 X146.259 Y104.402 E0.03295
G1 X146.130 Y105.488 E0.03431
G1 X142.564 Y125.206 E0.62826
G1 X142.318 Y126.112 E0.02943
G1 X141.929 Y126.938 E0.02863
G1 X141.416 Y127.666 E0.02792
G1 X140.741 Y128.339 E0.02988
G1 X140.007 Y128.850 E0.02805
G1 X139.179 Y129.235 E0.02863
G1 X138.297 Y129.470 E0.02863
G1 X137.387 Y129.550 E0.02863
G1 X136.478 Y129.470 E0.02863
G1 X135.596 Y129.235 E0.02863
G1 X134.768 Y128.850 E0.02863
G1 X134.034 Y128.339 E0.02805
G1 X133.359 Y127.666 E0.02988
G1 X132.846 Y126.938 E0.02792
G1 X132.457 Y126.112 E0.02863
G1 X132.211 Y125.206 E0.02943
G1 X129.621 Y110.886 E0.45626
G1 X129.250 Y110.954 F10800.000
G1 F1200.000
G1 X128.271 Y105.544 E0.17237
G1 X128.140 Y104.450 E0.03455
