; generated by PrusaSlicer 2.2.0+win64 on 2020-12-15 at 00:06:27 UTC

; 

; external perimeters extrusion width = 0.45mm
; perimeters extrusion width = 0.45mm
; infill extrusion width = 0.45mm
; solid infill extrusion width = 0.45mm
; top infill extrusion width = 0.40mm
; first layer extrusion width = 0.42mm

M73 P0 R81
M73 Q0 S82
M201 X1000 Y1000 Z1000 E5000 ; sets maximum accelerations, mm/sec^2
M203 X200 Y200 Z12 E120 ; sets maximum feedrates, mm/sec
M204 P1250 R1250 T1250 ; sets acceleration (P, T) and retract acceleration (R), mm/sec^2
M205 X8.00 Y8.00 Z0.40 E1.50 ; sets the jerk limits, mm/sec
M205 S0 T0 ; sets the minimum extruding and travel feed rate, mm/sec
M107
M862.3 P "MK3S" ; printer model check
M862.1 P0.4 ; nozzle diameter check
M115 U3.8.0 ; tell printer latest fw version
G90 ; use absolute coordinates
M83 ; extruder relative mode
M104 S215 ; set extruder temp
M140 S60 ; set bed temp
M190 S60 ; wait for bed temp
M109 S215 ; wait for extruder temp
G28 W ; home all without mesh bed level
G80 ; mesh bed leveling
G1 Y-3.0 F1000.0 ; go outside print area
G92 E0.0
G1 X60.0 E9.0 F1000.0 ; intro line
M73 Q0 S82
M73 P0 R81
G1 X100.0 E12.5 F1000.0 ; intro line
G92 E0.0
M221 S95
G21 ; set units to millimeters
G90 ; use absolute coordinates
M83 ; use relative distances for extrusion
M900 K0.05 ; Filament gcode LA 1.5
M900 K30 ; Filament gcode LA 1.0
;BEFORE_LAYER_CHANGE
G92 E0.0
;0.2


G1 E-0.80000 F2100.00000
G1 Z0.600 F10800.000
;AFTER_LAYER_CHANGE
;0.2
G1 X101.341 Y109.360
G1 Z0.200
G1 E0.80000 F2100.00000
M204 S1000
G1 F1200.000
G1 X148.659 Y109.360 E1.48361
G1 X148.659 Y113.959 E0.14418
G1 X101.341 Y113.959 E1.48361
G1 X101.341 Y109.420 E0.14230
G1 X100.964 Y108.983 F10800.000
G1 F1200.000
G1 X149.036 Y108.983 E1.50725
G1 X149.036 Y114.336 E0.16783
G1 X100.964 Y114.336 E1.50725
G1 X100.964 Y109.043 E0.16595
G1 X100.587 Y108.606 F10800.000
G1 F1200.000
G1 X149.413 Y108.606 E1.53090
G1 X149.413 Y114.713 E0.19147
G1 X100.587 Y114.713 E1.53090
G1 X100.587 Y108.666 E0.18959
G1 X100.210 Y108.229 F10800.000
G1 F1200.000
G1 X149.790 Y108.229 E1.55455
G1 X149.790 Y115.090 E0.21512
G1 X100.210 Y115.090 E1.55455
G1 X100.210 Y108.289 E0.21324
G1 X100.610 Y108.247 F10800.000
G1 E-0.80000 F2100.00000
G1 Z0.800 F10800.000
G1 X148.546 Y110.241
G1 Z0.200
G1 E0.80000 F2100.00000
G1 F1200.000
G1 X147.948 Y109.643 E0.02669
G1 X147.411 Y109.643 E0.01695
G1 X148.376 Y110.608 E0.04308
G1 X148.376 Y111.145 E0.01695
G1 X146.874 Y109.643 E0.06705
G1 X146.337 Y109.643 E0.01695
G1 X148.376 Y111.682 E0.09102
G1 X148.376 Y112.219 E0.01695
G1 X145.800 Y109.643 E0.11498
G1 X145.263 Y109.643 E0.01695
G1 X148.376 Y112.756 E0.13895
G1 X148.376 Y113.293 E0.01695
G1 X144.726 Y109.643 E0.16291
G1 X144.190 Y109.643 E0.01695
G1 X148.222 Y113.676 E0.18003
G1 X147.686 Y113.676 E0.01695
G1 X143.653 Y109.643 E0.18003
G1 X143.116 Y109.643 E0.01695
G1 X147.149 Y113.676 E0.18003
G1 X146.612 Y113.676 E0.01695
G1 X142.579 Y109.643 E0.18003
G1 X142.042 Y109.643 E0.01695
G1 X146.075 Y113.676 E0.18003
G1 X145.538 Y113.676 E0.01695
G1 X141.505 Y109.643 E0.18003
G1 X140.968 Y109.643 E0.01695
G1 X145.001 Y113.676 E0.18003
G1 X144.464 Y113.676 E0.01695
G1 X140.432 Y109.643 E0.18003
G1 X139.895 Y109.643 E0.01695
G1 X143.928 Y113.676 E0.18003
G1 X143.391 Y113.676 E0.01695
G1 X139.358 Y109.643 E0.18003
G1 X138.821 Y109.643 E0.01695
G1 X142.854 Y113.676 E0.18003
G1 X142.317 Y113.676 E0.01695
G1 X138.284 Y109.643 E0.18003
G1 X137.747 Y109.643 E0.01695
G1 X141.780 Y113.676 E0.18003
G1 X141.243 Y113.676 E0.01695
G1 X137.210 Y109.643 E0.18003
G1 X136.674 Y109.643 E0.01695
G1 X140.706 Y113.676 E0.18003
G1 X140.170 Y113.676 E0.01695
G1 X136.137 Y109.643 E0.18003
G1 X135.600 Y109.643 E0.01695
G1 X139.633 Y113.676 E0.18003
G1 X139.096 Y113.676 E0.01695
G1 X135.063 Y109.643 E0.18003
G1 X134.526 Y109.643 E0.01695
G1 X138.559 Y113.676 E0.18003
G1 X138.022 Y113.676 E0.01695
G1 X133.989 Y109.643 E0.18003
G1 X133.452 Y109.643 E0.01695
G1 X137.485 Y113.676 E0.18003
G1 X136.948 Y113.676 E0.01695
G1 X132.915 Y109.643 E0.18003
G1 X132.379 Y109.643 E0.01695
G1 X136.411 Y113.676 E0.18003
G1 X135.875 Y113.676 E0.01695
G1 X131.842 Y109.643 E0.18003
G1 X131.305 Y109.643 E0.01695
G1 X135.338 Y113.676 E0.18003
G1 X134.801 Y113.676 E0.01695
G1 X130.768 Y109.643 E0.18003
G1 X130.231 Y109.643 E0.01695
G1 X134.264 Y113.676 E0.18003
G1 X133.727 Y113.676 E0.01695
G1 X129.694 Y109.643 E0.18003
G1 X129.157 Y109.643 E0.01695
G1 X133.190 Y113.676 E0.18003
G1 X132.653 Y113.676 E0.01695
G1 X128.621 Y109.643 E0.18003
G1 X128.084 Y109.643 E0.01695
G1 X132.117 Y113.676 E0.18003
G1 X131.580 Y113.676 E0.01695
G1 X127.547 Y109.643 E0.18003
G1 X127.010 Y109.643 E0.01695
G1 X131.043 Y113.676 E0.18003
G1 X130.506 Y113.676 E0.01695
G1 X126.473 Y109.643 E0.18003
G1 X125.936 Y109.643 E0.01695
G1 X129.969 Y113.676 E0.18003
G1 X129.432 Y113.676 E0.01695
G1 X125.399 Y109.643 E0.18003
G1 X124.863 Y109.643 E0.01695
G1 X128.895 Y113.676 E0.18003
G1 X128.359 Y113.676 E0.01695
G1 X124.326 Y109.643 E0.18003
G1 X123.789 Y109.643 E0.01695
G1 X127.822 Y113.676 E0.18003
G1 X127.285 Y113.676 E0.01695
G1 X123.252 Y109.643 E0.18003
G1 X122.715 Y109.643 E0.01695
G1 X126.748 Y113.676 E0.18003
G1 X126.211 Y113.676 E0.01695
G1 X122.178 Y109.643 E0.18003
G1 X121.641 Y109.643 E0.01695
G1 X125.674 Y113.676 E0.18003
G1 X125.137 Y113.676 E0.01695
G1 X121.104 Y109.643 E0.18003
G1 X120.568 Y109.643 E0.01695
G1 X124.600 Y113.676 E0.18003
G1 X124.064 Y113.676 E0.01695
G1 X120.031 Y109.643 E0.18003
G1 X119.494 Y109.643 E0.01695
G1 X123.527 Y113.676 E0.18003
G1 X122.990 Y113.676 E0.01695
G1 X118.957 Y109.643 E0.18003
G1 X118.420 Y109.643 E0.01695
G1 X122.453 Y113.676 E0.18003
G1 X121.916 Y113.676 E0.01695
G1 X117.883 Y109.643 E0.18003
G1 X117.346 Y109.643 E0.01695
G1 X121.379 Y113.676 E0.18003
G1 X120.842 Y113.676 E0.01695
G1 X116.810 Y109.643 E0.18003
G1 X116.273 Y109.643 E0.01695
G1 X120.306 Y113.676 E0.18003
G1 X119.769 Y113.676 E0.01695
G1 X115.736 Y109.643 E0.18003
G1 X115.199 Y109.643 E0.01695
G1 X119.232 Y113.676 E0.18003
G1 X118.695 Y113.676 E0.01695
G1 X114.662 Y109.643 E0.18003
G1 X114.125 Y109.643 E0.01695
G1 X118.158 Y113.676 E0.18003
G1 X117.621 Y113.676 E0.01695
G1 X113.588 Y109.643 E0.18003
G1 X113.052 Y109.643 E0.01695
G1 X117.084 Y113.676 E0.18003
G1 X116.548 Y113.676 E0.01695
G1 X112.515 Y109.643 E0.18003
G1 X111.978 Y109.643 E0.01695
G1 X116.011 Y113.676 E0.18003
G1 X115.474 Y113.676 E0.01695
G1 X111.441 Y109.643 E0.18003
G1 X110.904 Y109.643 E0.01695
G1 X114.937 Y113.676 E0.18003
G1 X114.400 Y113.676 E0.01695
G1 X110.367 Y109.643 E0.18003
G1 X109.830 Y109.643 E0.01695
G1 X113.863 Y113.676 E0.18003
G1 X113.326 Y113.676 E0.01695
G1 X109.293 Y109.643 E0.18003
G1 X108.757 Y109.643 E0.01695
G1 X112.789 Y113.676 E0.18003
G1 X112.253 Y113.676 E0.01695
G1 X108.220 Y109.643 E0.18003
G1 X107.683 Y109.643 E0.01695
G1 X111.716 Y113.676 E0.18003
G1 X111.179 Y113.676 E0.01695
G1 X107.146 Y109.643 E0.18003
G1 X106.609 Y109.643 E0.01695
G1 X110.642 Y113.676 E0.18003
G1 X110.105 Y113.676 E0.01695
G1 X106.072 Y109.643 E0.18003
G1 X105.535 Y109.643 E0.01695
G1 X109.568 Y113.676 E0.18003
G1 X109.031 Y113.676 E0.01695
G1 X104.999 Y109.643 E0.18003
G1 X104.462 Y109.643 E0.01695
G1 X108.495 Y113.676 E0.18003
G1 X107.958 Y113.676 E0.01695
G1 X103.925 Y109.643 E0.18003
G1 X103.388 Y109.643 E0.01695
G1 X107.421 Y113.676 E0.18003
G1 X106.884 Y113.676 E0.01695
G1 X102.851 Y109.643 E0.18003
G1 X102.314 Y109.643 E0.01695
G1 X106.347 Y113.676 E0.18003
G1 X105.810 Y113.676 E0.01695
G1 X101.777 Y109.643 E0.18003
G1 X101.624 Y109.643 E0.00484
G1 X101.624 Y110.027 E0.01211
G1 X105.273 Y113.676 E0.16291
G1 X104.737 Y113.676 E0.01695
G1 X101.624 Y110.563 E0.13894
G1 X101.624 Y111.100 E0.01695
G1 X104.200 Y113.676 E0.11498
G1 X103.663 Y113.676 E0.01695
G1 X101.624 Y111.637 E0.09101
G1 X101.624 Y112.174 E0.01695
G1 X103.126 Y113.676 E0.06705
G1 X102.589 Y113.676 E0.01695
G1 X101.624 Y112.711 E0.04308
G1 X101.624 Y113.248 E0.01695
G1 X102.222 Y113.846 E0.02669
G1 E-0.80000 F2100.00000
G1 Z0.800 F10800.000
G1 X101.341 Y99.659
G1 Z0.200
G1 E0.80000 F2100.00000
G1 F1200.000
G1 X101.341 Y95.060 E0.14418
G1 X148.659 Y95.060 E1.48361
G1 X148.659 Y99.659 E0.14418
G1 X101.401 Y99.659 E1.48173
M73 Q1 S81
M73 P1 R80
G1 X100.964 Y100.036 F10800.000
G1 F1200.000
G1 X100.964 Y94.683 E0.16783
G1 X149.036 Y94.683 E1.50725
G1 X149.036 Y100.036 E0.16783
G1 X101.024 Y100.036 E1.50537
G1 X100.587 Y100.413 F10800.000
G1 F1200.000
G1 X100.587 Y94.306 E0.19147
G1 X149.413 Y94.306 E1.53090
G1 X149.413 Y100.413 E0.19147
G1 X100.647 Y100.413 E1.52902
G1 X100.210 Y100.790 F10800.000
G1 F1200.000
G1 X100.210 Y93.929 E0.21512
G1 X149.790 Y93.929 E1.55455
G1 X149.790 Y100.790 E0.21512
G1 X100.270 Y100.790 E1.55266
G1 X100.394 Y100.435 F10800.000
G1 E-0.80000 F2100.00000
G1 Z0.800 F10800.000
G1 X148.546 Y95.941
G1 Z0.200
G1 E0.80000 F2100.00000
G1 F1200.000
G1 X147.948 Y95.343 E0.02669
G1 X147.411 Y95.343 E0.01695
G1 X148.376 Y96.308 E0.04308
G1 X148.376 Y96.845 E0.01695
G1 X146.874 Y95.343 E0.06705
G1 X146.337 Y95.343 E0.01695
G1 X148.376 Y97.382 E0.09102
G1 X148.376 Y97.919 E0.01695
G1 X145.800 Y95.343 E0.11498
G1 X145.263 Y95.343 E0.01695
G1 X148.376 Y98.456 E0.13895
G1 X148.376 Y98.993 E0.01695
G1 X144.726 Y95.343 E0.16291
G1 X144.190 Y95.343 E0.01695
G1 X148.222 Y99.376 E0.18003
G1 X147.686 Y99.376 E0.01695
G1 X143.653 Y95.343 E0.18003
G1 X143.116 Y95.343 E0.01695
G1 X147.149 Y99.376 E0.18003
G1 X146.612 Y99.376 E0.01695
G1 X142.579 Y95.343 E0.18003
G1 X142.042 Y95.343 E0.01695
G1 X146.075 Y99.376 E0.18003
G1 X145.538 Y99.376 E0.01695
G1 X141.505 Y95.343 E0.18003
G1 X140.968 Y95.343 E0.01695
G1 X145.001 Y99.376 E0.18003
G1 X144.464 Y99.376 E0.01695
G1 X140.432 Y95.343 E0.18003
G1 X139.895 Y95.343 E0.01695
G1 X143.928 Y99.376 E0.18003
G1 X143.391 Y99.376 E0.01695
G1 X139.358 Y95.343 E0.18003
G1 X138.821 Y95.343 E0.01695
G1 X142.854 Y99.376 E0.18003
G1 X142.317 Y99.376 E0.01695
G1 X138.284 Y95.343 E0.18003
G1 X137.747 Y95.343 E0.01695
G1 X141.780 Y99.376 E0.18003
G1 X141.243 Y99.376 E0.01695
G1 X137.210 Y95.343 E0.18003
G1 X136.674 Y95.343 E0.01695
G1 X140.706 Y99.376 E0.18003
G1 X140.170 Y99.376 E0.01695
G1 X136.137 Y95.343 E0.18003
G1 X135.600 Y95.343 E0.01695
G1 X139.633 Y99.376 E0.18003
G1 X139.096 Y99.376 E0.01695
G1 X135.063 Y95.343 E0.18003
G1 X134.526 Y95.343 E0.01695
G1 X138.559 Y99.376 E0.18003
G1 X138.022 Y99.376 E0.01695
G1 X133.989 Y95.343 E0.18003
G1 X133.452 Y95.343 E0.01695
G1 X137.485 Y99.376 E0.18003
G1 X136.948 Y99.376 E0.01695
G1 X132.915 Y95.343 E0.18003
G1 X132.379 Y95.343 E0.01695
G1 X136.411 Y99.376 E0.18003
G1 X135.875 Y99.376 E0.01695
G1 X131.842 Y95.343 E0.18003
G1 X131.305 Y95.343 E0.01695
G1 X135.338 Y99.376 E0.18003
G1 X134.801 Y99.376 E0.01695
G1 X130.768 Y95.343 E0.18003
G1 X130.231 Y95.343 E0.01695
G1 X134.264 Y99.376 E0.18003
G1 X133.727 Y99.376 E0.01695
G1 X129.694 Y95.343 E0.18003
G1 X129.157 Y95.343 E0.01695
G1 X133.190 Y99.376 E0.18003
G1 X132.653 Y99.376 E0.01695
G1 X128.621 Y95.343 E0.18003
G1 X128.084 Y95.343 E0.01695
G1 X132.117 Y99.376 E0.18003
G1 X131.580 Y99.376 E0.01695
G1 X127.547 Y95.343 E0.18003
G1 X127.010 Y95.343 E0.01695
G1 X131.043 Y99.376 E0.18003
G1 X130.506 Y99.376 E0.01695
G1 X126.473 Y95.343 E0.18003
G1 X125.936 Y95.343 E0.01695
G1 X129.969 Y99.376 E0.18003
G1 X129.432 Y99.376 E0.01695
G1 X125.399 Y95.343 E0.18003
G1 X124.863 Y95.343 E0.01695
G1 X128.895 Y99.376 E0.18003
G1 X128.359 Y99.376 E0.01695
G1 X124.326 Y95.343 E0.18003
G1 X123.789 Y95.343 E0.01695
G1 X127.822 Y99.376 E0.18003
G1 X127.285 Y99.376 E0.01695
G1 X123.252 Y95.343 E0.18003
G1 X122.715 Y95.343 E0.01695
G1 X126.748 Y99.376 E0.18003
G1 X126.211 Y99.376 E0.01695
G1 X122.178 Y95.343 E0.18003
G1 X121.641 Y95.343 E0.01695
G1 X125.674 Y99.376 E0.18003
G1 X125.137 Y99.376 E0.01695
G1 X121.104 Y95.343 E0.18003
G1 X120.568 Y95.343 E0.01695
G1 X124.600 Y99.376 E0.18003
G1 X124.064 Y99.376 E0.01695
G1 X120.031 Y95.343 E0.18003
G1 X119.494 Y95.343 E0.01695
G1 X123.527 Y99.376 E0.18003
G1 X122.990 Y99.376 E0.01695
G1 X118.957 Y95.343 E0.18003
G1 X118.420 Y95.343 E0.01695
G1 X122.453 Y99.376 E0.18003
G1 X121.916 Y99.376 E0.01695
G1 X117.883 Y95.343 E0.18003
G1 X117.346 Y95.343 E0.01695
G1 X121.379 Y99.376 E0.18003
G1 X120.842 Y99.376 E0.01695
G1 X116.810 Y95.343 E0.18003
G1 X116.273 Y95.343 E0.01695
G1 X120.306 Y99.376 E0.18003
G1 X119.769 Y99.376 E0.01695
G1 X115.736 Y95.343 E0.18003
G1 X115.199 Y95.343 E0.01695
G1 X119.232 Y99.376 E0.18003
G1 X118.695 Y99.376 E0.01695
G1 X114.662 Y95.343 E0.18003
G1 X114.125 Y95.343 E0.01695
G1 X118.158 Y99.376 E0.18003
G1 X117.621 Y99.376 E0.01695
G1 X113.588 Y95.343 E0.18003
G1 X113.052 Y95.343 E0.01695
G1 X117.084 Y99.376 E0.18003
G1 X116.548 Y99.376 E0.01695
G1 X112.515 Y95.343 E0.18003
G1 X111.978 Y95.343 E0.01695
G1 X116.011 Y99.376 E0.18003
G1 X115.474 Y99.376 E0.01695
G1 X111.441 Y95.343 E0.18003
G1 X110.904 Y95.343 E0.01695
G1 X114.937 Y99.376 E0.18003
G1 X114.400 Y99.376 E0.01695
G1 X110.367 Y95.343 E0.18003
G1 X109.830 Y95.343 E0.01695
G1 X113.863 Y99.376 E0.18003
G1 X113.326 Y99.376 E0.01695
G1 X109.293 Y95.343 E0.18003
G1 X108.757 Y95.343 E0.01695
G1 X112.789 Y99.376 E0.18003
G1 X112.253 Y99.376 E0.01695
G1 X108.220 Y95.343 E0.18003
G1 X107.683 Y95.343 E0.01695
G1 X111.716 Y99.376 E0.18003
G1 X111.179 Y99.376 E0.01695
G1 X107.146 Y95.343 E0.18003
G1 X106.609 Y95.343 E0.01695
G1 X110.642 Y99.376 E0.18003
G1 X110.105 Y99.376 E0.01695
G1 X106.072 Y95.343 E0.18003
G1 X105.535 Y95.343 E0.01695
G1 X109.568 Y99.376 E0.18003
G1 X109.031 Y99.376 E0.01695
G1 X104.999 Y95.343 E0.18003
G1 X104.462 Y95.343 E0.01695
G1 X108.495 Y99.376 E0.18003
G1 X107.958 Y99.376 E0.01695
G1 X103.925 Y95.343 E0.18003
G1 X103.388 Y95.343 E0.01695
G1 X107.421 Y99.376 E0.18003
G1 X106.884 Y99.376 E0.01695
G1 X102.851 Y95.343 E0.18003
G1 X102.314 Y95.343 E0.01695
G1 X106.347 Y99.376 E0.18003
G1 X105.810 Y99.376 E0.01695
G1 X101.777 Y95.343 E0.18003
G1 X101.624 Y95.343 E0.00484
G1 X101.624 Y95.727 E0.01211
G1 X105.273 Y99.376 E0.16291
G1 X104.737 Y99.376 E0.01695
G1 X101.624 Y96.263 E0.13894
G1 X101.624 Y96.800 E0.01695
G1 X104.200 Y99.376 E0.11498
G1 X103.663 Y99.376 E0.01695
G1 X101.624 Y97.337 E0.09101
G1 X101.624 Y97.874 E0.01695
G1 X103.126 Y99.376 E0.06705
G1 X102.589 Y99.376 E0.01695
G1 X101.624 Y98.411 E0.04308
G1 X101.624 Y98.948 E0.01695
G1 X102.222 Y99.546 E0.02669
M106 S255
;BEFORE_LAYER_CHANGE
G92 E0.0
;0.4


G1 E-0.80000 F2100.00000
G1 Z0.800 F10800.000
;AFTER_LAYER_CHANGE
;0.4
M104 S210 ; set temperature
G1 X101.446 Y109.503
G1 Z0.400
G1 E0.80000 F2100.00000
M204 S800
G1 F3600.000
G1 X148.554 Y109.503 E1.59453
G1 X148.554 Y113.854 E0.14725
G1 X101.446 Y113.854 E1.59453
G1 X101.446 Y109.563 E0.14522
M204 S1000
G1 X101.039 Y109.096 F10800.000
M204 S800
G1 F3600.000
G1 X148.961 Y109.096 E1.62209
G1 X148.961 Y114.261 E0.17481
G1 X101.039 Y114.261 E1.62209
G1 X101.039 Y109.156 E0.17278
M204 S1000
G1 X100.632 Y108.689 F10800.000
M204 S800
G1 F3600.000
G1 X149.368 Y108.689 E1.64965
G1 X149.368 Y114.668 E0.20237
G1 X100.632 Y114.668 E1.64965
G1 X100.632 Y108.749 E0.20034
M204 S1000
G1 X100.225 Y108.282 F10800.000
M204 S800
G1 F2100.000
G1 X149.775 Y108.282 E1.67721
G1 X149.775 Y115.075 E0.22993
G1 X100.225 Y115.075 E1.67721
G1 X100.225 Y108.342 E0.22790
M204 S1000
G1 X100.625 Y108.300 F10800.000
G1 E-0.80000 F2100.00000
G1 Z1.000 F10800.000
G1 X147.602 Y113.732
G1 Z0.400
G1 E0.80000 F2100.00000
M204 S1250
G1 F10970.045
G1 X148.248 Y113.085 E0.03118
G1 X148.248 Y112.505 E0.01979
G1 X147.205 Y113.548 E0.05033
G1 X146.625 Y113.548 E0.01979
G1 X148.248 Y111.925 E0.07831
G1 X148.248 Y111.345 E0.01979
G1 X146.045 Y113.548 E0.10629
G1 X145.465 Y113.548 E0.01979
G1 X148.248 Y110.765 E0.13428
G1 X148.248 Y110.185 E0.01979
G1 X144.885 Y113.548 E0.16226
G1 X144.305 Y113.548 E0.01979
G1 X148.044 Y109.809 E0.18039
G1 X147.464 Y109.809 E0.01979
G1 X143.724 Y113.548 E0.18039
G1 X143.144 Y113.548 E0.01979
G1 X146.884 Y109.809 E0.18039
G1 X146.304 Y109.809 E0.01979
G1 X142.564 Y113.548 E0.18039
G1 X141.984 Y113.548 E0.01979
