; generated by PrusaSlicer 2.2.0+win64 on 2020-12-16 at 22:11:03 UTC

; 

; external perimeters extrusion width = 0.45mm
; perimeters extrusion width = 0.45mm
; infill extrusion width = 0.45mm
; solid infill extrusion width = 0.45mm
; top infill extrusion width = 0.40mm
; first layer extrusion width = 0.42mm

M73 P0 R79
M73 Q0 S80
M201 X1000 Y1000 Z1000 E5000 ; sets maximum accelerations, mm/sec^2
M203 X200 Y200 Z12 E120 ; sets maximum feedrates, mm/sec
M204 P1250 R1250 T1250 ; sets acceleration (P, T) and retract acceleration (R), mm/sec^2
M205 X8.00 Y8.00 Z0.40 E1.50 ; sets the jerk limits, mm/sec
M205 S0 T0 ; sets the minimum extruding and travel feed rate, mm/sec
M107
M862.3 P "MK3S" ; printer model check
M862.1 P0.4 ; nozzle diameter check
M115 U3.8.0 ; tell printer latest fw version
G90 ; use absolute coordinates
M83 ; extruder relative mode
M104 S215 ; set extruder temp
M140 S60 ; set bed temp
M190 S60 ; wait for bed temp
M109 S215 ; wait for extruder temp
G28 W ; home all without mesh bed level
G80 ; mesh bed leveling
G1 Y-3.0 F1000.0 ; go outside print area
G92 E0.0
G1 X60.0 E9.0 F1000.0 ; intro line
M73 Q0 S80
M73 P0 R79
G1 X100.0 E12.5 F1000.0 ; intro line
G92 E0.0
M221 S95
G21 ; set units to millimeters
G90 ; use absolute coordinates
M83 ; use relative distances for extrusion
M900 K0.05 ; Filament gcode LA 1.5
M900 K30 ; Filament gcode LA 1.0
;BEFORE_LAYER_CHANGE
G92 E0.0
;0.2


G1 E-0.80000 F2100.00000
G1 Z0.600 F10800.000
;AFTER_LAYER_CHANGE
;0.2
G1 X98.436 Y91.929
G1 Z0.200
G1 E0.80000 F2100.00000
M204 S1000
G1 F1200.000
G1 X98.971 Y91.576 E0.02012
G1 X99.466 Y91.403 E0.01645
G1 X99.987 Y91.342 E0.01645
G1 X150.004 Y91.342 E1.56823
G1 X150.892 Y91.516 E0.02837
G1 X151.648 Y92.006 E0.02825
G1 X152.169 Y92.746 E0.02837
G1 X152.375 Y93.627 E0.02837
G1 X152.373 Y115.433 E0.68373
G1 X152.254 Y116.056 E0.01989
G1 X151.976 Y116.622 E0.01977
G1 X151.556 Y117.097 E0.01989
G1 X151.029 Y117.443 E0.01977
G1 X150.534 Y117.616 E0.01645
G1 X150.013 Y117.677 E0.01645
G1 X99.950 Y117.677 E1.56966
G1 X99.306 Y117.573 E0.02048
G1 X98.713 Y117.299 E0.02048
G1 X98.218 Y116.873 E0.02048
G1 X97.857 Y116.329 E0.02048
G1 X97.684 Y115.837 E0.01633
G1 X97.623 Y115.324 E0.01621
G1 X97.625 Y93.612 E0.68075
G1 X97.739 Y92.985 E0.02000
G1 X98.016 Y92.410 E0.02000
G1 X98.396 Y91.975 E0.01812
G1 E-0.80000 F2100.00000
G1 Z0.800 F10800.000
G1 X100.787 Y108.806
G1 Z0.200
G1 E0.80000 F2100.00000
G1 F1200.000
G1 X149.213 Y108.806 E1.51836
G1 X149.213 Y114.513 E0.17893
G1 X100.787 Y114.513 E1.51836
G1 X100.787 Y108.866 E0.17705
G1 X100.410 Y108.429 F10800.000
G1 F1200.000
G1 X149.590 Y108.429 E1.54200
G1 X149.590 Y114.890 E0.20258
G1 X100.410 Y114.890 E1.54200
G1 X100.410 Y108.489 E0.20070
G1 X100.810 Y108.446 F10800.000
G1 E-0.80000 F2100.00000
G1 Z0.800 F10800.000
G1 X149.100 Y109.688
G1 Z0.200
G1 E0.80000 F2100.00000
G1 F1200.000
G1 X148.501 Y109.089 E0.02677
G1 X147.963 Y109.089 E0.01699
G1 X148.930 Y110.056 E0.04322
G1 X148.930 Y110.593 E0.01699
G1 X147.426 Y109.089 E0.06725
G1 X146.888 Y109.089 E0.01699
G1 X148.930 Y111.131 E0.09127
G1 X148.930 Y111.668 E0.01699
G1 X146.351 Y109.089 E0.11530
G1 X145.813 Y109.089 E0.01699
G1 X148.930 Y112.206 E0.13933
G1 X148.930 Y112.744 E0.01699
G1 X145.275 Y109.089 E0.16336
G1 X144.738 Y109.089 E0.01699
G1 X148.930 Y113.281 E0.18738
G1 X148.930 Y113.819 E0.01699
G1 X144.200 Y109.089 E0.21141
G1 X143.663 Y109.089 E0.01699
G1 X148.804 Y114.230 E0.22980
G1 X148.266 Y114.230 E0.01699
G1 X143.125 Y109.089 E0.22980
G1 X142.588 Y109.089 E0.01699
G1 X147.729 Y114.230 E0.22980
G1 X147.191 Y114.230 E0.01699
G1 X142.050 Y109.089 E0.22980
G1 X141.513 Y109.089 E0.01699
G1 X146.654 Y114.230 E0.22980
G1 X146.116 Y114.230 E0.01699
G1 X140.975 Y109.089 E0.22980
G1 X140.437 Y109.089 E0.01699
G1 X145.579 Y114.230 E0.22980
G1 X145.041 Y114.230 E0.01699
G1 X139.900 Y109.089 E0.22980
G1 X139.362 Y109.089 E0.01699
G1 X144.504 Y114.230 E0.22980
G1 X143.966 Y114.230 E0.01699
G1 X138.825 Y109.089 E0.22980
G1 X138.287 Y109.089 E0.01699
G1 X143.428 Y114.230 E0.22980
G1 X142.891 Y114.230 E0.01699
G1 X137.750 Y109.089 E0.22980
G1 X137.212 Y109.089 E0.01699
G1 X142.353 Y114.230 E0.22980
G1 X141.816 Y114.230 E0.01699
G1 X136.675 Y109.089 E0.22980
G1 X136.137 Y109.089 E0.01699
G1 X141.278 Y114.230 E0.22980
G1 X140.741 Y114.230 E0.01699
G1 X135.599 Y109.089 E0.22980
G1 X135.062 Y109.089 E0.01699
G1 X140.203 Y114.230 E0.22980
G1 X139.666 Y114.230 E0.01699
G1 X134.524 Y109.089 E0.22980
G1 X133.987 Y109.089 E0.01699
G1 X139.128 Y114.230 E0.22980
G1 X138.590 Y114.230 E0.01699
G1 X133.449 Y109.089 E0.22980
G1 X132.912 Y109.089 E0.01699
G1 X138.053 Y114.230 E0.22980
G1 X137.515 Y114.230 E0.01699
G1 X132.374 Y109.089 E0.22980
G1 X131.837 Y109.089 E0.01699
G1 X136.978 Y114.230 E0.22980
G1 X136.440 Y114.230 E0.01699
G1 X131.299 Y109.089 E0.22980
G1 X130.761 Y109.089 E0.01699
G1 X135.903 Y114.230 E0.22980
G1 X135.365 Y114.230 E0.01699
G1 X130.224 Y109.089 E0.22980
G1 X129.686 Y109.089 E0.01699
G1 X134.828 Y114.230 E0.22980
G1 X134.290 Y114.230 E0.01699
G1 X129.149 Y109.089 E0.22980
G1 X128.611 Y109.089 E0.01699
G1 X133.752 Y114.230 E0.22980
G1 X133.215 Y114.230 E0.01699
G1 X128.074 Y109.089 E0.22980
G1 X127.536 Y109.089 E0.01699
G1 X132.677 Y114.230 E0.22980
G1 X132.140 Y114.230 E0.01699
G1 X126.999 Y109.089 E0.22980
G1 X126.461 Y109.089 E0.01699
G1 X131.602 Y114.230 E0.22980
G1 X131.065 Y114.230 E0.01699
G1 X125.923 Y109.089 E0.22980
G1 X125.386 Y109.089 E0.01699
G1 X130.527 Y114.230 E0.22980
G1 X129.990 Y114.230 E0.01699
G1 X124.848 Y109.089 E0.22980
G1 X124.311 Y109.089 E0.01699
G1 X129.452 Y114.230 E0.22980
G1 X128.914 Y114.230 E0.01699
G1 X123.773 Y109.089 E0.22980
G1 X123.236 Y109.089 E0.01699
G1 X128.377 Y114.230 E0.22980
G1 X127.839 Y114.230 E0.01699
G1 X122.698 Y109.089 E0.22980
G1 X122.161 Y109.089 E0.01699
G1 X127.302 Y114.230 E0.22980
G1 X126.764 Y114.230 E0.01699
G1 X121.623 Y109.089 E0.22980
G1 X121.085 Y109.089 E0.01699
G1 X126.227 Y114.230 E0.22980
G1 X125.689 Y114.230 E0.01699
G1 X120.548 Y109.089 E0.22980
G1 X120.010 Y109.089 E0.01699
G1 X125.152 Y114.230 E0.22980
G1 X124.614 Y114.230 E0.01699
G1 X119.473 Y109.089 E0.22980
G1 X118.935 Y109.089 E0.01699
G1 X124.076 Y114.230 E0.22980
G1 X123.539 Y114.230 E0.01699
G1 X118.398 Y109.089 E0.22980
G1 X117.860 Y109.089 E0.01699
G1 X123.001 Y114.230 E0.22980
G1 X122.464 Y114.230 E0.01699
G1 X117.323 Y109.089 E0.22980
G1 X116.785 Y109.089 E0.01699
G1 X121.926 Y114.230 E0.22980
G1 X121.389 Y114.230 E0.01699
G1 X116.247 Y109.089 E0.22980
G1 X115.710 Y109.089 E0.01699
G1 X120.851 Y114.230 E0.22980
G1 X120.314 Y114.230 E0.01699
G1 X115.172 Y109.089 E0.22980
G1 X114.635 Y109.089 E0.01699
G1 X119.776 Y114.230 E0.22980
G1 X119.238 Y114.230 E0.01699
G1 X114.097 Y109.089 E0.22980
G1 X113.560 Y109.089 E0.01699
G1 X118.701 Y114.230 E0.22980
G1 X118.163 Y114.230 E0.01699
G1 X113.022 Y109.089 E0.22980
G1 X112.485 Y109.089 E0.01699
G1 X117.626 Y114.230 E0.22980
G1 X117.088 Y114.230 E0.01699
G1 X111.947 Y109.089 E0.22980
G1 X111.409 Y109.089 E0.01699
G1 X116.551 Y114.230 E0.22980
G1 X116.013 Y114.230 E0.01699
G1 X110.872 Y109.089 E0.22980
G1 X110.334 Y109.089 E0.01699
G1 X115.476 Y114.230 E0.22980
G1 X114.938 Y114.230 E0.01699
G1 X109.797 Y109.089 E0.22980
G1 X109.259 Y109.089 E0.01699
G1 X114.400 Y114.230 E0.22980
G1 X113.863 Y114.230 E0.01699
G1 X108.722 Y109.089 E0.22980
G1 X108.184 Y109.089 E0.01699
G1 X113.325 Y114.230 E0.22980
G1 X112.788 Y114.230 E0.01699
G1 X107.647 Y109.089 E0.22980
G1 X107.109 Y109.089 E0.01699
G1 X112.250 Y114.230 E0.22980
G1 X111.713 Y114.230 E0.01699
G1 X106.571 Y109.089 E0.22980
G1 X106.034 Y109.089 E0.01699
G1 X111.175 Y114.230 E0.22980
G1 X110.638 Y114.230 E0.01699
G1 X105.496 Y109.089 E0.22980
G1 X104.959 Y109.089 E0.01699
G1 X110.100 Y114.230 E0.22980
G1 X109.562 Y114.230 E0.01699
G1 X104.421 Y109.089 E0.22980
G1 X103.884 Y109.089 E0.01699
G1 X109.025 Y114.230 E0.22980
G1 X108.487 Y114.230 E0.01699
G1 X103.346 Y109.089 E0.22980
G1 X102.809 Y109.089 E0.01699
G1 X107.950 Y114.230 E0.22980
G1 X107.412 Y114.230 E0.01699
G1 X102.271 Y109.089 E0.22980
G1 X101.733 Y109.089 E0.01699
G1 X106.875 Y114.230 E0.22980
G1 X106.337 Y114.230 E0.01699
G1 X101.196 Y109.089 E0.22980
G1 X101.070 Y109.089 E0.00398
G1 X101.070 Y109.500 E0.01301
G1 X105.800 Y114.230 E0.21141
G1 X105.262 Y114.230 E0.01699
G1 X101.070 Y110.038 E0.18738
G1 X101.070 Y110.576 E0.01699
G1 X104.724 Y114.230 E0.16335
G1 X104.187 Y114.230 E0.01699
G1 X101.070 Y111.113 E0.13932
G1 X101.070 Y111.651 E0.01699
G1 X103.649 Y114.230 E0.11530
G1 X103.112 Y114.230 E0.01699
G1 X101.070 Y112.188 E0.09127
G1 X101.070 Y112.726 E0.01699
G1 X102.574 Y114.230 E0.06724
G1 X102.037 Y114.230 E0.01699
G1 X101.070 Y113.263 E0.04321
G1 X101.070 Y113.801 E0.01699
M73 Q1 S79
G1 X101.669 Y114.400 E0.02677
G1 E-0.80000 F2100.00000
G1 Z0.800 F10800.000
G1 X100.787 Y100.213
G1 Z0.200
G1 E0.80000 F2100.00000
G1 F1200.000
G1 X100.787 Y94.506 E0.17893
M73 P1 R78
G1 X149.213 Y94.506 E1.51836
G1 X149.213 Y100.213 E0.17893
G1 X100.847 Y100.213 E1.51648
G1 X100.410 Y100.590 F10800.000
G1 F1200.000
G1 X100.410 Y94.129 E0.20258
G1 X149.590 Y94.129 E1.54200
G1 X149.590 Y100.590 E0.20258
G1 X100.470 Y100.590 E1.54012
G1 X100.595 Y100.235 F10800.000
G1 E-0.80000 F2100.00000
G1 Z0.800 F10800.000
G1 X149.100 Y95.388
G1 Z0.200
G1 E0.80000 F2100.00000
G1 F1200.000
G1 X148.501 Y94.789 E0.02677
G1 X147.963 Y94.789 E0.01699
G1 X148.930 Y95.756 E0.04322
G1 X148.930 Y96.293 E0.01699
G1 X147.426 Y94.789 E0.06725
G1 X146.888 Y94.789 E0.01699
G1 X148.930 Y96.831 E0.09127
G1 X148.930 Y97.368 E0.01699
G1 X146.351 Y94.789 E0.11530
G1 X145.813 Y94.789 E0.01699
G1 X148.930 Y97.906 E0.13933
G1 X148.930 Y98.444 E0.01699
G1 X145.275 Y94.789 E0.16336
G1 X144.738 Y94.789 E0.01699
G1 X148.930 Y98.981 E0.18738
G1 X148.930 Y99.519 E0.01699
G1 X144.200 Y94.789 E0.21141
G1 X143.663 Y94.789 E0.01699
G1 X148.804 Y99.930 E0.22980
G1 X148.266 Y99.930 E0.01699
G1 X143.125 Y94.789 E0.22980
G1 X142.588 Y94.789 E0.01699
G1 X147.729 Y99.930 E0.22980
G1 X147.191 Y99.930 E0.01699
G1 X142.050 Y94.789 E0.22980
G1 X141.513 Y94.789 E0.01699
G1 X146.654 Y99.930 E0.22980
G1 X146.116 Y99.930 E0.01699
G1 X140.975 Y94.789 E0.22980
G1 X140.437 Y94.789 E0.01699
G1 X145.579 Y99.930 E0.22980
G1 X145.041 Y99.930 E0.01699
G1 X139.900 Y94.789 E0.22980
G1 X139.362 Y94.789 E0.01699
G1 X144.504 Y99.930 E0.22980
G1 X143.966 Y99.930 E0.01699
G1 X138.825 Y94.789 E0.22980
G1 X138.287 Y94.789 E0.01699
G1 X143.428 Y99.930 E0.22980
G1 X142.891 Y99.930 E0.01699
G1 X137.750 Y94.789 E0.22980
G1 X137.212 Y94.789 E0.01699
G1 X142.353 Y99.930 E0.22980
G1 X141.816 Y99.930 E0.01699
G1 X136.675 Y94.789 E0.22980
G1 X136.137 Y94.789 E0.01699
G1 X141.278 Y99.930 E0.22980
G1 X140.741 Y99.930 E0.01699
G1 X135.599 Y94.789 E0.22980
G1 X135.062 Y94.789 E0.01699
G1 X140.203 Y99.930 E0.22980
G1 X139.666 Y99.930 E0.01699
G1 X134.524 Y94.789 E0.22980
G1 X133.987 Y94.789 E0.01699
G1 X139.128 Y99.930 E0.22980
G1 X138.590 Y99.930 E0.01699
G1 X133.449 Y94.789 E0.22980
G1 X132.912 Y94.789 E0.01699
G1 X138.053 Y99.930 E0.22980
G1 X137.515 Y99.930 E0.01699
G1 X132.374 Y94.789 E0.22980
G1 X131.837 Y94.789 E0.01699
G1 X136.978 Y99.930 E0.22980
G1 X136.440 Y99.930 E0.01699
G1 X131.299 Y94.789 E0.22980
G1 X130.761 Y94.789 E0.01699
G1 X135.903 Y99.930 E0.22980
G1 X135.365 Y99.930 E0.01699
G1 X130.224 Y94.789 E0.22980
G1 X129.686 Y94.789 E0.01699
G1 X134.828 Y99.930 E0.22980
G1 X134.290 Y99.930 E0.01699
G1 X129.149 Y94.789 E0.22980
G1 X128.611 Y94.789 E0.01699
G1 X133.752 Y99.930 E0.22980
G1 X133.215 Y99.930 E0.01699
G1 X128.074 Y94.789 E0.22980
G1 X127.536 Y94.789 E0.01699
G1 X132.677 Y99.930 E0.22980
G1 X132.140 Y99.930 E0.01699
G1 X126.999 Y94.789 E0.22980
G1 X126.461 Y94.789 E0.01699
G1 X131.602 Y99.930 E0.22980
G1 X131.065 Y99.930 E0.01699
G1 X125.923 Y94.789 E0.22980
G1 X125.386 Y94.789 E0.01699
G1 X130.527 Y99.930 E0.22980
G1 X129.990 Y99.930 E0.01699
G1 X124.848 Y94.789 E0.22980
G1 X124.311 Y94.789 E0.01699
G1 X129.452 Y99.930 E0.22980
G1 X128.914 Y99.930 E0.01699
G1 X123.773 Y94.789 E0.22980
G1 X123.236 Y94.789 E0.01699
G1 X128.377 Y99.930 E0.22980
G1 X127.839 Y99.930 E0.01699
G1 X122.698 Y94.789 E0.22980
G1 X122.161 Y94.789 E0.01699
G1 X127.302 Y99.930 E0.22980
G1 X126.764 Y99.930 E0.01699
G1 X121.623 Y94.789 E0.22980
G1 X121.085 Y94.789 E0.01699
G1 X126.227 Y99.930 E0.22980
G1 X125.689 Y99.930 E0.01699
G1 X120.548 Y94.789 E0.22980
G1 X120.010 Y94.789 E0.01699
G1 X125.152 Y99.930 E0.22980
G1 X124.614 Y99.930 E0.01699
G1 X119.473 Y94.789 E0.22980
G1 X118.935 Y94.789 E0.01699
G1 X124.076 Y99.930 E0.22980
G1 X123.539 Y99.930 E0.01699
G1 X118.398 Y94.789 E0.22980
G1 X117.860 Y94.789 E0.01699
G1 X123.001 Y99.930 E0.22980
G1 X122.464 Y99.930 E0.01699
G1 X117.323 Y94.789 E0.22980
G1 X116.785 Y94.789 E0.01699
G1 X121.926 Y99.930 E0.22980
G1 X121.389 Y99.930 E0.01699
G1 X116.247 Y94.789 E0.22980
G1 X115.710 Y94.789 E0.01699
G1 X120.851 Y99.930 E0.22980
G1 X120.314 Y99.930 E0.01699
G1 X115.172 Y94.789 E0.22980
G1 X114.635 Y94.789 E0.01699
G1 X119.776 Y99.930 E0.22980
G1 X119.238 Y99.930 E0.01699
G1 X114.097 Y94.789 E0.22980
G1 X113.560 Y94.789 E0.01699
G1 X118.701 Y99.930 E0.22980
G1 X118.163 Y99.930 E0.01699
G1 X113.022 Y94.789 E0.22980
G1 X112.485 Y94.789 E0.01699
G1 X117.626 Y99.930 E0.22980
G1 X117.088 Y99.930 E0.01699
G1 X111.947 Y94.789 E0.22980
G1 X111.409 Y94.789 E0.01699
G1 X116.551 Y99.930 E0.22980
G1 X116.013 Y99.930 E0.01699
G1 X110.872 Y94.789 E0.22980
G1 X110.334 Y94.789 E0.01699
G1 X115.476 Y99.930 E0.22980
G1 X114.938 Y99.930 E0.01699
G1 X109.797 Y94.789 E0.22980
G1 X109.259 Y94.789 E0.01699
G1 X114.400 Y99.930 E0.22980
G1 X113.863 Y99.930 E0.01699
G1 X108.722 Y94.789 E0.22980
G1 X108.184 Y94.789 E0.01699
G1 X113.325 Y99.930 E0.22980
G1 X112.788 Y99.930 E0.01699
G1 X107.647 Y94.789 E0.22980
G1 X107.109 Y94.789 E0.01699
G1 X112.250 Y99.930 E0.22980
G1 X111.713 Y99.930 E0.01699
G1 X106.571 Y94.789 E0.22980
G1 X106.034 Y94.789 E0.01699
G1 X111.175 Y99.930 E0.22980
G1 X110.638 Y99.930 E0.01699
G1 X105.496 Y94.789 E0.22980
G1 X104.959 Y94.789 E0.01699
G1 X110.100 Y99.930 E0.22980
G1 X109.562 Y99.930 E0.01699
G1 X104.421 Y94.789 E0.22980
G1 X103.884 Y94.789 E0.01699
G1 X109.025 Y99.930 E0.22980
G1 X108.487 Y99.930 E0.01699
G1 X103.346 Y94.789 E0.22980
G1 X102.809 Y94.789 E0.01699
G1 X107.950 Y99.930 E0.22980
G1 X107.412 Y99.930 E0.01699
G1 X102.271 Y94.789 E0.22980
G1 X101.733 Y94.789 E0.01699
G1 X106.875 Y99.930 E0.22980
G1 X106.337 Y99.930 E0.01699
G1 X101.196 Y94.789 E0.22980
G1 X101.070 Y94.789 E0.00398
G1 X101.070 Y95.200 E0.01301
G1 X105.800 Y99.930 E0.21141
G1 X105.262 Y99.930 E0.01699
G1 X101.070 Y95.738 E0.18738
G1 X101.070 Y96.276 E0.01699
G1 X104.724 Y99.930 E0.16335
G1 X104.187 Y99.930 E0.01699
G1 X101.070 Y96.813 E0.13932
G1 X101.070 Y97.351 E0.01699
G1 X103.649 Y99.930 E0.11530
G1 X103.112 Y99.930 E0.01699
G1 X101.070 Y97.888 E0.09127
G1 X101.070 Y98.426 E0.01699
G1 X102.574 Y99.930 E0.06724
G1 X102.037 Y99.930 E0.01699
G1 X101.070 Y98.963 E0.04321
G1 X101.070 Y99.501 E0.01699
G1 X101.669 Y100.100 E0.02677
M106 S255
;BEFORE_LAYER_CHANGE
G92 E0.0
;0.4


G1 E-0.80000 F2100.00000
G1 Z0.800 F10800.000
;AFTER_LAYER_CHANGE
;0.4
M104 S210 ; set temperature
G1 X152.169 Y92.746
G1 Z0.400
G1 E0.80000 F2100.00000
G1 F3000.000
G1 X152.375 Y93.627 E0.02837
G1 X152.373 Y115.433 E0.68373
G1 X152.254 Y116.056 E0.01989
G1 X151.976 Y116.622 E0.01977
G1 X151.556 Y117.097 E0.01989
G1 X151.029 Y117.443 E0.01977
G1 X150.534 Y117.616 E0.01645
G1 X150.013 Y117.677 E0.01645
G1 X99.950 Y117.677 E1.56966
G1 X99.306 Y117.573 E0.02048
G1 X98.713 Y117.299 E0.02048
G1 X98.218 Y116.873 E0.02048
G1 X97.857 Y116.329 E0.02048
G1 X97.684 Y115.837 E0.01633
G1 X97.623 Y115.324 E0.01621
G1 X97.625 Y93.612 E0.68075
G1 X97.739 Y92.985 E0.02000
G1 X98.016 Y92.410 E0.02000
G1 X98.436 Y91.929 E0.02000
G1 X98.971 Y91.576 E0.02012
G1 X99.466 Y91.403 E0.01645
G1 X99.987 Y91.342 E0.01645
G1 X150.004 Y91.342 E1.56823
G1 X150.892 Y91.516 E0.02837
G1 X151.648 Y92.006 E0.02825
G1 X152.134 Y92.697 E0.02649
G1 E-0.80000 F2100.00000
