; generated by PrusaSlicer 2.1.1+win64 on 2020-05-27 at 19:29:49 UTC

; 

; external perimeters extrusion width = 0.45mm
; perimeters extrusion width = 0.45mm
; infill extrusion width = 0.45mm
; solid infill extrusion width = 0.45mm
; top infill extrusion width = 0.40mm
; first layer extrusion width = 0.42mm

M73 P0 R140
M73 Q0 S141
M201 X1000 Y1000 Z1000 E5000 ; sets maximum accelerations, mm/sec^2
M203 X200 Y200 Z12 E120 ; sets maximum feedrates, mm/sec
M204 P1250 R1250 T1250 ; sets acceleration (P, T) and retract acceleration (R), mm/sec^2
M205 X8.00 Y8.00 Z0.40 E1.50 ; sets the jerk limits, mm/sec
M205 S0 T0 ; sets the minimum extruding and travel feed rate, mm/sec
M107
M862.3 P "MK3S" ; printer model check
M862.1 P0.4 ; nozzle diameter check
M115 U3.8.0 ; tell printer latest fw version
G90 ; use absolute coordinates
M83 ; extruder relative mode
M104 S215 ; set extruder temp
M140 S60 ; set bed temp
M190 S60 ; wait for bed temp
M109 S215 ; wait for extruder temp
G28 W ; home all without mesh bed level
G80 ; mesh bed leveling
G1 Y-3.0 F1000.0 ; go outside print area
G92 E0.0
G1 X60.0 E9.0 F1000.0 ; intro line
M73 Q0 S141
M73 P0 R140
G1 X100.0 E12.5 F1000.0 ; intro line
G92 E0.0
M221 S95
G21 ; set units to millimeters
G90 ; use absolute coordinates
M83 ; use relative distances for extrusion
M900 K30 ; Filament gcode
;BEFORE_LAYER_CHANGE
G92 E0.0
;0.2


G1 E-0.80000 F2100.00000
G1 Z0.600 F10800.000
;AFTER_LAYER_CHANGE
;0.2
G1 X125.000 Y97.887
G1 Z0.200
G1 E0.80000 F2100.00000
M204 S1000
G1 F1200
G1 X96.338 Y97.887 E0.89868
G1 X96.338 Y70.713 E0.85203
G1 X153.662 Y70.713 E1.79736
G1 X153.662 Y97.887 E0.85203
G1 X125.060 Y97.887 E0.89680
G1 X125.000 Y97.510 F10800.000
G1 F1200
G1 X96.715 Y97.510 E0.88686
G1 X96.715 Y71.090 E0.82838
G1 X153.285 Y71.090 E1.77371
G1 X153.285 Y97.510 E0.82838
G1 X125.060 Y97.510 E0.88497
G1 X124.892 Y97.895 F10800.000
G1 E-0.80000 F2100.00000
G1 Z0.800 F10800.000
G1 X125.000 Y98.716
G1 Z0.200
G1 E0.80000 F2100.00000
G1 F1200
G1 X96.446 Y98.716 E0.89528
G1 X96.263 Y98.700 E0.00578
G1 X96.122 Y98.662 E0.00457
G1 X95.900 Y98.547 E0.00783
G1 X95.726 Y98.387 E0.00742
G1 X95.599 Y98.187 E0.00742
G1 X95.524 Y97.949 E0.00783
G1 X95.509 Y97.778 E0.00538
G1 X95.509 Y70.822 E0.84521
G1 X95.525 Y70.638 E0.00578
G1 X95.562 Y70.497 E0.00457
G1 X95.678 Y70.276 E0.00783
G1 X95.838 Y70.101 E0.00742
G1 X96.037 Y69.974 E0.00742
G1 X96.276 Y69.899 E0.00783
G1 X96.446 Y69.884 E0.00538
G1 X153.554 Y69.884 E1.79055
G1 X153.737 Y69.900 E0.00577
G1 X153.891 Y69.941 E0.00499
G1 X154.034 Y70.008 E0.00497
G1 X154.164 Y70.099 E0.00497
G1 X154.276 Y70.211 E0.00497
G1 X154.367 Y70.341 E0.00497
G1 X154.434 Y70.485 E0.00497
G1 X154.475 Y70.638 E0.00497
G1 X154.491 Y70.822 E0.00578
G1 X154.491 Y97.778 E0.84521
G1 X154.475 Y97.962 E0.00578
G1 X154.438 Y98.103 E0.00457
G1 X154.322 Y98.324 E0.00783
G1 X154.162 Y98.499 E0.00742
G1 X153.963 Y98.626 E0.00742
G1 X153.724 Y98.701 E0.00783
G1 X153.554 Y98.716 E0.00538
G1 X125.060 Y98.716 E0.89340
G1 X125.000 Y99.093 F10800.000
G1 F1200
G1 X96.430 Y99.093 E0.89579
G1 X96.197 Y99.073 E0.00733
G1 X95.984 Y99.016 E0.00690
G1 X95.682 Y98.859 E0.01068
G1 X95.434 Y98.632 E0.01054
G1 X95.254 Y98.348 E0.01054
G1 X95.151 Y98.023 E0.01068
G1 X95.132 Y97.795 E0.00719
G1 X95.132 Y70.805 E0.84624
G1 X95.152 Y70.572 E0.00733
G1 X95.209 Y70.360 E0.00690
G1 X95.366 Y70.058 E0.01068
G1 X95.593 Y69.810 E0.01054
G1 X95.877 Y69.629 E0.01054
G1 X96.202 Y69.527 E0.01069
G1 X96.430 Y69.507 E0.00719
G1 X153.570 Y69.507 E1.79159
G1 X153.803 Y69.527 E0.00732
G1 X154.020 Y69.585 E0.00706
G1 X154.224 Y69.680 E0.00704
G1 X154.408 Y69.809 E0.00704
G1 X154.566 Y69.968 E0.00704
G1 X154.695 Y70.152 E0.00704
G1 X154.790 Y70.355 E0.00704
G1 X154.848 Y70.572 E0.00704
G1 X154.868 Y70.805 E0.00733
G1 X154.868 Y97.795 E0.84624
G1 X154.848 Y98.028 E0.00733
G1 X154.791 Y98.240 E0.00690
G1 X154.634 Y98.542 E0.01068
G1 X154.407 Y98.790 E0.01054
G1 X154.123 Y98.971 E0.01054
G1 X153.798 Y99.073 E0.01069
G1 X153.570 Y99.093 E0.00719
G1 X125.060 Y99.093 E0.89391
G1 X124.800 Y98.747 F10800.000
G1 E-0.80000 F2100.00000
G1 Z0.800 F10800.000
G1 X153.223 Y98.527
G1 Z0.200
G1 E0.80000 F2100.00000
G1 F1200
G1 X153.931 Y98.223 E0.02246
G1 X154.022 Y98.114 E0.00414
G1 X154.033 Y98.076 E0.00121
G1 X154.165 Y98.217 F10800.000
G1 F1200
G1 X153.535 Y98.302 E0.02338
G1 X96.465 Y98.302 E2.09923
G1 X95.851 Y98.232 E0.02272
G1 X96.008 Y98.390 F10800.000
G1 F1200
G1 X95.923 Y97.760 E0.02340
G1 X95.923 Y70.840 E0.99113
G1 X95.993 Y70.226 E0.02274
G1 X96.069 Y70.377 F10800.000
G1 F1200
G1 X95.967 Y70.524 E0.00523
G1 X96.069 Y70.377 F10800.000
G1 F1200
G1 X96.777 Y70.073 E0.02335
G1 X95.835 Y70.383 F10800.000
G1 F1200
G1 X96.465 Y70.298 E0.02328
G1 X153.535 Y70.298 E2.09026
G1 X154.156 Y70.369 E0.02289
G1 X154.006 Y70.219 F10800.000
G1 F1200
G1 X154.077 Y70.840 E0.02291
G1 X154.077 Y97.760 E0.98683
G1 X154.007 Y98.374 E0.02264
G1 E-0.80000 F2100.00000
G1 Z0.800 F10800.000
G1 X96.149 Y98.258
G1 Z0.200
G1 E0.80000 F2100.00000
G1 F1200
G1 X96.111 Y98.246 E0.00123
G1 X96.001 Y98.156 E0.00414
G1 X95.697 Y97.446 E0.02249
G1 E-0.80000 F2100.00000
G1 Z0.800 F10800.000
G1 X125.000 Y139.287
G1 Z0.200
G1 E0.80000 F2100.00000
G1 F1200
G1 X96.338 Y139.287 E0.89868
G1 X96.338 Y112.113 E0.85203
G1 X153.662 Y112.113 E1.79736
G1 X153.662 Y139.287 E0.85203
G1 X125.060 Y139.287 E0.89680
G1 X125.000 Y138.910 F10800.000
G1 F1200
G1 X96.715 Y138.910 E0.88686
G1 X96.715 Y112.490 E0.82838
M73 Q0 S140
M73 P0 R139
G1 X153.285 Y112.490 E1.77371
G1 X153.285 Y138.910 E0.82838
G1 X125.060 Y138.910 E0.88497
G1 X124.892 Y139.295 F10800.000
G1 E-0.80000 F2100.00000
G1 Z0.800 F10800.000
G1 X125.000 Y140.116
G1 Z0.200
G1 E0.80000 F2100.00000
G1 F1200
G1 X96.446 Y140.116 E0.89528
G1 X96.263 Y140.100 E0.00578
G1 X96.122 Y140.062 E0.00457
G1 X95.900 Y139.947 E0.00783
G1 X95.726 Y139.787 E0.00742
G1 X95.599 Y139.587 E0.00742
G1 X95.524 Y139.349 E0.00783
G1 X95.509 Y139.178 E0.00538
G1 X95.509 Y112.222 E0.84521
G1 X95.525 Y112.038 E0.00578
G1 X95.562 Y111.897 E0.00457
G1 X95.678 Y111.676 E0.00783
G1 X95.838 Y111.501 E0.00742
G1 X96.037 Y111.374 E0.00742
G1 X96.276 Y111.299 E0.00783
G1 X96.446 Y111.284 E0.00538
G1 X153.554 Y111.284 E1.79055
G1 X153.737 Y111.300 E0.00577
G1 X153.891 Y111.341 E0.00499
G1 X154.034 Y111.408 E0.00497
G1 X154.164 Y111.499 E0.00497
G1 X154.276 Y111.611 E0.00497
G1 X154.367 Y111.741 E0.00497
G1 X154.434 Y111.885 E0.00497
G1 X154.475 Y112.038 E0.00497
G1 X154.491 Y112.222 E0.00578
G1 X154.491 Y139.178 E0.84521
G1 X154.475 Y139.362 E0.00578
G1 X154.438 Y139.503 E0.00457
G1 X154.322 Y139.724 E0.00783
G1 X154.162 Y139.899 E0.00742
G1 X153.963 Y140.026 E0.00742
G1 X153.724 Y140.101 E0.00783
G1 X153.554 Y140.116 E0.00538
G1 X125.060 Y140.116 E0.89340
G1 X125.000 Y140.493 F10800.000
G1 F1200
G1 X96.430 Y140.493 E0.89579
G1 X96.197 Y140.473 E0.00733
G1 X95.984 Y140.416 E0.00690
G1 X95.682 Y140.259 E0.01068
G1 X95.434 Y140.032 E0.01054
G1 X95.254 Y139.748 E0.01054
G1 X95.151 Y139.423 E0.01068
G1 X95.132 Y139.195 E0.00719
G1 X95.132 Y112.205 E0.84624
G1 X95.152 Y111.972 E0.00733
G1 X95.209 Y111.760 E0.00690
G1 X95.366 Y111.458 E0.01068
G1 X95.593 Y111.210 E0.01054
G1 X95.877 Y111.029 E0.01054
G1 X96.202 Y110.927 E0.01069
G1 X96.430 Y110.907 E0.00719
G1 X153.570 Y110.907 E1.79159
G1 X153.803 Y110.927 E0.00732
G1 X154.020 Y110.985 E0.00706
G1 X154.224 Y111.080 E0.00704
G1 X154.408 Y111.209 E0.00704
G1 X154.566 Y111.368 E0.00704
G1 X154.695 Y111.552 E0.00704
G1 X154.790 Y111.755 E0.00704
G1 X154.848 Y111.972 E0.00704
G1 X154.868 Y112.205 E0.00733
G1 X154.868 Y139.195 E0.84624
G1 X154.848 Y139.428 E0.00733
G1 X154.791 Y139.640 E0.00690
G1 X154.634 Y139.942 E0.01068
G1 X154.407 Y140.190 E0.01054
G1 X154.123 Y140.371 E0.01054
G1 X153.798 Y140.473 E0.01069
G1 X153.570 Y140.493 E0.00719
G1 X125.060 Y140.493 E0.89391
G1 X124.800 Y140.147 F10800.000
G1 E-0.80000 F2100.00000
G1 Z0.800 F10800.000
G1 X153.223 Y139.927
G1 Z0.200
G1 E0.80000 F2100.00000
G1 F1200
G1 X153.931 Y139.623 E0.02246
G1 X154.022 Y139.514 E0.00414
G1 X154.033 Y139.476 E0.00121
G1 X154.165 Y139.617 F10800.000
G1 F1200
G1 X153.535 Y139.702 E0.02338
G1 X96.465 Y139.702 E2.09923
G1 X95.851 Y139.632 E0.02272
G1 X96.008 Y139.790 F10800.000
G1 F1200
G1 X95.923 Y139.160 E0.02340
G1 X95.923 Y112.240 E0.99113
G1 X95.993 Y111.626 E0.02274
G1 X96.069 Y111.777 F10800.000
G1 F1200
G1 X95.967 Y111.924 E0.00523
G1 X96.069 Y111.777 F10800.000
G1 F1200
G1 X96.777 Y111.473 E0.02335
G1 X95.835 Y111.783 F10800.000
G1 F1200
G1 X96.465 Y111.698 E0.02328
G1 X153.535 Y111.698 E2.09026
G1 X154.156 Y111.769 E0.02289
G1 X154.006 Y111.619 F10800.000
G1 F1200
G1 X154.077 Y112.240 E0.02291
G1 X154.077 Y139.160 E0.98683
G1 X154.007 Y139.774 E0.02264
G1 E-0.80000 F2100.00000
G1 Z0.800 F10800.000
G1 X96.149 Y139.658
G1 Z0.200
G1 E0.80000 F2100.00000
G1 F1200
G1 X96.111 Y139.646 E0.00123
G1 X96.001 Y139.556 E0.00414
G1 X95.697 Y138.846 E0.02249
M106 S255
;BEFORE_LAYER_CHANGE
G92 E0.0
;0.4


G1 E-0.80000 F2100.00000
G1 Z0.800 F10800.000
;AFTER_LAYER_CHANGE
;0.4
M104 S210 ; set temperature
G1 X125.000 Y97.932
G1 Z0.400
G1 E0.80000 F2100.00000
M204 S800
G1 F3600
G1 X96.293 Y97.932 E0.97170
G1 X96.293 Y70.668 E0.92286
G1 X153.707 Y70.668 E1.94340
G1 X153.707 Y97.932 E0.92286
G1 X125.060 Y97.932 E0.96967
M204 S1000
G1 X125.000 Y97.525 F10800.000
M204 S800
G1 F2100
G1 X96.700 Y97.525 E0.95792
G1 X96.700 Y71.075 E0.89530
G1 X153.300 Y71.075 E1.91584
G1 X153.300 Y97.525 E0.89530
G1 X125.060 Y97.525 E0.95589
M204 S1000
G1 X124.892 Y97.910 F10800.000
G1 E-0.80000 F2100.00000
G1 Z1.000 F10800.000
G1 X125.000 Y98.677
G1 Z0.400
G1 E0.80000 F2100.00000
M204 S800
G1 F3600
G1 X96.441 Y98.677 E0.96667
G1 X96.264 Y98.662 E0.00604
G1 X96.131 Y98.626 E0.00463
G1 X95.919 Y98.516 E0.00809
G1 X95.754 Y98.364 E0.00761
G1 X95.633 Y98.174 E0.00761
G1 X95.561 Y97.947 E0.00809
G1 X95.547 Y97.783 E0.00557
G1 X95.547 Y70.817 E0.91274
G1 X95.562 Y70.640 E0.00604
G1 X95.601 Y70.494 E0.00510
G1 X95.665 Y70.357 E0.00513
G1 X95.751 Y70.234 E0.00508
G1 X95.848 Y70.137 E0.00463
G1 X96.049 Y70.009 E0.00809
G1 X96.277 Y69.937 E0.00809
G1 X96.441 Y69.923 E0.00557
G1 X153.559 Y69.923 E1.93335
G1 X153.735 Y69.938 E0.00600
G1 X153.882 Y69.978 E0.00516
G1 X154.019 Y70.041 E0.00509
G1 X154.142 Y70.127 E0.00510
G1 X154.249 Y70.234 E0.00510
G1 X154.335 Y70.357 E0.00510
G1 X154.399 Y70.494 E0.00510
G1 X154.438 Y70.640 E0.00510
G1 X154.453 Y70.817 E0.00604
G1 X154.453 Y97.783 E0.91274
G1 X154.438 Y97.960 E0.00604
G1 X154.402 Y98.093 E0.00463
G1 X154.292 Y98.304 E0.00809
G1 X154.140 Y98.470 E0.00761
G1 X153.951 Y98.591 E0.00761
G1 X153.723 Y98.663 E0.00809
G1 X153.559 Y98.677 E0.00557
G1 X125.060 Y98.677 E0.96464
M204 S1000
G1 X125.000 Y99.084 F10800.000
M204 S800
G1 F2100
G1 X96.424 Y99.084 E0.96727
G1 X96.193 Y99.064 E0.00785
G1 X95.983 Y99.008 E0.00735
G1 X95.684 Y98.852 E0.01141
G1 X95.439 Y98.628 E0.01124
G1 X95.261 Y98.348 E0.01124
G1 X95.159 Y98.026 E0.01141
G1 X95.140 Y97.800 E0.00768
G1 X95.140 Y70.800 E0.91394
G1 X95.160 Y70.569 E0.00785
G1 X95.217 Y70.354 E0.00751
G1 X95.311 Y70.152 E0.00754
G1 X95.438 Y69.971 E0.00748
G1 X95.592 Y69.818 E0.00734
G1 X95.876 Y69.637 E0.01141
G1 X96.198 Y69.536 E0.01141
G1 X96.424 Y69.516 E0.00768
G1 X153.576 Y69.516 E1.93455
G1 X153.806 Y69.536 E0.00780
G1 X154.022 Y69.593 E0.00757
G1 X154.223 Y69.687 E0.00751
G1 X154.405 Y69.814 E0.00751
G1 X154.562 Y69.971 E0.00751
G1 X154.689 Y70.153 E0.00751
G1 X154.783 Y70.354 E0.00751
G1 X154.840 Y70.569 E0.00751
G1 X154.860 Y70.800 E0.00785
G1 X154.860 Y97.800 E0.91394
G1 X154.840 Y98.031 E0.00785
G1 X154.784 Y98.241 E0.00735
G1 X154.628 Y98.540 E0.01141
G1 X154.404 Y98.785 E0.01124
G1 X154.124 Y98.963 E0.01124
G1 X153.802 Y99.064 E0.01141
G1 X153.576 Y99.084 E0.00768
G1 X125.060 Y99.084 E0.96524
M204 S1000
G1 X124.800 Y98.738 F10800.000
G1 E-0.80000 F2100.00000
G1 Z1.000 F10800.000
G1 X153.302 Y98.474
G1 Z0.400
G1 E0.80000 F2100.00000
G1 F2400
G1 X153.942 Y98.234 E0.01254
G1 X154.021 Y98.136 E0.00231
G1 X154.250 Y97.547 E0.01226
G1 X154.081 Y98.234 F10800.000
G1 F2400
G1 X153.542 Y98.305 E0.01484
G1 X96.458 Y98.305 E1.55956
G1 X95.926 Y98.246 E0.01461
G1 X95.991 Y98.305 F10800.000
G1 F2400
G1 X95.920 Y97.766 E0.01491
G1 X95.920 Y70.834 E0.73854
G1 X95.979 Y70.295 E0.01486
G1 X96.040 Y70.376 F10800.000
G1 F2400
G1 X95.989 Y70.433 E0.00134
G1 X95.750 Y71.032 E0.01130
G1 X95.906 Y70.368 F10800.000
G1 F2400
G1 X96.458 Y70.295 E0.01513
G1 X153.542 Y70.295 E1.55087
G1 X154.082 Y70.355 E0.01474
G1 X154.021 Y70.294 F10800.000
G1 F2400
G1 X154.080 Y70.834 E0.01481
G1 X154.080 Y97.766 E0.73422
G1 X154.022 Y98.298 E0.01459
G1 E-0.80000 F2100.00000
G1 Z1.000 F10800.000
G1 X154.250 Y71.032
G1 Z0.400
G1 E0.80000 F2100.00000
G1 F2400
G1 X154.011 Y70.433 E0.01212
G1 X153.943 Y70.365 E0.00169
G1 X153.352 Y70.126 E0.01117
G1 E-0.80000 F2100.00000
G1 Z1.000 F10800.000
G1 X96.616 Y70.126
G1 Z0.400
G1 E0.80000 F2100.00000
G1 F2400
G1 X96.040 Y70.376 E0.01145
G1 E-0.80000 F2100.00000
G1 Z1.000 F10800.000
G1 X95.750 Y97.517
G1 Z0.400
G1 E0.80000 F2100.00000
G1 F2400
G1 X95.991 Y98.165 E0.01269
G1 X96.089 Y98.246 E0.00234
G1 X96.675 Y98.474 E0.01213
G1 E-0.80000 F2100.00000
G1 Z1.000 F10800.000
G1 X125.000 Y139.332
G1 Z0.400
G1 E0.80000 F2100.00000
M204 S800
G1 F3600
G1 X96.293 Y139.332 E0.97170
G1 X96.293 Y112.068 E0.92286
M73 Q1 S139
G1 X153.707 Y112.068 E1.94340
M73 P1 R138
G1 X153.707 Y139.332 E0.92286
G1 X125.060 Y139.332 E0.96967
M204 S1000
G1 X125.000 Y138.925 F10800.000
M204 S800
G1 F2100
G1 X96.700 Y138.925 E0.95792
G1 X96.700 Y112.475 E0.89530
G1 X153.300 Y112.475 E1.91584
G1 X153.300 Y138.925 E0.89530
G1 X125.060 Y138.925 E0.95589
M204 S1000
G1 X124.892 Y139.310 F10800.000
G1 E-0.80000 F2100.00000
G1 Z1.000 F10800.000
G1 X125.000 Y140.077
G1 Z0.400
G1 E0.80000 F2100.00000
M204 S800
G1 F3600
G1 X96.441 Y140.077 E0.96667
G1 X96.264 Y140.062 E0.00604
G1 X96.131 Y140.026 E0.00463
G1 X95.919 Y139.916 E0.00809
G1 X95.754 Y139.764 E0.00761
G1 X95.633 Y139.574 E0.00761
G1 X95.561 Y139.347 E0.00809
G1 X95.547 Y139.183 E0.00557
G1 X95.547 Y112.217 E0.91274
G1 X95.562 Y112.040 E0.00604
G1 X95.601 Y111.894 E0.00510
G1 X95.665 Y111.757 E0.00513
G1 X95.751 Y111.634 E0.00508
G1 X95.848 Y111.537 E0.00463
G1 X96.049 Y111.409 E0.00809
G1 X96.277 Y111.337 E0.00809
G1 X96.441 Y111.323 E0.00557
G1 X153.559 Y111.323 E1.93335
G1 X153.735 Y111.338 E0.00600
G1 X153.882 Y111.378 E0.00516
G1 X154.019 Y111.441 E0.00509
G1 X154.142 Y111.527 E0.00510
G1 X154.249 Y111.634 E0.00510
G1 X154.335 Y111.757 E0.00510
G1 X154.399 Y111.894 E0.00510
G1 X154.438 Y112.040 E0.00510
G1 X154.453 Y112.217 E0.00604
G1 X154.453 Y139.183 E0.91274
G1 X154.438 Y139.360 E0.00604
G1 X154.402 Y139.493 E0.00463
G1 X154.292 Y139.704 E0.00809
G1 X154.140 Y139.870 E0.00761
G1 X153.951 Y139.991 E0.00761
G1 X153.723 Y140.063 E0.00809
G1 X153.559 Y140.077 E0.00557
G1 X125.060 Y140.077 E0.96464
M204 S1000
G1 X125.000 Y140.484 F10800.000
M204 S800
G1 F2100
G1 X96.424 Y140.484 E0.96727
G1 X96.193 Y140.464 E0.00785
G1 X95.983 Y140.408 E0.00735
G1 X95.684 Y140.252 E0.01141
G1 X95.439 Y140.028 E0.01124
G1 X95.261 Y139.748 E0.01124
G1 X95.159 Y139.426 E0.01141
G1 X95.140 Y139.200 E0.00768
G1 X95.140 Y112.200 E0.91394
G1 X95.160 Y111.969 E0.00785
G1 X95.217 Y111.754 E0.00751
G1 X95.311 Y111.552 E0.00754
G1 X95.438 Y111.371 E0.00748
G1 X95.592 Y111.218 E0.00734
G1 X95.876 Y111.037 E0.01141
G1 X96.198 Y110.936 E0.01141
G1 X96.424 Y110.916 E0.00768
G1 X153.576 Y110.916 E1.93455
G1 X153.806 Y110.936 E0.00780
G1 X154.022 Y110.993 E0.00757
G1 X154.223 Y111.087 E0.00751
G1 X154.405 Y111.214 E0.00751
G1 X154.562 Y111.371 E0.00751
G1 X154.689 Y111.553 E0.00751
G1 X154.783 Y111.754 E0.00751
G1 X154.840 Y111.969 E0.00751
G1 X154.860 Y112.200 E0.00785
G1 X154.860 Y139.200 E0.91394
G1 X154.840 Y139.431 E0.00785
G1 X154.784 Y139.641 E0.00735
G1 X154.628 Y139.940 E0.01141
G1 X154.404 Y140.185 E0.01124
G1 X154.124 Y140.363 E0.01124
G1 X153.802 Y140.464 E0.01141
G1 X153.576 Y140.484 E0.00768
G1 X125.060 Y140.484 E0.96524
M204 S1000
G1 X124.800 Y140.138 F10800.000
