; generated by PrusaSlicer 2.2.0+win64 on 2020-12-14 at 21:31:05 UTC

; 

; external perimeters extrusion width = 0.45mm
; perimeters extrusion width = 0.45mm
; infill extrusion width = 0.45mm
; solid infill extrusion width = 0.45mm
; top infill extrusion width = 0.40mm
; first layer extrusion width = 0.42mm

M73 P0 R13
M73 Q0 S13
M201 X1000 Y1000 Z1000 E5000 ; sets maximum accelerations, mm/sec^2
M203 X200 Y200 Z12 E120 ; sets maximum feedrates, mm/sec
M204 P1250 R1250 T1250 ; sets acceleration (P, T) and retract acceleration (R), mm/sec^2
M205 X8.00 Y8.00 Z0.40 E1.50 ; sets the jerk limits, mm/sec
M205 S0 T0 ; sets the minimum extruding and travel feed rate, mm/sec
M107
M862.3 P "MK3S" ; printer model check
M862.1 P0.4 ; nozzle diameter check
M115 U3.8.0 ; tell printer latest fw version
G90 ; use absolute coordinates
M83 ; extruder relative mode
M104 S215 ; set extruder temp
M140 S60 ; set bed temp
M190 S60 ; wait for bed temp
M109 S215 ; wait for extruder temp
G28 W ; home all without mesh bed level
G80 ; mesh bed leveling
G1 Y-3.0 F1000.0 ; go outside print area
G92 E0.0
G1 X60.0 E9.0 F1000.0 ; intro line
M73 Q0 S13
M73 P0 R13
G1 X100.0 E12.5 F1000.0 ; intro line
G92 E0.0
M221 S95
G21 ; set units to millimeters
G90 ; use absolute coordinates
M83 ; use relative distances for extrusion
M900 K0.05 ; Filament gcode LA 1.5
M900 K30 ; Filament gcode LA 1.0
;BEFORE_LAYER_CHANGE
G92 E0.0
;0.2


G1 E-0.80000 F2100.00000
G1 Z0.600 F10800.000
;AFTER_LAYER_CHANGE
;0.2
G1 X134.337 Y94.337
G1 Z0.200
G1 E0.80000 F2100.00000
M204 S1000
G1 F959
G1 X135.663 Y94.337 E0.04156
G1 X135.663 Y115.663 E0.66865
G1 X114.337 Y115.663 E0.66865
G1 X114.337 Y114.337 E0.04157
G1 X134.337 Y114.337 E0.62709
G1 X134.337 Y94.397 E0.62520
G1 E-0.80000 F2100.00000
G1 Z0.800 F10800.000
G1 X125.000 Y116.040
G1 Z0.200
G1 E0.80000 F2100.00000
G1 F959
G1 X113.960 Y116.040 E0.34615
G1 X113.960 Y113.960 E0.06522
G1 X133.960 Y113.960 E0.62709
G1 X133.960 Y93.960 E0.62708
G1 X136.040 Y93.960 E0.06520
G1 X136.040 Y116.040 E0.69230
G1 X125.060 Y116.040 E0.34427
G1 X124.689 Y115.789 F10800.000
G1 E-0.80000 F2100.00000
G1 Z0.800 F10800.000
G1 X135.550 Y95.215
G1 Z0.200
G1 E0.80000 F2100.00000
G1 F959
G1 X134.954 Y94.620 E0.02649
G1 X134.620 Y94.620 E0.01051
G1 X134.620 Y94.821 E0.00632
G1 X135.380 Y95.581 E0.03381
G1 X135.380 Y96.116 E0.01684
G1 X134.620 Y95.356 E0.03381
G1 X134.620 Y95.891 E0.01684
G1 X135.380 Y96.651 E0.03381
G1 X135.380 Y97.186 E0.01684
G1 X134.620 Y96.426 E0.03381
G1 X134.620 Y96.961 E0.01684
G1 X135.380 Y97.721 E0.03381
G1 X135.380 Y98.256 E0.01684
G1 X134.620 Y97.496 E0.03381
G1 X134.620 Y98.032 E0.01684
G1 X135.380 Y98.791 E0.03381
G1 X135.380 Y99.327 E0.01684
G1 X134.620 Y98.567 E0.03381
G1 X134.620 Y99.102 E0.01684
G1 X135.380 Y99.862 E0.03381
G1 X135.380 Y100.397 E0.01684
G1 X134.620 Y99.637 E0.03381
G1 X134.620 Y100.172 E0.01684
G1 X135.380 Y100.932 E0.03381
G1 X135.380 Y101.467 E0.01684
G1 X134.620 Y100.707 E0.03381
G1 X134.620 Y101.242 E0.01684
G1 X135.380 Y102.002 E0.03381
G1 X135.380 Y102.537 E0.01684
G1 X134.620 Y101.777 E0.03381
G1 X134.620 Y102.313 E0.01684
G1 X135.380 Y103.072 E0.03381
G1 X135.380 Y103.607 E0.01684
G1 X134.620 Y102.848 E0.03381
G1 X134.620 Y103.383 E0.01684
G1 X135.380 Y104.143 E0.03381
G1 X135.380 Y104.678 E0.01684
G1 X134.620 Y103.918 E0.03381
G1 X134.620 Y104.453 E0.01684
G1 X135.380 Y105.213 E0.03381
G1 X135.380 Y105.748 E0.01684
G1 X134.620 Y104.988 E0.03381
G1 X134.620 Y105.523 E0.01684
G1 X135.380 Y106.283 E0.03381
G1 X135.380 Y106.818 E0.01684
G1 X134.620 Y106.058 E0.03381
G1 X134.620 Y106.593 E0.01684
G1 X135.380 Y107.353 E0.03381
G1 X135.380 Y107.888 E0.01684
G1 X134.620 Y107.129 E0.03381
G1 X134.620 Y107.664 E0.01684
G1 X135.380 Y108.423 E0.03381
G1 X135.380 Y108.959 E0.01684
G1 X134.620 Y108.199 E0.03381
G1 X134.620 Y108.734 E0.01684
G1 X135.380 Y109.494 E0.03381
G1 X135.380 Y110.029 E0.01684
G1 X134.620 Y109.269 E0.03381
G1 X134.620 Y109.804 E0.01684
G1 X135.380 Y110.564 E0.03381
G1 X135.380 Y111.099 E0.01684
G1 X134.620 Y110.339 E0.03381
G1 X134.620 Y110.874 E0.01684
G1 X135.380 Y111.634 E0.03381
G1 X135.380 Y112.169 E0.01684
G1 X134.620 Y111.409 E0.03381
G1 X134.620 Y111.945 E0.01684
G1 X135.380 Y112.704 E0.03381
G1 X135.380 Y113.240 E0.01684
G1 X134.620 Y112.480 E0.03381
G1 X134.620 Y113.015 E0.01684
G1 X135.380 Y113.775 E0.03381
G1 X135.380 Y114.310 E0.01684
G1 X134.620 Y113.550 E0.03381
G1 X134.620 Y114.085 E0.01684
G1 X135.380 Y114.845 E0.03381
G1 X135.380 Y115.380 E0.01684
G1 X134.620 Y114.620 E0.03382
G1 X134.085 Y114.620 E0.01684
G1 X134.845 Y115.380 E0.03383
G1 X134.310 Y115.380 E0.01684
G1 X133.550 Y114.620 E0.03383
G1 X133.014 Y114.620 E0.01684
G1 X133.775 Y115.380 E0.03383
G1 X133.240 Y115.380 E0.01684
G1 X132.479 Y114.620 E0.03383
G1 X131.944 Y114.620 E0.01684
G1 X132.704 Y115.380 E0.03383
G1 X132.169 Y115.380 E0.01684
G1 X131.409 Y114.620 E0.03383
G1 X130.874 Y114.620 E0.01684
G1 X131.634 Y115.380 E0.03383
G1 X131.099 Y115.380 E0.01684
G1 X130.339 Y114.620 E0.03383
G1 X129.804 Y114.620 E0.01684
G1 X130.564 Y115.380 E0.03383
G1 X130.029 Y115.380 E0.01684
G1 X129.269 Y114.620 E0.03383
G1 X128.734 Y114.620 E0.01684
G1 X129.494 Y115.380 E0.03383
G1 X128.959 Y115.380 E0.01684
G1 X128.198 Y114.620 E0.03383
G1 X127.663 Y114.620 E0.01684
G1 X128.424 Y115.380 E0.03383
G1 X127.888 Y115.380 E0.01684
G1 X127.128 Y114.620 E0.03383
G1 X126.593 Y114.620 E0.01684
G1 X127.353 Y115.380 E0.03383
G1 X126.818 Y115.380 E0.01684
G1 X126.058 Y114.620 E0.03383
G1 X125.523 Y114.620 E0.01684
G1 X126.283 Y115.380 E0.03383
G1 X125.748 Y115.380 E0.01684
G1 X124.988 Y114.620 E0.03383
G1 X124.453 Y114.620 E0.01684
G1 X125.213 Y115.380 E0.03383
G1 X124.678 Y115.380 E0.01684
G1 X123.917 Y114.620 E0.03383
G1 X123.382 Y114.620 E0.01684
G1 X124.143 Y115.380 E0.03383
G1 X123.608 Y115.380 E0.01684
G1 X122.847 Y114.620 E0.03383
G1 X122.312 Y114.620 E0.01684
G1 X123.072 Y115.380 E0.03383
G1 X122.537 Y115.380 E0.01684
G1 X121.777 Y114.620 E0.03383
G1 X121.242 Y114.620 E0.01684
G1 X122.002 Y115.380 E0.03383
G1 X121.467 Y115.380 E0.01684
G1 X120.707 Y114.620 E0.03383
G1 X120.172 Y114.620 E0.01684
G1 X120.932 Y115.380 E0.03383
G1 X120.397 Y115.380 E0.01684
G1 X119.637 Y114.620 E0.03383
G1 X119.101 Y114.620 E0.01684
G1 X119.862 Y115.380 E0.03383
G1 X119.327 Y115.380 E0.01684
G1 X118.566 Y114.620 E0.03383
G1 X118.031 Y114.620 E0.01684
G1 X118.791 Y115.380 E0.03383
G1 X118.256 Y115.380 E0.01684
G1 X117.496 Y114.620 E0.03383
G1 X116.961 Y114.620 E0.01684
G1 X117.721 Y115.380 E0.03383
G1 X117.186 Y115.380 E0.01684
G1 X116.426 Y114.620 E0.03383
G1 X115.891 Y114.620 E0.01684
G1 X116.651 Y115.380 E0.03383
G1 X116.116 Y115.380 E0.01684
G1 X115.356 Y114.620 E0.03383
G1 X114.821 Y114.620 E0.01684
G1 X115.581 Y115.380 E0.03383
G1 X115.046 Y115.380 E0.01684
G1 X114.450 Y114.785 E0.02649
M106 S255
;BEFORE_LAYER_CHANGE
G92 E0.0
;0.4


G1 E-0.80000 F2100.00000
G1 Z0.800 F10800.000
;AFTER_LAYER_CHANGE
;0.4
M104 S210 ; set temperature
G1 X125.000 Y115.618
G1 Z0.400
G1 E0.80000 F2100.00000
M204 S800
G1 F900
G1 X114.382 Y115.618 E0.35940
G1 X114.382 Y114.382 E0.04183
G1 X134.382 Y114.382 E0.67698
G1 X134.382 Y94.382 E0.67697
G1 X135.618 Y94.382 E0.04182
G1 X135.618 Y115.618 E0.71880
G1 X125.060 Y115.618 E0.35737
M204 S1000
G1 X125.000 Y116.025 F10800.000
M204 S800
G1 F900
G1 X113.975 Y116.025 E0.37318
G1 X113.975 Y113.975 E0.06939
G1 X133.975 Y113.975 E0.67698
G1 X133.975 Y93.975 E0.67697
G1 X136.025 Y93.975 E0.06938
G1 X136.025 Y116.025 E0.74636
G1 X125.060 Y116.025 E0.37115
M204 S1000
G1 X124.689 Y115.774 F10800.000
G1 E-0.80000 F2100.00000
G1 Z1.000 F10800.000
G1 X134.504 Y114.495
G1 Z0.400
G1 E0.80000 F2100.00000
M204 S1250
G1 F900
G1 X135.312 Y113.687 E0.03901
G1 X135.312 Y113.107 E0.01982
G1 X134.688 Y113.732 E0.03017
G1 X134.688 Y113.151 E0.01982
G1 X135.312 Y112.526 E0.03017
G1 X135.312 Y111.945 E0.01982
G1 X134.688 Y112.570 E0.03017
G1 X134.688 Y111.990 E0.01982
G1 X135.312 Y111.365 E0.03017
G1 X135.312 Y110.784 E0.01982
G1 X134.688 Y111.409 E0.03017
G1 X134.688 Y110.828 E0.01982
G1 X135.312 Y110.204 E0.03017
G1 X135.312 Y109.623 E0.01982
G1 X134.688 Y110.248 E0.03017
G1 X134.688 Y109.667 E0.01982
G1 X135.312 Y109.042 E0.03017
G1 X135.312 Y108.462 E0.01982
G1 X134.688 Y109.086 E0.03017
G1 X134.688 Y108.506 E0.01982
G1 X135.312 Y107.881 E0.03017
G1 X135.312 Y107.300 E0.01982
G1 X134.688 Y107.925 E0.03017
G1 X134.688 Y107.344 E0.01982
G1 X135.312 Y106.720 E0.03017
G1 X135.312 Y106.139 E0.01982
G1 X134.688 Y106.764 E0.03017
G1 X134.688 Y106.183 E0.01982
G1 X135.312 Y105.558 E0.03017
G1 X135.312 Y104.978 E0.01982
G1 X134.688 Y105.603 E0.03017
G1 X134.688 Y105.022 E0.01982
G1 X135.312 Y104.397 E0.03017
G1 X135.312 Y103.816 E0.01982
G1 X134.688 Y104.441 E0.03017
G1 X134.688 Y103.861 E0.01982
G1 X135.312 Y103.236 E0.03017
G1 X135.312 Y102.655 E0.01982
G1 X134.688 Y103.280 E0.03017
G1 X134.688 Y102.699 E0.01982
G1 X135.312 Y102.075 E0.03017
G1 X135.312 Y101.494 E0.01982
G1 X134.688 Y102.119 E0.03017
G1 X134.688 Y101.538 E0.01982
G1 X135.312 Y100.913 E0.03017
G1 X135.312 Y100.333 E0.01982
G1 X134.688 Y100.957 E0.03017
G1 X134.688 Y100.377 E0.01982
G1 X135.312 Y99.752 E0.03017
G1 X135.312 Y99.171 E0.01982
G1 X134.688 Y99.796 E0.03017
G1 X134.688 Y99.216 E0.01982
G1 X135.312 Y98.591 E0.03017
G1 X135.312 Y98.010 E0.01982
G1 X134.688 Y98.635 E0.03017
G1 X134.688 Y98.054 E0.01982
G1 X135.312 Y97.429 E0.03017
G1 X135.312 Y96.849 E0.01982
G1 X134.688 Y97.474 E0.03017
G1 X134.688 Y96.893 E0.01982
G1 X135.312 Y96.268 E0.03017
G1 X135.312 Y95.688 E0.01982
G1 X134.688 Y96.312 E0.03017
G1 X134.688 Y95.732 E0.01982
G1 X135.312 Y95.107 E0.03017
G1 X135.312 Y94.687 E0.01432
G1 X135.151 Y94.687 E0.00550
G1 X134.504 Y95.334 E0.03123
M204 S1000
G1 E-0.80000 F2100.00000
G1 Z1.000 F10800.000
G1 X134.665 Y115.496
G1 Z0.400
G1 E0.80000 F2100.00000
M204 S1250
G1 F900
G1 X135.312 Y114.849 E0.03124
G1 X135.312 Y114.268 E0.01982
G1 X134.268 Y115.313 E0.05043
G1 X133.687 Y115.313 E0.01982
G1 X134.312 Y114.687 E0.03019
G1 X133.732 Y114.687 E0.01982
G1 X133.107 Y115.313 E0.03019
G1 X132.526 Y115.313 E0.01982
G1 X133.151 Y114.687 E0.03019
G1 X132.571 Y114.687 E0.01982
G1 X131.945 Y115.313 E0.03019
G1 X131.365 Y115.313 E0.01982
G1 X131.990 Y114.687 E0.03019
G1 X131.409 Y114.687 E0.01982
G1 X130.784 Y115.313 E0.03019
G1 X130.203 Y115.313 E0.01982
G1 X130.829 Y114.687 E0.03019
G1 X130.248 Y114.687 E0.01982
G1 X129.623 Y115.313 E0.03019
G1 X129.042 Y115.313 E0.01982
G1 X129.667 Y114.687 E0.03019
G1 X129.087 Y114.687 E0.01982
G1 X128.461 Y115.313 E0.03019
G1 X127.881 Y115.313 E0.01982
G1 X128.506 Y114.687 E0.03019
G1 X127.925 Y114.687 E0.01982
G1 X127.300 Y115.313 E0.03019
G1 X126.720 Y115.313 E0.01982
G1 X127.345 Y114.687 E0.03019
G1 X126.764 Y114.687 E0.01982
G1 X126.139 Y115.313 E0.03019
G1 X125.558 Y115.313 E0.01982
G1 X126.184 Y114.687 E0.03019
G1 X125.603 Y114.687 E0.01982
G1 X124.978 Y115.313 E0.03019
G1 X124.397 Y115.313 E0.01982
G1 X125.022 Y114.687 E0.03019
G1 X124.442 Y114.687 E0.01982
G1 X123.816 Y115.313 E0.03019
G1 X123.236 Y115.313 E0.01982
G1 X123.861 Y114.687 E0.03019
G1 X123.280 Y114.687 E0.01982
G1 X122.655 Y115.313 E0.03019
G1 X122.074 Y115.313 E0.01982
G1 X122.700 Y114.687 E0.03019
G1 X122.119 Y114.687 E0.01982
G1 X121.494 Y115.313 E0.03019
G1 X120.913 Y115.313 E0.01982
G1 X121.538 Y114.687 E0.03019
G1 X120.958 Y114.687 E0.01982
G1 X120.333 Y115.313 E0.03019
G1 X119.752 Y115.313 E0.01982
G1 X120.377 Y114.687 E0.03019
G1 X119.796 Y114.687 E0.01982
G1 X119.171 Y115.313 E0.03019
G1 X118.591 Y115.313 E0.01982
G1 X119.216 Y114.687 E0.03019
G1 X118.635 Y114.687 E0.01982
G1 X118.010 Y115.313 E0.03019
G1 X117.429 Y115.313 E0.01982
G1 X118.055 Y114.687 E0.03019
G1 X117.474 Y114.687 E0.01982
G1 X116.849 Y115.313 E0.03019
G1 X116.268 Y115.313 E0.01982
G1 X116.893 Y114.687 E0.03019
G1 X116.313 Y114.687 E0.01982
G1 X115.687 Y115.313 E0.03019
G1 X115.107 Y115.313 E0.01982
G1 X115.732 Y114.687 E0.03019
G1 X115.151 Y114.687 E0.01982
G1 X114.504 Y115.334 E0.03124
M204 S1000
;BEFORE_LAYER_CHANGE
G92 E0.0
;0.6


G1 E-0.80000 F2100.00000
G1 Z1.000 F10800.000
;AFTER_LAYER_CHANGE
;0.6
G1 X125.000 Y115.618
G1 Z0.600
G1 E0.80000 F2100.00000
M204 S800
G1 F900
G1 X114.382 Y115.618 E0.35940
G1 X114.382 Y114.382 E0.04183
G1 X134.382 Y114.382 E0.67698
G1 X134.382 Y94.382 E0.67697
G1 X135.618 Y94.382 E0.04182
G1 X135.618 Y115.618 E0.71880
G1 X125.060 Y115.618 E0.35737
M204 S1000
G1 X125.000 Y116.025 F10800.000
M204 S800
G1 F900
G1 X113.975 Y116.025 E0.37318
G1 X113.975 Y113.975 E0.06939
G1 X133.975 Y113.975 E0.67698
G1 X133.975 Y93.975 E0.67697
G1 X136.025 Y93.975 E0.06938
G1 X136.025 Y116.025 E0.74636
G1 X125.060 Y116.025 E0.37115
M204 S1000
G1 X124.689 Y115.774 F10800.000
G1 E-0.80000 F2100.00000
G1 Z1.200 F10800.000
G1 X135.496 Y95.328
G1 Z0.600
G1 E0.80000 F2100.00000
M204 S1250
G1 F900
G1 X134.855 Y94.687 E0.03069
G1 X134.688 Y94.687 E0.00567
G1 X134.688 Y95.096 E0.01385
G1 X135.312 Y95.721 E0.02994
G1 X135.312 Y96.297 E0.01952
G1 X134.688 Y95.672 E0.02994
G1 X134.688 Y96.249 E0.01952
G1 X135.312 Y96.873 E0.02994
G1 X135.312 Y97.450 E0.01952
G1 X134.688 Y96.825 E0.02994
G1 X134.688 Y97.401 E0.01952
G1 X135.312 Y98.026 E0.02994
G1 X135.312 Y98.602 E0.01952
G1 X134.688 Y97.977 E0.02994
G1 X134.688 Y98.553 E0.01952
G1 X135.312 Y99.178 E0.02994
G1 X135.312 Y99.755 E0.01952
G1 X134.688 Y99.130 E0.02994
G1 X134.688 Y99.706 E0.01952
G1 X135.312 Y100.331 E0.02994
G1 X135.312 Y100.907 E0.01952
G1 X134.688 Y100.282 E0.02994
G1 X134.688 Y100.858 E0.01952
G1 X135.312 Y101.483 E0.02994
G1 X135.312 Y102.059 E0.01952
G1 X134.688 Y101.435 E0.02994
G1 X134.688 Y102.011 E0.01952
G1 X135.312 Y102.636 E0.02994
G1 X135.312 Y103.212 E0.01952
G1 X134.688 Y102.587 E0.02994
G1 X134.688 Y103.163 E0.01952
G1 X135.312 Y103.788 E0.02994
G1 X135.312 Y104.364 E0.01952
G1 X134.688 Y103.739 E0.02994
G1 X134.688 Y104.316 E0.01952
G1 X135.312 Y104.941 E0.02994
G1 X135.312 Y105.517 E0.01952
G1 X134.688 Y104.892 E0.02994
G1 X134.688 Y105.468 E0.01952
G1 X135.312 Y106.093 E0.02994
G1 X135.312 Y106.669 E0.01952
G1 X134.688 Y106.044 E0.02994
G1 X134.688 Y106.621 E0.01952
G1 X135.312 Y107.245 E0.02994
G1 X135.312 Y107.822 E0.01952
G1 X134.688 Y107.197 E0.02994
G1 X134.688 Y107.773 E0.01952
G1 X135.312 Y108.398 E0.02994
G1 X135.312 Y108.974 E0.01952
G1 X134.688 Y108.349 E0.02994
G1 X134.688 Y108.925 E0.01952
G1 X135.312 Y109.550 E0.02994
G1 X135.312 Y110.126 E0.01952
G1 X134.688 Y109.502 E0.02994
G1 X134.688 Y110.078 E0.01952
G1 X135.312 Y110.703 E0.02994
G1 X135.312 Y111.279 E0.01952
G1 X134.688 Y110.654 E0.02994
G1 X134.688 Y111.230 E0.01952
G1 X135.312 Y111.855 E0.02994
G1 X135.312 Y112.431 E0.01952
G1 X134.688 Y111.807 E0.02994
G1 X134.688 Y112.383 E0.01952
G1 X135.312 Y113.008 E0.02994
G1 X135.312 Y113.584 E0.01952
G1 X134.688 Y112.959 E0.02994
G1 X134.688 Y113.535 E0.01952
G1 X135.312 Y114.160 E0.02994
G1 X135.312 Y114.736 E0.01952
G1 X134.688 Y114.111 E0.02994
M73 Q8 S12
G1 X134.687 Y114.687 E0.01951
G1 X135.312 Y115.313 E0.02996
G1 X134.736 Y115.313 E0.01952
G1 X134.111 Y114.687 E0.02996
G1 X133.535 Y114.687 E0.01952
G1 X134.160 Y115.313 E0.02996
G1 X133.584 Y115.313 E0.01952
G1 X132.959 Y114.687 E0.02996
G1 X132.382 Y114.687 E0.01952
M73 P8 R12
G1 X133.008 Y115.313 E0.02996
G1 X132.431 Y115.313 E0.01952
G1 X131.806 Y114.687 E0.02996
G1 X131.230 Y114.687 E0.01952
G1 X131.855 Y115.313 E0.02996
G1 X131.279 Y115.313 E0.01952
G1 X130.654 Y114.687 E0.02996
G1 X130.078 Y114.687 E0.01952
G1 X130.703 Y115.313 E0.02996
G1 X130.127 Y115.313 E0.01952
G1 X129.501 Y114.687 E0.02996
G1 X128.925 Y114.687 E0.01952
G1 X129.550 Y115.313 E0.02996
G1 X128.974 Y115.313 E0.01952
G1 X128.349 Y114.687 E0.02996
G1 X127.773 Y114.687 E0.01952
G1 X128.398 Y115.313 E0.02996
G1 X127.822 Y115.313 E0.01952
G1 X127.196 Y114.687 E0.02996
G1 X126.620 Y114.687 E0.01952
G1 X127.245 Y115.313 E0.02996
G1 X126.669 Y115.313 E0.01952
G1 X126.044 Y114.687 E0.02996
G1 X125.468 Y114.687 E0.01952
G1 X126.093 Y115.313 E0.02996
G1 X125.517 Y115.313 E0.01952
G1 X124.892 Y114.687 E0.02996
G1 X124.315 Y114.687 E0.01952
