; generated by Slic3r Prusa Edition 1.40.1+ on 2018-09-17 at 09:13:19

; 

; external perimeters extrusion width = 0.45mm
; perimeters extrusion width = 0.45mm
; infill extrusion width = 0.45mm
; solid infill extrusion width = 0.45mm
; top infill extrusion width = 0.40mm
; support material extrusion width = 0.35mm

M107
M115 U3.1.0 ; tell printer latest fw version
M201 X9000 Y9000 Z500 E10000 ; sets maximum accelerations, mm/sec^2
M203 X500 Y500 Z12 E120 ; sets maximum feedrates, mm/sec
M204 S1500 T1500 ; sets acceleration (S) and retract acceleration (T)
M205 X10 Y10 Z0.2 E2.5 ; sets the jerk limits, mm/sec
M205 S0 T0 ; sets the minimum extruding and travel feed rate, mm/sec
M83  ; extruder relative mode
M104 S215 ; set extruder temp
M140 S60 ; set bed temp
M190 S60 ; wait for bed temp
M109 S215 ; wait for extruder temp
G28 W ; home all without mesh bed level
G80 ; mesh bed leveling
G1 Y-3.0 F1000.0 ; go outside print area
G92 E0.0
G1 X60.0 E9.0  F1000.0 ; intro line
G1 X100.0 E12.5  F1000.0 ; intro line
G92 E0.0
M900 K30; Filament gcode
G21 ; set units to millimeters
G90 ; use absolute coordinates
M83 ; use relative distances for extrusion
;BEFORE_LAYER_CHANGE
G92 E0.0
;0.2


G1 E-0.80000 F2100.00000
G1 Z0.600 F10800.000
;AFTER_LAYER_CHANGE
;0.2
G1 X84.792 Y109.319
G1 Z0.200
G1 E0.80000 F2100.00000
M204 S1000
G1 F1800
G1 X86.341 Y109.319 E0.05246
G1 X86.341 Y122.369 E0.44172
G1 X98.341 Y122.369 E0.40619
G1 X98.341 Y138.518 E0.54662
G1 X107.777 Y138.518 E0.31937
G1 X107.777 Y147.546 E0.30558
G1 X96.792 Y147.546 E0.37183
G1 X96.792 Y123.919 E0.79973
G1 X84.792 Y123.919 E0.40619
G1 X84.792 Y109.379 E0.49215
G1 X85.175 Y109.435 F10800.000
G1 X85.199 Y109.726
G1 F1800
G1 X85.934 Y109.726 E0.02490
G1 X85.934 Y122.776 E0.44172
G1 X97.934 Y122.776 E0.40619
G1 X97.934 Y138.925 E0.54662
G1 X107.370 Y138.925 E0.31937
G1 X107.370 Y147.139 E0.27802
G1 X97.199 Y147.139 E0.34427
G1 X97.199 Y123.512 E0.79973
G1 X85.199 Y123.512 E0.40619
G1 X85.199 Y109.786 E0.46460
G1 F8640
G1 X85.934 Y109.726 E-0.17042
G1 X85.934 Y112.280 E-0.58958
G1 E-0.04000 F2100.00000
G1 Z0.800 F10800.000
G1 X85.567 Y123.144
G1 X97.566 Y123.144
G1 X97.606 Y139.332
G1 Z0.200
G1 E0.80000 F2100.00000
G1 F1800
G1 X106.962 Y139.332 E0.31671
G1 X106.962 Y146.732 E0.25046
G1 X97.606 Y146.732 E0.31671
G1 X97.606 Y139.392 E0.24843
G1 X98.013 Y139.739 F10800.000
G1 F1800
G1 X106.555 Y139.739 E0.28915
G1 X106.555 Y146.325 E0.22291
G1 X98.013 Y146.325 E0.28915
G1 X98.013 Y139.799 E0.22088
G1 X97.567 Y139.129 F10800.000
G1 F1800
G1 X97.567 Y123.308 E0.43217
G1 X97.538 Y123.172 E0.00380
G1 X97.402 Y123.144 E0.00379
G1 X85.731 Y123.144 E0.31884
G1 X85.595 Y123.116 E0.00379
G1 X85.567 Y122.980 E0.00380
G1 X85.567 Y109.930 E0.35649
G1 F8640
G1 X85.567 Y113.221 E-0.76000
G1 E-0.04000 F2100.00000
G1 Z0.800 F10800.000
G1 X85.567 Y123.144
G1 X97.566 Y123.144
G1 X97.567 Y139.293
G1 X101.306 Y143.032
G1 X103.263 Y143.032
G1 X107.002 Y139.293
G1 X106.433 Y140.704
G1 Z0.200
G1 E0.80000 F2100.00000
G1 F1800
G1 X105.774 Y140.044 E0.03229
G1 X105.185 Y140.044 E0.02039
G1 X106.250 Y141.110 E0.05215
G1 X106.250 Y141.698 E0.02039
G1 X104.596 Y140.044 E0.08098
G1 X104.007 Y140.044 E0.02039
G1 X106.250 Y142.287 E0.10981
G1 X106.250 Y142.876 E0.02039
G1 X103.419 Y140.044 E0.13864
G1 X102.830 Y140.044 E0.02039
G1 X106.250 Y143.465 E0.16747
G1 X106.250 Y144.054 E0.02039
G1 X102.241 Y140.044 E0.19630
G1 X101.652 Y140.044 E0.02039
G1 X106.250 Y144.643 E0.22513
G1 X106.250 Y145.231 E0.02039
G1 X101.063 Y140.044 E0.25396
G1 X100.474 Y140.044 E0.02039
G1 X106.250 Y145.820 E0.28279
G1 X106.250 Y146.019 E0.00689
G1 X105.860 Y146.019 E0.01349
G1 X99.886 Y140.044 E0.29253
G1 X99.297 Y140.044 E0.02039
G1 X105.271 Y146.019 E0.29253
G1 X104.683 Y146.019 E0.02039
G1 X98.708 Y140.044 E0.29253
G1 X98.318 Y140.044 E0.01349
G1 X98.318 Y140.244 E0.00690
G1 X104.094 Y146.019 E0.28278
G1 X103.505 Y146.019 E0.02039
G1 X98.318 Y140.832 E0.25395
G1 X98.318 Y141.421 E0.02039
G1 X102.916 Y146.019 E0.22512
G1 X102.327 Y146.019 E0.02039
G1 X98.318 Y142.010 E0.19629
G1 X98.318 Y142.599 E0.02039
G1 X101.739 Y146.019 E0.16746
G1 X101.150 Y146.019 E0.02039
G1 X98.318 Y143.188 E0.13863
G1 X98.318 Y143.777 E0.02039
G1 X100.561 Y146.019 E0.10980
G1 X99.972 Y146.019 E0.02039
G1 X98.318 Y144.365 E0.08097
G1 X98.318 Y144.954 E0.02039
G1 X99.383 Y146.019 E0.05214
G1 X98.794 Y146.019 E0.02039
G1 X98.135 Y145.360 E0.03228
G1 F8640
G1 X98.794 Y146.019 E-0.21529
G1 X99.383 Y146.019 E-0.13596
G1 X98.318 Y144.954 E-0.34775
G1 X98.318 Y144.690 E-0.06099
G1 E-0.04000 F2100.00000
G1 Z0.800 F10800.000
G1 X62.850 Y105.351
G1 X85.124 Y83.946
G1 Z0.200
G1 E0.80000 F2100.00000
G1 F1800
G1 X84.566 Y84.001 E0.01897
G1 X84.009 Y83.946 E0.01897
G1 X83.472 Y83.783 E0.01897
G1 X82.978 Y83.519 E0.01897
G1 X82.545 Y83.163 E0.01897
G1 X82.189 Y82.730 E0.01897
G1 X81.925 Y82.236 E0.01897
G1 X81.762 Y81.699 E0.01897
G1 X81.707 Y81.142 E0.01897
G1 X81.762 Y80.584 E0.01897
G1 X81.925 Y80.047 E0.01897
G1 X82.189 Y79.553 E0.01897
G1 X82.545 Y79.120 E0.01897
G1 X82.978 Y78.764 E0.01897
G1 X83.472 Y78.500 E0.01897
G1 X84.007 Y78.338 E0.01891
G1 X84.615 Y78.287 E0.02067
G1 X85.124 Y78.337 E0.01730
G1 X85.661 Y78.500 E0.01897
G1 X86.155 Y78.764 E0.01897
G1 X86.588 Y79.120 E0.01897
G1 X86.944 Y79.553 E0.01897
G1 X87.208 Y80.047 E0.01897
G1 X87.371 Y80.584 E0.01897
G1 X87.426 Y81.142 E0.01897
G1 X87.371 Y81.699 E0.01897
G1 X87.208 Y82.236 E0.01897
G1 X86.944 Y82.730 E0.01897
G1 X86.588 Y83.163 E0.01897
G1 X86.155 Y83.519 E0.01897
G1 X85.661 Y83.783 E0.01897
G1 X85.182 Y83.928 E0.01694
G1 X84.860 Y83.645 F10800.000
G1 X85.063 Y83.539
G1 F1800
G1 X84.566 Y83.592 E0.01692
G1 X84.088 Y83.545 E0.01626
G1 X83.629 Y83.405 E0.01626
G1 X83.205 Y83.179 E0.01626
G1 X82.834 Y82.874 E0.01626
G1 X82.529 Y82.503 E0.01626
G1 X82.303 Y82.079 E0.01626
G1 X82.163 Y81.620 E0.01626
G1 X82.116 Y81.142 E0.01626
G1 X82.163 Y80.664 E0.01626
G1 X82.303 Y80.204 E0.01626
G1 X82.529 Y79.780 E0.01626
G1 X82.834 Y79.409 E0.01626
G1 X83.205 Y79.104 E0.01626
G1 X83.629 Y78.878 E0.01626
G1 X84.084 Y78.740 E0.01609
G1 X84.612 Y78.696 E0.01796
G1 X85.044 Y78.738 E0.01469
G1 X85.504 Y78.878 E0.01626
G1 X85.928 Y79.104 E0.01626
G1 X86.299 Y79.409 E0.01626
G1 X86.604 Y79.780 E0.01626
G1 X86.830 Y80.204 E0.01626
G1 X86.969 Y80.664 E0.01626
G1 X87.017 Y81.142 E0.01626
G1 X86.969 Y81.620 E0.01626
G1 X86.830 Y82.079 E0.01626
G1 X86.604 Y82.503 E0.01626
G1 X86.299 Y82.874 E0.01626
G1 X85.928 Y83.179 E0.01626
G1 X85.504 Y83.405 E0.01626
G1 X85.121 Y83.521 E0.01355
G1 X85.003 Y83.132 F10800.000
G1 F1800
G1 X84.566 Y83.183 E0.01487
G1 X84.168 Y83.143 E0.01354
G1 X83.785 Y83.027 E0.01354
G1 X83.432 Y82.839 E0.01354
G1 X83.123 Y82.585 E0.01354
G1 X82.869 Y82.276 E0.01354
G1 X82.681 Y81.923 E0.01354
G1 X82.564 Y81.540 E0.01354
G1 X82.525 Y81.142 E0.01354
G1 X82.564 Y80.743 E0.01354
G1 X82.681 Y80.360 E0.01354
G1 X82.869 Y80.008 E0.01354
G1 X83.123 Y79.698 E0.01354
G1 X83.432 Y79.444 E0.01354
G1 X83.785 Y79.256 E0.01354
G1 X84.160 Y79.142 E0.01327
G1 X84.609 Y79.105 E0.01524
G1 X84.965 Y79.140 E0.01208
G1 X85.347 Y79.256 E0.01354
G1 X85.700 Y79.444 E0.01354
G1 X86.010 Y79.698 E0.01354
G1 X86.263 Y80.008 E0.01354
G1 X86.452 Y80.360 E0.01354
G1 X86.568 Y80.743 E0.01354
G1 X86.607 Y81.142 E0.01354
G1 X86.568 Y81.540 E0.01354
G1 X86.452 Y81.923 E0.01354
G1 X86.263 Y82.276 E0.01354
G1 X86.010 Y82.585 E0.01354
G1 X85.700 Y82.839 E0.01354
G1 X85.347 Y83.027 E0.01354
G1 X85.060 Y83.114 E0.01017
G1 X84.885 Y82.742 F10800.000
G1 F1800
G1 X84.566 Y82.774 E0.01083
G1 X84.248 Y82.742 E0.01083
G1 X83.942 Y82.649 E0.01083
G1 X83.660 Y82.499 E0.01083
G1 X83.412 Y82.296 E0.01083
G1 X83.209 Y82.048 E0.01083
G1 X83.058 Y81.766 E0.01083
G1 X82.966 Y81.460 E0.01083
G1 X82.934 Y81.142 E0.01083
G1 X82.966 Y80.823 E0.01083
G1 X83.058 Y80.517 E0.01083
G1 X83.209 Y80.235 E0.01083
G1 X83.412 Y79.987 E0.01083
G1 X83.660 Y79.785 E0.01083
G1 X83.942 Y79.634 E0.01083
G1 X84.237 Y79.544 E0.01045
G1 X84.606 Y79.513 E0.01253
G1 X84.885 Y79.541 E0.00948
G1 X85.191 Y79.634 E0.01083
G1 X85.473 Y79.785 E0.01083
G1 X85.720 Y79.987 E0.01083
G1 X85.923 Y80.235 E0.01083
G1 X86.074 Y80.517 E0.01083
G1 X86.167 Y80.823 E0.01083
G1 X86.198 Y81.142 E0.01083
G1 X86.167 Y81.460 E0.01083
G1 X86.074 Y81.766 E0.01083
G1 X85.923 Y82.048 E0.01083
G1 X85.720 Y82.296 E0.01083
G1 X85.473 Y82.499 E0.01083
G1 X85.191 Y82.649 E0.01083
G1 X84.942 Y82.725 E0.00880
G1 F8640
G1 X84.566 Y82.774 E-0.08750
G1 X84.248 Y82.742 E-0.07388
G1 X83.942 Y82.649 E-0.07388
G1 X83.660 Y82.499 E-0.07388
G1 X83.412 Y82.296 E-0.07388
G1 X83.209 Y82.048 E-0.07388
G1 X83.058 Y81.766 E-0.07388
G1 X82.966 Y81.460 E-0.07388
G1 X82.934 Y81.142 E-0.07388
G1 X82.966 Y80.823 E-0.07388
G1 X82.975 Y80.792 E-0.00761
G1 E-0.04000 F2100.00000
G1 Z0.800 F10800.000
G1 X83.121 Y81.550
G1 Z0.200
G1 E0.80000 F2100.00000
G1 F1800
G1 X83.830 Y82.243 E0.03605
G1 X84.059 Y82.366 E0.00944
G1 X84.308 Y82.441 E0.00944
G1 X84.647 Y82.459 E0.01236
G1 X83.249 Y81.061 E0.07187
G1 X83.266 Y80.883 E0.00649
G1 X83.376 Y80.570 E0.01206
G1 X85.138 Y82.331 E0.09055
G1 X85.303 Y82.243 E0.00678
G1 X85.503 Y82.079 E0.00944
G1 X83.629 Y80.204 E0.09634
G1 X83.830 Y80.040 E0.00944
G1 X83.995 Y79.952 E0.00678
G1 X85.756 Y81.713 E0.09055
G1 X85.866 Y81.400 E0.01207
G1 X85.884 Y81.223 E0.00648
G1 X84.490 Y79.829 E0.07161
G1 X84.604 Y79.820 E0.00414
G1 X84.825 Y79.842 E0.00807
G1 X85.074 Y79.917 E0.00944
G1 X85.303 Y80.040 E0.00944
G1 X86.012 Y80.733 E0.03605
G1 F8640
G1 X85.303 Y80.040 E-0.22905
G1 X85.074 Y79.917 E-0.05999
G1 X84.825 Y79.842 E-0.05999
G1 X84.604 Y79.820 E-0.05129
G1 X84.490 Y79.829 E-0.02629
G1 X85.511 Y80.850 E-0.33339
G1 E-0.04000 F2100.00000
G1 Z0.800 F10800.000
G1 X72.690 Y149.771
G1 X79.114 Y154.519
G1 X79.108 Y170.684
G1 X78.652 Y169.545
G1 Z0.200
G1 E0.80000 F2100.00000
G1 F1800
G1 X78.652 Y178.490 E0.22840
G1 X79.266 Y178.490 E0.01568
G1 X79.266 Y169.683 E0.22487
G1 X79.880 Y169.683 E0.01568
G1 X79.880 Y178.490 E0.22487
G1 X80.494 Y178.490 E0.01568
G1 X80.494 Y169.683 E0.22487
G1 X81.108 Y169.683 E0.01568
G1 X81.108 Y178.490 E0.22487
G1 X81.722 Y178.490 E0.01568
G1 X81.722 Y169.683 E0.22487
G1 X82.337 Y169.683 E0.01568
G1 X82.337 Y178.490 E0.22487
G1 X82.951 Y178.490 E0.01568
G1 X82.951 Y169.683 E0.22487
G1 X83.565 Y169.683 E0.01568
G1 X83.565 Y178.490 E0.22487
G1 X84.179 Y178.490 E0.01568
G1 X84.179 Y169.683 E0.22487
G1 X84.793 Y169.683 E0.01568
G1 X84.793 Y178.628 E0.22840
G1 X87.864 Y178.628 F10800.000
G1 F1800
G1 X87.864 Y175.232 E0.08671
G1 X87.610 Y175.423 E0.00812
G1 X87.250 Y175.587 E0.01010
G1 X87.250 Y178.490 E0.07412
G1 X86.636 Y178.490 E0.01568
G1 X86.636 Y175.668 E0.07206
G1 X86.273 Y175.609 E0.00938
G1 X86.022 Y175.516 E0.00685
G1 X86.022 Y178.490 E0.07594
G1 X85.407 Y178.490 E0.01568
G1 X85.407 Y175.036 E0.08820
G1 X85.285 Y174.863 E0.00542
G1 X85.147 Y174.583 E0.00797
G1 X85.067 Y174.300 E0.00751
G1 X85.036 Y173.990 E0.00797
G1 X85.063 Y173.679 E0.00797
G1 X85.147 Y173.378 E0.00797
G1 X85.285 Y173.098 E0.00797
G1 X85.407 Y172.925 E0.00542
G1 X85.407 Y169.683 E0.08278
G1 X86.022 Y169.683 E0.01568
G1 X86.022 Y172.445 E0.07052
G1 X86.273 Y172.352 E0.00685
G1 X86.636 Y172.293 E0.00938
G1 X86.636 Y169.683 E0.06665
G1 X87.250 Y169.683 E0.01568
G1 X87.250 Y172.374 E0.06870
G1 X87.610 Y172.538 E0.01010
G1 X87.864 Y172.729 E0.00812
G1 X87.864 Y169.683 E0.07777
G1 X88.478 Y169.683 E0.01568
G1 X88.478 Y178.490 E0.22487
G1 X89.092 Y178.490 E0.01568
G1 X89.092 Y172.449 E0.15426
G1 X89.110 Y172.559 E0.00284
G1 X89.441 Y172.543 E0.00846
G1 X89.707 Y175.342 E0.07178
G1 X89.707 Y178.628 E0.08391
G1 F8640
G1 X89.707 Y175.342 E-0.75881
G1 X89.706 Y175.337 E-0.00119
G1 E-0.04000 F2100.00000
G1 Z0.800 F10800.000
G1 X87.114 Y174.980
G1 Z0.200
G1 E0.80000 F2100.00000
G1 F1800
G1 X86.929 Y175.032 E0.00652
G1 X86.623 Y175.046 E0.01037
G1 X86.434 Y175.011 E0.00652
G1 X86.250 Y174.940 E0.00669
G1 X86.081 Y174.836 E0.00669
G1 X85.935 Y174.702 E0.00669
G1 X85.818 Y174.548 E0.00657
G1 X85.709 Y174.307 E0.00894
G1 X85.660 Y174.077 E0.00797
G1 X85.660 Y173.882 E0.00661
G1 X85.697 Y173.687 E0.00669
G1 X85.768 Y173.503 E0.00669
G1 X85.872 Y173.335 E0.00669
G1 X86.005 Y173.189 E0.00669
G1 X86.163 Y173.069 E0.00669
G1 X86.340 Y172.981 E0.00669
G1 X86.527 Y172.928 E0.00656
G1 X86.792 Y172.913 E0.00901
G1 X87.023 Y172.951 E0.00790
G1 X87.205 Y173.021 E0.00661
G1 X87.373 Y173.125 E0.00669
G1 X87.519 Y173.259 E0.00669
G1 X87.636 Y173.413 E0.00656
G1 X87.747 Y173.657 E0.00908
G1 X87.794 Y173.884 E0.00783
G1 X87.794 Y174.079 E0.00662
G1 X87.758 Y174.274 E0.00669
G1 X87.686 Y174.458 E0.00669
G1 X87.582 Y174.626 E0.00669
G1 X87.449 Y174.772 E0.00669
G1 X87.291 Y174.891 E0.00669
G1 X87.168 Y174.953 E0.00466
G1 X86.964 Y174.859 F10800.000
G1 X86.967 Y174.598
G1 F1800
G1 X86.863 Y174.628 E0.00364
G1 X86.652 Y174.638 E0.00717
G1 X86.432 Y174.574 E0.00775
G1 X86.237 Y174.427 E0.00824
G1 X86.170 Y174.338 E0.00378
G1 X86.098 Y174.179 E0.00590
G1 X86.067 Y174.035 E0.00500
G1 X86.067 Y173.919 E0.00390
G1 X86.134 Y173.685 E0.00824
G1 X86.281 Y173.491 E0.00824
G1 X86.488 Y173.363 E0.00824
G1 X86.595 Y173.332 E0.00377
G1 X86.771 Y173.322 E0.00596
G1 X86.915 Y173.346 E0.00494
G1 X87.023 Y173.387 E0.00391
G1 X87.217 Y173.534 E0.00824
G1 X87.284 Y173.623 E0.00377
G1 X87.358 Y173.785 E0.00602
G1 X87.387 Y173.926 E0.00488
G1 X87.387 Y174.042 E0.00392
G1 X87.320 Y174.276 E0.00824
G1 X87.174 Y174.470 E0.00824
G1 X87.020 Y174.572 E0.00622
G1 X86.839 Y174.207 F10800.000
G1 F1800
G1 X86.670 Y174.229 E0.00577
G1 X86.574 Y174.183 E0.00359
G1 X86.522 Y174.128 E0.00257
G1 X86.474 Y173.992 E0.00486
G1 X86.483 Y173.911 E0.00277
G1 X86.525 Y173.828 E0.00316
G1 X86.594 Y173.765 E0.00316
G1 X86.663 Y173.736 E0.00256
G1 X86.807 Y173.740 E0.00486
G1 X86.880 Y173.778 E0.00279
G1 X86.932 Y173.832 E0.00255
G1 X86.968 Y173.912 E0.00296
G1 X86.980 Y174.004 E0.00313
G1 X86.954 Y174.094 E0.00316
G1 X86.889 Y174.175 E0.00353
G1 X86.739 Y173.986 F10800.000
G1 F1800
G1 X86.718 Y173.975 E0.00016
G1 F8640
G1 X86.739 Y173.986 E-0.00563
G1 E-0.79437 F2100.00000
G1 Z0.800 F10800.000
G1 X122.534 Y139.694
G1 X115.861 Y40.167
G1 Z0.200
G1 E0.80000 F2100.00000
G1 F1800
G1 X113.587 Y40.167 E0.07696
G1 X113.274 Y40.548 E0.01671
G1 X112.777 Y40.956 E0.02177
G1 X112.210 Y41.260 E0.02177
G1 X111.594 Y41.446 E0.02177
G1 X110.954 Y41.509 E0.02177
G1 X110.314 Y41.446 E0.02177
G1 X109.699 Y41.260 E0.02177
G1 X109.132 Y40.956 E0.02177
G1 X108.634 Y40.548 E0.02177
G1 X108.321 Y40.167 E0.01671
G1 X106.048 Y40.167 E0.07696
G1 X105.735 Y40.548 E0.01671
G1 X105.237 Y40.956 E0.02177
G1 X104.670 Y41.260 E0.02177
G1 X104.055 Y41.446 E0.02177
G1 X103.415 Y41.509 E0.02177
G1 X102.775 Y41.446 E0.02177
G1 X102.159 Y41.260 E0.02177
G1 X101.592 Y40.956 E0.02177
G1 X101.095 Y40.548 E0.02177
G1 X100.782 Y40.167 E0.01671
G1 X98.508 Y40.167 E0.07696
G1 X98.195 Y40.548 E0.01671
G1 X97.698 Y40.956 E0.02177
G1 X97.131 Y41.260 E0.02177
G1 X96.516 Y41.446 E0.02177
G1 X95.876 Y41.509 E0.02177
G1 X95.236 Y41.446 E0.02177
G1 X94.620 Y41.260 E0.02177
G1 X94.053 Y40.956 E0.02177
G1 X93.556 Y40.548 E0.02177
G1 X93.243 Y40.167 E0.01671
G1 X90.969 Y40.167 E0.07696
G1 X90.656 Y40.548 E0.01671
G1 X90.159 Y40.956 E0.02177
G1 X89.592 Y41.260 E0.02177
G1 X88.976 Y41.446 E0.02177
G1 X88.336 Y41.509 E0.02177
G1 X87.696 Y41.446 E0.02177
G1 X87.081 Y41.260 E0.02177
G1 X86.514 Y40.956 E0.02177
G1 X86.017 Y40.548 E0.02177
G1 X85.704 Y40.167 E0.01671
G1 X83.430 Y40.167 E0.07696
G1 X83.117 Y40.548 E0.01671
G1 X82.620 Y40.956 E0.02177
G1 X82.052 Y41.260 E0.02177
G1 X81.437 Y41.446 E0.02177
G1 X80.797 Y41.509 E0.02177
G1 X80.157 Y41.446 E0.02177
G1 X79.542 Y41.260 E0.02177
G1 X78.975 Y40.956 E0.02177
G1 X78.477 Y40.548 E0.02177
G1 X78.164 Y40.167 E0.01671
G1 X75.891 Y40.167 E0.07696
G1 X75.578 Y40.548 E0.01671
G1 X75.080 Y40.956 E0.02177
G1 X74.513 Y41.260 E0.02177
G1 X73.898 Y41.446 E0.02177
G1 X73.258 Y41.509 E0.02177
G1 X72.618 Y41.446 E0.02177
G1 X72.002 Y41.260 E0.02177
G1 X71.435 Y40.956 E0.02177
G1 X70.938 Y40.548 E0.02177
G1 X70.625 Y40.167 E0.01671
G1 X68.351 Y40.167 E0.07696
G1 X68.038 Y40.548 E0.01671
