; generated by PrusaSlicer 2.3.1+win64 on 2021-08-06 at 19:04:52 UTC

; 

; external perimeters extrusion width = 0.45mm
; perimeters extrusion width = 0.45mm
; infill extrusion width = 0.45mm
; solid infill extrusion width = 0.45mm
; top infill extrusion width = 0.40mm
; support material extrusion width = 0.35mm
; first layer extrusion width = 0.42mm

M73 P0 R16
M73 Q0 S16
M201 X1000 Y1000 Z1000 E5000 ; sets maximum accelerations, mm/sec^2
M203 X200 Y200 Z12 E120 ; sets maximum feedrates, mm/sec
M204 P1250 R1250 T1250 ; sets acceleration (P, T) and retract acceleration (R), mm/sec^2
M205 X8.00 Y8.00 Z0.40 E1.50 ; sets the jerk limits, mm/sec
M205 S0 T0 ; sets the minimum extruding and travel feed rate, mm/sec
M107
;TYPE:Custom
M862.3 P "MK3S" ; printer model check
M862.1 P0.4 ; nozzle diameter check
M115 U3.8.0 ; tell printer latest fw version
G90 ; use absolute coordinates
M83 ; extruder relative mode
M104 S215 ; set extruder temp
M140 S60 ; set bed temp
M190 S60 ; wait for bed temp
M109 S215 ; wait for extruder temp
G28 W ; home all without mesh bed level
G80 ; mesh bed leveling
G1 Y-3.0 F1000.0 ; go outside print area
G92 E0.0
G1 X60.0 E9.0 F1000.0 ; intro line
G1 X100.0 E12.5 F1000.0 ; intro line
G92 E0.0
M221 S95
G21 ; set units to millimeters
G90 ; use absolute coordinates
M83 ; use relative distances for extrusion
M900 K0.05 ; Filament gcode LA 1.5
M900 K30 ; Filament gcode LA 1.0
;LAYER_CHANGE
;Z:0.2
;HEIGHT:0.2
;BEFORE_LAYER_CHANGE
G92 E0.0
;0.2


G1 E-0.80000 F2100.000
G1 Z0.600 F10800.000
;AFTER_LAYER_CHANGE
;0.2
G1 X97.400 Y79.427
G1 Z0.200
G1 E0.80000 F2100.000
M204 S1000
;TYPE:Perimeter
;WIDTH:0.42
G1 F1200.000
G1 X95.587 Y79.427 E0.05683
G1 X95.587 Y67.615 E0.37035
G1 X120.413 Y67.615 E0.77840
G1 X120.413 Y79.427 E0.37035
M73 Q1 S16
G1 X97.460 Y79.427 E0.71968
M73 P1 R16
G1 X97.460 Y79.804 F10800.000
;TYPE:External perimeter
G1 F1200.000
G1 X95.210 Y79.804 E0.07054
G1 X95.210 Y67.238 E0.39400
G1 X120.790 Y67.238 E0.80204
G1 X120.790 Y79.804 E0.39400
G1 X97.520 Y79.804 E0.72963
G1 X97.206 Y79.495 F10800.000
G1 E-0.80000 F2100.000
G1 Z0.800 F10800.000
G1 X120.300 Y68.502
G1 Z0.200
G1 E0.80000 F2100.000
;TYPE:Solid infill
;WIDTH:0.425608
G1 F1200.000
G1 X119.695 Y67.898 E0.02720
G1 X119.154 Y67.898 E0.01722
G1 X120.130 Y68.874 E0.04392
G1 X120.130 Y69.415 E0.01722
G1 X118.613 Y67.898 E0.06828
G1 X118.072 Y67.898 E0.01722
G1 X120.130 Y69.956 E0.09263
G1 X120.130 Y70.497 E0.01722
G1 X117.531 Y67.898 E0.11699
G1 X116.989 Y67.898 E0.01722
G1 X120.130 Y71.039 E0.14134
G1 X120.130 Y71.580 E0.01722
G1 X116.448 Y67.898 E0.16569
G1 X115.907 Y67.898 E0.01722
G1 X120.130 Y72.121 E0.19005
G1 X120.130 Y72.662 E0.01722
G1 X115.366 Y67.898 E0.21440
G1 X114.825 Y67.898 E0.01722
G1 X120.130 Y73.203 E0.23876
G1 X120.130 Y73.745 E0.01722
G1 X114.283 Y67.898 E0.26311
G1 X113.742 Y67.898 E0.01722
G1 X120.130 Y74.286 E0.28747
G1 X120.130 Y74.827 E0.01722
G1 X113.201 Y67.898 E0.31182
G1 X112.660 Y67.898 E0.01722
G1 X120.130 Y75.368 E0.33618
M73 P2 R16
M73 Q2 S16
G1 X120.130 Y75.910 E0.01722
G1 X112.118 Y67.898 E0.36053
G1 X111.577 Y67.898 E0.01722
G1 X120.130 Y76.451 E0.38489
G1 X120.130 Y76.992 E0.01722
G1 X111.036 Y67.898 E0.40924
G1 X110.495 Y67.898 E0.01722
G1 X120.130 Y77.533 E0.43360
G1 X120.130 Y78.074 E0.01722
G1 X109.954 Y67.898 E0.45795
G1 X109.412 Y67.898 E0.01722
G1 X120.130 Y78.616 E0.48231
G1 X120.130 Y79.144 E0.01682
G1 X120.118 Y79.144 E0.00040
G1 X108.871 Y67.898 E0.50609
G1 X108.330 Y67.898 E0.01722
G1 X119.576 Y79.144 E0.50609
G1 X119.035 Y79.144 E0.01722
G1 X107.789 Y67.898 E0.50609
G1 X107.248 Y67.898 E0.01722
G1 X118.494 Y79.144 E0.50609
G1 X117.953 Y79.144 E0.01722
G1 X106.706 Y67.898 E0.50609
G1 X106.165 Y67.898 E0.01722
G1 X117.412 Y79.144 E0.50609
G1 X116.870 Y79.144 E0.01722
G1 X105.624 Y67.898 E0.50609
M73 P3 R16
M73 Q3 S16
G1 X105.083 Y67.898 E0.01722
G1 X116.329 Y79.144 E0.50609
G1 X115.788 Y79.144 E0.01722
G1 X104.542 Y67.898 E0.50609
G1 X104.000 Y67.898 E0.01722
G1 X115.247 Y79.144 E0.50609
G1 X114.705 Y79.144 E0.01722
G1 X103.459 Y67.898 E0.50609
G1 X102.918 Y67.898 E0.01722
G1 X114.164 Y79.144 E0.50609
G1 X113.623 Y79.144 E0.01722
G1 X102.377 Y67.898 E0.50609
G1 X101.836 Y67.898 E0.01722
G1 X113.082 Y79.144 E0.50609
G1 X112.541 Y79.144 E0.01722
G1 X101.294 Y67.898 E0.50609
G1 X100.753 Y67.898 E0.01722
G1 X111.999 Y79.144 E0.50609
G1 X111.458 Y79.144 E0.01722
G1 X100.212 Y67.898 E0.50609
G1 X99.671 Y67.898 E0.01722
G1 X110.917 Y79.144 E0.50609
M73 Q4 S16
G1 X110.376 Y79.144 E0.01722
G1 X99.130 Y67.898 E0.50609
M73 P4 R16
G1 X98.588 Y67.898 E0.01722
G1 X109.835 Y79.144 E0.50609
G1 X109.293 Y79.144 E0.01722
G1 X98.047 Y67.898 E0.50609
G1 X97.506 Y67.898 E0.01722
G1 X108.752 Y79.144 E0.50609
G1 X108.211 Y79.144 E0.01722
G1 X96.965 Y67.898 E0.50609
G1 X96.424 Y67.898 E0.01722
G1 X107.670 Y79.144 E0.50609
G1 X107.129 Y79.144 E0.01722
G1 X95.870 Y67.898 E0.50638
G1 X95.870 Y68.427 E0.01682
G1 X106.587 Y79.144 E0.48230
G1 X106.046 Y79.144 E0.01722
G1 X95.870 Y68.968 E0.45795
M73 Q4 S15
G1 X95.870 Y69.509 E0.01722
G1 X105.505 Y79.144 E0.43359
G1 X104.964 Y79.144 E0.01722
G1 X95.870 Y70.050 E0.40924
G1 X95.870 Y70.591 E0.01722
G1 X104.423 Y79.144 E0.38488
G1 X103.881 Y79.144 E0.01722
G1 X95.870 Y71.133 E0.36053
M73 Q5 S15
G1 X95.870 Y71.674 E0.01722
G1 X103.340 Y79.144 E0.33618
M73 P5 R15
G1 X102.799 Y79.144 E0.01722
G1 X95.870 Y72.215 E0.31182
G1 X95.870 Y72.756 E0.01722
G1 X102.258 Y79.144 E0.28747
G1 X101.717 Y79.144 E0.01722
G1 X95.870 Y73.297 E0.26311
G1 X95.870 Y73.839 E0.01722
G1 X101.175 Y79.144 E0.23876
G1 X100.634 Y79.144 E0.01722
G1 X95.870 Y74.380 E0.21440
G1 X95.870 Y74.921 E0.01722
G1 X100.093 Y79.144 E0.19005
G1 X99.552 Y79.144 E0.01722
G1 X95.870 Y75.462 E0.16569
G1 X95.870 Y76.003 E0.01722
G1 X99.011 Y79.144 E0.14134
G1 X98.469 Y79.144 E0.01722
G1 X95.870 Y76.545 E0.11698
G1 X95.870 Y77.086 E0.01722
G1 X97.928 Y79.144 E0.09263
G1 X97.387 Y79.144 E0.01722
G1 X95.870 Y77.627 E0.06827
G1 X95.870 Y78.168 E0.01722
G1 X96.846 Y79.144 E0.04392
G1 X96.305 Y79.144 E0.01722
G1 X95.700 Y78.540 E0.02720
G1 E-0.80000 F2100.000
G1 Z0.800 F10800.000
G1 X120.413 Y96.095
G1 Z0.200
G1 E0.80000 F2100.000
;TYPE:Perimeter
;WIDTH:0.42
G1 F1200.000
G1 X120.413 Y100.413 E0.13539
G1 X95.587 Y100.413 E0.77840
G1 X95.587 Y88.601 E0.37035
G1 X120.413 Y88.601 E0.77840
G1 X120.413 Y96.035 E0.23308
G1 X120.790 Y96.035 F10800.000
;TYPE:External perimeter
G1 F1200.000
G1 X120.790 Y100.790 E0.14910
G1 X95.210 Y100.790 E0.80204
M73 P6 R15
M73 Q6 S15
G1 X95.210 Y88.224 E0.39400
G1 X120.790 Y88.224 E0.80204
G1 X120.790 Y95.975 E0.24302
G1 X120.557 Y96.360 F10800.000
G1 E-0.80000 F2100.000
G1 Z0.800 F10800.000
G1 X95.700 Y99.526
G1 Z0.200
G1 E0.80000 F2100.000
;TYPE:Solid infill
;WIDTH:0.425608
G1 F1200.000
G1 X96.305 Y100.130 E0.02720
G1 X96.846 Y100.130 E0.01722
G1 X95.870 Y99.154 E0.04392
G1 X95.870 Y98.613 E0.01722
G1 X97.387 Y100.130 E0.06827
G1 X97.928 Y100.130 E0.01722
G1 X95.870 Y98.072 E0.09263
G1 X95.870 Y97.531 E0.01722
G1 X98.469 Y100.130 E0.11698
G1 X99.011 Y100.130 E0.01722
G1 X95.870 Y96.989 E0.14134
G1 X95.870 Y96.448 E0.01722
G1 X99.552 Y100.130 E0.16569
G1 X100.093 Y100.130 E0.01722
G1 X95.870 Y95.907 E0.19005
G1 X95.870 Y95.366 E0.01722
G1 X100.634 Y100.130 E0.21440
G1 X101.175 Y100.130 E0.01722
G1 X95.870 Y94.825 E0.23876
G1 X95.870 Y94.283 E0.01722
G1 X101.717 Y100.130 E0.26311
G1 X102.258 Y100.130 E0.01722
G1 X95.870 Y93.742 E0.28747
G1 X95.870 Y93.201 E0.01722
G1 X102.799 Y100.130 E0.31182
G1 X103.340 Y100.130 E0.01722
G1 X95.870 Y92.660 E0.33618
G1 X95.870 Y92.119 E0.01722
G1 X103.881 Y100.130 E0.36053
G1 X104.423 Y100.130 E0.01722
G1 X95.870 Y91.577 E0.38488
G1 X95.870 Y91.036 E0.01722
G1 X104.964 Y100.130 E0.40924
M73 Q7 S15
G1 X105.505 Y100.130 E0.01722
G1 X95.870 Y90.495 E0.43359
M73 P7 R15
G1 X95.870 Y89.954 E0.01722
G1 X106.046 Y100.130 E0.45795
G1 X106.587 Y100.130 E0.01722
G1 X95.870 Y89.413 E0.48230
G1 X95.870 Y88.884 E0.01682
G1 X107.129 Y100.130 E0.50638
G1 X107.670 Y100.130 E0.01722
G1 X96.424 Y88.884 E0.50609
G1 X96.965 Y88.884 E0.01722
G1 X108.211 Y100.130 E0.50609
G1 X108.752 Y100.130 E0.01722
G1 X97.506 Y88.884 E0.50609
G1 X98.047 Y88.884 E0.01722
G1 X109.293 Y100.130 E0.50609
G1 X109.835 Y100.130 E0.01722
G1 X98.588 Y88.884 E0.50609
G1 X99.130 Y88.884 E0.01722
G1 X110.376 Y100.130 E0.50609
G1 X110.917 Y100.130 E0.01722
G1 X99.671 Y88.884 E0.50609
G1 X100.212 Y88.884 E0.01722
G1 X111.458 Y100.130 E0.50609
M73 Q8 S15
G1 X111.999 Y100.130 E0.01722
G1 X100.753 Y88.884 E0.50609
M73 P8 R15
G1 X101.294 Y88.884 E0.01722
G1 X112.541 Y100.130 E0.50609
G1 X113.082 Y100.130 E0.01722
G1 X101.836 Y88.884 E0.50609
G1 X102.377 Y88.884 E0.01722
G1 X113.623 Y100.130 E0.50609
G1 X114.164 Y100.130 E0.01722
G1 X102.918 Y88.884 E0.50609
G1 X103.459 Y88.884 E0.01722
G1 X114.705 Y100.130 E0.50609
G1 X115.247 Y100.130 E0.01722
G1 X104.000 Y88.884 E0.50609
G1 X104.542 Y88.884 E0.01722
G1 X115.788 Y100.130 E0.50609
G1 X116.329 Y100.130 E0.01722
G1 X105.083 Y88.884 E0.50609
G1 X105.624 Y88.884 E0.01722
G1 X116.870 Y100.130 E0.50609
G1 X117.412 Y100.130 E0.01722
G1 X106.165 Y88.884 E0.50609
G1 X106.706 Y88.884 E0.01722
G1 X117.953 Y100.130 E0.50609
M73 Q9 S15
G1 X118.494 Y100.130 E0.01722
M73 P9 R15
G1 X107.248 Y88.884 E0.50609
G1 X107.789 Y88.884 E0.01722
G1 X119.035 Y100.130 E0.50609
G1 X119.576 Y100.130 E0.01722
G1 X108.330 Y88.884 E0.50609
G1 X108.871 Y88.884 E0.01722
G1 X120.118 Y100.130 E0.50609
G1 X120.130 Y100.130 E0.00040
G1 X120.130 Y99.602 E0.01682
G1 X109.412 Y88.884 E0.48231
G1 X109.954 Y88.884 E0.01722
G1 X120.130 Y99.060 E0.45795
G1 X120.130 Y98.519 E0.01722
G1 X110.495 Y88.884 E0.43360
G1 X111.036 Y88.884 E0.01722
G1 X120.130 Y97.978 E0.40924
G1 X120.130 Y97.437 E0.01722
G1 X111.577 Y88.884 E0.38489
G1 X112.118 Y88.884 E0.01722
G1 X120.130 Y96.896 E0.36053
G1 X120.130 Y96.354 E0.01722
G1 X112.660 Y88.884 E0.33618
G1 X113.201 Y88.884 E0.01722
G1 X120.130 Y95.813 E0.31182
G1 X120.130 Y95.272 E0.01722
G1 X113.742 Y88.884 E0.28747
G1 X114.283 Y88.884 E0.01722
M73 Q10 S15
G1 X120.130 Y94.731 E0.26311
G1 X120.130 Y94.189 E0.01722
G1 X114.825 Y88.884 E0.23876
M73 P10 R15
G1 X115.366 Y88.884 E0.01722
G1 X120.130 Y93.648 E0.21440
G1 X120.130 Y93.107 E0.01722
G1 X115.907 Y88.884 E0.19005
G1 X116.448 Y88.884 E0.01722
G1 X120.130 Y92.566 E0.16569
G1 X120.130 Y92.025 E0.01722
G1 X116.989 Y88.884 E0.14134
G1 X117.531 Y88.884 E0.01722
G1 X120.130 Y91.483 E0.11699
G1 X120.130 Y90.942 E0.01722
G1 X118.072 Y88.884 E0.09263
G1 X118.613 Y88.884 E0.01722
G1 X120.130 Y90.401 E0.06828
G1 X120.130 Y89.860 E0.01722
G1 X119.154 Y88.884 E0.04392
G1 X119.695 Y88.884 E0.01722
G1 X120.300 Y89.488 E0.02720
G1 E-0.80000 F2100.000
G1 Z0.800 F10800.000
G1 X99.450 Y121.399
G1 Z0.200
G1 E0.80000 F2100.000
;TYPE:Perimeter
;WIDTH:0.42
G1 F1200.000
G1 X95.587 Y121.399 E0.12113
G1 X95.587 Y109.587 E0.37035
G1 X120.413 Y109.587 E0.77840
G1 X120.413 Y121.399 E0.37035
G1 X99.510 Y121.399 E0.65539
G1 X99.510 Y121.776 F10800.000
;TYPE:External perimeter
G1 F1200.000
G1 X95.210 Y121.776 E0.13483
G1 X95.210 Y109.210 E0.39400
G1 X120.790 Y109.210 E0.80204
M73 Q10 S14
G1 X120.790 Y121.776 E0.39400
M73 Q11 S14
G1 X99.570 Y121.776 E0.66533
M73 P11 R15
G1 X99.252 Y121.470 F10800.000
G1 E-0.80000 F2100.000
G1 Z0.800 F10800.000
G1 X120.300 Y110.474
G1 Z0.200
G1 E0.80000 F2100.000
;TYPE:Solid infill
;WIDTH:0.425608
G1 F1200.000
G1 X119.695 Y109.870 E0.02720
G1 X119.154 Y109.870 E0.01722
G1 X120.130 Y110.846 E0.04392
G1 X120.130 Y111.387 E0.01722
G1 X118.613 Y109.870 E0.06828
M73 P11 R14
G1 X118.072 Y109.870 E0.01722
G1 X120.130 Y111.928 E0.09263
G1 X120.130 Y112.469 E0.01722
G1 X117.531 Y109.870 E0.11699
G1 X116.989 Y109.870 E0.01722
G1 X120.130 Y113.011 E0.14134
G1 X120.130 Y113.552 E0.01722
G1 X116.448 Y109.870 E0.16569
G1 X115.907 Y109.870 E0.01722
G1 X120.130 Y114.093 E0.19005
G1 X120.130 Y114.634 E0.01722
G1 X115.366 Y109.870 E0.21440
G1 X114.825 Y109.870 E0.01722
G1 X120.130 Y115.175 E0.23876
G1 X120.130 Y115.717 E0.01722
G1 X114.283 Y109.870 E0.26311
G1 X113.742 Y109.870 E0.01722
G1 X120.130 Y116.258 E0.28747
G1 X120.130 Y116.799 E0.01722
G1 X113.201 Y109.870 E0.31182
G1 X112.660 Y109.870 E0.01722
G1 X120.130 Y117.340 E0.33618
G1 X120.130 Y117.882 E0.01722
G1 X112.118 Y109.870 E0.36053
G1 X111.577 Y109.870 E0.01722
G1 X120.130 Y118.423 E0.38489
G1 X120.130 Y118.964 E0.01722
G1 X111.036 Y109.870 E0.40924
G1 X110.495 Y109.870 E0.01722
G1 X120.130 Y119.505 E0.43360
G1 X120.130 Y120.046 E0.01722
G1 X109.954 Y109.870 E0.45795
G1 X109.412 Y109.870 E0.01722
M73 Q12 S14
G1 X120.130 Y120.588 E0.48231
G1 X120.130 Y121.116 E0.01682
M73 P12 R14
G1 X120.118 Y121.116 E0.00040
G1 X108.871 Y109.870 E0.50609
G1 X108.330 Y109.870 E0.01722
G1 X119.576 Y121.116 E0.50609
G1 X119.035 Y121.116 E0.01722
G1 X107.789 Y109.870 E0.50609
G1 X107.248 Y109.870 E0.01722
G1 X118.494 Y121.116 E0.50609
G1 X117.953 Y121.116 E0.01722
G1 X106.706 Y109.870 E0.50609
G1 X106.165 Y109.870 E0.01722
G1 X117.412 Y121.116 E0.50609
G1 X116.870 Y121.116 E0.01722
G1 X105.624 Y109.870 E0.50609
G1 X105.083 Y109.870 E0.01722
G1 X116.329 Y121.116 E0.50609
G1 X115.788 Y121.116 E0.01722
G1 X104.542 Y109.870 E0.50609
G1 X104.000 Y109.870 E0.01722
G1 X115.247 Y121.116 E0.50609
G1 X114.705 Y121.116 E0.01722
G1 X103.459 Y109.870 E0.50609
M73 Q13 S14
G1 X102.918 Y109.870 E0.01722
G1 X114.164 Y121.116 E0.50609
M73 P13 R14
G1 X113.623 Y121.116 E0.01722
G1 X102.377 Y109.870 E0.50609
G1 X101.836 Y109.870 E0.01722
G1 X113.082 Y121.116 E0.50609
G1 X112.541 Y121.116 E0.01722
G1 X101.294 Y109.870 E0.50609
G1 X100.753 Y109.870 E0.01722
G1 X111.999 Y121.116 E0.50609
G1 X111.458 Y121.116 E0.01722
G1 X100.212 Y109.870 E0.50609
G1 X99.671 Y109.870 E0.01722
G1 X110.917 Y121.116 E0.50609
G1 X110.376 Y121.116 E0.01722
G1 X99.130 Y109.870 E0.50609
G1 X98.588 Y109.870 E0.01722
G1 X109.835 Y121.116 E0.50609
G1 X109.293 Y121.116 E0.01722
G1 X98.047 Y109.870 E0.50609
G1 X97.506 Y109.870 E0.01722
G1 X108.752 Y121.116 E0.50609
G1 X108.211 Y121.116 E0.01722
G1 X96.965 Y109.870 E0.50609
M73 Q14 S14
G1 X96.424 Y109.870 E0.01722
G1 X107.670 Y121.116 E0.50609
M73 P14 R14
G1 X107.129 Y121.116 E0.01722
G1 X95.870 Y109.870 E0.50638
G1 X95.870 Y110.399 E0.01682
G1 X106.587 Y121.116 E0.48230
G1 X106.046 Y121.116 E0.01722
G1 X95.870 Y110.940 E0.45795
G1 X95.870 Y111.481 E0.01722
G1 X105.505 Y121.116 E0.43359
G1 X104.964 Y121.116 E0.01722
G1 X95.870 Y112.022 E0.40924
G1 X95.870 Y112.563 E0.01722
G1 X104.423 Y121.116 E0.38488
G1 X103.881 Y121.116 E0.01722
G1 X95.870 Y113.105 E0.36053
G1 X95.870 Y113.646 E0.01722
G1 X103.340 Y121.116 E0.33618
G1 X102.799 Y121.116 E0.01722
G1 X95.870 Y114.187 E0.31182
G1 X95.870 Y114.728 E0.01722
G1 X102.258 Y121.116 E0.28747
G1 X101.717 Y121.116 E0.01722
G1 X95.870 Y115.269 E0.26311
G1 X95.870 Y115.811 E0.01722
G1 X101.175 Y121.116 E0.23876
G1 X100.634 Y121.116 E0.01722
G1 X95.870 Y116.352 E0.21440
G1 X95.870 Y116.893 E0.01722
G1 X100.093 Y121.116 E0.19005
G1 X99.552 Y121.116 E0.01722
G1 X95.870 Y117.434 E0.16569
G1 X95.870 Y117.975 E0.01722
M73 Q15 S14
G1 X99.011 Y121.116 E0.14134
G1 X98.469 Y121.116 E0.01722
G1 X95.870 Y118.517 E0.11698
G1 X95.870 Y119.058 E0.01722
G1 X97.928 Y121.116 E0.09263
G1 X97.387 Y121.116 E0.01722
G1 X95.870 Y119.599 E0.06827
G1 X95.870 Y120.140 E0.01722
G1 X96.846 Y121.116 E0.04392
M73 P15 R14
G1 X96.305 Y121.116 E0.01722
G1 X95.700 Y120.512 E0.02720
G1 E-0.80000 F2100.000
G1 Z0.800 F10800.000
G1 X95.769 Y142.385
G1 Z0.200
G1 E0.80000 F2100.000
;TYPE:Perimeter
;WIDTH:0.42
G1 F1200.000
G1 X95.587 Y142.385 E0.00572
G1 X95.587 Y130.573 E0.37035
G1 X120.413 Y130.573 E0.77840
G1 X120.413 Y142.385 E0.37035
G1 X95.829 Y142.385 E0.77080
G1 X95.829 Y142.762 F10800.000
;TYPE:External perimeter
G1 F1200.000
G1 X95.210 Y142.762 E0.01942
G1 X95.210 Y130.196 E0.39400
G1 X120.790 Y130.196 E0.80204
G1 X120.790 Y142.762 E0.39400
G1 X95.889 Y142.762 E0.78074
G1 X95.578 Y142.451 F10800.000
G1 E-0.80000 F2100.000
G1 Z0.800 F10800.000
G1 X120.300 Y131.460
G1 Z0.200
G1 E0.80000 F2100.000
;TYPE:Solid infill
;WIDTH:0.425608
G1 F1200.000
G1 X119.695 Y130.856 E0.02720
