; generated by PrusaSlicer 2.2.0+win64 on 2022-03-23 at 20:52:12 UTC

; 

; external perimeters extrusion width = 0.45mm
; perimeters extrusion width = 0.45mm
; infill extrusion width = 0.45mm
; solid infill extrusion width = 0.45mm
; top infill extrusion width = 0.40mm
; first layer extrusion width = 0.42mm

M73 P0 R65
M73 Q0 S66
M201 X1000 Y1000 Z200 E5000 ; sets maximum accelerations, mm/sec^2
M203 X200 Y200 Z12 E120 ; sets maximum feedrates, mm/sec
M204 P1250 R1250 T1250 ; sets acceleration (P, T) and retract acceleration (R), mm/sec^2
M205 X8.00 Y8.00 Z0.40 E4.50 ; sets the jerk limits, mm/sec
M205 S0 T0 ; sets the minimum extruding and travel feed rate, mm/sec
M107
M862.3 P "MK3S" ; printer model check
M862.1 P0.4 ; nozzle diameter check
M115 U3.10.1 ; tell printer latest fw version
G90 ; use absolute coordinates
M83 ; extruder relative mode
M104 S215 ; set extruder temp
M140 S60 ; set bed temp
M190 S60 ; wait for bed temp
M109 S215 ; wait for extruder temp
G28 W ; home all without mesh bed level
G80 ; mesh bed leveling
G1 Y-3.0 F1000.0 ; go outside print area
G92 E0.0
G1 X60.0 E9.0 F1000.0 ; intro line
M73 Q0 S66
M73 P0 R65
G1 X100.0 E12.5 F1000.0 ; intro line
G92 E0.0
M221 S95

; Don't change E values below. Excessive value can damage the printer.
M907 E430 ; set extruder motor current
G21 ; set units to millimeters
G90 ; use absolute coordinates
M83 ; use relative distances for extrusion
M900 K0.05 ; Filament gcode LA 1.5
M900 K30 ; Filament gcode LA 1.0
;BEFORE_LAYER_CHANGE
G92 E0.0
;0.2


G1 E-0.80000 F2100.00000
G1 Z0.400 F10800.000
;AFTER_LAYER_CHANGE
;0.2
G1 X91.236 Y73.762
G1 Z0.200
G1 E0.80000 F2100.00000
M204 S1000
G1 F1200.000
G1 X92.006 Y72.810 E0.03841
G1 X93.028 Y71.785 E0.04539
G1 X94.126 Y70.895 E0.04432
G1 X95.318 Y70.120 E0.04456
G1 X96.484 Y69.521 E0.04110
G1 X98.034 Y68.926 E0.05206
G1 X99.305 Y68.590 E0.04122
G1 X100.754 Y68.365 E0.04599
G1 X102.112 Y68.296 E0.04265
G1 X147.889 Y68.296 E1.43529
G1 X149.298 Y68.369 E0.04424
G1 X150.597 Y68.571 E0.04122
G1 X152.189 Y68.999 E0.05170
G1 X153.415 Y69.473 E0.04122
G1 X154.675 Y70.115 E0.04432
G1 X155.857 Y70.883 E0.04420
G1 X156.881 Y71.707 E0.04122
G1 X158.047 Y72.873 E0.05170
G1 X158.874 Y73.900 E0.04134
G1 X159.642 Y75.082 E0.04420
G1 X160.286 Y76.345 E0.04444
G1 X160.759 Y77.567 E0.04110
G1 X161.182 Y79.137 E0.05099
G1 X161.388 Y80.459 E0.04193
G1 X161.462 Y81.859 E0.04396
G1 X161.462 Y119.908 E1.19300
G1 X161.405 Y121.134 E0.03848
G1 X161.179 Y122.650 E0.04808
G1 X160.879 Y123.839 E0.03842
G1 X160.436 Y125.083 E0.04141
G1 X159.873 Y126.277 E0.04141
G1 X159.246 Y127.335 E0.03854
G1 X158.343 Y128.560 E0.04772
G1 X157.505 Y129.485 E0.03914
G1 X156.528 Y130.374 E0.04141
G1 X154.605 Y131.884 E0.07667
G1 X152.590 Y133.309 E0.07736
G1 X150.553 Y134.604 E0.07569
G1 X148.432 Y135.811 E0.07653
G1 X146.257 Y136.911 E0.07641
G1 X144.038 Y137.900 E0.07617
G1 X141.751 Y138.786 E0.07689
G1 X139.435 Y139.554 E0.07653
G1 X137.083 Y140.208 E0.07653
G1 X134.758 Y140.733 E0.07474
G1 X132.238 Y141.172 E0.08020
G1 X129.872 Y141.464 E0.07477
G1 X127.388 Y141.646 E0.07808
G1 X124.998 Y141.704 E0.07498
G1 X122.558 Y141.644 E0.07653
G1 X120.127 Y141.464 E0.07641
G1 X117.705 Y141.164 E0.07653
G1 X115.300 Y140.745 E0.07653
G1 X112.919 Y140.209 E0.07653
G1 X110.568 Y139.555 E0.07653
G1 X108.302 Y138.804 E0.07486
G1 X105.975 Y137.905 E0.07820
G1 X103.745 Y136.912 E0.07653
G1 X101.567 Y135.811 E0.07653
G1 X99.495 Y134.633 E0.07474
G1 X97.387 Y133.293 E0.07832
G1 X95.441 Y131.917 E0.07474
G1 X93.416 Y130.327 E0.08070
G1 X92.479 Y129.469 E0.03984
G1 X91.533 Y128.406 E0.04463
G1 X90.750 Y127.328 E0.04177
G1 X90.131 Y126.284 E0.03806
G1 X89.612 Y125.191 E0.03795
G1 X89.123 Y123.846 E0.04486
G1 X88.801 Y122.562 E0.04153
G1 X88.603 Y121.236 E0.04201
G1 X88.539 Y119.963 E0.03998
G1 X88.538 Y81.869 E1.19441
G1 X88.606 Y80.528 E0.04209
G1 X88.861 Y78.938 E0.05051
G1 X89.205 Y77.669 E0.04122
G1 X89.708 Y76.360 E0.04396
G1 X90.419 Y74.982 E0.04861
G1 X91.198 Y73.809 E0.04416
; printing object SuperJackpotFace.stl id:0 copy 0
G1 F8640.000
G1 X92.006 Y72.810 E-0.29671
G1 X93.028 Y71.785 E-0.33429
G1 X93.462 Y71.433 E-0.12900
G1 E-0.04000 F2100.00000
G1 Z0.600 F10800.000
G1 X119.225 Y99.700
G1 Z0.200
G1 E0.80000 F2100.00000
G1 F1200.000
G1 X119.953 Y99.039 E0.03084
G1 X120.831 Y98.419 E0.03369
G1 X121.746 Y97.942 E0.03235
G1 X122.713 Y97.586 E0.03230
G1 X123.717 Y97.357 E0.03230
G1 X124.696 Y97.263 E0.03084
G1 X125.770 Y97.291 E0.03369
G1 X126.789 Y97.456 E0.03235
G1 X127.776 Y97.749 E0.03230
G1 X128.718 Y98.166 E0.03230
G1 X129.599 Y98.700 E0.03230
G1 X130.404 Y99.342 E0.03230
G1 X131.121 Y100.082 E0.03230
G1 X131.737 Y100.907 E0.03230
G1 X132.243 Y101.805 E0.03230
G1 X132.629 Y102.760 E0.03230
G1 X132.890 Y103.756 E0.03230
G1 X133.022 Y104.778 E0.03230
G1 X133.022 Y105.808 E0.03230
G1 X132.896 Y106.783 E0.03084
G1 X132.630 Y107.824 E0.03369
G1 X132.243 Y108.781 E0.03235
G1 X131.737 Y109.678 E0.03230
G1 X131.121 Y110.504 E0.03230
G1 X130.404 Y111.244 E0.03230
G1 X129.599 Y111.886 E0.03230
G1 X128.718 Y112.420 E0.03230
G1 X127.776 Y112.837 E0.03230
G1 X127.283 Y112.983 E0.01615
G1 X126.789 Y113.130 E0.01615
G1 X125.772 Y113.294 E0.03230
G1 X124.742 Y113.327 E0.03230
G1 X123.717 Y113.228 E0.03230
G1 X122.713 Y112.999 E0.03230
G1 X121.746 Y112.643 E0.03230
G1 X120.833 Y112.167 E0.03230
G1 X119.988 Y111.578 E0.03230
G1 X119.225 Y110.885 E0.03230
G1 X118.558 Y110.101 E0.03230
G1 X117.996 Y109.237 E0.03230
G1 X117.549 Y108.309 E0.03230
G1 X117.224 Y107.332 E0.03230
G1 X117.027 Y106.321 E0.03230
G1 X116.961 Y105.293 E0.03230
G1 X117.027 Y104.265 E0.03230
G1 X117.224 Y103.254 E0.03230
G1 X117.549 Y102.276 E0.03230
G1 X117.996 Y101.348 E0.03230
G1 X118.558 Y100.485 E0.03230
G1 X119.187 Y99.746 E0.03042
G1 X119.474 Y99.990 F10800.000
G1 F1200.000
G1 X120.190 Y99.334 E0.03047
G1 X121.028 Y98.742 E0.03218
G1 X121.899 Y98.288 E0.03080
G1 X122.820 Y97.949 E0.03078
G1 X123.777 Y97.730 E0.03078
G1 X124.709 Y97.640 E0.02935
G1 X125.735 Y97.667 E0.03218
G1 X126.705 Y97.824 E0.03080
G1 X127.646 Y98.103 E0.03078
G1 X128.543 Y98.501 E0.03078
G1 X129.383 Y99.010 E0.03078
G1 X130.150 Y99.622 E0.03078
G1 X130.833 Y100.327 E0.03078
G1 X131.420 Y101.113 E0.03078
G1 X131.902 Y101.969 E0.03078
G1 X132.271 Y102.879 E0.03078
G1 X132.520 Y103.828 E0.03078
G1 X132.645 Y104.802 E0.03078
G1 X132.645 Y105.784 E0.03078
G1 X132.525 Y106.712 E0.02935
G1 X132.271 Y107.706 E0.03218
G1 X131.902 Y108.617 E0.03080
G1 X131.420 Y109.472 E0.03078
G1 X130.833 Y110.259 E0.03078
G1 X130.150 Y110.964 E0.03078
G1 X129.383 Y111.576 E0.03078
G1 X128.543 Y112.085 E0.03078
G1 X127.646 Y112.482 E0.03078
G1 X127.175 Y112.622 E0.01539
G1 X126.705 Y112.762 E0.01539
G1 X125.736 Y112.918 E0.03078
G1 X124.754 Y112.950 E0.03078
G1 X123.777 Y112.855 E0.03078
G1 X122.820 Y112.637 E0.03078
G1 X121.899 Y112.298 E0.03078
G1 X121.029 Y111.844 E0.03078
G1 X120.224 Y111.282 E0.03078
G1 X119.497 Y110.622 E0.03078
G1 X118.860 Y109.875 E0.03078
G1 X118.325 Y109.052 E0.03078
G1 X117.899 Y108.168 E0.03078
G1 X117.590 Y107.236 E0.03078
G1 X117.402 Y106.272 E0.03078
G1 X117.339 Y105.293 E0.03078
G1 X117.402 Y104.313 E0.03078
G1 X117.590 Y103.350 E0.03078
G1 X117.899 Y102.418 E0.03078
G1 X118.325 Y101.533 E0.03078
G1 X118.860 Y100.711 E0.03078
G1 X119.435 Y100.036 E0.02778
G1 X119.363 Y99.606 F10800.000
G1 F8640.000
G1 X120.190 Y99.334 E-0.23812
G1 X121.028 Y98.742 E-0.23695
G1 X121.899 Y98.288 E-0.22681
G1 X122.135 Y98.201 E-0.05812
G1 E-0.04000 F2100.00000
G1 Z0.600 F10800.000
G1 X150.910 Y105.359
G1 Z0.200
G1 E0.80000 F2100.00000
G1 F1200.000
G1 X156.985 Y105.359 E0.19045
G1 X156.985 Y115.433 E0.31587
G1 X150.910 Y115.433 E0.19045
G1 X150.910 Y105.419 E0.31399
G1 X151.287 Y105.736 F10800.000
G1 F1200.000
G1 X156.607 Y105.736 E0.16680
G1 X156.607 Y115.056 E0.29222
G1 X151.287 Y115.056 E0.16680
G1 X151.287 Y105.796 E0.29034
G1 X151.219 Y105.342 F10800.000
G1 F8640.000
G1 X154.579 Y105.759 E-0.76000
G1 E-0.04000 F2100.00000
G1 Z0.600 F10800.000
G1 X93.015 Y105.359
G1 Z0.200
G1 E0.80000 F2100.00000
G1 F1200.000
G1 X99.090 Y105.359 E0.19045
G1 X99.090 Y115.433 E0.31587
G1 X93.015 Y115.433 E0.19045
G1 X93.015 Y105.419 E0.31399
G1 X93.392 Y105.736 F10800.000
G1 F1200.000
G1 X98.712 Y105.736 E0.16680
G1 X98.712 Y115.056 E0.29222
G1 X93.392 Y115.056 E0.16680
G1 X93.392 Y105.796 E0.29034
G1 X93.324 Y105.342 F10800.000
G1 F8640.000
G1 X96.684 Y105.759 E-0.76000
G1 E-0.04000 F2100.00000
G1 Z0.600 F10800.000
G1 X91.702 Y105.796
G1 Z0.200
G1 E0.80000 F2100.00000
G1 F1200.000
G1 X91.702 Y81.893 E0.74945
G1 X91.760 Y80.784 E0.03482
G1 X91.931 Y79.708 E0.03417
G1 X92.213 Y78.655 E0.03417
G1 X92.603 Y77.638 E0.03417
G1 X93.098 Y76.667 E0.03417
G1 X93.692 Y75.753 E0.03417
G1 X94.377 Y74.906 E0.03417
G1 X95.148 Y74.135 E0.03417
G1 X95.995 Y73.449 E0.03417
G1 X96.909 Y72.856 E0.03417
G1 X97.880 Y72.361 E0.03417
G1 X98.898 Y71.970 E0.03417
G1 X99.950 Y71.688 E0.03417
G1 X101.027 Y71.518 E0.03417
G1 X102.136 Y71.460 E0.03482
G1 X147.889 Y71.461 E1.43457
G1 X148.973 Y71.518 E0.03404
G1 X150.050 Y71.688 E0.03417
G1 X151.102 Y71.970 E0.03417
G1 X152.120 Y72.361 E0.03417
G1 X153.091 Y72.856 E0.03417
G1 X154.005 Y73.449 E0.03417
G1 X154.852 Y74.135 E0.03417
G1 X155.623 Y74.906 E0.03417
G1 X156.308 Y75.753 E0.03417
G1 X156.902 Y76.667 E0.03417
G1 X157.396 Y77.637 E0.03415
G1 X157.792 Y78.674 E0.03478
G1 X158.069 Y79.708 E0.03357
G1 X158.240 Y80.784 E0.03417
G1 X158.298 Y81.893 E0.03482
G1 X158.298 Y119.885 E1.19119
G1 X158.247 Y120.921 E0.03254
G1 X158.098 Y121.929 E0.03194
G1 X157.851 Y122.917 E0.03194
G1 X157.509 Y123.877 E0.03194
G1 X157.075 Y124.798 E0.03192
G1 X156.542 Y125.687 E0.03251
G1 X155.947 Y126.492 E0.03138
G1 X155.265 Y127.248 E0.03194
G1 X154.505 Y127.941 E0.03224
G1 X152.715 Y129.345 E0.07134
G1 X150.850 Y130.666 E0.07164
G1 X148.923 Y131.892 E0.07164
G1 X146.937 Y133.022 E0.07164
G1 X144.898 Y134.053 E0.07164
G1 X142.811 Y134.983 E0.07164
G1 X140.680 Y135.808 E0.07164
G1 X138.511 Y136.528 E0.07164
G1 X136.310 Y137.139 E0.07164
G1 X134.081 Y137.642 E0.07164
G1 X131.830 Y138.034 E0.07164
G1 X129.563 Y138.315 E0.07164
G1 X127.284 Y138.484 E0.07164
G1 X125.000 Y138.540 E0.07164
G1 X122.716 Y138.484 E0.07164
G1 X120.437 Y138.315 E0.07164
G1 X118.170 Y138.034 E0.07164
G1 X115.972 Y137.651 E0.06994
G1 X113.690 Y137.139 E0.07335
G1 X111.489 Y136.528 E0.07163
G1 X109.320 Y135.808 E0.07164
G1 X107.189 Y134.983 E0.07164
G1 X105.102 Y134.053 E0.07164
G1 X103.063 Y133.022 E0.07164
G1 X101.077 Y131.892 E0.07164
G1 X99.150 Y130.666 E0.07164
G1 X97.285 Y129.345 E0.07164
G1 X95.495 Y127.941 E0.07134
G1 X94.735 Y127.248 E0.03224
G1 X94.053 Y126.492 E0.03194
G1 X93.447 Y125.673 E0.03194
G1 X92.925 Y124.798 E0.03194
G1 X92.491 Y123.877 E0.03194
G1 X92.149 Y122.917 E0.03194
G1 X91.902 Y121.929 E0.03194
G1 X91.753 Y120.921 E0.03194
G1 X91.702 Y119.885 E0.03254
G1 X91.702 Y105.856 E0.43985
G1 X91.325 Y105.856 F10800.000
G1 F1200.000
G1 X91.325 Y81.883 E0.75164
G1 X91.385 Y80.745 E0.03575
G1 X91.561 Y79.629 E0.03541
G1 X91.854 Y78.539 E0.03541
G1 X92.258 Y77.484 E0.03541
G1 X92.771 Y76.478 E0.03541
G1 X93.386 Y75.531 E0.03541
G1 X94.097 Y74.653 E0.03541
G1 X94.895 Y73.855 E0.03541
G1 X95.773 Y73.144 E0.03541
G1 X96.720 Y72.529 E0.03541
G1 X97.727 Y72.016 E0.03541
G1 X98.781 Y71.611 E0.03541
G1 X99.872 Y71.319 E0.03541
G1 X100.987 Y71.142 E0.03541
G1 X102.126 Y71.083 E0.03575
G1 X147.899 Y71.084 E1.43519
G1 X149.013 Y71.142 E0.03497
G1 X150.128 Y71.319 E0.03541
G1 X151.219 Y71.611 E0.03541
G1 X152.273 Y72.016 E0.03541
G1 X153.280 Y72.529 E0.03541
G1 X154.227 Y73.144 E0.03541
G1 X155.105 Y73.855 E0.03541
G1 X155.903 Y74.653 E0.03541
G1 X156.614 Y75.531 E0.03541
G1 X157.229 Y76.478 E0.03541
G1 X157.742 Y77.484 E0.03540
G1 X158.151 Y78.557 E0.03602
G1 X158.439 Y79.629 E0.03480
G1 X158.615 Y80.745 E0.03541
G1 X158.675 Y81.883 E0.03575
G1 X158.675 Y119.894 E1.19179
G1 X158.623 Y120.958 E0.03341
G1 X158.468 Y122.002 E0.03310
G1 X158.213 Y123.027 E0.03310
G1 X157.858 Y124.021 E0.03310
G1 X157.408 Y124.975 E0.03309
G1 X156.856 Y125.897 E0.03367
G1 X156.240 Y126.731 E0.03253
G1 X155.533 Y127.515 E0.03310
G1 X154.749 Y128.229 E0.03325
G1 X152.940 Y129.648 E0.07207
G1 X151.060 Y130.979 E0.07222
G1 X149.117 Y132.215 E0.07222
G1 X147.115 Y133.355 E0.07222
G1 X145.060 Y134.394 E0.07222
G1 X142.955 Y135.331 E0.07222
G1 X140.808 Y136.163 E0.07222
G1 X138.621 Y136.888 E0.07222
G1 X136.402 Y137.505 E0.07222
G1 X134.155 Y138.012 E0.07222
G1 X131.886 Y138.407 E0.07222
G1 X129.600 Y138.690 E0.07222
G1 X127.303 Y138.860 E0.07222
G1 X125.000 Y138.917 E0.07222
G1 X122.697 Y138.860 E0.07222
G1 X120.400 Y138.690 E0.07222
G1 X118.114 Y138.407 E0.07222
G1 X115.899 Y138.021 E0.07051
G1 X113.598 Y137.505 E0.07393
G1 X111.379 Y136.888 E0.07222
G1 X109.192 Y136.163 E0.07222
G1 X107.045 Y135.331 E0.07222
G1 X104.940 Y134.394 E0.07222
G1 X102.885 Y133.355 E0.07222
G1 X100.883 Y132.215 E0.07222
G1 X98.940 Y130.979 E0.07222
G1 X97.060 Y129.648 E0.07222
G1 X95.251 Y128.229 E0.07207
G1 X94.467 Y127.515 E0.03325
G1 X93.760 Y126.731 E0.03310
G1 X93.133 Y125.882 E0.03310
G1 X92.592 Y124.976 E0.03310
G1 X92.142 Y124.021 E0.03310
G1 X91.787 Y123.027 E0.03310
G1 X91.532 Y122.002 E0.03310
G1 X91.377 Y120.958 E0.03310
G1 X91.325 Y119.894 E0.03341
G1 X91.325 Y105.916 E0.43826
G1 X91.671 Y105.656 F10800.000
G1 F8640.000
G1 X91.325 Y102.625 E-0.76000
G1 E-0.04000 F2100.00000
G1 Z0.600 F10800.000
G1 X91.815 Y98.230
G1 Z0.200
G1 E0.80000 F2100.00000
G1 F1200.000
G1 X98.662 Y105.076 E0.30478
G1 X98.126 Y105.076 E0.01685
G1 X91.985 Y98.935 E0.27340
G1 X91.985 Y99.470 E0.01685
G1 X97.591 Y105.076 E0.24956
G1 X97.056 Y105.076 E0.01685
G1 X91.985 Y100.005 E0.22573
G1 X91.985 Y100.541 E0.01685
G1 X96.520 Y105.076 E0.20190
G1 X95.985 Y105.076 E0.01685
G1 X91.985 Y101.076 E0.17807
G1 X91.985 Y101.612 E0.01685
G1 X95.450 Y105.076 E0.15423
G1 X94.914 Y105.076 E0.01685
G1 X91.985 Y102.147 E0.13040
G1 X91.985 Y102.682 E0.01685
G1 X94.379 Y105.076 E0.10657
G1 X93.843 Y105.076 E0.01685
G1 X91.985 Y103.218 E0.08274
G1 X91.985 Y103.753 E0.01685
G1 X93.308 Y105.076 E0.05890
G1 X92.773 Y105.076 E0.01685
G1 X91.985 Y104.288 E0.03507
G1 X91.985 Y104.824 E0.01685
G1 X92.733 Y105.571 E0.03329
G1 X92.733 Y106.107 E0.01685
G1 X91.985 Y105.359 E0.03329
G1 X91.985 Y105.894 E0.01685
G1 X92.733 Y106.642 E0.03329
G1 X92.733 Y107.178 E0.01685
G1 X91.985 Y106.430 E0.03329
G1 X91.985 Y106.965 E0.01685
G1 X92.733 Y107.713 E0.03329
G1 X92.733 Y108.248 E0.01685
G1 X91.985 Y107.501 E0.03329
G1 X91.985 Y108.036 E0.01685
G1 X92.733 Y108.784 E0.03329
G1 X92.733 Y109.319 E0.01685
G1 X91.985 Y108.571 E0.03329
G1 X91.985 Y109.107 E0.01685
G1 X92.733 Y109.854 E0.03329
G1 X92.733 Y110.390 E0.01685
G1 X91.985 Y109.642 E0.03329
G1 X91.985 Y110.177 E0.01685
G1 X92.733 Y110.925 E0.03329
G1 X92.733 Y111.461 E0.01685
G1 X91.985 Y110.713 E0.03329
G1 X91.985 Y111.248 E0.01685
G1 X92.733 Y111.996 E0.03329
G1 X92.733 Y112.531 E0.01685
G1 X91.985 Y111.784 E0.03329
G1 X91.985 Y112.319 E0.01685
G1 X92.733 Y113.067 E0.03329
G1 X92.733 Y113.602 E0.01685
G1 X91.985 Y112.854 E0.03329
G1 X91.985 Y113.390 E0.01685
G1 X92.733 Y114.137 E0.03329
G1 X92.733 Y114.673 E0.01685
G1 X91.985 Y113.925 E0.03329
M73 Q1 S65
G1 X91.985 Y114.460 E0.01685
G1 X92.733 Y115.208 E0.03329
G1 X92.733 Y115.716 E0.01598
G1 X93.240 Y115.716 E0.01598
G1 X114.572 Y137.047 E0.94959
M73 P1 R64
G1 X115.262 Y137.202 E0.02226
G1 X93.776 Y115.716 E0.95648
G1 X94.311 Y115.716 E0.01685
G1 X115.952 Y137.357 E0.96338
G1 X116.605 Y137.474 E0.02088
G1 X94.847 Y115.716 E0.96861
G1 X95.382 Y115.716 E0.01685
G1 X117.253 Y137.587 E0.97364
G1 X117.902 Y137.700 E0.02071
G1 X95.917 Y115.716 E0.97866
G1 X96.453 Y115.716 E0.01685
G1 X118.531 Y137.794 E0.98282
G1 X119.142 Y137.869 E0.01938
G1 X96.988 Y115.716 E0.98619
G1 X97.523 Y115.716 E0.01685
G1 X119.753 Y137.945 E0.98956
G1 X120.364 Y138.021 E0.01938
G1 X98.059 Y115.716 E0.99293
G1 X98.594 Y115.716 E0.01685
G1 X120.947 Y138.069 E0.99508
G1 X121.525 Y138.112 E0.01825
G1 X99.129 Y115.716 E0.99698
G1 X99.372 Y115.716 E0.00765
G1 X99.372 Y115.423 E0.00921
