; generated by PrusaSlicer 2.2.0+win64 on 2022-03-23 at 20:57:24 UTC

; 

; external perimeters extrusion width = 0.45mm
; perimeters extrusion width = 0.45mm
; infill extrusion width = 0.45mm
; solid infill extrusion width = 0.45mm
; top infill extrusion width = 0.40mm
; first layer extrusion width = 0.42mm

M73 P0 R31
M73 Q0 S31
M201 X1000 Y1000 Z200 E5000 ; sets maximum accelerations, mm/sec^2
M203 X200 Y200 Z12 E120 ; sets maximum feedrates, mm/sec
M204 P1250 R1250 T1250 ; sets acceleration (P, T) and retract acceleration (R), mm/sec^2
M205 X8.00 Y8.00 Z0.40 E4.50 ; sets the jerk limits, mm/sec
M205 S0 T0 ; sets the minimum extruding and travel feed rate, mm/sec
M107
M862.3 P "MK3S" ; printer model check
M862.1 P0.4 ; nozzle diameter check
M115 U3.10.1 ; tell printer latest fw version
G90 ; use absolute coordinates
M83 ; extruder relative mode
M104 S225 ; set extruder temp
M140 S60 ; set bed temp
M190 S60 ; wait for bed temp
M109 S225 ; wait for extruder temp
G28 W ; home all without mesh bed level
G80 ; mesh bed leveling
G1 Y-3.0 F1000.0 ; go outside print area
G92 E0.0
G1 X60.0 E9.0 F1000.0 ; intro line
M73 Q0 S31
M73 P0 R31
G1 X100.0 E12.5 F1000.0 ; intro line
G92 E0.0
M221 S95

; Don't change E values below. Excessive value can damage the printer.
M907 E430 ; set extruder motor current
G21 ; set units to millimeters
G90 ; use absolute coordinates
M83 ; use relative distances for extrusion
M900 K0.05 ; Filament gcode LA 1.5
M900 K30 ; Filament gcode LA 1.0
;BEFORE_LAYER_CHANGE
G92 E0.0
;0.2


G1 E-0.80000 F2100.00000
G1 Z0.400 F10800.000
;AFTER_LAYER_CHANGE
;0.2
G1 X112.111 Y98.324
G1 Z0.200
G1 E0.80000 F2100.00000
M204 S1000
G1 F1200.000
G1 X113.593 Y96.046 E0.08522
G1 X114.065 Y95.464 E0.02349
G1 X114.909 Y94.584 E0.03825
G1 X116.991 Y92.879 E0.08436
G1 X118.623 Y91.919 E0.05936
G1 X121.543 Y90.848 E0.09752
G1 X123.548 Y90.532 E0.06367
G1 X126.399 Y90.543 E0.08939
G1 X128.281 Y90.830 E0.05968
G1 X130.886 Y91.715 E0.08626
G1 X132.025 Y92.275 E0.03980
G1 X132.638 Y92.649 E0.02251
G1 X134.862 Y94.362 E0.08803
G1 X136.265 Y95.820 E0.06345
G1 X137.824 Y98.262 E0.09083
G1 X138.472 Y99.589 E0.04631
G1 X139.296 Y102.732 E0.10186
G1 X139.467 Y104.063 E0.04208
G1 X139.482 Y104.718 E0.02056
G1 X139.260 Y107.477 E0.08678
G1 X138.854 Y109.164 E0.05439
G1 X137.598 Y112.135 E0.10115
G1 X136.494 Y113.758 E0.06155
G1 X134.669 Y115.778 E0.08535
G1 X133.534 Y116.690 E0.04565
G1 X133.028 Y117.039 E0.01928
G1 X130.676 Y118.300 E0.08366
G1 X128.785 Y118.977 E0.06298
G1 X125.765 Y119.452 E0.09587
G1 X123.852 Y119.435 E0.05997
G1 X121.081 Y118.937 E0.08830
G1 X119.614 Y118.483 E0.04815
G1 X116.864 Y116.970 E0.09841
G1 X115.378 Y115.827 E0.05878
G1 X113.414 Y113.669 E0.09149
G1 X112.267 Y111.958 E0.06458
G1 X111.238 Y109.510 E0.08328
G1 X110.888 Y108.243 E0.04121
G1 X110.766 Y107.620 E0.01988
G1 X110.520 Y104.977 E0.08325
G1 X110.672 Y102.906 E0.06512
G1 X111.383 Y100.035 E0.09274
G1 X112.087 Y98.379 E0.05641
G1 X112.432 Y98.525 F10800.000
G1 F1200.000
G1 X113.902 Y96.262 E0.08463
G1 X114.342 Y95.720 E0.02188
G1 X115.159 Y94.866 E0.03706
G1 X117.220 Y93.178 E0.08350
G1 X118.792 Y92.257 E0.05714
G1 X121.643 Y91.212 E0.09520
G1 X123.548 Y90.909 E0.06049
G1 X126.368 Y90.919 E0.08843
G1 X128.158 Y91.186 E0.05674
G1 X130.750 Y92.066 E0.08584
G1 X131.857 Y92.612 E0.03869
G1 X132.417 Y92.954 E0.02056
G1 X134.616 Y94.647 E0.08704
G1 X135.958 Y96.038 E0.06059
G1 X137.499 Y98.452 E0.08978
G1 X138.132 Y99.751 E0.04532
G1 X138.928 Y102.813 E0.09919
G1 X139.091 Y104.089 E0.04033
G1 X139.106 Y104.698 E0.01909
G1 X138.886 Y107.432 E0.08599
G1 X138.494 Y109.052 E0.05227
G1 X137.265 Y111.958 E0.09893
G1 X136.212 Y113.509 E0.05878
G1 X134.404 Y115.509 E0.08452
G1 X133.302 Y116.393 E0.04431
G1 X132.840 Y116.712 E0.01759
G1 X130.502 Y117.965 E0.08317
G1 X128.695 Y118.611 E0.06019
G1 X125.737 Y119.076 E0.09388
G1 X123.909 Y119.062 E0.05730
G1 X121.164 Y118.569 E0.08747
G1 X119.737 Y118.127 E0.04683
G1 X117.059 Y116.648 E0.09592
G1 X115.636 Y115.552 E0.05632
G1 X113.703 Y113.427 E0.09007
G1 X112.612 Y111.805 E0.06129
G1 X111.592 Y109.378 E0.08255
G1 X111.255 Y108.154 E0.03981
G1 X110.896 Y104.953 E0.10101
G1 X111.044 Y102.965 E0.06249
G1 X111.738 Y100.164 E0.09048
G1 X112.408 Y98.580 E0.05393
; printing object Gear.stl id:0 copy 0
G1 F8640.000
G1 X113.902 Y96.262 E-0.63687
G1 X114.239 Y95.848 E-0.12313
G1 E-0.04000 F2100.00000
G1 Z0.600 F10800.000
G1 X122.671 Y103.663
G1 Z0.200
G1 E0.80000 F2100.00000
G1 F1200.000
G1 X122.935 Y103.276 E0.01468
G1 X123.114 Y103.079 E0.00834
G1 X123.441 Y102.803 E0.01343
G1 X123.892 Y102.543 E0.01631
G1 X124.360 Y102.382 E0.01553
G1 X124.898 Y102.306 E0.01704
G1 X125.413 Y102.329 E0.01616
G1 X125.948 Y102.465 E0.01729
G1 X126.436 Y102.704 E0.01707
G1 X126.863 Y103.034 E0.01690
G1 X127.215 Y103.441 E0.01687
G1 X127.455 Y103.861 E0.01519
G1 X127.583 Y104.184 E0.01088
G1 X127.692 Y104.705 E0.01669
G1 X127.708 Y105.009 E0.00956
G1 X127.689 Y105.311 E0.00950
G1 X127.630 Y105.626 E0.01003
G1 X127.431 Y106.176 E0.01834
G1 X127.126 Y106.674 E0.01832
G1 X126.917 Y106.917 E0.01005
G1 X126.678 Y107.133 E0.01009
G1 X126.187 Y107.440 E0.01815
G1 X125.655 Y107.648 E0.01790
G1 X125.186 Y107.718 E0.01488
G1 X124.735 Y107.709 E0.01416
G1 X124.308 Y107.627 E0.01362
G1 X124.074 Y107.550 E0.00772
G1 X123.716 Y107.381 E0.01242
G1 X123.331 Y107.116 E0.01464
G1 X123.146 Y106.948 E0.00785
G1 X122.883 Y106.642 E0.01265
G1 X122.629 Y106.229 E0.01520
G1 X122.483 Y105.890 E0.01159
G1 X122.386 Y105.547 E0.01117
G1 X122.338 Y105.182 E0.01154
G1 X122.362 Y104.590 E0.01857
G1 X122.476 Y104.108 E0.01555
G1 X122.647 Y103.718 E0.01335
G1 X122.993 Y103.869 F10800.000
G1 F1200.000
G1 X123.232 Y103.510 E0.01354
G1 X123.376 Y103.351 E0.00673
G1 X123.658 Y103.112 E0.01159
G1 X124.048 Y102.888 E0.01412
G1 X124.449 Y102.750 E0.01326
G1 X124.917 Y102.684 E0.01482
G1 X125.358 Y102.704 E0.01384
G1 X125.817 Y102.821 E0.01485
G1 X126.236 Y103.026 E0.01464
G1 X126.602 Y103.309 E0.01452
G1 X126.906 Y103.660 E0.01453
G1 X127.115 Y104.025 E0.01319
G1 X127.221 Y104.293 E0.00903
G1 X127.317 Y104.754 E0.01477
G1 X127.331 Y105.007 E0.00794
G1 X127.314 Y105.264 E0.00810
G1 X127.265 Y105.527 E0.00836
G1 X127.090 Y106.012 E0.01618
G1 X126.820 Y106.451 E0.01615
G1 X126.646 Y106.653 E0.00836
G1 X126.450 Y106.831 E0.00831
G1 X126.017 Y107.101 E0.01599
G1 X125.557 Y107.281 E0.01549
G1 X125.161 Y107.341 E0.01255
G1 X124.774 Y107.333 E0.01214
G1 X124.403 Y107.261 E0.01186
G1 X124.214 Y107.199 E0.00624
G1 X123.904 Y107.053 E0.01074
G1 X123.566 Y106.820 E0.01288
G1 X123.417 Y106.684 E0.00633
G1 X123.188 Y106.419 E0.01098
G1 X122.964 Y106.055 E0.01339
G1 X122.839 Y105.764 E0.00995
G1 X122.756 Y105.471 E0.00954
G1 X122.716 Y105.165 E0.00967
G1 X122.737 Y104.642 E0.01641
G1 X122.835 Y104.228 E0.01334
G1 X122.968 Y103.924 E0.01039
G1 X122.784 Y103.528 F10800.000
G1 F8640.000
G1 X123.232 Y103.510 E-0.11341
G1 X123.376 Y103.351 E-0.04955
G1 X123.658 Y103.112 E-0.08532
G1 X124.048 Y102.888 E-0.10395
G1 X124.449 Y102.750 E-0.09766
G1 X124.917 Y102.684 E-0.10915
G1 X125.358 Y102.704 E-0.10195
G1 X125.773 Y102.809 E-0.09902
G1 E-0.04000 F2100.00000
G1 Z0.600 F10800.000
G1 X125.097 Y101.761
G1 Z0.200
G1 E0.80000 F2100.00000
G1 F1200.000
G1 X125.108 Y98.414 E0.10497
G1 X125.144 Y97.418 E0.03125
G1 X126.795 Y97.744 E0.05278
G1 X127.416 Y97.915 E0.02019
G1 X128.060 Y98.168 E0.02168
G1 X128.471 Y98.368 E0.01433
G1 X129.127 Y98.760 E0.02397
G1 X129.744 Y99.222 E0.02414
G1 X130.085 Y99.531 E0.01445
G1 X130.601 Y100.051 E0.02297
G1 X130.864 Y100.355 E0.01260
G1 X131.336 Y101.070 E0.02685
G1 X130.435 Y101.704 E0.03454
G1 X127.738 Y103.255 E0.09755
G1 X125.149 Y101.791 E0.09324
G1 X125.475 Y101.542 F10800.000
G1 F1200.000
G1 X125.485 Y98.421 E0.09785
G1 X125.505 Y97.873 E0.01719
G1 X126.709 Y98.111 E0.03848
G1 X127.297 Y98.273 E0.01912
G1 X127.908 Y98.514 E0.02059
G1 X128.291 Y98.700 E0.01337
G1 X128.917 Y99.074 E0.02285
G1 X129.503 Y99.513 E0.02297
G1 X129.824 Y99.804 E0.01358
G1 X130.324 Y100.308 E0.02227
G1 X130.563 Y100.583 E0.01143
G1 X130.820 Y100.972 E0.01460
G1 X130.232 Y101.385 E0.02253
G1 X127.736 Y102.821 E0.09027
G1 X125.527 Y101.572 E0.07958
G1 X125.075 Y101.545 F10800.000
G1 X124.921 Y101.568
G1 F1200.000
G1 X124.920 Y101.749 E0.00568
G1 X122.363 Y103.224 E0.09257
G1 X121.660 Y102.887 E0.02443
G1 X118.699 Y101.152 E0.10762
G1 X119.495 Y100.041 E0.04287
G1 X119.940 Y99.568 E0.02035
G1 X120.428 Y99.126 E0.02063
G1 X120.956 Y98.745 E0.02041
G1 X121.354 Y98.503 E0.01461
G1 X121.759 Y98.289 E0.01436
G1 X122.171 Y98.102 E0.01418
G1 X122.586 Y97.946 E0.01391
G1 X123.000 Y97.821 E0.01358
G1 X123.412 Y97.731 E0.01320
G1 X123.795 Y97.684 E0.01212
G1 X124.943 Y97.606 E0.03608
G1 X124.922 Y101.508 E0.12234
G1 X124.545 Y101.506 F10800.000
G1 F1200.000
G1 X124.545 Y101.531 E0.00078
G1 X122.347 Y102.798 E0.07955
G1 X121.837 Y102.554 E0.01771
G1 X119.246 Y101.036 E0.09417
G1 X119.787 Y100.281 E0.02912
G1 X120.205 Y99.837 E0.01909
G1 X120.666 Y99.420 E0.01951
G1 X121.164 Y99.059 E0.01929
G1 X121.540 Y98.831 E0.01378
G1 X121.925 Y98.628 E0.01364
G1 X122.315 Y98.451 E0.01344
G1 X122.707 Y98.303 E0.01313
G1 X123.095 Y98.186 E0.01271
G1 X123.475 Y98.103 E0.01219
G1 X123.831 Y98.060 E0.01125
G1 X124.564 Y98.010 E0.02304
G1 X124.545 Y101.446 E0.10773
G1 X124.567 Y101.517 F10800.000
G1 F8640.000
G1 X124.545 Y101.531 E-0.01957
G1 X122.347 Y102.798 E-0.58586
G1 X121.837 Y102.554 E-0.13041
G1 X121.747 Y102.501 E-0.02416
G1 E-0.04000 F2100.00000
G1 Z0.600 F10800.000
G1 X122.181 Y103.311
G1 Z0.200
G1 E0.80000 F2100.00000
G1 F1200.000
G1 X122.204 Y106.474 E0.09917
G1 X118.473 Y108.619 E0.13494
G1 X118.016 Y107.513 E0.03752
G1 X117.755 Y106.636 E0.02869
G1 X117.620 Y105.815 E0.02608
G1 X117.579 Y104.973 E0.02644
G1 X117.622 Y104.199 E0.02429
G1 X117.688 Y103.700 E0.01580
G1 X117.870 Y102.895 E0.02587
G1 X118.131 Y102.106 E0.02606
G1 X118.544 Y101.271 E0.02921
G1 X119.863 Y101.985 E0.04705
G1 X122.129 Y103.281 E0.08185
G1 X121.806 Y103.530 F10800.000
G1 F1200.000
G1 X121.825 Y106.256 E0.08547
G1 X118.657 Y108.078 E0.11457
G1 X118.372 Y107.387 E0.02344
G1 X118.123 Y106.551 E0.02734
G1 X117.996 Y105.775 E0.02466
G1 X117.956 Y104.974 E0.02515
G1 X117.998 Y104.234 E0.02322
G1 X118.060 Y103.766 E0.01482
G1 X118.233 Y102.996 E0.02476
G1 X118.480 Y102.249 E0.02465
G1 X118.708 Y101.789 E0.01611
G1 X119.680 Y102.314 E0.03464
G1 X121.754 Y103.501 E0.07491
G1 X122.200 Y103.597 F10800.000
G1 F8640.000
G1 X121.825 Y106.256 E-0.63653
G1 X121.362 Y106.523 E-0.12347
G1 E-0.04000 F2100.00000
G1 Z0.600 F10800.000
G1 X122.179 Y106.655
G1 Z0.200
G1 E0.80000 F2100.00000
G1 F1200.000
G1 X124.938 Y108.275 E0.10033
G1 X124.938 Y112.443 E0.13068
G1 X124.019 Y112.417 E0.02882
G1 X123.750 Y112.378 E0.00852
G1 X122.737 Y112.126 E0.03276
G1 X121.981 Y111.840 E0.02534
G1 X121.264 Y111.469 E0.02530
G1 X120.590 Y111.015 E0.02546
G1 X119.968 Y110.488 E0.02558
G1 X119.655 Y110.175 E0.01387
G1 X119.235 Y109.704 E0.01981
G1 X118.571 Y108.734 E0.03684
G1 X121.746 Y106.885 E0.11521
G1 X122.126 Y106.683 E0.01348
G1 X122.170 Y107.087 F10800.000
G1 F1200.000
G1 X124.561 Y108.491 E0.08695
G1 X124.561 Y112.055 E0.11175
G1 X124.051 Y112.040 E0.01598
G1 X123.823 Y112.008 E0.00725
G1 X122.849 Y111.766 E0.03145
G1 X122.135 Y111.495 E0.02395
G1 X121.457 Y111.144 E0.02394
G1 X120.818 Y110.714 E0.02414
G1 X120.223 Y110.211 E0.02443
G1 X119.930 Y109.917 E0.01304
G1 X119.532 Y109.471 E0.01872
G1 X119.111 Y108.856 E0.02337
G1 X122.117 Y107.115 E0.10890
G1 X122.406 Y106.764 F10800.000
G1 F8640.000
G1 X124.561 Y108.491 E-0.64768
G1 X124.561 Y108.978 E-0.11232
G1 E-0.04000 F2100.00000
G1 Z0.600 F10800.000
G1 X125.100 Y108.277
G1 Z0.200
G1 E0.80000 F2100.00000
G1 F1200.000
G1 X127.880 Y106.651 E0.10098
G1 X130.383 Y108.084 E0.09044
G1 X131.475 Y108.789 E0.04074
G1 X130.805 Y109.721 E0.03599
G1 X130.365 Y110.215 E0.02075
G1 X129.842 Y110.707 E0.02252
G1 X129.377 Y111.075 E0.01858
G1 X128.831 Y111.435 E0.02051
G1 X128.020 Y111.854 E0.02864
G1 X127.353 Y112.113 E0.02241
G1 X126.665 Y112.311 E0.02245
G1 X125.169 Y112.614 E0.04785
G1 X125.103 Y111.056 E0.04889
G1 X125.100 Y108.337 E0.08526
G1 X125.477 Y108.492 F10800.000
G1 F1200.000
G1 X127.879 Y107.085 E0.08728
G1 X130.187 Y108.406 E0.08340
G1 X130.937 Y108.891 E0.02801
G1 X130.511 Y109.485 E0.02295
G1 X130.091 Y109.956 E0.01975
G1 X129.868 Y110.177 E0.00987
G1 X129.598 Y110.419 E0.01135
G1 X129.156 Y110.769 E0.01771
G1 X128.640 Y111.110 E0.01936
G1 X127.864 Y111.510 E0.02737
G1 X127.233 Y111.755 E0.02125
G1 X126.575 Y111.944 E0.02144
G1 X125.527 Y112.156 E0.03353
G1 X125.480 Y111.048 E0.03479
G1 X125.477 Y108.552 E0.07825
G1 X125.337 Y108.117 F10800.000
G1 F8640.000
G1 X127.879 Y107.085 E-0.64982
G1 X128.293 Y107.322 E-0.11018
G1 E-0.04000 F2100.00000
G1 Z0.600 F10800.000
G1 X127.867 Y106.479
G1 Z0.200
G1 E0.80000 F2100.00000
G1 F1200.000
G1 X127.867 Y103.311 E0.09932
G1 X130.716 Y101.671 E0.10308
G1 X131.405 Y101.336 E0.02401
G1 X131.839 Y102.010 E0.02513
G1 X131.956 Y102.277 E0.00914
G1 X132.083 Y102.647 E0.01226
G1 X132.282 Y103.355 E0.02307
G1 X132.410 Y104.042 E0.02191
G1 X132.458 Y104.518 E0.01499
G1 X132.473 Y104.990 E0.01482
G1 X132.456 Y105.464 E0.01486
G1 X132.408 Y105.938 E0.01496
G1 X132.327 Y106.413 E0.01509
G1 X132.217 Y106.888 E0.01529
G1 X132.074 Y107.372 E0.01582
G1 X131.592 Y108.612 E0.04172
G1 X130.525 Y108.031 E0.03810
G1 X127.919 Y106.509 E0.09463
G1 X128.244 Y106.262 F10800.000
G1 F1200.000
G1 X128.244 Y103.529 E0.08570
G1 X130.893 Y102.004 E0.09583
G1 X131.269 Y101.821 E0.01312
G1 X131.506 Y102.189 E0.01371
G1 X131.604 Y102.414 E0.00771
G1 X131.723 Y102.759 E0.01144
G1 X131.914 Y103.441 E0.02221
G1 X132.036 Y104.096 E0.02088
G1 X132.081 Y104.543 E0.01410
G1 X132.096 Y104.990 E0.01401
G1 X132.080 Y105.438 E0.01406
G1 X132.034 Y105.888 E0.01417
G1 X131.958 Y106.339 E0.01434
G1 X131.852 Y106.792 E0.01459
G1 X131.717 Y107.250 E0.01498
G1 X131.396 Y108.076 E0.02777
G1 X130.711 Y107.702 E0.02448
G1 X128.296 Y106.292 E0.08767
G1 X127.850 Y106.193 F10800.000
G1 F8640.000
G1 X128.244 Y103.529 E-0.63820
G1 X128.701 Y103.266 E-0.12180
G1 E-0.04000 F2100.00000
G1 Z0.600 F10800.000
G1 X126.680 Y95.814
G1 Z0.200
G1 E0.80000 F2100.00000
G1 F1200.000
G1 X128.990 Y96.629 E0.07680
G1 X130.074 Y95.259 E0.05476
G1 X130.109 Y95.277 E0.00122
G1 X129.788 Y96.338 E0.03475
G1 X129.738 Y96.622 E0.00903
G1 X129.783 Y96.933 E0.00984
G1 X129.959 Y97.215 E0.01043
G1 X130.260 Y97.465 E0.01228
G1 X130.924 Y97.966 E0.02605
G1 X131.509 Y98.354 E0.02202
G1 X132.306 Y97.875 E0.02916
G1 X132.961 Y97.448 E0.02451
G1 X132.984 Y97.471 E0.00101
G1 X131.932 Y98.906 E0.05577
G1 X132.890 Y100.365 E0.05475
G1 X133.076 Y100.573 E0.00874
G1 X133.493 Y100.826 E0.01526
G1 X134.968 Y100.471 E0.04758
G1 X134.983 Y100.501 E0.00106
G1 X134.289 Y100.978 E0.02638
G1 X133.550 Y101.557 E0.02944
G1 X133.656 Y102.161 E0.01921
G1 X134.052 Y103.804 E0.05300
G1 X135.894 Y103.991 E0.05806
G1 X135.896 Y104.010 E0.00059
G1 X134.655 Y104.384 E0.04067
G1 X134.316 Y104.597 E0.01255
G1 X134.107 Y104.921 E0.01208
G1 X133.884 Y106.844 E0.06069
G1 X135.605 Y107.599 E0.05895
G1 X135.600 Y107.619 E0.00066
G1 X134.237 Y107.555 E0.04279
G1 X133.821 Y107.686 E0.01366
G1 X133.557 Y107.986 E0.01254
G1 X132.784 Y109.638 E0.05720
G1 X134.162 Y110.945 E0.05952
G1 X134.145 Y110.970 E0.00093
G1 X132.445 Y110.233 E0.05810
G1 X130.824 Y111.957 E0.07420
G1 X131.721 Y113.611 E0.05898
G1 X131.695 Y113.631 E0.00104
G1 X130.280 Y112.371 E0.05942
G1 X128.776 Y113.215 E0.05407
G1 X128.569 Y113.376 E0.00822
G1 X128.393 Y113.625 E0.00957
G1 X128.328 Y113.985 E0.01145
G1 X128.538 Y115.339 E0.04297
G1 X128.501 Y115.352 E0.00125
G1 X127.992 Y114.453 E0.03239
G1 X127.822 Y114.192 E0.00976
G1 X127.614 Y113.986 E0.00919
G1 X127.269 Y113.810 E0.01213
G1 X126.058 Y113.985 E0.03836
G1 X125.376 Y114.130 E0.02186
G1 X125.165 Y115.039 E0.02928
G1 X124.992 Y115.925 E0.02829
G1 X124.927 Y115.925 E0.00206
G1 X124.560 Y114.129 E0.05748
G1 X122.316 Y113.748 E0.07135
G1 X121.427 Y115.346 E0.05733
G1 X121.372 Y115.328 E0.00182
G1 X121.619 Y113.538 E0.05667
G1 X120.257 Y112.775 E0.04895
