; generated by PrusaSlicer 2.1.1+win64 on 2020-05-22 at 15:59:35 UTC

; 

; external perimeters extrusion width = 0.45mm
; perimeters extrusion width = 0.45mm
; infill extrusion width = 0.45mm
; solid infill extrusion width = 0.45mm
; top infill extrusion width = 0.40mm
; support material extrusion width = 0.35mm
; first layer extrusion width = 0.42mm

M73 P0 R126
M73 Q0 S128
M201 X1000 Y1000 Z1000 E5000 ; sets maximum accelerations, mm/sec^2
M203 X200 Y200 Z12 E120 ; sets maximum feedrates, mm/sec
M204 P1250 R1250 T1250 ; sets acceleration (P, T) and retract acceleration (R), mm/sec^2
M205 X8.00 Y8.00 Z0.40 E1.50 ; sets the jerk limits, mm/sec
M205 S0 T0 ; sets the minimum extruding and travel feed rate, mm/sec
M107
M862.3 P "MK3S" ; printer model check
M862.1 P0.4 ; nozzle diameter check
M115 U3.8.0 ; tell printer latest fw version
G90 ; use absolute coordinates
M83 ; extruder relative mode
M104 S215 ; set extruder temp
M140 S60 ; set bed temp
M190 S60 ; wait for bed temp
M109 S215 ; wait for extruder temp
G28 W ; home all without mesh bed level
G80 ; mesh bed leveling
G1 Y-3.0 F1000.0 ; go outside print area
G92 E0.0
G1 X60.0 E9.0 F1000.0 ; intro line
M73 Q0 S128
M73 P0 R126
G1 X100.0 E12.5 F1000.0 ; intro line
G92 E0.0
M221 S95
G21 ; set units to millimeters
G90 ; use absolute coordinates
M83 ; use relative distances for extrusion
M900 K30 ; Filament gcode
;BEFORE_LAYER_CHANGE
G92 E0.0
;0.2


G1 E-0.80000 F2100.00000
G1 Z0.600 F10800.000
;AFTER_LAYER_CHANGE
;0.2
G1 X151.538 Y179.891
G1 Z0.200
G1 E0.80000 F2100.00000
M204 S1000
G1 F1200
G1 X157.132 Y159.124 E0.67435
G1 X172.320 Y174.352 E0.67434
G1 X151.596 Y179.875 E0.67247
G1 X152.072 Y179.358 F10800.000
G1 F1200
G1 X157.326 Y159.853 E0.63339
G1 X171.592 Y174.156 E0.63339
G1 X152.130 Y179.343 E0.63152
G1 X151.685 Y179.461 F10800.000
G1 E-0.80000 F2100.00000
G1 Z0.800 F10800.000
G1 X166.248 Y150.986
G1 Z0.200
G1 E0.80000 F2100.00000
G1 F1200
G1 X165.694 Y150.931 E0.01746
G1 X165.161 Y150.770 E0.01746
G1 X164.670 Y150.507 E0.01746
G1 X164.240 Y150.154 E0.01746
G1 X163.887 Y149.724 E0.01746
G1 X163.624 Y149.233 E0.01746
G1 X163.463 Y148.700 E0.01746
G1 X163.408 Y148.146 E0.01746
G1 X163.463 Y147.592 E0.01746
G1 X163.624 Y147.059 E0.01746
G1 X163.887 Y146.568 E0.01746
G1 X164.240 Y146.138 E0.01746
G1 X164.670 Y145.785 E0.01746
G1 X165.164 Y145.521 E0.01756
G1 X165.723 Y145.358 E0.01825
G1 X166.248 Y145.306 E0.01655
G1 X166.802 Y145.361 E0.01746
G1 X167.335 Y145.522 E0.01746
G1 X167.826 Y145.785 E0.01746
G1 X168.256 Y146.138 E0.01746
G1 X168.609 Y146.568 E0.01746
G1 X168.872 Y147.059 E0.01746
G1 X169.033 Y147.592 E0.01746
G1 X169.088 Y148.146 E0.01746
G1 X169.033 Y148.700 E0.01746
G1 X168.872 Y149.233 E0.01746
G1 X168.609 Y149.724 E0.01746
G1 X168.256 Y150.154 E0.01746
G1 X167.826 Y150.507 E0.01746
G1 X167.335 Y150.770 E0.01746
G1 X166.802 Y150.931 E0.01746
G1 X166.308 Y150.980 E0.01557
G1 X166.248 Y150.607 F10800.000
G1 F1200
G1 X165.768 Y150.560 E0.01513
G1 X165.306 Y150.420 E0.01513
G1 X164.881 Y150.192 E0.01513
G1 X164.508 Y149.886 E0.01513
G1 X164.202 Y149.513 E0.01513
G1 X163.974 Y149.088 E0.01513
G1 X163.834 Y148.626 E0.01513
G1 X163.787 Y148.146 E0.01513
G1 X163.834 Y147.666 E0.01513
G1 X163.974 Y147.204 E0.01513
G1 X164.202 Y146.779 E0.01513
G1 X164.508 Y146.406 E0.01513
G1 X164.881 Y146.100 E0.01513
G1 X165.307 Y145.872 E0.01516
G1 X165.795 Y145.730 E0.01592
G1 X166.248 Y145.685 E0.01429
G1 X166.728 Y145.732 E0.01513
G1 X167.190 Y145.872 E0.01513
G1 X167.615 Y146.100 E0.01513
G1 X167.988 Y146.406 E0.01513
G1 X168.294 Y146.779 E0.01513
G1 X168.522 Y147.204 E0.01513
G1 X168.662 Y147.666 E0.01513
G1 X168.709 Y148.146 E0.01513
G1 X168.662 Y148.626 E0.01513
G1 X168.522 Y149.088 E0.01513
G1 X168.294 Y149.513 E0.01513
G1 X167.988 Y149.886 E0.01513
G1 X167.615 Y150.192 E0.01513
G1 X167.190 Y150.420 E0.01513
G1 X166.728 Y150.560 E0.01513
G1 X166.308 Y150.601 E0.01325
G1 X166.048 Y150.954 F10800.000
G1 E-0.80000 F2100.00000
G1 Z0.800 F10800.000
G1 X134.313 Y139.193
G1 Z0.200
G1 E0.80000 F2100.00000
G1 F1200
G1 X133.759 Y139.248 E0.01746
G1 X133.205 Y139.193 E0.01746
G1 X132.672 Y139.031 E0.01746
G1 X132.181 Y138.769 E0.01746
G1 X131.751 Y138.416 E0.01746
G1 X131.397 Y137.985 E0.01746
G1 X131.135 Y137.494 E0.01746
G1 X130.973 Y136.962 E0.01746
G1 X130.919 Y136.408 E0.01746
G1 X130.973 Y135.854 E0.01746
G1 X131.135 Y135.321 E0.01746
G1 X131.397 Y134.830 E0.01746
G1 X131.751 Y134.399 E0.01746
G1 X132.181 Y134.046 E0.01746
G1 X132.675 Y133.782 E0.01756
G1 X133.233 Y133.619 E0.01825
G1 X133.759 Y133.568 E0.01655
G1 X134.313 Y133.622 E0.01746
G1 X134.845 Y133.784 E0.01746
G1 X135.336 Y134.046 E0.01746
G1 X135.767 Y134.399 E0.01746
G1 X136.120 Y134.830 E0.01746
G1 X136.382 Y135.321 E0.01746
G1 X136.544 Y135.854 E0.01746
G1 X136.599 Y136.408 E0.01746
G1 X136.544 Y136.962 E0.01746
G1 X136.382 Y137.494 E0.01746
G1 X136.120 Y137.985 E0.01746
G1 X135.767 Y138.416 E0.01746
G1 X135.336 Y138.769 E0.01746
G1 X134.845 Y139.031 E0.01746
G1 X134.370 Y139.176 E0.01557
G1 X134.239 Y138.821 F10800.000
G1 F1200
G1 X133.759 Y138.869 E0.01513
G1 X133.279 Y138.821 E0.01513
G1 X132.817 Y138.681 E0.01513
G1 X132.391 Y138.454 E0.01513
G1 X132.018 Y138.148 E0.01513
G1 X131.712 Y137.775 E0.01513
G1 X131.485 Y137.349 E0.01513
G1 X131.345 Y136.888 E0.01513
G1 X131.298 Y136.408 E0.01513
G1 X131.345 Y135.927 E0.01513
G1 X131.485 Y135.466 E0.01513
G1 X131.712 Y135.040 E0.01513
G1 X132.018 Y134.667 E0.01513
G1 X132.391 Y134.361 E0.01513
G1 X132.818 Y134.133 E0.01516
G1 X133.305 Y133.991 E0.01592
G1 X133.759 Y133.947 E0.01429
G1 X134.239 Y133.994 E0.01513
G1 X134.700 Y134.134 E0.01513
G1 X135.126 Y134.361 E0.01513
G1 X135.499 Y134.667 E0.01513
G1 X135.805 Y135.040 E0.01513
G1 X136.032 Y135.466 E0.01513
G1 X136.172 Y135.927 E0.01513
G1 X136.220 Y136.408 E0.01513
G1 X136.172 Y136.888 E0.01513
G1 X136.032 Y137.349 E0.01513
G1 X135.805 Y137.775 E0.01513
G1 X135.499 Y138.148 E0.01513
G1 X135.126 Y138.454 E0.01513
G1 X134.700 Y138.681 E0.01513
G1 X134.296 Y138.804 E0.01325
G1 X134.110 Y139.200 F10800.000
G1 E-0.80000 F2100.00000
G1 Z0.800 F10800.000
G1 X134.313 Y174.188
G1 Z0.200
G1 E0.80000 F2100.00000
G1 F1200
G1 X133.759 Y174.243 E0.01746
G1 X133.205 Y174.188 E0.01746
G1 X132.672 Y174.027 E0.01746
G1 X132.181 Y173.764 E0.01746
G1 X131.751 Y173.411 E0.01746
G1 X131.397 Y172.981 E0.01746
G1 X131.135 Y172.490 E0.01746
G1 X130.973 Y171.957 E0.01746
G1 X130.919 Y171.403 E0.01746
G1 X130.973 Y170.849 E0.01746
G1 X131.135 Y170.316 E0.01746
G1 X131.397 Y169.825 E0.01746
G1 X131.751 Y169.395 E0.01746
G1 X132.181 Y169.041 E0.01746
G1 X132.675 Y168.778 E0.01756
G1 X133.233 Y168.615 E0.01825
G1 X133.759 Y168.563 E0.01655
G1 X134.313 Y168.617 E0.01746
G1 X134.845 Y168.779 E0.01746
G1 X135.336 Y169.041 E0.01746
G1 X135.767 Y169.395 E0.01746
G1 X136.120 Y169.825 E0.01746
G1 X136.382 Y170.316 E0.01746
G1 X136.544 Y170.849 E0.01746
G1 X136.599 Y171.403 E0.01746
G1 X136.544 Y171.957 E0.01746
G1 X136.382 Y172.490 E0.01746
G1 X136.120 Y172.981 E0.01746
G1 X135.767 Y173.411 E0.01746
G1 X135.336 Y173.764 E0.01746
G1 X134.845 Y174.027 E0.01746
G1 X134.370 Y174.171 E0.01557
G1 X134.239 Y173.817 F10800.000
G1 F1200
G1 X133.759 Y173.864 E0.01513
G1 X133.279 Y173.817 E0.01513
G1 X132.817 Y173.676 E0.01513
G1 X132.391 Y173.449 E0.01513
G1 X132.018 Y173.143 E0.01513
G1 X131.712 Y172.770 E0.01513
G1 X131.485 Y172.345 E0.01513
G1 X131.345 Y171.883 E0.01513
G1 X131.298 Y171.403 E0.01513
G1 X131.345 Y170.923 E0.01513
G1 X131.485 Y170.461 E0.01513
G1 X131.712 Y170.036 E0.01513
G1 X132.018 Y169.663 E0.01513
G1 X132.391 Y169.357 E0.01513
G1 X132.818 Y169.129 E0.01516
G1 X133.305 Y168.986 E0.01592
G1 X133.759 Y168.942 E0.01429
G1 X134.239 Y168.989 E0.01513
G1 X134.700 Y169.129 E0.01513
G1 X135.126 Y169.357 E0.01513
G1 X135.499 Y169.663 E0.01513
G1 X135.805 Y170.036 E0.01513
G1 X136.032 Y170.461 E0.01513
G1 X136.172 Y170.923 E0.01513
G1 X136.220 Y171.403 E0.01513
G1 X136.172 Y171.883 E0.01513
G1 X136.032 Y172.345 E0.01513
G1 X135.805 Y172.770 E0.01513
G1 X135.499 Y173.143 E0.01513
G1 X135.126 Y173.449 E0.01513
G1 X134.700 Y173.676 E0.01513
G1 X134.296 Y173.799 E0.01325
G1 X134.110 Y174.195 F10800.000
G1 E-0.80000 F2100.00000
G1 Z0.800 F10800.000
G1 X157.000 Y185.563
G1 Z0.200
G1 E0.80000 F2100.00000
G1 F1200
G1 X128.587 Y185.563 E0.89087
G1 X128.587 Y108.587 E2.41352
G1 X185.413 Y108.587 E1.78173
G1 X185.413 Y185.563 E2.41352
G1 X157.060 Y185.563 E0.88899
G1 X157.000 Y185.940 F10800.000
G1 F1200
G1 X128.210 Y185.940 E0.90269
G1 X128.210 Y108.210 E2.43717
G1 X185.790 Y108.210 E1.80538
G1 X185.790 Y185.940 E2.43717
G1 X157.060 Y185.940 E0.90081
G1 X156.680 Y185.700 F10800.000
G1 E-0.80000 F2100.00000
G1 Z0.800 F10800.000
G1 X156.148 Y185.450
G1 Z0.200
G1 E0.80000 F2100.00000
G1 F1200
G1 X128.870 Y158.172 E1.21053
G1 X128.870 Y158.705 E0.01675
G1 X155.445 Y185.280 E1.17931
G1 X154.911 Y185.280 E0.01675
G1 X128.870 Y159.239 E1.15563
G1 X128.870 Y159.773 E0.01675
G1 X154.377 Y185.280 E1.13195
G1 X153.844 Y185.280 E0.01675
G1 X128.870 Y160.306 E1.10826
G1 X128.870 Y160.840 E0.01675
G1 X153.310 Y185.280 E1.08458
G1 X152.776 Y185.280 E0.01675
G1 X128.870 Y161.374 E1.06089
G1 X128.870 Y161.907 E0.01675
G1 X152.243 Y185.280 E1.03721
M73 Q0 S127
G1 X151.709 Y185.280 E0.01675
G1 X136.649 Y170.220 E0.66832
M73 P0 R125
G1 X136.823 Y170.793 E0.01880
G1 X136.837 Y170.942 E0.00470
G1 X151.175 Y185.280 E0.63627
G1 X150.641 Y185.280 E0.01675
G1 X136.872 Y171.511 E0.61104
G1 X136.824 Y171.997 E0.01532
G1 X150.108 Y185.280 E0.58948
G1 X149.574 Y185.280 E0.01675
G1 X136.702 Y172.409 E0.57120
G1 X136.645 Y172.598 E0.00622
G1 X136.545 Y172.785 E0.00664
G1 X149.040 Y185.280 E0.55450
G1 X148.507 Y185.280 E0.01675
G1 X136.359 Y173.133 E0.53906
G1 X136.120 Y173.427 E0.01190
G1 X147.973 Y185.280 E0.52602
G1 X147.439 Y185.280 E0.01675
G1 X135.860 Y173.700 E0.51387
G1 X135.567 Y173.941 E0.01190
G1 X146.906 Y185.280 E0.50319
G1 X146.372 Y185.280 E0.01675
G1 X135.232 Y174.140 E0.49434
G1 X134.954 Y174.289 E0.00989
G1 X134.872 Y174.314 E0.00269
G1 X145.838 Y185.280 E0.48664
G1 X145.304 Y185.280 E0.01675
G1 X134.463 Y174.438 E0.48113
G1 X134.368 Y174.467 E0.00310
G1 X133.994 Y174.504 E0.01179
G1 X144.771 Y185.280 E0.47823
G1 X144.237 Y185.280 E0.01675
G1 X133.454 Y174.497 E0.47853
G1 X133.149 Y174.467 E0.00961
G1 X132.777 Y174.354 E0.01219
G1 X143.703 Y185.280 E0.48486
G1 X143.170 Y185.280 E0.01675
G1 X128.870 Y170.980 E0.63458
G1 X128.870 Y170.447 E0.01675
G1 X130.807 Y172.384 E0.08598
G1 X130.695 Y172.012 E0.01219
G1 X130.665 Y171.708 E0.00961
G1 X128.870 Y169.913 E0.07964
G1 X128.870 Y169.379 E0.01675
G1 X130.658 Y171.167 E0.07934
G1 X130.695 Y170.793 E0.01179
G1 X130.723 Y170.699 E0.00310
G1 X128.870 Y168.845 E0.08225
G1 X128.870 Y168.312 E0.01675
G1 X130.847 Y170.289 E0.08776
G1 X130.872 Y170.207 E0.00269
G1 X131.021 Y169.929 E0.00989
G1 X128.870 Y167.778 E0.09546
G1 X128.870 Y167.244 E0.01675
G1 X131.220 Y169.595 E0.10431
G1 X131.461 Y169.302 E0.01190
G1 X128.870 Y166.711 E0.11498
G1 X128.870 Y166.177 E0.01675
G1 X131.735 Y169.042 E0.12713
G1 X132.029 Y168.802 E0.01190
G1 X128.870 Y165.643 E0.14018
G1 X128.870 Y165.110 E0.01675
G1 X132.377 Y168.616 E0.15562
G1 X132.567 Y168.514 E0.00679
G1 X132.754 Y168.460 E0.00610
G1 X128.870 Y164.576 E0.17236
G1 X128.870 Y164.042 E0.01675
G1 X133.167 Y168.339 E0.19070
G1 X133.651 Y168.289 E0.01526
G1 X128.870 Y163.508 E0.21216
G1 X128.870 Y162.975 E0.01675
G1 X134.219 Y168.324 E0.23739
G1 X134.368 Y168.339 E0.00470
G1 X134.941 Y168.513 E0.01880
G1 X128.700 Y162.271 E0.27697
G1 E-0.80000 F2100.00000
G1 Z0.800 F10800.000
G1 X129.463 Y185.450
G1 Z0.200
G1 E0.80000 F2100.00000
G1 F1200
G1 X128.870 Y184.856 E0.02633
G1 X128.870 Y184.323 E0.01675
G1 X129.827 Y185.280 E0.04248
G1 X130.361 Y185.280 E0.01675
G1 X128.870 Y183.789 E0.06617
G1 X128.870 Y183.255 E0.01675
G1 X130.895 Y185.280 E0.08985
G1 X131.428 Y185.280 E0.01675
G1 X128.870 Y182.722 E0.11354
G1 X128.870 Y182.188 E0.01675
G1 X131.962 Y185.280 E0.13722
G1 X132.496 Y185.280 E0.01675
G1 X128.870 Y181.654 E0.16090
G1 X128.870 Y181.120 E0.01675
G1 X133.029 Y185.280 E0.18459
G1 X133.563 Y185.280 E0.01675
G1 X128.870 Y180.587 E0.20827
G1 X128.870 Y180.053 E0.01675
G1 X134.097 Y185.280 E0.23196
G1 X134.631 Y185.280 E0.01675
G1 X128.870 Y179.519 E0.25564
G1 X128.870 Y178.986 E0.01675
G1 X135.164 Y185.280 E0.27932
G1 X135.698 Y185.280 E0.01675
G1 X128.870 Y178.452 E0.30301
G1 X128.870 Y177.918 E0.01675
G1 X136.232 Y185.280 E0.32669
G1 X136.765 Y185.280 E0.01675
G1 X128.870 Y177.385 E0.35038
G1 X128.870 Y176.851 E0.01675
G1 X137.299 Y185.280 E0.37406
G1 X137.833 Y185.280 E0.01675
G1 X128.870 Y176.317 E0.39774
G1 X128.870 Y175.784 E0.01675
G1 X138.366 Y185.280 E0.42143
G1 X138.900 Y185.280 E0.01675
G1 X128.870 Y175.250 E0.44511
G1 X128.870 Y174.716 E0.01675
G1 X139.434 Y185.280 E0.46880
G1 X139.967 Y185.280 E0.01675
G1 X128.870 Y174.182 E0.49248
G1 X128.870 Y173.649 E0.01675
G1 X140.501 Y185.280 E0.51616
G1 X141.035 Y185.280 E0.01675
G1 X128.870 Y173.115 E0.53985
G1 X128.870 Y172.581 E0.01675
G1 X141.569 Y185.280 E0.56353
G1 X142.102 Y185.280 E0.01675
G1 X128.870 Y172.048 E0.58722
G1 X128.870 Y171.514 E0.01675
G1 X142.806 Y185.450 E0.61843
G1 E-0.80000 F2100.00000
G1 Z0.800 F10800.000
G1 X185.300 Y172.439
G1 Z0.200
G1 E0.80000 F2100.00000
G1 F1200
G1 X128.870 Y116.009 E2.50420
G1 X128.870 Y116.543 E0.01675
G1 X185.130 Y172.803 E2.49667
G1 X185.130 Y173.337 E0.01675
G1 X128.870 Y117.077 E2.49667
G1 X128.870 Y117.611 E0.01675
G1 X185.130 Y173.871 E2.49667
G1 X185.130 Y174.404 E0.01675
G1 X128.870 Y118.144 E2.49667
G1 X128.870 Y118.678 E0.01675
G1 X185.130 Y174.938 E2.49667
G1 X185.130 Y175.472 E0.01675
G1 X128.870 Y119.212 E2.49667
M73 Q1 S126
M73 P1 R124
G1 X128.870 Y119.745 E0.01675
G1 X185.130 Y176.006 E2.49667
G1 X185.130 Y176.539 E0.01675
G1 X128.870 Y120.279 E2.49667
G1 X128.870 Y120.813 E0.01675
G1 X185.130 Y177.073 E2.49667
G1 X185.130 Y177.607 E0.01675
G1 X128.870 Y121.346 E2.49667
G1 X128.870 Y121.880 E0.01675
G1 X185.130 Y178.140 E2.49667
G1 X185.130 Y178.674 E0.01675
G1 X128.870 Y122.414 E2.49667
G1 X128.870 Y122.947 E0.01675
G1 X185.130 Y179.208 E2.49667
G1 X185.130 Y179.741 E0.01675
G1 X128.870 Y123.481 E2.49667
G1 X128.870 Y124.015 E0.01675
G1 X185.130 Y180.275 E2.49667
G1 X185.130 Y180.809 E0.01675
G1 X128.870 Y124.549 E2.49667
G1 X128.870 Y125.082 E0.01675
G1 X185.130 Y181.343 E2.49667
G1 X185.130 Y181.876 E0.01675
G1 X128.870 Y125.616 E2.49667
G1 X128.870 Y126.150 E0.01675
G1 X185.130 Y182.410 E2.49667
G1 X185.130 Y182.944 E0.01675
G1 X128.870 Y126.683 E2.49667
G1 X128.870 Y127.217 E0.01675
G1 X185.130 Y183.477 E2.49667
M73 Q2 S125
M73 P2 R123
G1 X185.130 Y184.011 E0.01675
G1 X136.782 Y135.662 E2.14557
G1 X136.823 Y135.798 E0.00445
G1 X136.871 Y136.285 E0.01536
G1 X185.130 Y184.545 E2.14162
G1 X185.130 Y185.078 E0.01675
G1 X136.845 Y136.793 E2.14277
G1 X136.823 Y137.017 E0.00706
G1 X136.756 Y137.238 E0.00724
G1 X184.798 Y185.280 E2.13198
G1 X184.264 Y185.280 E0.01675
G1 X136.625 Y137.641 E2.11410
G1 X136.439 Y137.988 E0.01237
G1 X183.731 Y185.280 E2.09867
G1 X183.197 Y185.280 E0.01675
G1 X172.511 Y174.594 E0.47422
G1 X172.089 Y174.706 E0.01368
G1 X182.663 Y185.280 E0.46923
G1 X182.130 Y185.280 E0.01675
G1 X171.668 Y174.819 E0.46425
G1 X171.247 Y174.931 E0.01368
G1 X181.596 Y185.280 E0.45927
G1 X181.062 Y185.280 E0.01675
G1 X170.825 Y175.043 E0.45428
G1 X170.404 Y175.155 E0.01368
G1 X180.528 Y185.280 E0.44930
G1 X179.995 Y185.280 E0.01675
G1 X169.982 Y175.268 E0.44432
G1 X169.561 Y175.380 E0.01368
G1 X179.461 Y185.280 E0.43933
G1 X178.927 Y185.280 E0.01675
G1 X169.140 Y175.492 E0.43435
G1 X168.718 Y175.605 E0.01368
G1 X178.394 Y185.280 E0.42936
G1 X177.860 Y185.280 E0.01675
G1 X168.297 Y175.717 E0.42438
G1 X167.876 Y175.829 E0.01368
G1 X177.326 Y185.280 E0.41940
G1 X176.793 Y185.280 E0.01675
G1 X167.454 Y175.942 E0.41441
G1 X167.033 Y176.054 E0.01368
G1 X176.259 Y185.280 E0.40943
G1 X175.725 Y185.280 E0.01675
G1 X166.611 Y176.166 E0.40445
G1 X166.190 Y176.279 E0.01368
G1 X175.191 Y185.280 E0.39946
G1 X174.658 Y185.280 E0.01675
