; generated by PrusaSlicer 2.4.2+win64 on 2022-09-08 at 16:52:13 UTC

; 

; external perimeters extrusion width = 0.45mm
; perimeters extrusion width = 0.45mm
; infill extrusion width = 0.45mm
; solid infill extrusion width = 0.45mm
; top infill extrusion width = 0.40mm
; support material extrusion width = 0.35mm
; first layer extrusion width = 0.42mm

; external perimeters extrusion width = 0.45mm
; perimeters extrusion width = 0.45mm
; infill extrusion width = 0.45mm
; solid infill extrusion width = 0.45mm
; top infill extrusion width = 0.40mm
; support material extrusion width = 0.35mm
; first layer extrusion width = 0.42mm

M73 P0 R53
M73 Q0 S53
M201 X1000 Y1000 Z200 E5000 ; sets maximum accelerations, mm/sec^2
M203 X200 Y200 Z12 E120 ; sets maximum feedrates, mm / sec
M204 P1250 R1250 T1250 ; sets acceleration (P, T) and retract acceleration (R), mm/sec^2
M205 X8.00 Y8.00 Z0.40 E4.50 ; sets the jerk limits, mm/sec
M205 S0 T0 ; sets the minimum extruding and travel feed rate, mm/sec
M107
;TYPE:Custom
M862.3 P "MK3S" ; printer model check
M862.1 P0.4 ; nozzle diameter check
M115 U3.10.1 ; tell printer latest fw version
G90 ; use absolute coordinates
M83 ; extruder relative mode
M104 S215 ; set extruder temp
M140 S60 ; set bed temp
M190 S60 ; wait for bed temp
M109 S215 ; wait for extruder temp
G28 W ; home all without mesh bed level
G80 ; mesh bed leveling
G1 Z0.2 F720
G1 Y-3 F1000 ; go outside print area
G92 E0
G1 X60 E9 F1000 ; intro line
G1 X100 E12.5 F1000 ; intro line
G92 E0
M221 S95

; Don't change E values below. Excessive value can damage the printer.

G21 ; set units to millimeters
G90 ; use absolute coordinates
M83 ; use relative distances for extrusion
M900 K0.05 ; Filament gcode LA 1.5
M900 K30 ; Filament gcode LA 1.0
M107
;LAYER_CHANGE
;Z:0.2
;HEIGHT:0.2
;BEFORE_LAYER_CHANGE
G92 E0.0
;0.2


G1 E-.8 F2100
G1 Z.4 F720
;AFTER_LAYER_CHANGE
;0.2
G1 X103.908 Y88.356 F10800
G1 Z.2 F720
G1 E.8 F2100
M204 S800
;TYPE:Skirt/Brim
;WIDTH:0.42
G1 F540
G1 X105.704 Y86.244 E.08693
G1 X106.914 Y85.081 E.05263
G1 X108.328 Y83.919 E.05737
G1 X109.831 Y82.875 E.05737
G1 X111.9 Y82.254 E.06772
G1 X138.1 Y82.254 E.82151
G1 X140.169 Y82.875 E.06773
G1 X141.551 Y83.828 E.05263
G1 X142.972 Y84.981 E.05737
G1 X144.296 Y86.244 E.05737
G1 X145.514 Y87.609 E.05737
G1 X147.125 Y89.831 E.08603
G1 X147.746 Y91.9 E.06772
G1 X147.746 Y118.1 E.82151
G1 X147.125 Y120.169 E.06773
G1 X146.172 Y121.551 E.05263
G1 X144.296 Y123.756 E.09077
G1 X143.086 Y124.919 E.05263
G1 X141.672 Y126.081 E.05737
G1 X140.169 Y127.125 E.05737
G1 X138.1 Y127.746 E.06772
G1 X111.9 Y127.746 E.82151
G1 X109.831 Y127.125 E.06773
G1 X108.449 Y126.172 E.05263
G1 X106.244 Y124.296 E.09077
G1 X105.081 Y123.086 E.05263
G1 X103.919 Y121.672 E.05737
G1 X102.875 Y120.169 E.05738
G1 X102.254 Y118.1 E.06772
G1 X102.254 Y91.9 E.82151
G1 X102.875 Y89.831 E.06773
G1 X103.869 Y88.402 E.05458
M204 S1000
G1 X104.155 Y88.645 F10800
M204 S800
G1 F540
G1 X105.97 Y86.51 E.08786
G1 X107.17 Y85.358 E.05215
G1 X108.561 Y84.216 E.05642
G1 X110.039 Y83.19 E.05642
G1 X111.9 Y82.631 E.06092
G1 X138.1 Y82.631 E.82151
G1 X139.961 Y83.19 E.06092
G1 X141.331 Y84.134 E.05215
G1 X142.728 Y85.268 E.05642
G1 X144.732 Y87.272 E.08886
G1 X145.784 Y88.561 E.05215
G1 X146.81 Y90.039 E.05642
G1 X147.369 Y91.9 E.06092
G1 X147.369 Y118.1 E.82151
G1 X146.81 Y119.961 E.06092
M73 P1 R53
M73 Q1 S53
G1 X145.866 Y121.331 E.05215
G1 X144.03 Y123.49 E.08886
G1 X142.83 Y124.642 E.05215
G1 X141.439 Y125.784 E.05642
G1 X139.961 Y126.81 E.05642
G1 X138.1 Y127.369 E.06092
G1 X111.9 Y127.369 E.82151
G1 X110.039 Y126.81 E.06092
G1 X108.669 Y125.866 E.05216
G1 X106.51 Y124.03 E.08886
M73 P1 R52
G1 X105.358 Y122.83 E.05215
G1 X104.216 Y121.439 E.05642
G1 X103.19 Y119.961 E.05642
G1 X102.631 Y118.1 E.06092
G1 X102.631 Y91.9 E.82151
G1 X103.19 Y90.039 E.06092
G1 X104.119 Y88.693 E.05127
M204 S1000
; printing object Flasher.stl id:0 copy 0
;WIPE_START
G1 F8640
G1 X105.97 Y86.51 E-.66086
G1 X106.28 Y86.213 E-.09914
;WIPE_END
G1 E-.04 F2100
G1 Z.6 F720
G1 X140.481 Y115.169 F10800
G1 Z.2 F720
G1 E.8 F2100
M204 S800
;TYPE:External perimeter
G1 F324
G1 X143.465 Y118.154 E.13233
G1 X142.797 Y119.111 E.03661
G1 X142.336 Y119.699 E.02342
G1 X141.852 Y120.268 E.02342
G1 X141.346 Y120.818 E.02343
G1 X140.818 Y121.346 E.02342
G1 X140.268 Y121.852 E.02343
G1 X139.699 Y122.336 E.02342
G1 X139.111 Y122.797 E.02342
G1 X138.154 Y123.465 E.03661
G1 X135.169 Y120.481 E.13233
G1 X134.248 Y121.038 E.03375
M73 Q1 S52
G1 X133.593 Y121.398 E.02342
G1 X132.925 Y121.731 E.02342
G1 X132.243 Y122.037 E.02343
G1 X131.55 Y122.315 E.02342
G1 X130.848 Y122.565 E.02337
G1 X129.97 Y122.823 E.02868
G1 X130.26 Y119.59 E.10178
G1 X136.033 Y116.033 E.21261
G1 X139.596 Y110.25 E.21297
G1 X142.828 Y109.958 E.10177
G1 X142.565 Y110.847 E.0291
G1 X142.315 Y111.55 E.02338
G1 X142.037 Y112.243 E.02342
G1 X141.731 Y112.925 E.02342
G1 X141.398 Y113.593 E.02342
G1 X141.038 Y114.248 E.02342
G1 X140.512 Y115.118 E.03187
M204 S1000
;WIPE_START
G1 F8640
G1 X142.807 Y117.477 E-.76
;WIPE_END
G1 E-.04 F2100
G1 Z.6 F720
G1 X142.499 Y110.671 F10800
G1 Z.2 F720
G1 E.8 F2100
M204 S800
;TYPE:Solid infill
;WIDTH:0.422825
G1 F864
G1 X142.133 Y110.304 E.01637
G1 X141.64 Y110.349 E.01563
G1 X142.232 Y110.941 E.02643
G1 X142.091 Y111.337 E.01329
G1 X141.147 Y110.393 E.04215
G1 X140.655 Y110.438 E.01563
G1 X141.941 Y111.724 E.05746
G1 X141.787 Y112.107 E.01305
G1 X140.162 Y110.482 E.07259
G1 X139.762 Y110.519 E.01268
G1 X139.724 Y110.581 E.00232
G1 X141.621 Y112.479 E.08478
G1 X141.453 Y112.848 E.01281
G1 X139.519 Y110.914 E.08642
G1 X139.314 Y111.246 E.01233
G1 X141.274 Y113.207 E.08759
G1 X141.092 Y113.562 E.01261
G1 X139.109 Y111.579 E.0886
G1 X138.904 Y111.911 E.01233
G1 X140.902 Y113.908 E.08923
G1 X140.706 Y114.25 E.01244
G1 X138.699 Y112.243 E.08964
G1 X138.495 Y112.576 E.01233
G1 X140.504 Y114.585 E.08975
G1 X140.301 Y114.92 E.01236
G1 X138.29 Y112.908 E.08987
G1 X138.085 Y113.241 E.01233
G1 X143.07 Y118.226 E.2227
G1 X142.849 Y118.542 E.01219
G1 X137.88 Y113.573 E.22198
G1 X137.675 Y113.906 E.01233
G1 X142.628 Y118.859 E.22127
G1 X142.396 Y119.164 E.01211
G1 X137.471 Y114.238 E.22006
G1 X137.266 Y114.571 E.01233
G1 X142.16 Y119.465 E.21866
G1 X141.916 Y119.758 E.01205
G1 X137.061 Y114.903 E.21687
G1 X136.856 Y115.236 E.01233
G1 X141.669 Y120.048 E.21499
G1 X141.412 Y120.329 E.01201
G1 X136.651 Y115.568 E.21268
G1 X136.446 Y115.9 E.01233
G1 X141.154 Y120.608 E.21032
G1 X140.886 Y120.877 E.012
G1 X136.242 Y116.233 E.20749
G1 X135.911 Y116.44 E.01231
G1 X140.617 Y121.146 E.21024
G1 X140.338 Y121.404 E.01201
G1 X135.579 Y116.645 E.21261
G1 X135.246 Y116.849 E.01233
G1 X140.058 Y121.661 E.21493
G1 X139.767 Y121.907 E.01204
G1 X134.914 Y117.054 E.21681
G1 X134.581 Y117.259 E.01233
G1 X139.475 Y122.153 E.21862
G1 X139.174 Y122.389 E.01209
G1 X134.249 Y117.464 E.22001
G1 X133.917 Y117.669 E.01233
G1 X138.869 Y122.621 E.22124
G1 X138.553 Y122.842 E.01219
G1 X133.584 Y117.874 E.22196
G1 X133.252 Y118.078 E.01233
M73 Q2 S52
G1 X138.236 Y123.063 E.22268
G1 X138.186 Y123.098 E.00193
M73 P2 R52
G1 X135.213 Y120.125 E.13283
G1 X134.931 Y120.295 E.0104
G1 X132.919 Y118.283 E.08987
G1 X132.587 Y118.488 E.01233
G1 X134.596 Y120.497 E.08976
G1 X134.261 Y120.699 E.01236
G1 X132.254 Y118.693 E.08964
G1 X131.922 Y118.898 E.01233
G1 X133.92 Y120.895 E.08925
G1 X133.573 Y121.086 E.0125
G1 X131.589 Y119.102 E.08862
G1 X131.257 Y119.307 E.01233
G1 X133.218 Y121.269 E.08762
G1 X132.86 Y121.447 E.01265
G1 X130.925 Y119.512 E.08646
G1 X130.592 Y119.717 E.01233
G1 X132.491 Y121.616 E.08483
G1 X132.12 Y121.782 E.01285
G1 X130.493 Y120.155 E.07268
G1 X130.449 Y120.648 E.01564
G1 X131.737 Y121.936 E.05753
G1 X131.35 Y122.086 E.01311
G1 X130.405 Y121.141 E.04223
G1 X130.36 Y121.634 E.01564
G1 X130.953 Y122.227 E.02649
G1 X130.547 Y122.359 E.01348
G1 X130.16 Y121.971 E.01731
M204 S1000
;WIPE_START
G1 F8640
G1 X130.547 Y122.359 E-.12652
G1 X130.953 Y122.227 E-.09854
G1 X130.36 Y121.634 E-.19366
G1 X130.405 Y121.141 E-.11432
G1 X131.1 Y121.836 E-.22696
;WIPE_END
G1 E-.04 F2100
G1 Z.6 F720
G1 X120.042 Y122.826 F10800
G1 Z.2 F720
G1 E.8 F2100
M204 S800
;TYPE:External perimeter
;WIDTH:0.42
G1 F324
G1 X119.152 Y122.565 E.02908
G1 X118.45 Y122.315 E.02337
G1 X117.757 Y122.037 E.02342
G1 X117.075 Y121.731 E.02342
G1 X116.407 Y121.398 E.02342
G1 X115.752 Y121.038 E.02342
G1 X114.831 Y120.481 E.03375
G1 X111.846 Y123.465 E.13233
G1 X110.889 Y122.797 E.03661
G1 X110.301 Y122.336 E.02342
G1 X109.732 Y121.852 E.02342
G1 X109.182 Y121.346 E.02342
G1 X108.654 Y120.818 E.02343
G1 X108.148 Y120.268 E.02342
G1 X107.664 Y119.699 E.02343
G1 X107.203 Y119.111 E.02342
G1 X106.535 Y118.154 E.03661
G1 X109.519 Y115.169 E.13233
G1 X108.962 Y114.248 E.03375
G1 X108.602 Y113.593 E.02342
G1 X108.269 Y112.925 E.02342
G1 X107.963 Y112.243 E.02342
G1 X107.685 Y111.55 E.02342
G1 X107.435 Y110.848 E.02337
G1 X107.177 Y109.97 E.02867
G1 X110.411 Y110.26 E.10178
G1 X113.967 Y116.033 E.21261
G1 X119.75 Y119.596 E.21297
G1 X120.037 Y122.766 E.09982
M204 S1000
;WIPE_START
G1 F8640
G1 X119.152 Y122.565 E-.20947
G1 X118.45 Y122.315 E-.17212
G1 X117.757 Y122.037 E-.17251
G1 X117.075 Y121.731 E-.17251
G1 X116.946 Y121.666 E-.0334
;WIPE_END
G1 E-.04 F2100
G1 Z.6 F720
G1 X109.478 Y110.29 F10800
G1 Z.2 F720
G1 E.8 F2100
M204 S800
;TYPE:Solid infill
;WIDTH:0.429893
G1 F864
G1 X111.089 Y111.901 E.07331
G1 X111.968 Y113.326 E.05387
G1 X109.064 Y110.423 E.13211
G1 X108.463 Y110.369 E.01942
G1 X113.365 Y115.271 E.22305
M204 S1000
;WIPE_START
G1 F8640
G1 X111.038 Y112.943 E-.76
;WIPE_END
G1 E-.04 F2100
G1 Z.6 F720
G1 X117.58 Y118.391 F10800
G1 Z.2 F720
G1 E.8 F2100
M204 S800
G1 F864
G1 X119.534 Y120.346 E.08892
G1 X119.589 Y120.947 E.01944
G1 X116.674 Y118.032 E.13264
G1 X115.248 Y117.154 E.05387
G1 X119.643 Y121.549 E.19998
G1 X119.697 Y122.15 E.01944
G1 X107.862 Y110.315 E.53855
G1 X107.566 Y110.289 E.00958
G1 X107.681 Y110.681 E.01316
G1 X119.319 Y122.319 E.52958
G1 X118.472 Y122.019 E.02891
G1 X107.981 Y111.528 E.47741
G1 X108.375 Y112.469 E.03283
G1 X117.531 Y121.625 E.41665
G1 X116.464 Y121.107 E.03815
G1 X108.893 Y113.536 E.34453
G1 X109.208 Y114.107 E.02098
G1 X109.65 Y114.839 E.02754
G1 X115.161 Y120.35 E.25076
G1 X114.787 Y120.125 E.01404
G1 X114.587 Y120.324 E.00909
G1 X109.676 Y115.413 E.22351
G1 X109.402 Y115.686 E.01245
G1 X114.314 Y120.598 E.22351
G1 X114.04 Y120.871 E.01245
G1 X109.129 Y115.96 E.22351
G1 X108.855 Y116.233 E.01245
G1 X113.767 Y121.145 E.22351
G1 X113.493 Y121.419 E.01245
G1 X108.581 Y116.507 E.22351
G1 X108.308 Y116.781 E.01245
G1 X113.219 Y121.692 E.22351
G1 X112.946 Y121.966 E.01245
G1 X108.034 Y117.054 E.22351
G1 X107.76 Y117.328 E.01245
G1 X112.672 Y122.24 E.22351
G1 X112.398 Y122.513 E.01245
G1 X107.487 Y117.602 E.22351
G1 X107.213 Y117.875 E.01245
G1 X112.125 Y122.787 E.22351
G1 X111.851 Y123.061 E.01245
G1 X106.939 Y118.149 E.22351
G1 X106.902 Y118.186 E.0017
G1 X107.43 Y118.943 E.0297
G1 X107.883 Y119.52 E.0236
G1 X108.359 Y120.081 E.02367
G1 X108.775 Y120.532 E.01975
G1 X110.925 Y122.682 E.09781
M204 S1000
;WIPE_START
G1 F8640
G1 X108.775 Y120.532 E-.70189
G1 X108.605 Y120.347 E-.05811
;WIPE_END
G1 E-.04 F2100
G1 Z.6 F720
G1 X123.306 Y121.326 F10800
G1 Z.2 F720
G1 E.8 F2100
M204 S800
;TYPE:Perimeter
;WIDTH:0.42
G1 F270
G1 X123.306 Y120.354 E.03048
G1 X124.279 Y120.435 E.03061
G1 X125 Y120.45 E.02262
G1 X125.719 Y120.435 E.02253
G1 X126.692 Y120.354 E.03061
G1 X126.692 Y121.326 E.03048
G1 X126.328 Y121.37 E.01149
G1 X125.669 Y121.411 E.02071
G1 X125 Y121.424 E.02098
G1 X124.329 Y121.411 E.02104
G1 X123.366 Y121.333 E.0303
M204 S1000
G1 X122.929 Y121.66 F10800
M204 S800
G1 F270
G1 X122.929 Y119.931 E.05422
G1 X123.599 Y120.008 E.02113
G1 X124.297 Y120.058 E.02194
G1 X125 Y120.073 E.02207
G1 X125.701 Y120.058 E.02198
G1 X126.401 Y120.008 E.02199
G1 X127.069 Y119.931 E.02108
G1 X127.069 Y121.66 E.05422
G1 X126.362 Y121.746 E.02232
G1 X125.684 Y121.787 E.0213
M73 Q3 S52
G1 X125 Y121.801 E.02146
M73 P3 R52
G1 X124.314 Y121.787 E.02152
G1 X123.636 Y121.746 E.0213
G1 X122.989 Y121.667 E.02044
M204 S1000
G1 X122.552 Y121.995 F10800
M204 S800
;TYPE:External perimeter
G1 F270
G1 X122.552 Y119.488 E.07859
G1 X123.634 Y119.632 E.03422
G1 X124.314 Y119.682 E.02139
G1 X125 Y119.696 E.02152
G1 X125.684 Y119.682 E.02143
G1 X126.366 Y119.632 E.02144
M73 P3 R51
G1 X127.446 Y119.488 E.03417
G1 X127.446 Y121.995 E.07859
G1 X126.397 Y122.121 E.03315
G1 X125.699 Y122.164 E.0219
G1 X125 Y122.178 E.02193
G1 X124.299 Y122.164 E.022
G1 X123.602 Y122.121 E.0219
G1 X122.612 Y122.002 E.03126
M204 S1000
G1 X122.763 Y121.655 F10800
;WIPE_START
G1 F8640
G1 X122.552 Y119.488 E-.58057
G1 X123.322 Y119.591 E-.17944
;WIPE_END
G1 E-.04 F2100
G1 Z.6 F720
G1 X126.52 Y121.233 F10800
G1 Z.2 F720
G1 E.8 F2100
M204 S800
;TYPE:Solid infill
;WIDTH:0.445293
G1 F864
G1 X125.984 Y120.697 E.02536
G1 X125.442 Y120.724 E.01815
G1 X125.836 Y121.117 E.0186
G1 X125.285 Y121.135 E.01844
G1 X124.88 Y120.731 E.01914
G1 X124.299 Y120.718 E.01945
G1 X124.716 Y121.135 E.01972
G1 X124.126 Y121.115 E.01974
G1 X123.501 Y120.49 E.02956
M204 S1000
;WIPE_START
G1 F8640
G1 X124.126 Y121.115 E-.20399
G1 X124.716 Y121.135 E-.13621
G1 X124.299 Y120.718 E-.13608
G1 X124.88 Y120.731 E-.13425
G1 X125.285 Y121.135 E-.13208
G1 X125.36 Y121.133 E-.0174
;WIPE_END
G1 E-.04 F2100
G1 Z.6 F720
G1 X140.354 Y106.692 F10800
G1 Z.2 F720
G1 E.8 F2100
M204 S800
;TYPE:Perimeter
;WIDTH:0.42
G1 F270
G1 X140.442 Y105.54 E.03622
G1 X140.45 Y104.82 E.02257
G1 X140.425 Y104.101 E.02256
G1 X140.356 Y103.306 E.02502
G1 X141.327 Y103.306 E.03045
G1 X141.37 Y103.668 E.01144
G1 X141.411 Y104.329 E.02075
G1 X141.424 Y105 E.02104
G1 X141.411 Y105.669 E.02098
G1 X141.37 Y106.328 E.02071
G1 X141.326 Y106.692 E.01149
G1 X140.414 Y106.692 E.02861
M204 S1000
G1 X139.928 Y107.069 F10800
M204 S800
G1 F270
G1 X140.023 Y106.226 E.02658
G1 X140.065 Y105.526 E.02199
G1 X140.073 Y104.825 E.022
G1 X140.048 Y104.123 E.02201
G1 X139.991 Y103.425 E.02196
G1 X139.928 Y102.929 E.01568
G1 X141.663 Y102.929 E.05439
G1 X141.746 Y103.635 E.02228
G1 X141.787 Y104.314 E.02133
G1 X141.801 Y105 E.02152
G1 X141.787 Y105.684 E.02146
G1 X141.746 Y106.362 E.0213
G1 X141.66 Y107.069 E.02232
G1 X139.988 Y107.069 E.05244
M204 S1000
G1 X139.486 Y107.446 F10800
M204 S800
;TYPE:External perimeter
M73 Q3 S51
G1 F270
G1 X139.577 Y106.875 E.01814
G1 X139.647 Y106.196 E.02139
G1 X139.688 Y105.513 E.02145
G1 X139.696 Y104.829 E.02143
G1 X139.671 Y104.145 E.02146
G1 X139.616 Y103.464 E.02142
G1 X139.488 Y102.552 E.02889
G1 X141.998 Y102.552 E.07869
G1 X142.121 Y103.601 E.03312
G1 X142.164 Y104.299 E.02191
G1 X142.178 Y105 E.022
G1 X142.164 Y105.699 E.02193
G1 X142.121 Y106.397 E.0219
G1 X141.995 Y107.446 E.03315
G1 X139.546 Y107.446 E.07677
M204 S1000
G1 X139.679 Y107.095 F10800
;WIPE_START
G1 F8640
G1 X139.577 Y106.875 E-.13214
G1 X139.647 Y106.196 E-.15756
G1 X139.688 Y105.513 E-.158
G1 X139.696 Y104.829 E-.15783
G1 X139.672 Y104.161 E-.15447
;WIPE_END
G1 E-.04 F2100
G1 Z.6 F720
G1 X140.486 Y103.497 F10800
G1 Z.2 F720
G1 E.8 F2100
M204 S800
;TYPE:Solid infill
;WIDTH:0.445492
G1 F864
G1 X141.115 Y104.126 E.02976
G1 X141.135 Y104.716 E.01976
G1 X140.714 Y104.295 E.01992
G1 X140.732 Y104.882 E.01967
G1 X141.135 Y105.285 E.01906
G1 X141.117 Y105.836 E.01846
G1 X140.726 Y105.445 E.01852
G1 X140.692 Y105.98 E.01796
G1 X141.233 Y106.521 E.02561
M204 S1000
;WIPE_START
G1 F8640
G1 X140.692 Y105.98 E-.17668
G1 X140.726 Y105.445 E-.12386
G1 X141.117 Y105.836 E-.12776
G1 X141.135 Y105.285 E-.12731
G1 X140.732 Y104.882 E-.13151
G1 X140.723 Y104.567 E-.07287
;WIPE_END
G1 E-.04 F2100
G1 Z.6 F720
G1 X109.644 Y106.692 F10800
G1 Z.2 F720
G1 E.8 F2100
M204 S800
;TYPE:Perimeter
;WIDTH:0.42
G1 F270
G1 X108.672 Y106.692 E.03049
G1 X108.628 Y106.328 E.01149
G1 X108.587 Y105.669 E.02071
G1 X108.574 Y105 E.02098
G1 X108.587 Y104.329 E.02104
G1 X108.628 Y103.67 E.02071
G1 X108.672 Y103.306 E.01149
G1 X109.643 Y103.306 E.03044
G1 X109.573 Y104.101 E.025
G1 X109.548 Y104.821 E.02259
G1 X109.556 Y105.54 E.02255
G1 X109.638 Y106.632 E.03435
M204 S1000
