; generated by PrusaSlicer 2.3.1+win64 on 2022-04-14 at 17:32:41 UTC

; 

; external perimeters extrusion width = 0.45mm
; perimeters extrusion width = 0.45mm
; infill extrusion width = 0.45mm
; solid infill extrusion width = 0.45mm
; top infill extrusion width = 0.40mm
; first layer extrusion width = 0.42mm

M73 P0 R30
M73 Q0 S30
M201 X1000 Y1000 Z1000 E5000 ; sets maximum accelerations, mm/sec^2
M203 X200 Y200 Z12 E120 ; sets maximum feedrates, mm/sec
M204 P1250 R1250 T1250 ; sets acceleration (P, T) and retract acceleration (R), mm/sec^2
M205 X8.00 Y8.00 Z0.40 E1.50 ; sets the jerk limits, mm/sec
M205 S0 T0 ; sets the minimum extruding and travel feed rate, mm/sec
M107
;TYPE:Custom
M862.3 P "MK3S" ; printer model check
M862.1 P0.4 ; nozzle diameter check
M115 U3.8.0 ; tell printer latest fw version
G90 ; use absolute coordinates
M83 ; extruder relative mode
M104 S215 ; set extruder temp
M140 S60 ; set bed temp
M190 S60 ; wait for bed temp
M109 S215 ; wait for extruder temp
G28 W ; home all without mesh bed level
G80 ; mesh bed leveling
G1 Y-3.0 F1000.0 ; go outside print area
G92 E0.0
G1 X60.0 E9.0 F1000.0 ; intro line
G1 X100.0 E12.5 F1000.0 ; intro line
G92 E0.0
M221 S95
G21 ; set units to millimeters
G90 ; use absolute coordinates
M83 ; use relative distances for extrusion
M900 K0.05 ; Filament gcode LA 1.5
M900 K30 ; Filament gcode LA 1.0
;LAYER_CHANGE
;Z:0.2
;HEIGHT:0.2
;BEFORE_LAYER_CHANGE
G92 E0.0
;0.2


G1 E-0.80000 F2100.000
G1 Z0.600 F10800.000
;AFTER_LAYER_CHANGE
;0.2
G1 X118.199 Y98.199
G1 Z0.200
G1 E0.80000 F2100.000
M204 S1000
;TYPE:Skirt
;WIDTH:0.42
G1 F1200.000
G1 X119.656 Y97.003 E0.05912
G1 X121.319 Y96.114 E0.05912
G1 X123.123 Y95.567 E0.05912
G1 X125.004 Y95.382 E0.05926
G1 X126.876 Y95.566 E0.05898
G1 X128.681 Y96.114 E0.05912
G1 X130.343 Y97.003 E0.05912
G1 X131.801 Y98.199 E0.05912
G1 X132.997 Y99.656 E0.05912
G1 X133.886 Y101.319 E0.05912
G1 X134.433 Y103.123 E0.05912
G1 X134.618 Y105.000 E0.05912
G1 X134.434 Y106.876 E0.05912
G1 X133.886 Y108.681 E0.05912
G1 X132.997 Y110.343 E0.05912
G1 X131.801 Y111.801 E0.05912
G1 X130.344 Y112.997 E0.05912
G1 X128.681 Y113.886 E0.05912
G1 X126.877 Y114.433 E0.05912
G1 X125.000 Y114.618 E0.05912
G1 X123.124 Y114.434 E0.05912
G1 X121.319 Y113.886 E0.05912
G1 X119.657 Y112.997 E0.05912
G1 X118.199 Y111.801 E0.05912
G1 X117.003 Y110.344 E0.05912
G1 X116.114 Y108.681 E0.05912
G1 X115.567 Y106.877 E0.05912
G1 X115.382 Y105.000 E0.05912
G1 X115.566 Y103.124 E0.05912
G1 X116.114 Y101.319 E0.05912
G1 X117.003 Y99.657 E0.05912
G1 X118.161 Y98.245 E0.05724
G1 X118.451 Y98.483 F10800.000
G1 F1200.000
G1 X119.865 Y97.317 E0.05749
G1 X121.463 Y96.463 E0.05680
G1 X123.196 Y95.937 E0.05680
G1 X125.003 Y95.759 E0.05693
G1 X126.802 Y95.936 E0.05667
G1 X128.536 Y96.462 E0.05680
G1 X130.134 Y97.316 E0.05680
G1 X131.534 Y98.465 E0.05680
G1 X132.683 Y99.865 E0.05680
G1 X133.537 Y101.463 E0.05680
G1 X134.063 Y103.196 E0.05680
G1 X134.241 Y104.999 E0.05680
G1 X134.064 Y106.802 E0.05680
G1 X133.538 Y108.536 E0.05680
G1 X132.684 Y110.133 E0.05680
G1 X131.535 Y111.534 E0.05680
G1 X130.135 Y112.683 E0.05680
G1 X128.537 Y113.537 E0.05680
G1 X126.804 Y114.063 E0.05680
G1 X125.001 Y114.241 E0.05680
G1 X123.198 Y114.064 E0.05680
G1 X121.464 Y113.538 E0.05680
G1 X119.867 Y112.684 E0.05680
G1 X118.466 Y111.535 E0.05680
G1 X117.317 Y110.135 E0.05680
G1 X116.463 Y108.537 E0.05680
G1 X115.937 Y106.804 E0.05680
G1 X115.759 Y105.001 E0.05680
G1 X115.936 Y103.198 E0.05680
G1 X116.462 Y101.464 E0.05680
G1 X117.316 Y99.866 E0.05680
G1 X118.413 Y98.530 E0.05421
G1 X118.703 Y98.768 F10800.000
G1 F1200.000
G1 X120.075 Y97.630 E0.05588
G1 X121.607 Y96.811 E0.05448
G1 X123.270 Y96.306 E0.05448
G1 X125.003 Y96.136 E0.05460
G1 X126.728 Y96.306 E0.05437
G1 X128.391 Y96.810 E0.05448
G1 X129.924 Y97.629 E0.05448
G1 X131.267 Y98.731 E0.05448
G1 X132.370 Y100.075 E0.05448
G1 X133.189 Y101.607 E0.05448
G1 X133.694 Y103.270 E0.05448
G1 X133.864 Y104.999 E0.05448
G1 X133.694 Y106.728 E0.05448
G1 X133.190 Y108.391 E0.05448
G1 X132.371 Y109.924 E0.05448
G1 X131.269 Y111.267 E0.05448
G1 X129.925 Y112.370 E0.05448
G1 X128.393 Y113.189 E0.05448
G1 X126.730 Y113.694 E0.05448
G1 X125.001 Y113.864 E0.05448
G1 X123.272 Y113.694 E0.05448
G1 X121.609 Y113.190 E0.05448
G1 X120.076 Y112.371 E0.05448
G1 X118.733 Y111.269 E0.05448
G1 X117.630 Y109.925 E0.05448
G1 X116.811 Y108.393 E0.05448
G1 X116.306 Y106.730 E0.05448
G1 X116.136 Y105.001 E0.05448
G1 X116.306 Y103.272 E0.05448
G1 X116.810 Y101.609 E0.05448
G1 X117.629 Y100.076 E0.05448
G1 X118.665 Y98.814 E0.05118
; printing object BULLET-POST-REPLACEMENT.STL id:0 copy 0
G1 E-0.80000 F2100.000
G1 Z0.800 F10800.000
G1 X122.553 Y101.059
G1 Z0.200
G1 E0.80000 F2100.000
;TYPE:Perimeter
G1 F1200.000
G1 X122.639 Y100.911 E0.00538
G1 X127.361 Y100.911 E0.14804
G1 X129.722 Y105.000 E0.14804
G1 X127.361 Y109.089 E0.14804
G1 X122.639 Y109.089 E0.14804
G1 X120.278 Y105.000 E0.14804
G1 X122.523 Y101.111 E0.14079
M73 Q1 S30
G1 X122.850 Y101.300 F10800.000
;TYPE:External perimeter
G1 F1200.000
G1 X127.143 Y101.288 E0.13461
G1 X129.286 Y105.000 E0.13439
M73 P1 R30
G1 X127.143 Y108.712 E0.13439
G1 X122.857 Y108.712 E0.13439
G1 X120.714 Y105.000 E0.13439
G1 X122.820 Y101.352 E0.13208
G1 X122.849 Y100.900 F10800.000
G1 E-0.80000 F2100.000
G1 Z0.800 F10800.000
G1 X121.989 Y100.494
G1 Z0.200
G1 E0.80000 F2100.000
;TYPE:Perimeter
G1 F1200.000
G1 X122.545 Y100.168 E0.02019
G1 X122.921 Y99.995 E0.01298
G1 X123.534 Y99.782 E0.02037
G1 X123.937 Y99.685 E0.01298
G1 X124.578 Y99.597 E0.02030
G1 X125.062 Y99.582 E0.01519
G1 X125.641 Y99.618 E0.01819
G1 X126.057 Y99.684 E0.01320
G1 X126.466 Y99.782 E0.01316
G1 X127.079 Y99.995 E0.02037
G1 X127.455 Y100.168 E0.01298
G1 X128.011 Y100.494 E0.02019
G1 X128.524 Y100.882 E0.02019
G1 X128.833 Y101.167 E0.01316
G1 X129.118 Y101.476 E0.01316
G1 X129.506 Y101.989 E0.02019
G1 X129.832 Y102.545 E0.02019
G1 X130.005 Y102.921 E0.01298
G1 X130.218 Y103.534 E0.02037
G1 X130.315 Y103.940 E0.01309
G1 X130.388 Y104.425 E0.01537
G1 X130.420 Y104.999 E0.01801
G1 X130.382 Y105.643 E0.02023
G1 X130.316 Y106.057 E0.01316
G1 X130.218 Y106.466 E0.01316
G1 X130.006 Y107.077 E0.02030
G1 X129.800 Y107.516 E0.01519
G1 X129.507 Y108.010 E0.01801
G1 X129.118 Y108.524 E0.02023
G1 X128.833 Y108.833 E0.01316
G1 X128.524 Y109.118 E0.01316
G1 X128.008 Y109.508 E0.02030
G1 X127.593 Y109.758 E0.01519
G1 X127.075 Y110.007 E0.01801
G1 X126.466 Y110.218 E0.02023
G1 X126.060 Y110.315 E0.01309
G1 X125.575 Y110.388 E0.01537
G1 X125.001 Y110.420 E0.01801
G1 X124.357 Y110.382 E0.02023
G1 X123.943 Y110.316 E0.01316
G1 X123.534 Y110.218 E0.01316
G1 X122.923 Y110.006 E0.02030
G1 X122.484 Y109.800 E0.01519
G1 X121.990 Y109.507 E0.01801
G1 X121.476 Y109.118 E0.02023
G1 X121.167 Y108.833 E0.01316
G1 X120.882 Y108.524 E0.01316
G1 X120.494 Y108.011 E0.02019
G1 X120.168 Y107.455 E0.02019
G1 X119.995 Y107.079 E0.01298
G1 X119.782 Y106.466 E0.02037
G1 X119.685 Y106.060 E0.01309
G1 X119.612 Y105.575 E0.01537
G1 X119.580 Y104.996 E0.01819
G1 X119.596 Y104.581 E0.01302
G1 X119.685 Y103.937 E0.02037
G1 X119.782 Y103.534 E0.01298
G1 X119.995 Y102.921 E0.02037
G1 X120.168 Y102.545 E0.01298
G1 X120.494 Y101.989 E0.02019
G1 X120.882 Y101.476 E0.02019
G1 X121.167 Y101.167 E0.01316
G1 X121.476 Y100.882 E0.01316
G1 X121.941 Y100.530 E0.01831
G1 X121.714 Y100.229 F10800.000
;TYPE:External perimeter
G1 F1200.000
G1 X122.370 Y99.834 E0.02403
G1 X122.780 Y99.645 E0.01414
G1 X123.428 Y99.420 E0.02153
G1 X123.867 Y99.314 E0.01414
G1 X124.546 Y99.221 E0.02151
G1 X125.068 Y99.204 E0.01637
G1 X125.683 Y99.243 E0.01931
G1 X126.131 Y99.314 E0.01422
G1 X126.572 Y99.420 E0.01421
G1 X127.220 Y99.645 E0.02153
G1 X127.630 Y99.834 E0.01414
G1 X128.221 Y100.180 E0.02147
G1 X128.767 Y100.593 E0.02147
G1 X129.099 Y100.901 E0.01421
G1 X129.407 Y101.233 E0.01421
G1 X129.820 Y101.779 E0.02147
G1 X130.166 Y102.370 E0.02147
G1 X130.355 Y102.780 E0.01414
G1 X130.580 Y103.428 E0.02153
G1 X130.686 Y103.868 E0.01418
G1 X130.764 Y104.387 E0.01644
G1 X130.797 Y105.000 E0.01924
G1 X130.757 Y105.683 E0.02148
G1 X130.686 Y106.131 E0.01421
G1 X130.580 Y106.572 E0.01421
G1 X130.356 Y107.220 E0.02151
G1 X130.133 Y107.692 E0.01637
G1 X129.820 Y108.220 E0.01924
G1 X129.407 Y108.767 E0.02148
G1 X129.099 Y109.099 E0.01421
G1 X128.767 Y109.407 E0.01421
G1 X128.220 Y109.821 E0.02151
G1 X127.772 Y110.090 E0.01637
G1 X127.219 Y110.356 E0.01924
G1 X126.572 Y110.580 E0.02148
G1 X126.132 Y110.686 E0.01418
G1 X125.613 Y110.764 E0.01644
G1 X125.000 Y110.797 E0.01924
G1 X124.317 Y110.757 E0.02148
G1 X123.869 Y110.686 E0.01421
G1 X123.428 Y110.580 E0.01421
G1 X122.780 Y110.356 E0.02151
G1 X122.308 Y110.133 E0.01637
G1 X121.780 Y109.820 E0.01924
G1 X121.233 Y109.407 E0.02148
G1 X120.901 Y109.099 E0.01421
G1 X120.593 Y108.767 E0.01421
G1 X120.180 Y108.221 E0.02147
G1 X119.834 Y107.630 E0.02147
G1 X119.645 Y107.220 E0.01414
G1 X119.420 Y106.572 E0.02153
G1 X119.314 Y106.132 E0.01418
G1 X119.236 Y105.613 E0.01644
G1 X119.203 Y104.998 E0.01931
G1 X119.220 Y104.547 E0.01416
G1 X119.314 Y103.867 E0.02153
G1 X119.420 Y103.428 E0.01414
G1 X119.645 Y102.780 E0.02153
G1 X119.834 Y102.370 E0.01414
G1 X120.180 Y101.779 E0.02147
G1 X120.593 Y101.233 E0.02147
G1 X120.901 Y100.901 E0.01421
G1 X121.233 Y100.593 E0.01421
G1 X121.666 Y100.266 E0.01701
G1 X122.073 Y100.405 F10800.000
G1 E-0.80000 F2100.000
G1 Z0.800 F10800.000
G1 X127.713 Y100.450
G1 Z0.200
G1 E0.80000 F2100.000
;TYPE:Solid infill
;WIDTH:0.423326
G1 F1200.000
G1 X128.900 Y101.657 E0.05356
G1 X129.271 Y102.146 E0.01940
G1 X129.581 Y102.676 E0.01940
G1 X129.735 Y103.010 E0.01166
G1 X126.712 Y99.987 E0.13523
G1 X126.984 Y100.798 F10800.000
M73 P1 R29
G1 F1200.000
G1 X126.195 Y100.008 E0.03534
G1 X126.002 Y99.962 E0.00626
G1 X125.544 Y99.895 E0.01464
G1 X126.277 Y100.628 E0.03278
G1 X125.739 Y100.628 E0.01702
G1 X124.978 Y99.867 E0.03404
M73 Q1 S29
G1 X124.470 Y99.897 E0.01609
G1 X125.201 Y100.628 E0.03269
G1 X124.663 Y100.628 E0.01702
G1 X123.989 Y99.964 E0.02992
G1 X123.567 Y100.070 E0.01378
G1 X124.125 Y100.628 E0.02496
G1 X123.587 Y100.628 E0.01702
G1 X123.167 Y100.209 E0.01876
G1 X122.788 Y100.367 E0.01300
G1 X123.049 Y100.628 E0.01166
G1 X122.511 Y100.628 E0.01702
G1 X122.440 Y100.557 E0.00317
G1 X122.105 Y100.761 E0.01239
G1 X122.292 Y100.947 E0.00834
G1 X122.095 Y101.288 E0.01246
G1 X121.799 Y100.992 E0.01323
G1 X121.507 Y101.238 E0.01208
G1 X121.898 Y101.629 E0.01748
G1 X121.701 Y101.970 E0.01246
G1 X121.238 Y101.507 E0.02070
G1 X120.992 Y101.799 E0.01208
G1 X121.504 Y102.311 E0.02290
G1 X121.307 Y102.652 E0.01246
G1 X120.760 Y102.105 E0.02446
G1 X120.729 Y102.146 E0.00163
G1 X120.557 Y102.440 E0.01077
G1 X121.110 Y102.993 E0.02474
G1 X120.913 Y103.334 E0.01246
G1 X120.367 Y102.788 E0.02443
G1 X120.209 Y103.168 E0.01300
G1 X120.717 Y103.675 E0.02272
G1 X120.520 Y104.017 E0.01246
G1 X120.070 Y103.567 E0.02011
G1 X119.963 Y103.997 E0.01403
G1 X120.323 Y104.358 E0.01611
G1 X120.126 Y104.699 E0.01246
G1 X119.897 Y104.470 E0.01022
G1 X119.864 Y104.975 E0.01600
G1 X120.037 Y105.148 E0.00775
G1 X120.772 Y106.421 E0.04649
G1 X119.893 Y105.542 E0.03932
G1 X119.962 Y106.005 E0.01482
G1 X120.008 Y106.195 E0.00615
G1 X121.971 Y108.157 E0.08780
G1 E-0.80000 F2100.000
G1 Z0.800 F10800.000
G1 X128.029 Y101.843
G1 Z0.200
G1 E0.80000 F2100.000
G1 F1200.000
G1 X129.992 Y103.805 E0.08780
G1 X130.038 Y103.995 E0.00615
G1 X130.107 Y104.458 E0.01483
G1 X129.228 Y103.579 E0.03932
G1 X129.963 Y104.852 E0.04649
G1 X130.135 Y105.024 E0.00769
G1 X130.105 Y105.532 E0.01610
G1 X129.874 Y105.301 E0.01032
G1 X129.677 Y105.642 E0.01246
G1 X130.038 Y106.003 E0.01614
G1 X129.930 Y106.433 E0.01402
G1 X129.480 Y105.984 E0.02011
G1 X129.283 Y106.325 E0.01246
G1 X129.791 Y106.833 E0.02272
G1 X129.631 Y107.210 E0.01297
G1 X129.087 Y106.666 E0.02435
G1 X128.890 Y107.007 E0.01246
G1 X129.444 Y107.561 E0.02480
G1 X129.272 Y107.852 E0.01069
G1 X129.239 Y107.895 E0.00169
G1 X128.693 Y107.348 E0.02446
G1 X128.496 Y107.689 E0.01246
G1 X129.008 Y108.201 E0.02290
G1 X128.762 Y108.493 E0.01208
G1 X128.299 Y108.030 E0.02070
G1 X128.102 Y108.371 E0.01246
G1 X128.493 Y108.762 E0.01747
G1 X128.201 Y109.008 E0.01208
G1 X127.905 Y108.712 E0.01323
G1 X127.708 Y109.053 E0.01246
G1 X127.895 Y109.240 E0.00834
G1 X127.563 Y109.446 E0.01235
G1 X127.489 Y109.372 E0.00332
G1 X126.951 Y109.372 E0.01702
G1 X127.208 Y109.629 E0.01151
G1 X126.832 Y109.791 E0.01295
G1 X126.413 Y109.372 E0.01876
G1 X125.875 Y109.372 E0.01702
G1 X126.433 Y109.930 E0.02496
G1 X126.005 Y110.038 E0.01394
G1 X125.337 Y109.372 E0.02984
G1 X124.799 Y109.372 E0.01702
G1 X125.534 Y110.107 E0.03290
G1 X125.024 Y110.135 E0.01616
G1 X124.261 Y109.372 E0.03414
G1 X123.723 Y109.372 E0.01702
G1 X124.455 Y110.104 E0.03275
G1 X123.998 Y110.038 E0.01462
G1 X123.805 Y109.992 E0.00626
G1 X123.015 Y109.202 E0.03533
G1 X123.288 Y110.013 F10800.000
G1 F1200.000
G1 X120.265 Y106.990 E0.13522
G1 X120.419 Y107.324 E0.01165
G1 X120.729 Y107.854 E0.01940
G1 X121.100 Y108.343 E0.01940
G1 X122.291 Y109.553 E0.05373
; stop printing object BULLET-POST-REPLACEMENT.STL id:0 copy 0
M106 S84.15
;LAYER_CHANGE
;Z:0.4
;HEIGHT:0.2
;BEFORE_LAYER_CHANGE
G92 E0.0
;0.4


G1 E-0.80000 F2100.000
G1 Z0.800 F10800.000
;AFTER_LAYER_CHANGE
;0.4
M104 S210 ; set temperature
G1 X119.657 Y112.997
G1 Z0.400
G1 E0.80000 F2100.000
;TYPE:Skirt
;WIDTH:0.42
G1 F1800
G1 X118.199 Y111.801 E0.05912
G1 X117.003 Y110.344 E0.05912
G1 X116.114 Y108.681 E0.05912
G1 X115.567 Y106.877 E0.05912
G1 X115.382 Y105.000 E0.05912
G1 X115.566 Y103.124 E0.05912
G1 X116.114 Y101.319 E0.05912
G1 X117.003 Y99.657 E0.05912
G1 X118.199 Y98.199 E0.05912
G1 X119.656 Y97.003 E0.05912
G1 X121.319 Y96.114 E0.05912
G1 X123.123 Y95.567 E0.05912
G1 X125.004 Y95.382 E0.05926
G1 X126.876 Y95.566 E0.05898
G1 X128.681 Y96.114 E0.05912
G1 X130.343 Y97.003 E0.05912
G1 X131.801 Y98.199 E0.05912
G1 X132.997 Y99.656 E0.05912
G1 X133.886 Y101.319 E0.05912
G1 X134.433 Y103.123 E0.05912
G1 X134.618 Y105.000 E0.05912
G1 X134.434 Y106.876 E0.05912
G1 X133.886 Y108.681 E0.05912
G1 X132.997 Y110.343 E0.05912
G1 X131.801 Y111.801 E0.05912
G1 X130.344 Y112.997 E0.05912
G1 X128.681 Y113.886 E0.05912
G1 X126.877 Y114.433 E0.05912
G1 X125.000 Y114.618 E0.05912
G1 X123.124 Y114.434 E0.05912
G1 X121.319 Y113.886 E0.05912
G1 X119.710 Y113.026 E0.05724
G1 X119.886 Y112.695 F10800.000
G1 F1800
G1 X118.466 Y111.535 E0.05749
G1 X117.317 Y110.135 E0.05680
G1 X116.463 Y108.537 E0.05680
G1 X115.937 Y106.804 E0.05680
G1 X115.759 Y105.001 E0.05680
G1 X115.936 Y103.198 E0.05680
G1 X116.462 Y101.464 E0.05680
G1 X117.316 Y99.866 E0.05680
G1 X118.465 Y98.466 E0.05680
G1 X119.865 Y97.317 E0.05680
G1 X121.463 Y96.463 E0.05680
G1 X123.196 Y95.937 E0.05680
G1 X125.003 Y95.759 E0.05693
G1 X126.802 Y95.936 E0.05667
G1 X128.536 Y96.462 E0.05680
G1 X130.134 Y97.316 E0.05680
G1 X131.534 Y98.465 E0.05680
G1 X132.683 Y99.865 E0.05680
G1 X133.537 Y101.463 E0.05680
G1 X134.063 Y103.196 E0.05680
G1 X134.241 Y104.999 E0.05680
G1 X134.064 Y106.802 E0.05680
G1 X133.538 Y108.536 E0.05680
G1 X132.684 Y110.133 E0.05680
G1 X131.535 Y111.534 E0.05680
G1 X130.135 Y112.683 E0.05680
G1 X128.537 Y113.537 E0.05680
G1 X126.804 Y114.063 E0.05680
G1 X125.001 Y114.241 E0.05680
G1 X123.198 Y114.064 E0.05680
G1 X121.464 Y113.538 E0.05680
G1 X119.939 Y112.723 E0.05421
G1 X120.116 Y112.392 F10800.000
G1 F1800
G1 X118.733 Y111.269 E0.05588
G1 X117.630 Y109.925 E0.05448
G1 X116.811 Y108.393 E0.05448
G1 X116.306 Y106.730 E0.05448
G1 X116.136 Y105.001 E0.05448
G1 X116.306 Y103.272 E0.05448
G1 X116.810 Y101.609 E0.05448
G1 X117.629 Y100.076 E0.05448
G1 X118.731 Y98.733 E0.05448
G1 X120.075 Y97.630 E0.05448
G1 X121.607 Y96.811 E0.05448
G1 X123.270 Y96.306 E0.05448
G1 X125.003 Y96.136 E0.05460
G1 X126.728 Y96.306 E0.05437
G1 X128.391 Y96.810 E0.05448
G1 X129.924 Y97.629 E0.05448
G1 X131.267 Y98.731 E0.05448
G1 X132.370 Y100.075 E0.05448
G1 X133.189 Y101.607 E0.05448
G1 X133.694 Y103.270 E0.05448
G1 X133.864 Y104.999 E0.05448
G1 X133.694 Y106.728 E0.05448
G1 X133.190 Y108.391 E0.05448
G1 X132.371 Y109.924 E0.05448
G1 X131.269 Y111.267 E0.05448
