; generated by PrusaSlicer 2.5.0-rc2+win64 on 2022-10-12 at 16:48:14 UTC

; 

; external perimeters extrusion width = 0.45mm
; perimeters extrusion width = 0.45mm
; infill extrusion width = 0.45mm
; solid infill extrusion width = 0.45mm
; top infill extrusion width = 0.40mm
; support material extrusion width = 0.35mm
; first layer extrusion width = 0.42mm

M73 P0 R62
M73 C61
M73 Q0 S62
M73 D61
M107
;TYPE:Custom
M862.3 P "MK3S" ; printer model check
M862.1 P0.4 ; nozzle diameter check
G90 ; use absolute coordinates
M83 ; extruder relative mode
M104 S215 ; set extruder temp
M140 S60 ; set bed temp
M190 S60 ; wait for bed temp
M109 S215 ; wait for extruder temp
G28 W ; home all without mesh bed level
G80 ; mesh bed leveling
G1 Y-3.0 F1000.0 ; go outside print area
G92 E0.0
G1 X60.0 E9.0 F1000.0 ; intro line
G1 X100.0 E12.5 F1000.0 ; intro line
G92 E0.0
M221 S95

; Don't change E values below. Excessive value can damage the printer.
M907 E430 ; set extruder motor current
G21 ; set units to millimeters
G90 ; use absolute coordinates
M83 ; use relative distances for extrusion
M900 K0.05 ; Filament gcode LA 1.5
M900 K30 ; Filament gcode LA 1.0
M107
;LAYER_CHANGE
;Z:0.2
;HEIGHT:0.2
;BEFORE_LAYER_CHANGE
G92 E0.0
;0.2


M73 C60
G1 E-.8 F2100
G1 Z.4 F10800
;AFTER_LAYER_CHANGE
;0.2
G1 X67.286 Y79.964
G1 Z.2
G1 E.8 F2100
M204 S1000
;TYPE:Skirt/Brim
;WIDTH:0.42
G1 F1200
G1 X69.1 Y79.123 E.06269
G1 X180.9 Y79.123 E3.50541
G1 X182.207 Y79.514 E.04278
M73 P0 R61
G1 X183.083 Y80.56 E.04278
G1 X183.277 Y81.5 E.03008
G1 X183.277 Y123.85 E1.32785
G1 X182.886 Y125.157 E.04278
G1 X181.84 Y126.033 E.04278
G1 X181.137 Y126.215 E.02276
G1 X86.653 Y135.687 E2.97733
G1 X64.38 Y135.698 E.69837
M73 D60
G1 X63.073 Y135.307 E.04278
G1 X62.196 Y134.261 E.04278
G1 X62.002 Y133.321 E.03008
G1 X62.02 Y120.228 E.41054
G1 X66.74 Y81.215 E1.23214
G1 X67.262 Y80.019 E.0409
; printing object TheaterLeft.stl id:0 copy 0
;WIPE_START
G1 F8640
G1 X69.1 Y79.123 E-.47216
G1 X70.346 Y79.123 E-.28784
;WIPE_END
G1 E-.04 F2100
G1 Z.6 F10800
G1 X73.015 Y105.115
G1 Z.2
G1 E.8 F2100
;TYPE:Support material
G1 F1200
G1 X71.385 Y105.115 E.05111
G1 X71.385 Y100.235 E.15301
G1 X73.015 Y100.235 E.05111
G1 X73.015 Y105.059 E.15124
M73 Q0 S61
G1 X72.628 Y104.946 F10800
G1 F1200
G1 X72.628 Y100.575 E.13705
G1 X72.209 Y100.575 E.01314
G1 X72.209 Y104.776 E.13173
G1 X71.79 Y104.776 E.01314
G1 X71.79 Y100.405 E.13705
;WIPE_START
G1 F8640
G1 X71.79 Y103.696 E-.76
;WIPE_END
G1 E-.04 F2100
G1 Z.6 F10800
G1 X68.665 Y124.031
G1 Z.2
G1 E.8 F2100
G1 F1200
G1 X68.92 Y124.285 E.0113
G1 X86.416 Y124.285 E.54858
G1 X86.416 Y133.321 E.28332
G1 X64.38 Y133.321 E.69094
G1 X64.38 Y120.513 E.40159
G1 X68.665 Y120.513 E.13437
G1 X68.665 Y123.974 E.10851
G1 X86.035 Y133.152 F10800
G1 F1200
G1 X86.035 Y124.625 E.26736
G1 X85.616 Y124.625 E.01314
G1 X85.616 Y132.982 E.26204
G1 X85.197 Y132.982 E.01314
G1 X85.197 Y124.625 E.26204
G1 X84.778 Y124.625 E.01314
G1 X84.778 Y132.982 E.26204
G1 X84.359 Y132.982 E.01314
G1 X84.359 Y124.625 E.26204
G1 X83.94 Y124.625 E.01314
G1 X83.94 Y132.982 E.26204
G1 X83.521 Y132.982 E.01314
G1 X83.521 Y124.625 E.26204
G1 X83.102 Y124.625 E.01314
G1 X83.102 Y132.982 E.26204
G1 X82.683 Y132.982 E.01314
G1 X82.683 Y124.625 E.26204
G1 X82.264 Y124.625 E.01314
G1 X82.264 Y132.982 E.26204
G1 X81.845 Y132.982 E.01314
G1 X81.845 Y124.625 E.26204
G1 X81.426 Y124.625 E.01314
G1 X81.426 Y132.982 E.26204
G1 X81.007 Y132.982 E.01314
G1 X81.007 Y124.625 E.26204
G1 X80.588 Y124.625 E.01314
G1 X80.588 Y132.982 E.26204
G1 X80.169 Y132.982 E.01314
G1 X80.169 Y124.625 E.26204
G1 X79.75 Y124.625 E.01314
M73 Q1 S61
G1 X79.75 Y132.982 E.26204
G1 X79.332 Y132.982 E.01314
M73 P1 R61
G1 X79.332 Y124.625 E.26204
G1 X78.913 Y124.625 E.01314
G1 X78.913 Y132.982 E.26204
G1 X78.494 Y132.982 E.01314
G1 X78.494 Y124.625 E.26204
G1 X78.075 Y124.625 E.01314
G1 X78.075 Y132.982 E.26204
G1 X77.656 Y132.982 E.01314
G1 X77.656 Y124.625 E.26204
G1 X77.237 Y124.625 E.01314
G1 X77.237 Y132.982 E.26204
G1 X76.818 Y132.982 E.01314
G1 X76.818 Y124.625 E.26204
G1 X76.399 Y124.625 E.01314
G1 X76.399 Y132.982 E.26204
G1 X75.98 Y132.982 E.01314
G1 X75.98 Y124.625 E.26204
G1 X75.561 Y124.625 E.01314
G1 X75.561 Y132.982 E.26204
G1 X75.142 Y132.982 E.01314
G1 X75.142 Y124.625 E.26204
G1 X74.723 Y124.625 E.01314
G1 X74.723 Y132.982 E.26204
G1 X74.304 Y132.982 E.01314
G1 X74.304 Y124.625 E.26204
G1 X73.885 Y124.625 E.01314
G1 X73.885 Y132.982 E.26204
G1 X73.466 Y132.982 E.01314
G1 X73.466 Y124.625 E.26204
G1 X73.047 Y124.625 E.01314
G1 X73.047 Y132.982 E.26204
G1 X72.628 Y132.982 E.01314
G1 X72.628 Y124.625 E.26204
G1 X72.209 Y124.625 E.01314
G1 X72.209 Y132.982 E.26204
G1 X71.79 Y132.982 E.01314
G1 X71.79 Y124.625 E.26204
G1 X71.77 Y124.625 E.00062
G1 X71.371 Y124.625 E.01252
G1 X71.371 Y132.982 E.26204
G1 X70.952 Y132.982 E.01314
G1 X70.952 Y124.625 E.26204
G1 X70.533 Y124.625 E.01314
G1 X70.533 Y132.982 E.26204
G1 X70.114 Y132.982 E.01314
G1 X70.114 Y124.625 E.26204
G1 X69.695 Y124.625 E.01314
G1 X69.695 Y132.982 E.26204
G1 X69.276 Y132.982 E.01314
G1 X69.276 Y124.625 E.26204
G1 X68.857 Y124.625 E.01314
G1 X68.857 Y132.982 E.26204
G1 X68.438 Y132.982 E.01314
G1 X68.438 Y124.283 E.27274
G1 X68.326 Y124.171 E.00498
G1 X68.326 Y120.853 E.10405
G1 X68.019 Y120.853 E.00961
G1 X68.019 Y132.982 E.38031
G1 X67.6 Y132.982 E.01314
G1 X67.6 Y120.853 E.38031
G1 X67.181 Y120.853 E.01314
G1 X67.181 Y132.982 E.38031
G1 X66.762 Y132.982 E.01314
G1 X66.762 Y120.853 E.38031
G1 X66.343 Y120.853 E.01314
G1 X66.343 Y132.982 E.38031
G1 X65.924 Y132.982 E.01314
G1 X65.924 Y120.853 E.38031
G1 X65.505 Y120.853 E.01314
G1 X65.505 Y132.982 E.38031
G1 X65.086 Y132.982 E.01314
G1 X65.086 Y120.683 E.38563
;WIPE_START
G1 F8640
G1 X65.086 Y123.974 E-.76
;WIPE_END
G1 E-.04 F2100
G1 Z.6 F10800
G1 X177.903 Y99.152
G1 Z.2
G1 E.8 F2100
;TYPE:Perimeter
;WIDTH:0.419999
G1 F1200
G1 X177.799 Y99.152 E.00326
G1 X177.629 Y99.223 E.00578
G1 X177.435 Y99.426 E.00878
G1 X177.363 Y99.703 E.00898
G1 X177.369 Y105.73 E.18897
G1 X177.48 Y105.991 E.00889
G1 X177.701 Y106.164 E.00879
G1 X177.933 Y106.212 E.00744
G1 X179.074 Y106.203 E.03577
G1 X179.833 Y106.14 E.02388
G1 X180.229 Y106.017 E.01301
G1 X180.187 Y106.225 E.00664
G1 X180.129 Y106.768 E.01715
G1 X180.115 Y107.281 E.01608
G1 X180.113 Y123.063 E.49482
G1 X155.238 Y123.064 E.77995
G1 X154.968 Y123.156 E.00893
G1 X154.768 Y123.384 E.00951
G1 X154.713 Y123.628 E.00785
G1 X154.713 Y125.063 E.04497
G1 X151.287 Y125.063 E.10741
G1 X151.282 Y123.555 E.04727
G1 X151.158 Y123.268 E.00981
G1 X150.988 Y123.13 E.00686
G1 X150.722 Y123.063 E.00863
G1 X127.238 Y123.064 E.73632
G1 X126.968 Y123.156 E.00893
G1 X126.768 Y123.384 E.00951
G1 X126.713 Y123.629 E.00785
G1 X126.713 Y125.063 E.04497
G1 X123.287 Y125.063 E.10741
G1 X123.282 Y123.555 E.04727
G1 X123.158 Y123.268 E.00981
G1 X122.988 Y123.13 E.00686
G1 X122.722 Y123.063 E.00863
G1 X69.887 Y123.063 E1.65658
G1 X69.874 Y106.124 E.53113
;WIDTH:0.39469
M73 C59
G1 X69.862 Y105.772 E.0103
;WIDTH:0.369381
G1 X69.862 Y99.579 E.16811
;WIDTH:0.39469
G1 X69.874 Y99.227 E.0103
;WIDTH:0.419999
G1 X69.887 Y82.287 E.53113
G1 X180.113 Y82.287 E3.45605
G1 X180.114 Y97.885 E.48907
M73 P1 R60
G1 X180.153 Y98.826 E.02954
G1 X180.224 Y99.336 E.01613
G1 X179.742 Y99.208 E.01565
G1 X178.818 Y99.145 E.02902
G1 X177.963 Y99.151 E.02682
;WIPE_START
G1 F8640
G1 X177.799 Y99.152 E-.03788
G1 X177.629 Y99.223 E-.0426
G1 X177.435 Y99.426 E-.06469
G1 X177.363 Y99.703 E-.06613
G1 X177.365 Y102.079 E-.54871
;WIPE_END
G1 E-.04 F2100
G1 Z.6 F10800
G1 X150.867 Y123.508
G1 Z.2
G1 E.8 F2100
;TYPE:External perimeter
G1 F1200
G1 X150.722 Y123.44 E.00504
G1 X127.279 Y123.44 E.73504
G1 X127.156 Y123.485 E.00409
G1 X127.09 Y123.629 E.00496
G1 X127.09 Y125.44 E.0568
G1 X122.91 Y125.44 E.13106
G1 X122.91 Y123.629 E.0568
M73 Q2 S61
G1 X122.867 Y123.508 E.004
G1 X122.722 Y123.44 E.00504
G1 X69.51 Y123.44 E1.66841
G1 X69.51 Y81.91 E1.30214
M73 P2 R60
G1 X180.49 Y81.91 E3.47969
M73 D59
G1 X180.49 Y96.976 E.4724
M73 Q2 S60
G1 X180.534 Y98.882 E.05976
G1 X180.701 Y99.874 E.03156
;WIDTH:0.397282
G1 X180.702 Y99.908 E.00101
;WIDTH:0.396458
G1 X180.702 Y105.291 E.15823
;WIDTH:0.40999
G1 X180.676 Y105.768 E.01457
;WIDTH:0.419999
G1 X180.561 Y106.266 E.01603
G1 X180.506 Y106.779 E.01618
G1 X180.492 Y107.281 E.01575
G1 X180.49 Y123.44 E.50664
G1 X155.279 Y123.44 E.79049
G1 X155.156 Y123.485 E.00409
G1 X155.09 Y123.628 E.00496
G1 X155.09 Y125.44 E.0568
G1 X150.91 Y125.44 E.13106
G1 X150.91 Y123.628 E.0568
G1 X150.887 Y123.565 E.00212
G1 X150.912 Y123.354 F10800
;WIPE_START
G1 F8640
G1 X150.722 Y123.44 E-.04791
G1 X147.638 Y123.44 E-.71209
;WIPE_END
G1 E-.04 F2100
G1 Z.6 F10800
G1 X177.93 Y99.515
G1 Z.2
G1 E.8 F2100
G1 F1200
G1 X179.197 Y99.525 E.03973
G1 X179.698 Y99.583 E.0158
G1 X180.222 Y99.727 E.01704
G1 X180.348 Y99.908 E.00693
;WIDTH:0.396458
G1 X180.344 Y105.477 E.16371
;WIDTH:0.40999
G1 X180.297 Y105.574 E.00327
;WIDTH:0.419999
G1 X179.815 Y105.758 E.01619
G1 X179.353 Y105.824 E.01462
G1 X177.93 Y105.835 E.04462
G1 X177.788 Y105.772 E.00486
G1 X177.74 Y105.646 E.00422
G1 X177.74 Y99.703 E.18635
G1 X177.798 Y99.567 E.00464
G1 X177.874 Y99.537 E.00258
G1 X178.036 Y99.129 F10800
;WIPE_START
G1 F8640
G1 X179.197 Y99.525 E-.3055
G1 X179.698 Y99.583 E-.11638
G1 X180.222 Y99.727 E-.12551
G1 X180.348 Y99.908 E-.05103
G1 X180.348 Y100.608 E-.16159
;WIPE_END
G1 E-.04 F2100
G1 Z.6 F10800
G1 X74.217 Y105.854
G1 Z.2
G1 E.8 F2100
;TYPE:Perimeter
G1 F1200
G1 X74.173 Y106.033 E.00576
G1 X73.985 Y106.243 E.00886
G1 X73.895 Y106.291 E.00319
G1 X73.671 Y106.337 E.00716
G1 X70.729 Y106.337 E.09227
G1 X70.389 Y106.224 E.01122
G1 X70.194 Y105.866 E.01281
;WIDTH:0.374712
G1 X70.188 Y105.772 E.00259
;WIDTH:0.369381
G1 X70.188 Y99.579 E.16811
;WIDTH:0.39469
G1 X70.289 Y99.353 E.00724
;WIDTH:0.419999
G1 X70.389 Y99.126 E.00776
G1 X70.729 Y99.013 E.01122
G1 X73.671 Y99.013 E.09227
G1 X73.944 Y99.083 E.00883
G1 X74.135 Y99.254 E.00801
G1 X74.232 Y99.5 E.00829
G1 X74.237 Y99.579 E.00248
G1 X74.231 Y105.796 E.19493
G1 X73.86 Y105.772 F10800
;TYPE:External perimeter
G1 F1200
G1 X73.799 Y105.911 E.00476
G1 X73.746 Y105.945 E.00198
G1 X73.671 Y105.96 E.00239
G1 X70.729 Y105.96 E.09227
G1 X70.615 Y105.923 E.00374
G1 X70.54 Y105.772 E.00529
G1 X70.54 Y99.579 E.19417
G1 X70.615 Y99.428 E.00529
G1 X70.729 Y99.39 E.00374
G1 X73.671 Y99.39 E.09227
G1 X73.818 Y99.46 E.00509
G1 X73.86 Y99.579 E.00395
G1 X73.86 Y105.712 E.19229
G1 X73.966 Y105.88 F10800
;WIPE_START
G1 F8640
G1 X73.799 Y105.911 E-.04805
G1 X73.746 Y105.945 E-.01455
G1 X73.671 Y105.96 E-.01758
G1 X70.729 Y105.96 E-.67953
G1 X70.727 Y105.96 E-.00029
;WIPE_END
G1 E-.04 F2100
G1 Z.6 F10800
G1 X70.347 Y99.031
G1 Z.2
G1 E.8 F2100
;TYPE:Solid infill
;WIDTH:0.420607
G1 F1200
G1 X70.17 Y98.854 E.00787
G1 X70.17 Y98.32 E.01677
G1 X70.614 Y98.764 E.0197
G1 X70.713 Y98.73 E.0033
G1 X71.114 Y98.73 E.0126
G1 X70.17 Y97.786 E.04195
G1 X70.17 Y97.252 E.01677
G1 X71.649 Y98.73 E.06567
G1 X72.183 Y98.73 E.01677
G1 X70.17 Y96.718 E.0894
G1 X70.17 Y96.183 E.01677
G1 X72.717 Y98.73 E.11312
G1 X73.251 Y98.73 E.01677
G1 X70.17 Y95.649 E.13684
G1 X70.17 Y95.115 E.01677
G1 X97.835 Y122.781 E1.2287
G1 X98.369 Y122.781 E.01677
G1 X70.17 Y94.581 E1.25243
G1 X70.17 Y94.047 E.01677
G1 X98.903 Y122.781 E1.27615
G1 X99.438 Y122.781 E.01677
G1 X70.17 Y93.513 E1.29987
G1 X70.17 Y92.979 E.01677
G1 X99.972 Y122.781 E1.32359
G1 X100.506 Y122.781 E.01677
G1 X70.17 Y92.445 E1.34732
G1 X70.17 Y91.91 E.01677
G1 X101.04 Y122.781 E1.37104
G1 X101.574 Y122.781 E.01677
G1 X70.17 Y91.376 E1.39476
G1 X70.17 Y90.842 E.01677
M73 Q3 S60
G1 X102.108 Y122.781 E1.41848
G1 X102.642 Y122.781 E.01677
M73 P3 R60
G1 X70.17 Y90.308 E1.44221
G1 X70.17 Y89.774 E.01677
G1 X103.176 Y122.781 E1.46593
G1 X103.711 Y122.781 E.01677
G1 X70.17 Y89.24 E1.48965
G1 X70.17 Y88.706 E.01677
G1 X104.245 Y122.781 E1.51337
G1 X104.779 Y122.781 E.01677
M73 C58
G1 X70.17 Y88.171 E1.5371
G1 X70.17 Y87.637 E.01677
G1 X105.313 Y122.781 E1.56082
G1 X105.847 Y122.781 E.01677
M73 P3 R59
G1 X70.17 Y87.103 E1.58454
G1 X70.17 Y86.569 E.01677
G1 X106.381 Y122.781 E1.60826
G1 X106.915 Y122.781 E.01677
G1 X70.17 Y86.035 E1.63199
G1 X70.17 Y85.501 E.01677
G1 X107.45 Y122.781 E1.65571
G1 X107.984 Y122.781 E.01677
M73 D58
G1 X70.17 Y84.967 E1.67943
G1 X70.17 Y84.433 E.01677
G1 X108.518 Y122.781 E1.70316
G1 X109.052 Y122.781 E.01677
M73 Q3 S59
G1 X70.17 Y83.898 E1.72688
G1 X70.17 Y83.364 E.01677
G1 X109.586 Y122.781 E1.7506
G1 X110.12 Y122.781 E.01677
M73 P4 R59
M73 Q4 S59
G1 X70.17 Y82.83 E1.77432
G1 X70.17 Y82.57 E.00816
G1 X70.444 Y82.57 E.00861
G1 X110.654 Y122.781 E1.78587
G1 X111.188 Y122.781 E.01677
G1 X70.978 Y82.57 E1.78587
G1 X71.512 Y82.57 E.01677
G1 X111.723 Y122.781 E1.78587
G1 X112.257 Y122.781 E.01677
G1 X72.046 Y82.57 E1.78587
G1 X72.58 Y82.57 E.01677
G1 X112.791 Y122.781 E1.78587
G1 X113.325 Y122.781 E.01677
G1 X73.115 Y82.57 E1.78587
G1 X73.649 Y82.57 E.01677
G1 X113.859 Y122.781 E1.78587
G1 X114.393 Y122.781 E.01677
G1 X74.183 Y82.57 E1.78587
G1 X74.717 Y82.57 E.01677
G1 X114.927 Y122.781 E1.78587
G1 X115.462 Y122.781 E.01677
G1 X75.251 Y82.57 E1.78587
G1 X75.785 Y82.57 E.01677
G1 X115.996 Y122.781 E1.78587
G1 X116.53 Y122.781 E.01677
M73 C57
G1 X76.319 Y82.57 E1.78587
G1 X76.853 Y82.57 E.01677
M73 P5 R59
M73 Q5 S59
G1 X117.064 Y122.781 E1.78587
G1 X117.598 Y122.781 E.01677
M73 P5 R58
G1 X77.388 Y82.57 E1.78587
G1 X77.922 Y82.57 E.01677
G1 X118.132 Y122.781 E1.78587
G1 X118.666 Y122.781 E.01677
G1 X78.456 Y82.57 E1.78587
G1 X78.99 Y82.57 E.01677
M73 D57
G1 X119.2 Y122.781 E1.78587
G1 X119.735 Y122.781 E.01677
G1 X79.524 Y82.57 E1.78587
G1 X80.058 Y82.57 E.01677
M73 Q5 S58
G1 X120.269 Y122.781 E1.78587
G1 X120.803 Y122.781 E.01677
G1 X80.592 Y82.57 E1.78587
G1 X81.126 Y82.57 E.01677
G1 X121.337 Y122.781 E1.78587
G1 X121.871 Y122.781 E.01677
G1 X81.661 Y82.57 E1.78587
G1 X82.195 Y82.57 E.01677
G1 X122.575 Y122.95 E1.79341
;WIPE_START
G1 F8640
G1 X120.248 Y120.623 E-.76
;WIPE_END
G1 E-.04 F2100
G1 Z.6 F10800
G1 X124.04 Y124.95
G1 Z.2
G1 E.8 F2100
G1 F1200
G1 X123.57 Y124.48 E.02089
G1 X123.57 Y123.945 E.01677
G1 X124.405 Y124.78 E.03707
G1 X124.939 Y124.78 E.01677
G1 X82.729 Y82.57 E1.87468
G1 X83.263 Y82.57 E.01677
G1 X125.473 Y124.78 E1.87468
G1 X126.007 Y124.78 E.01677
M73 P6 R58
M73 Q6 S58
G1 X83.797 Y82.57 E1.87468
G1 X84.331 Y82.57 E.01677
G1 X126.43 Y124.669 E1.86975
G1 X126.43 Y124.135 E.01677
G1 X84.865 Y82.57 E1.84603
G1 X85.399 Y82.57 E.01677
G1 X126.432 Y123.602 E1.82237
G1 X126.437 Y123.514 E.00278
G1 X126.512 Y123.264 E.00821
G1 X126.557 Y123.193 E.00262
G1 X85.934 Y82.57 E1.8042
G1 X86.468 Y82.57 E.01677
G1 X126.815 Y122.918 E1.79195
G1 X127.003 Y122.825 E.00657
M73 C56
G1 X127.214 Y122.782 E.00676
G1 X87.002 Y82.57 E1.78594
G1 X87.536 Y82.57 E.01677
G1 X127.748 Y122.782 E1.78594
G1 X128.282 Y122.782 E.01677
M73 P6 R57
G1 X88.07 Y82.57 E1.78594
G1 X88.604 Y82.57 E.01677
G1 X128.816 Y122.782 E1.78593
G1 X129.35 Y122.782 E.01677
G1 X89.138 Y82.57 E1.78593
G1 X89.673 Y82.57 E.01677
G1 X129.884 Y122.782 E1.78593
M73 D56
G1 X130.418 Y122.782 E.01677
M73 Q7 S58
G1 X90.207 Y82.57 E1.78593
M73 P7 R57
G1 X90.741 Y82.57 E.01677
G1 X130.953 Y122.782 E1.78593
G1 X131.487 Y122.782 E.01677
M73 Q7 S57
G1 X91.275 Y82.57 E1.78593
G1 X91.809 Y82.57 E.01677
G1 X132.021 Y122.782 E1.78593
G1 X132.555 Y122.782 E.01677
G1 X92.343 Y82.57 E1.78592
G1 X92.877 Y82.57 E.01677
G1 X133.089 Y122.782 E1.78592
G1 X133.623 Y122.782 E.01677
G1 X93.411 Y82.57 E1.78592
G1 X93.946 Y82.57 E.01677
G1 X134.157 Y122.782 E1.78592
G1 X134.691 Y122.782 E.01677
G1 X94.48 Y82.57 E1.78592
G1 X95.014 Y82.57 E.01677
G1 X135.225 Y122.782 E1.78592
G1 X135.759 Y122.781 E.01677
G1 X95.548 Y82.57 E1.78592
G1 X96.082 Y82.57 E.01677
G1 X136.293 Y122.781 E1.78591
G1 X136.828 Y122.781 E.01677
G1 X96.616 Y82.57 E1.78591
G1 X97.15 Y82.57 E.01677
M73 P8 R57
M73 Q8 S57
G1 X137.362 Y122.781 E1.78591
G1 X137.896 Y122.781 E.01677
G1 X97.684 Y82.57 E1.78591
G1 X98.219 Y82.57 E.01677
M73 C55
G1 X138.43 Y122.781 E1.78591
G1 X138.964 Y122.781 E.01677
G1 X98.753 Y82.57 E1.78591
G1 X99.287 Y82.57 E.01677
