; generated by PrusaSlicer 2.2.0+win64 on 2020-12-08 at 17:18:50 UTC

; 

; external perimeters extrusion width = 0.60mm
; perimeters extrusion width = 0.50mm
; infill extrusion width = 0.50mm
; solid infill extrusion width = 0.50mm
; top infill extrusion width = 0.45mm
; first layer extrusion width = 0.42mm

M73 P0 R70
M73 Q0 S70
M201 X1000 Y1000 Z1000 E5000 ; sets maximum accelerations, mm/sec^2
M203 X200 Y200 Z12 E120 ; sets maximum feedrates, mm/sec
M204 P1250 R1250 T1250 ; sets acceleration (P, T) and retract acceleration (R), mm/sec^2
M205 X8.00 Y8.00 Z0.40 E1.50 ; sets the jerk limits, mm/sec
M205 S0 T0 ; sets the minimum extruding and travel feed rate, mm/sec
M107
M862.3 P "MK3S" ; printer model check
M862.1 P0.4 ; nozzle diameter check
M115 U3.8.0 ; tell printer latest fw version
G90 ; use absolute coordinates
M83 ; extruder relative mode
M104 S215 ; set extruder temp
M140 S60 ; set bed temp
M190 S60 ; wait for bed temp
M109 S215 ; wait for extruder temp
G28 W ; home all without mesh bed level
G80 ; mesh bed leveling
G1 Y-3.0 F1000.0 ; go outside print area
G92 E0.0
G1 X60.0 E9.0 F1000.0 ; intro line
M73 Q0 S70
M73 P0 R69
G1 X100.0 E12.5 F1000.0 ; intro line
G92 E0.0
M221 S95
G21 ; set units to millimeters
G90 ; use absolute coordinates
M83 ; use relative distances for extrusion
M900 K0.06 ; Filament gcode LA 1.5
M900 K30 ; Filament gcode LA 1.0
;BEFORE_LAYER_CHANGE
G92 E0.0
;0.2


G1 E-0.80000 F2100.00000
G1 Z0.600 F10800.000
;AFTER_LAYER_CHANGE
;0.2
G1 X53.756 Y38.772
G1 Z0.200
G1 E0.80000 F2100.00000
M204 S1000
G1 F1200.000
G1 X54.139 Y38.078 E0.02484
G1 X54.511 Y37.703 E0.01657
G1 X54.958 Y37.420 E0.01657
G1 X55.455 Y37.243 E0.01657
G1 X55.980 Y37.180 E0.01657
G1 X162.004 Y37.180 E3.32431
G1 X162.606 Y37.258 E0.01906
G1 X163.169 Y37.487 E0.01906
G1 X163.656 Y37.851 E0.01906
G1 X164.034 Y38.327 E0.01906
G1 X196.056 Y93.118 E1.98982
G1 X196.357 Y94.000 E0.02919
G1 X196.377 Y115.692 E0.68016
G1 X196.326 Y116.180 E0.01538
G1 X180.280 Y171.117 E1.79449
G1 X179.860 Y171.923 E0.02849
G1 X179.487 Y172.298 E0.01657
G1 X179.037 Y172.582 E0.01668
G1 X178.536 Y172.759 E0.01668
G1 X178.007 Y172.820 E0.01668
G1 X55.989 Y172.820 E3.82581
G1 X55.212 Y172.686 E0.02473
G1 X54.521 Y172.305 E0.02473
G1 X54.144 Y171.929 E0.01669
G1 X53.860 Y171.479 E0.01668
G1 X53.684 Y170.977 E0.01668
G1 X53.623 Y170.448 E0.01668
G1 X53.623 Y39.549 E4.10425
G1 X53.746 Y38.831 E0.02285
G1 E-0.80000 F2100.00000
G1 Z0.800 F10800.000
G1 X154.960 Y44.507
G1 Z0.200
G1 E0.80000 F2100.00000
G1 F1200.000
G1 X154.991 Y44.152 E0.01115
G1 X155.083 Y43.809 E0.01115
G1 X155.233 Y43.487 E0.01115
G1 X155.437 Y43.195 E0.01115
G1 X155.689 Y42.944 E0.01115
G1 X155.980 Y42.740 E0.01115
G1 X156.302 Y42.590 E0.01115
G1 X156.646 Y42.498 E0.01115
G1 X156.963 Y42.470 E0.01000
G1 X157.349 Y42.496 E0.01211
G1 X157.698 Y42.590 E0.01133
G1 X158.020 Y42.740 E0.01115
G1 X158.311 Y42.944 E0.01115
G1 X158.563 Y43.195 E0.01115
G1 X158.767 Y43.487 E0.01115
G1 X158.902 Y43.776 E0.01000
G1 X159.009 Y44.147 E0.01211
G1 X159.040 Y44.507 E0.01133
G1 X159.009 Y44.861 E0.01115
G1 X158.917 Y45.204 E0.01115
G1 X158.767 Y45.527 E0.01115
G1 X158.563 Y45.818 E0.01115
G1 X158.311 Y46.069 E0.01115
G1 X158.020 Y46.273 E0.01115
G1 X157.698 Y46.424 E0.01115
G1 X157.354 Y46.516 E0.01115
G1 X157.000 Y46.547 E0.01115
G1 X156.646 Y46.516 E0.01115
G1 X156.302 Y46.424 E0.01115
G1 X155.980 Y46.273 E0.01115
G1 X155.689 Y46.069 E0.01115
G1 X155.437 Y45.818 E0.01115
G1 X155.233 Y45.527 E0.01115
G1 X155.083 Y45.204 E0.01115
G1 X154.991 Y44.861 E0.01115
G1 X154.965 Y44.566 E0.00927
G1 X155.341 Y44.534 F10800.000
G1 F1200.000
G1 X155.364 Y44.218 E0.00992
G1 X155.439 Y43.938 E0.00908
G1 X155.561 Y43.676 E0.00908
G1 X155.727 Y43.439 E0.00908
G1 X155.932 Y43.234 E0.00908
G1 X156.169 Y43.068 E0.00908
G1 X156.432 Y42.945 E0.00908
G1 X156.711 Y42.870 E0.00908
G1 X156.967 Y42.848 E0.00804
G1 X157.287 Y42.870 E0.01004
G1 X157.568 Y42.945 E0.00914
G1 X157.831 Y43.068 E0.00908
G1 X158.068 Y43.234 E0.00908
G1 X158.273 Y43.439 E0.00908
G1 X158.439 Y43.676 E0.00908
G1 X158.547 Y43.908 E0.00804
G1 X158.636 Y44.216 E0.01004
G1 X158.662 Y44.507 E0.00914
G1 X158.636 Y44.795 E0.00908
G1 X158.561 Y45.075 E0.00908
G1 X158.439 Y45.337 E0.00908
G1 X158.273 Y45.575 E0.00908
G1 X158.068 Y45.779 E0.00908
G1 X157.831 Y45.946 E0.00908
G1 X157.568 Y46.068 E0.00908
G1 X157.289 Y46.143 E0.00908
G1 X157.000 Y46.168 E0.00908
G1 X156.711 Y46.143 E0.00908
G1 X156.432 Y46.068 E0.00908
G1 X156.169 Y45.946 E0.00908
G1 X155.932 Y45.779 E0.00908
G1 X155.727 Y45.575 E0.00908
G1 X155.561 Y45.337 E0.00908
G1 X155.439 Y45.075 E0.00908
G1 X155.364 Y44.795 E0.00908
G1 X155.346 Y44.593 E0.00635
G1 X155.065 Y44.379 F10800.000
G1 E-0.80000 F2100.00000
G1 Z0.800 F10800.000
G1 X152.787 Y40.344
G1 Z0.200
G1 E0.80000 F2100.00000
G1 F1200.000
G1 X161.213 Y40.344 E0.26419
G1 X161.213 Y60.147 E0.62092
G1 X152.787 Y60.147 E0.26419
G1 X152.787 Y40.404 E0.61903
G1 X152.410 Y39.967 F10800.000
G1 F1200.000
G1 X161.590 Y39.967 E0.28783
G1 X161.590 Y60.524 E0.64456
G1 X152.410 Y60.524 E0.28783
G1 X152.410 Y40.027 E0.64268
G1 X152.781 Y40.116 F10800.000
G1 E-0.80000 F2100.00000
G1 Z0.800 F10800.000
G1 X161.100 Y41.223
G1 Z0.200
G1 E0.80000 F2100.00000
G1 F1200.000
G1 X160.504 Y40.627 E0.02655
G1 X159.968 Y40.627 E0.01687
G1 X160.930 Y41.589 E0.04285
G1 X160.930 Y42.124 E0.01687
G1 X159.432 Y40.627 E0.06670
G1 X158.897 Y40.627 E0.01687
G1 X160.930 Y42.660 E0.09055
G1 X160.930 Y43.195 E0.01687
G1 X158.361 Y40.627 E0.11441
G1 X157.826 Y40.627 E0.01687
G1 X160.930 Y43.731 E0.13826
G1 X160.930 Y44.267 E0.01687
G1 X157.290 Y40.627 E0.16212
G1 X156.754 Y40.627 E0.01687
G1 X160.930 Y44.802 E0.18597
G1 X160.930 Y45.338 E0.01687
G1 X156.219 Y40.627 E0.20983
G1 X155.683 Y40.627 E0.01687
G1 X157.263 Y42.207 E0.07038
G1 X156.961 Y42.186 E0.00956
G1 X156.728 Y42.206 E0.00737
G1 X155.148 Y40.627 E0.07037
G1 X154.612 Y40.627 E0.01687
G1 X156.286 Y42.301 E0.07458
G1 X155.910 Y42.460 E0.01287
G1 X154.076 Y40.627 E0.08167
G1 X153.541 Y40.627 E0.01687
G1 X155.585 Y42.671 E0.09106
G1 X155.506 Y42.726 E0.00304
G1 X155.306 Y42.927 E0.00893
G1 X153.070 Y40.691 E0.09957
G1 X153.070 Y41.227 E0.01687
G1 X155.070 Y43.227 E0.08907
G1 X154.987 Y43.345 E0.00453
G1 X154.881 Y43.573 E0.00795
G1 X153.070 Y41.763 E0.08065
G1 X153.070 Y42.298 E0.01687
G1 X154.746 Y43.974 E0.07464
G1 X154.711 Y44.103 E0.00420
G1 X154.681 Y44.445 E0.01082
G1 X153.070 Y42.834 E0.07177
G1 X153.070 Y43.369 E0.01687
G1 X154.748 Y45.048 E0.07475
G1 X154.816 Y45.301 E0.00827
G1 X154.987 Y45.669 E0.01276
G1 X155.220 Y46.000 E0.01276
G1 X155.506 Y46.287 E0.01276
G1 X155.838 Y46.519 E0.01276
G1 X156.205 Y46.690 E0.01276
G1 X156.459 Y46.758 E0.00827
G1 X160.930 Y51.230 E0.19913
G1 X160.930 Y50.694 E0.01687
G1 X157.061 Y46.825 E0.17230
G1 X157.404 Y46.795 E0.01082
G1 X157.532 Y46.761 E0.00420
G1 X160.930 Y50.158 E0.15132
G1 X160.930 Y49.623 E0.01687
G1 X157.933 Y46.626 E0.13347
G1 X158.162 Y46.519 E0.00795
G1 X158.280 Y46.437 E0.00453
G1 X160.930 Y49.087 E0.11804
G1 X160.930 Y48.552 E0.01687
G1 X158.580 Y46.201 E0.10468
G1 X158.780 Y46.000 E0.00893
G1 X158.836 Y45.921 E0.00304
G1 X160.930 Y48.016 E0.09328
G1 X160.930 Y47.480 E0.01687
G1 X159.046 Y45.596 E0.08390
G1 X159.206 Y45.220 E0.01287
G1 X160.930 Y46.945 E0.07680
G1 X160.930 Y46.409 E0.01687
G1 X159.300 Y44.779 E0.07259
G1 X159.324 Y44.507 E0.00861
G1 X159.301 Y44.244 E0.00829
G1 X161.100 Y46.043 E0.08011
G1 E-0.80000 F2100.00000
G1 Z0.800 F10800.000
G1 X161.100 Y51.935
G1 Z0.200
G1 E0.80000 F2100.00000
G1 F1200.000
G1 X153.070 Y43.905 E0.35763
G1 X153.070 Y44.441 E0.01687
G1 X160.930 Y52.301 E0.35007
G1 X160.930 Y52.836 E0.01687
G1 X153.070 Y44.976 E0.35007
G1 X153.070 Y45.512 E0.01687
G1 X160.930 Y53.372 E0.35007
G1 X160.930 Y53.908 E0.01687
G1 X153.070 Y46.047 E0.35007
G1 X153.070 Y46.583 E0.01687
G1 X160.930 Y54.443 E0.35007
G1 X160.930 Y54.979 E0.01687
G1 X153.070 Y47.119 E0.35007
G1 X153.070 Y47.654 E0.01687
G1 X160.930 Y55.515 E0.35007
G1 X160.930 Y56.050 E0.01687
G1 X153.070 Y48.190 E0.35007
G1 X153.070 Y48.726 E0.01687
G1 X160.930 Y56.586 E0.35007
G1 X160.930 Y57.121 E0.01687
G1 X153.070 Y49.261 E0.35007
G1 X153.070 Y49.797 E0.01687
G1 X160.930 Y57.657 E0.35007
G1 X160.930 Y58.193 E0.01687
G1 X153.070 Y50.332 E0.35007
G1 X153.070 Y50.868 E0.01687
G1 X160.930 Y58.728 E0.35007
G1 X160.930 Y59.264 E0.01687
G1 X153.070 Y51.404 E0.35007
G1 X153.070 Y51.939 E0.01687
G1 X160.930 Y59.799 E0.35007
G1 X160.930 Y59.864 E0.00204
G1 X160.459 Y59.864 E0.01483
G1 X153.070 Y52.475 E0.32909
G1 X153.070 Y53.010 E0.01687
G1 X159.924 Y59.864 E0.30524
G1 X159.388 Y59.864 E0.01687
G1 X153.070 Y53.546 E0.28138
G1 X153.070 Y54.082 E0.01687
G1 X158.852 Y59.864 E0.25753
G1 X158.317 Y59.864 E0.01687
G1 X153.070 Y54.617 E0.23368
G1 X153.070 Y55.153 E0.01687
G1 X157.781 Y59.864 E0.20982
G1 X157.245 Y59.864 E0.01687
G1 X153.070 Y55.689 E0.18597
G1 X153.070 Y56.224 E0.01687
G1 X156.710 Y59.864 E0.16211
G1 X156.174 Y59.864 E0.01687
G1 X153.070 Y56.760 E0.13826
G1 X153.070 Y57.295 E0.01687
G1 X155.639 Y59.864 E0.11440
G1 X155.103 Y59.864 E0.01687
G1 X153.070 Y57.831 E0.09055
G1 X153.070 Y58.367 E0.01687
G1 X154.567 Y59.864 E0.06669
G1 X154.032 Y59.864 E0.01687
G1 X153.070 Y58.902 E0.04284
G1 X153.070 Y59.438 E0.01687
G1 X153.666 Y60.034 E0.02654
G1 E-0.80000 F2100.00000
G1 Z0.800 F10800.000
G1 X142.311 Y46.069
G1 Z0.200
G1 E0.80000 F2100.00000
G1 F1200.000
G1 X142.020 Y46.273 E0.01115
G1 X141.698 Y46.424 E0.01115
G1 X141.354 Y46.516 E0.01115
G1 X141.000 Y46.547 E0.01115
G1 X140.646 Y46.516 E0.01115
G1 X140.302 Y46.424 E0.01115
G1 X139.980 Y46.273 E0.01115
G1 X139.689 Y46.069 E0.01115
G1 X139.437 Y45.818 E0.01115
G1 X139.233 Y45.527 E0.01115
G1 X139.083 Y45.204 E0.01115
G1 X138.991 Y44.861 E0.01115
G1 X138.960 Y44.507 E0.01115
G1 X138.991 Y44.152 E0.01115
G1 X139.083 Y43.809 E0.01115
G1 X139.233 Y43.487 E0.01115
G1 X139.437 Y43.195 E0.01115
G1 X139.689 Y42.944 E0.01115
G1 X139.980 Y42.740 E0.01115
G1 X140.302 Y42.590 E0.01115
G1 X140.646 Y42.498 E0.01115
G1 X140.963 Y42.470 E0.01000
G1 X141.349 Y42.496 E0.01211
G1 X141.698 Y42.590 E0.01133
G1 X142.020 Y42.740 E0.01115
G1 X142.311 Y42.944 E0.01115
G1 X142.563 Y43.195 E0.01115
G1 X142.767 Y43.487 E0.01115
G1 X142.902 Y43.776 E0.01000
G1 X143.009 Y44.147 E0.01211
G1 X143.040 Y44.507 E0.01133
G1 X143.009 Y44.861 E0.01115
G1 X142.917 Y45.204 E0.01115
G1 X142.767 Y45.527 E0.01115
G1 X142.563 Y45.818 E0.01115
G1 X142.354 Y46.027 E0.00927
G1 X142.087 Y45.760 F10800.000
G1 F1200.000
G1 X141.831 Y45.946 E0.00992
G1 X141.568 Y46.068 E0.00908
G1 X141.289 Y46.143 E0.00908
G1 X141.000 Y46.168 E0.00908
G1 X140.711 Y46.143 E0.00908
G1 X140.432 Y46.068 E0.00908
G1 X140.169 Y45.946 E0.00908
G1 X139.932 Y45.779 E0.00908
G1 X139.727 Y45.575 E0.00908
M73 Q1 S69
G1 X139.561 Y45.337 E0.00908
G1 X139.439 Y45.075 E0.00908
G1 X139.364 Y44.795 E0.00908
G1 X139.338 Y44.507 E0.00908
G1 X139.364 Y44.218 E0.00908
G1 X139.439 Y43.938 E0.00908
G1 X139.561 Y43.676 E0.00908
G1 X139.727 Y43.439 E0.00908
G1 X139.932 Y43.234 E0.00908
G1 X140.169 Y43.068 E0.00908
G1 X140.432 Y42.945 E0.00908
G1 X140.711 Y42.870 E0.00908
G1 X140.967 Y42.848 E0.00804
G1 X141.287 Y42.870 E0.01004
G1 X141.568 Y42.945 E0.00914
G1 X141.831 Y43.068 E0.00908
G1 X142.068 Y43.234 E0.00908
G1 X142.273 Y43.439 E0.00908
G1 X142.439 Y43.676 E0.00908
G1 X142.547 Y43.908 E0.00804
G1 X142.636 Y44.216 E0.01004
G1 X142.662 Y44.507 E0.00914
G1 X142.636 Y44.795 E0.00908
G1 X142.561 Y45.075 E0.00908
G1 X142.439 Y45.337 E0.00908
G1 X142.273 Y45.575 E0.00908
G1 X142.130 Y45.718 E0.00635
G1 X142.146 Y46.071 F10800.000
G1 E-0.80000 F2100.00000
M73 P1 R68
G1 Z0.800 F10800.000
G1 X145.213 Y40.344
G1 Z0.200
G1 E0.80000 F2100.00000
G1 F1200.000
G1 X145.213 Y60.147 E0.62092
G1 X136.787 Y60.147 E0.26419
G1 X136.787 Y40.344 E0.62092
G1 X145.153 Y40.344 E0.26231
G1 X145.590 Y39.967 F10800.000
G1 F1200.000
G1 X145.590 Y60.524 E0.64456
G1 X136.410 Y60.524 E0.28783
G1 X136.410 Y39.967 E0.64456
G1 X145.530 Y39.967 E0.28595
G1 X145.534 Y40.363 F10800.000
G1 E-0.80000 F2100.00000
G1 Z0.800 F10800.000
G1 X145.100 Y41.223
G1 Z0.200
G1 E0.80000 F2100.00000
G1 F1200.000
G1 X144.504 Y40.627 E0.02655
G1 X143.968 Y40.627 E0.01687
G1 X144.930 Y41.589 E0.04285
G1 X144.930 Y42.124 E0.01687
G1 X143.432 Y40.627 E0.06670
G1 X142.897 Y40.627 E0.01687
G1 X144.930 Y42.660 E0.09055
G1 X144.930 Y43.195 E0.01687
G1 X142.361 Y40.627 E0.11441
G1 X141.826 Y40.627 E0.01687
G1 X144.930 Y43.731 E0.13826
G1 X144.930 Y44.267 E0.01687
G1 X141.290 Y40.627 E0.16212
G1 X140.754 Y40.627 E0.01687
G1 X144.930 Y44.802 E0.18597
G1 X144.930 Y45.338 E0.01687
G1 X140.219 Y40.627 E0.20983
G1 X139.683 Y40.627 E0.01687
G1 X141.263 Y42.207 E0.07038
G1 X140.961 Y42.186 E0.00956
G1 X140.728 Y42.206 E0.00737
G1 X139.148 Y40.627 E0.07037
G1 X138.612 Y40.627 E0.01687
G1 X140.286 Y42.301 E0.07458
G1 X139.910 Y42.460 E0.01287
G1 X138.076 Y40.627 E0.08167
G1 X137.541 Y40.627 E0.01687
G1 X139.585 Y42.671 E0.09106
G1 X139.506 Y42.726 E0.00304
G1 X139.306 Y42.927 E0.00893
G1 X137.070 Y40.691 E0.09957
G1 X137.070 Y41.227 E0.01687
G1 X139.070 Y43.227 E0.08907
G1 X138.987 Y43.345 E0.00453
G1 X138.881 Y43.573 E0.00795
G1 X137.070 Y41.763 E0.08065
G1 X137.070 Y42.298 E0.01687
G1 X138.746 Y43.974 E0.07464
G1 X138.711 Y44.103 E0.00420
G1 X138.681 Y44.445 E0.01082
G1 X137.070 Y42.834 E0.07177
G1 X137.070 Y43.369 E0.01687
G1 X138.748 Y45.048 E0.07475
G1 X138.816 Y45.301 E0.00827
G1 X138.987 Y45.669 E0.01276
G1 X139.220 Y46.000 E0.01276
G1 X139.506 Y46.287 E0.01276
G1 X139.838 Y46.519 E0.01276
G1 X140.205 Y46.690 E0.01276
G1 X140.459 Y46.758 E0.00827
G1 X144.930 Y51.230 E0.19913
G1 X144.930 Y50.694 E0.01687
G1 X141.061 Y46.825 E0.17230
G1 X141.404 Y46.795 E0.01082
G1 X141.532 Y46.761 E0.00420
G1 X144.930 Y50.158 E0.15132
G1 X144.930 Y49.623 E0.01687
G1 X141.933 Y46.626 E0.13347
G1 X142.162 Y46.519 E0.00795
G1 X142.280 Y46.437 E0.00453
G1 X144.930 Y49.087 E0.11804
G1 X144.930 Y48.552 E0.01687
G1 X142.580 Y46.201 E0.10468
G1 X142.780 Y46.000 E0.00893
G1 X142.836 Y45.921 E0.00304
G1 X144.930 Y48.016 E0.09328
G1 X144.930 Y47.480 E0.01687
G1 X143.046 Y45.596 E0.08390
G1 X143.206 Y45.220 E0.01287
G1 X144.930 Y46.945 E0.07680
G1 X144.930 Y46.409 E0.01687
G1 X143.300 Y44.779 E0.07259
G1 X143.324 Y44.507 E0.00861
G1 X143.301 Y44.244 E0.00829
G1 X145.100 Y46.043 E0.08011
G1 E-0.80000 F2100.00000
G1 Z0.800 F10800.000
G1 X145.100 Y51.935
G1 Z0.200
G1 E0.80000 F2100.00000
G1 F1200.000
G1 X137.070 Y43.905 E0.35763
G1 X137.070 Y44.441 E0.01687
G1 X144.930 Y52.301 E0.35007
G1 X144.930 Y52.836 E0.01687
G1 X137.070 Y44.976 E0.35007
G1 X137.070 Y45.512 E0.01687
G1 X144.930 Y53.372 E0.35007
G1 X144.930 Y53.908 E0.01687
G1 X137.070 Y46.047 E0.35007
G1 X137.070 Y46.583 E0.01687
G1 X144.930 Y54.443 E0.35007
G1 X144.930 Y54.979 E0.01687
G1 X137.070 Y47.119 E0.35007
G1 X137.070 Y47.654 E0.01687
G1 X144.930 Y55.515 E0.35007
G1 X144.930 Y56.050 E0.01687
G1 X137.070 Y48.190 E0.35007
G1 X137.070 Y48.726 E0.01687
G1 X144.930 Y56.586 E0.35007
G1 X144.930 Y57.121 E0.01687
G1 X137.070 Y49.261 E0.35007
G1 X137.070 Y49.797 E0.01687
G1 X144.930 Y57.657 E0.35007
G1 X144.930 Y58.193 E0.01687
G1 X137.070 Y50.332 E0.35007
G1 X137.070 Y50.868 E0.01687
G1 X144.930 Y58.728 E0.35007
G1 X144.930 Y59.264 E0.01687
G1 X137.070 Y51.404 E0.35007
G1 X137.070 Y51.939 E0.01687
G1 X144.930 Y59.799 E0.35007
G1 X144.930 Y59.864 E0.00204
G1 X144.459 Y59.864 E0.01483
G1 X137.070 Y52.475 E0.32909
G1 X137.070 Y53.010 E0.01687
G1 X143.924 Y59.864 E0.30524
G1 X143.388 Y59.864 E0.01687
G1 X137.070 Y53.546 E0.28138
G1 X137.070 Y54.082 E0.01687
G1 X142.852 Y59.864 E0.25753
G1 X142.317 Y59.864 E0.01687
G1 X137.070 Y54.617 E0.23368
G1 X137.070 Y55.153 E0.01687
G1 X141.781 Y59.864 E0.20982
G1 X141.245 Y59.864 E0.01687
G1 X137.070 Y55.689 E0.18597
G1 X137.070 Y56.224 E0.01687
G1 X140.710 Y59.864 E0.16211
G1 X140.174 Y59.864 E0.01687
G1 X137.070 Y56.760 E0.13826
G1 X137.070 Y57.295 E0.01687
G1 X139.639 Y59.864 E0.11440
G1 X139.103 Y59.864 E0.01687
G1 X137.070 Y57.831 E0.09055
G1 X137.070 Y58.367 E0.01687
G1 X138.567 Y59.864 E0.06669
