; generated by PrusaSlicer 2.2.0+win64 on 2020-10-15 at 19:11:28 UTC

; 

; external perimeters extrusion width = 0.45mm
; perimeters extrusion width = 0.45mm
; infill extrusion width = 0.45mm
; solid infill extrusion width = 0.45mm
; top infill extrusion width = 0.40mm
; first layer extrusion width = 0.42mm

M73 P0 R134
M73 Q0 S134
M201 X1000 Y1000 Z1000 E5000 ; sets maximum accelerations, mm/sec^2
M203 X200 Y200 Z12 E120 ; sets maximum feedrates, mm/sec
M204 P1250 R1250 T1250 ; sets acceleration (P, T) and retract acceleration (R), mm/sec^2
M205 X8.00 Y8.00 Z0.40 E1.50 ; sets the jerk limits, mm/sec
M205 S0 T0 ; sets the minimum extruding and travel feed rate, mm/sec
M107
M862.3 P "MK3S" ; printer model check
M862.1 P0.4 ; nozzle diameter check
M115 U3.8.0 ; tell printer latest fw version
G90 ; use absolute coordinates
M83 ; extruder relative mode
M104 S215 ; set extruder temp
M140 S60 ; set bed temp
M190 S60 ; wait for bed temp
M109 S215 ; wait for extruder temp
G28 W ; home all without mesh bed level
G80 ; mesh bed leveling
G1 Y-3.0 F1000.0 ; go outside print area
G92 E0.0
G1 X60.0 E9.0 F1000.0 ; intro line
M73 Q0 S134
M73 P0 R134
G1 X100.0 E12.5 F1000.0 ; intro line
G92 E0.0
M221 S95
G21 ; set units to millimeters
G90 ; use absolute coordinates
M83 ; use relative distances for extrusion
M900 K0.05 ; Filament gcode LA 1.5
M900 K30 ; Filament gcode LA 1.0
;BEFORE_LAYER_CHANGE
G92 E0.0
;0.2


G1 E-0.80000 F2100.00000
G1 Z0.600 F10800.000
;AFTER_LAYER_CHANGE
;0.2
G1 X55.215 Y55.382
G1 Z0.200
G1 E0.80000 F2100.00000
M204 S1000
G1 F1200.000
G1 X55.549 Y55.408 E0.01047
G1 X55.861 Y55.491 E0.01015
G1 X56.152 Y55.627 E0.01005
G1 X56.414 Y55.811 E0.01005
G1 X56.641 Y56.038 E0.01005
G1 X56.825 Y56.300 E0.01005
G1 X56.953 Y56.576 E0.00953
G1 X57.043 Y56.897 E0.01047
G1 X57.071 Y57.220 E0.01015
G1 X57.043 Y57.539 E0.01005
G1 X56.960 Y57.849 E0.01005
G1 X56.825 Y58.140 E0.01005
G1 X56.641 Y58.402 E0.01005
G1 X56.414 Y58.629 E0.01005
G1 X56.152 Y58.813 E0.01005
G1 X55.861 Y58.948 E0.01005
G1 X55.551 Y59.031 E0.01005
G1 X55.232 Y59.059 E0.01005
G1 X54.913 Y59.031 E0.01005
G1 X54.603 Y58.948 E0.01005
G1 X54.312 Y58.813 E0.01005
G1 X54.050 Y58.629 E0.01005
G1 X53.823 Y58.402 E0.01005
G1 X53.639 Y58.140 E0.01005
G1 X53.504 Y57.849 E0.01005
G1 X53.421 Y57.539 E0.01005
G1 X53.393 Y57.220 E0.01005
G1 X53.421 Y56.900 E0.01005
G1 X53.504 Y56.591 E0.01005
G1 X53.639 Y56.300 E0.01005
G1 X53.823 Y56.038 E0.01005
G1 X54.050 Y55.811 E0.01005
G1 X54.312 Y55.627 E0.01005
G1 X54.603 Y55.491 E0.01005
G1 X54.913 Y55.408 E0.01005
G1 X55.156 Y55.387 E0.00765
G1 E-0.80000 F2100.00000
G1 Z0.800 F10800.000
G1 X55.232 Y58.681
G1 Z0.200
G1 E0.80000 F2100.00000
G1 F1200.000
G1 X54.978 Y58.658 E0.00798
G1 X54.732 Y58.593 E0.00798
G1 X54.502 Y58.485 E0.00798
G1 X54.293 Y58.339 E0.00798
G1 X54.113 Y58.159 E0.00798
G1 X53.967 Y57.950 E0.00798
G1 X53.859 Y57.719 E0.00798
G1 X53.793 Y57.474 E0.00798
G1 X53.771 Y57.220 E0.00798
G1 X53.793 Y56.966 E0.00798
G1 X53.859 Y56.720 E0.00798
G1 X53.967 Y56.489 E0.00798
G1 X54.113 Y56.281 E0.00798
G1 X54.293 Y56.101 E0.00798
G1 X54.502 Y55.955 E0.00798
G1 X54.732 Y55.847 E0.00798
G1 X54.978 Y55.781 E0.00798
G1 X55.217 Y55.760 E0.00752
G1 X55.485 Y55.781 E0.00840
G1 X55.732 Y55.847 E0.00802
G1 X55.962 Y55.955 E0.00798
G1 X56.171 Y56.101 E0.00798
G1 X56.351 Y56.281 E0.00798
G1 X56.497 Y56.489 E0.00798
G1 X56.599 Y56.707 E0.00752
G1 X56.671 Y56.965 E0.00840
G1 X56.693 Y57.220 E0.00802
G1 X56.671 Y57.474 E0.00798
G1 X56.605 Y57.719 E0.00798
G1 X56.497 Y57.950 E0.00798
G1 X56.351 Y58.159 E0.00798
G1 X56.171 Y58.339 E0.00798
G1 X55.962 Y58.485 E0.00798
G1 X55.732 Y58.593 E0.00798
G1 X55.486 Y58.658 E0.00798
G1 X55.292 Y58.675 E0.00610
G1 X55.105 Y58.901 F10800.000
G1 E-0.80000 F2100.00000
G1 Z0.800 F10800.000
G1 X55.232 Y73.060
G1 Z0.200
G1 E0.80000 F2100.00000
G1 F1200.000
G1 X50.819 Y73.060 E0.13836
G1 X50.819 Y52.857 E0.63346
G1 X59.645 Y52.857 E0.27673
G1 X59.645 Y73.060 E0.63346
G1 X55.292 Y73.060 E0.13648
G1 X55.232 Y73.437 F10800.000
G1 F1200.000
G1 X50.442 Y73.437 E0.15019
G1 X50.442 Y52.480 E0.65710
G1 X60.022 Y52.480 E0.30037
G1 X60.022 Y73.437 E0.65710
G1 X55.292 Y73.437 E0.14831
G1 X54.902 Y73.212 F10800.000
G1 E-0.80000 F2100.00000
G1 Z0.800 F10800.000
G1 X51.705 Y72.947
G1 Z0.200
G1 E0.80000 F2100.00000
G1 F1200.000
G1 X51.102 Y72.344 E0.02713
G1 X51.102 Y71.803 E0.01718
G1 X52.076 Y72.777 E0.04380
G1 X52.617 Y72.777 E0.01718
G1 X51.102 Y71.262 E0.06810
G1 X51.102 Y70.722 E0.01718
G1 X53.158 Y72.777 E0.09240
G1 X53.698 Y72.777 E0.01718
G1 X51.102 Y70.181 E0.11670
G1 X51.102 Y69.641 E0.01718
G1 X54.239 Y72.777 E0.14100
G1 X54.779 Y72.777 E0.01718
G1 X51.102 Y69.100 E0.16530
G1 X51.102 Y68.559 E0.01718
G1 X55.320 Y72.777 E0.18961
G1 X55.861 Y72.777 E0.01718
G1 X51.102 Y68.019 E0.21391
G1 X51.102 Y67.478 E0.01718
G1 X56.401 Y72.777 E0.23821
G1 X56.942 Y72.777 E0.01718
G1 X51.102 Y66.938 E0.26251
G1 X51.102 Y66.397 E0.01718
G1 X57.482 Y72.777 E0.28681
G1 X58.023 Y72.777 E0.01718
G1 X51.102 Y65.856 E0.31111
G1 X51.102 Y65.316 E0.01718
G1 X58.564 Y72.777 E0.33541
G1 X59.104 Y72.777 E0.01718
G1 X51.102 Y64.775 E0.35971
G1 X51.102 Y64.234 E0.01718
G1 X59.362 Y72.495 E0.37131
G1 X59.362 Y71.954 E0.01718
G1 X51.102 Y63.694 E0.37131
G1 X51.102 Y63.153 E0.01718
G1 X59.362 Y71.414 E0.37131
G1 X59.362 Y70.873 E0.01718
G1 X51.102 Y62.613 E0.37131
G1 X51.102 Y62.072 E0.01718
G1 X59.362 Y70.332 E0.37131
G1 X59.362 Y69.792 E0.01718
G1 X51.102 Y61.531 E0.37131
G1 X51.102 Y60.991 E0.01718
G1 X59.362 Y69.251 E0.37131
G1 X59.362 Y68.711 E0.01718
G1 X51.102 Y60.450 E0.37131
G1 X51.102 Y59.910 E0.01718
G1 X59.362 Y68.170 E0.37131
G1 X59.362 Y67.629 E0.01718
G1 X51.102 Y59.369 E0.37131
G1 X51.102 Y58.828 E0.01718
G1 X59.362 Y67.089 E0.37131
G1 X59.362 Y66.548 E0.01718
G1 X51.102 Y58.288 E0.37131
G1 X51.102 Y57.747 E0.01718
G1 X59.362 Y66.007 E0.37131
G1 X59.362 Y65.467 E0.01718
G1 X51.102 Y57.207 E0.37131
G1 X51.102 Y56.666 E0.01718
G1 X59.532 Y65.096 E0.37894
G1 E-0.80000 F2100.00000
G1 Z0.800 F10800.000
G1 X59.532 Y53.743
G1 Z0.200
G1 E0.80000 F2100.00000
G1 F1200.000
G1 X58.928 Y53.140 E0.02713
G1 X58.388 Y53.140 E0.01718
G1 X59.362 Y54.114 E0.04381
G1 X59.362 Y54.655 E0.01718
G1 X57.847 Y53.140 E0.06811
G1 X57.306 Y53.140 E0.01718
G1 X59.362 Y55.195 E0.09241
G1 X59.362 Y55.736 E0.01718
G1 X56.766 Y53.140 E0.11671
G1 X56.225 Y53.140 E0.01718
G1 X59.362 Y56.277 E0.14101
G1 X59.362 Y56.817 E0.01718
G1 X55.685 Y53.140 E0.16531
G1 X55.144 Y53.140 E0.01718
G1 X59.362 Y57.358 E0.18961
G1 X59.362 Y57.898 E0.01718
G1 X54.603 Y53.140 E0.21391
G1 X54.063 Y53.140 E0.01718
G1 X59.362 Y58.439 E0.23821
G1 X59.362 Y58.980 E0.01718
G1 X57.332 Y56.949 E0.09128
G1 X57.355 Y57.220 E0.00864
G1 X57.332 Y57.490 E0.00861
G1 X59.362 Y59.520 E0.09128
G1 X59.362 Y60.061 E0.01718
G1 X57.231 Y57.930 E0.09578
G1 X57.059 Y58.298 E0.01292
G1 X59.362 Y60.601 E0.10353
G1 X59.362 Y61.142 E0.01718
G1 X56.832 Y58.612 E0.11375
G1 X56.555 Y58.876 E0.01215
G1 X59.362 Y61.683 E0.12618
G1 X59.362 Y62.223 E0.01718
G1 X56.228 Y59.089 E0.14088
G1 X55.958 Y59.215 E0.00946
G1 X55.844 Y59.246 E0.00376
G1 X59.362 Y62.764 E0.15815
G1 X59.362 Y63.304 E0.01718
G1 X55.387 Y59.329 E0.17868
G1 X55.232 Y59.343 E0.00495
G1 X54.815 Y59.298 E0.01334
G1 X59.362 Y63.845 E0.20441
G1 X59.362 Y64.386 E0.01718
G1 X51.102 Y56.125 E0.37131
G1 X51.102 Y55.585 E0.01718
G1 X53.154 Y57.637 E0.09225
G1 X53.109 Y57.220 E0.01334
G1 X53.122 Y57.065 E0.00495
G1 X51.102 Y55.044 E0.09082
G1 X51.102 Y54.504 E0.01718
G1 X53.206 Y56.608 E0.09459
G1 X53.237 Y56.494 E0.00376
G1 X53.363 Y56.224 E0.00946
G1 X51.102 Y53.963 E0.10163
G1 X51.102 Y53.422 E0.01718
G1 X53.576 Y55.897 E0.11123
G1 X53.840 Y55.620 E0.01215
G1 X51.360 Y53.140 E0.11150
G1 X51.900 Y53.140 E0.01718
G1 X54.154 Y55.393 E0.10128
G1 X54.522 Y55.220 E0.01292
G1 X52.441 Y53.140 E0.09353
G1 X52.982 Y53.140 E0.01718
G1 X54.962 Y55.120 E0.08903
G1 X55.214 Y55.098 E0.00804
G1 X55.503 Y55.121 E0.00921
G1 X53.353 Y52.970 E0.09667
G1 E-0.80000 F2100.00000
G1 Z0.800 F10800.000
G1 X39.232 Y59.059
G1 Z0.200
G1 E0.80000 F2100.00000
G1 F1200.000
G1 X38.913 Y59.031 E0.01005
G1 X38.603 Y58.948 E0.01005
G1 X38.312 Y58.813 E0.01005
G1 X38.050 Y58.629 E0.01005
G1 X37.823 Y58.402 E0.01005
G1 X37.639 Y58.140 E0.01005
G1 X37.504 Y57.849 E0.01005
G1 X37.421 Y57.539 E0.01005
G1 X37.393 Y57.220 E0.01005
G1 X37.421 Y56.900 E0.01005
G1 X37.504 Y56.591 E0.01005
G1 X37.639 Y56.300 E0.01005
G1 X37.823 Y56.038 E0.01005
G1 X38.050 Y55.811 E0.01005
G1 X38.312 Y55.627 E0.01005
G1 X38.603 Y55.491 E0.01005
G1 X38.913 Y55.408 E0.01005
G1 X39.215 Y55.382 E0.00953
G1 X39.549 Y55.408 E0.01047
G1 X39.861 Y55.491 E0.01015
G1 X40.152 Y55.627 E0.01005
G1 X40.414 Y55.811 E0.01005
G1 X40.641 Y56.038 E0.01005
G1 X40.825 Y56.300 E0.01005
G1 X40.953 Y56.576 E0.00953
G1 X41.043 Y56.897 E0.01047
G1 X41.071 Y57.220 E0.01015
G1 X41.043 Y57.539 E0.01005
G1 X40.960 Y57.849 E0.01005
G1 X40.825 Y58.140 E0.01005
G1 X40.641 Y58.402 E0.01005
G1 X40.414 Y58.629 E0.01005
G1 X40.152 Y58.813 E0.01005
G1 X39.861 Y58.948 E0.01005
G1 X39.551 Y59.031 E0.01005
G1 X39.292 Y59.054 E0.00817
G1 X39.232 Y58.681 F10800.000
G1 F1200.000
G1 X38.978 Y58.658 E0.00798
G1 X38.732 Y58.593 E0.00798
G1 X38.502 Y58.485 E0.00798
G1 X38.293 Y58.339 E0.00798
G1 X38.113 Y58.159 E0.00798
G1 X37.967 Y57.950 E0.00798
G1 X37.859 Y57.719 E0.00798
G1 X37.793 Y57.474 E0.00798
G1 X37.771 Y57.220 E0.00798
G1 X37.793 Y56.966 E0.00798
G1 X37.859 Y56.720 E0.00798
G1 X37.967 Y56.489 E0.00798
G1 X38.113 Y56.281 E0.00798
G1 X38.293 Y56.101 E0.00798
G1 X38.502 Y55.955 E0.00798
G1 X38.732 Y55.847 E0.00798
G1 X38.978 Y55.781 E0.00798
G1 X39.217 Y55.760 E0.00752
G1 X39.485 Y55.781 E0.00840
G1 X39.732 Y55.847 E0.00802
G1 X39.962 Y55.955 E0.00798
G1 X40.171 Y56.101 E0.00798
G1 X40.351 Y56.281 E0.00798
G1 X40.497 Y56.489 E0.00798
G1 X40.599 Y56.707 E0.00752
G1 X40.671 Y56.965 E0.00840
G1 X40.693 Y57.220 E0.00802
G1 X40.671 Y57.474 E0.00798
G1 X40.605 Y57.719 E0.00798
G1 X40.497 Y57.950 E0.00798
G1 X40.351 Y58.159 E0.00798
G1 X40.171 Y58.339 E0.00798
G1 X39.962 Y58.485 E0.00798
G1 X39.732 Y58.593 E0.00798
G1 X39.486 Y58.658 E0.00798
G1 X39.292 Y58.675 E0.00610
G1 X39.105 Y58.901 F10800.000
G1 E-0.80000 F2100.00000
G1 Z0.800 F10800.000
G1 X39.232 Y73.060
G1 Z0.200
G1 E0.80000 F2100.00000
G1 F1200.000
G1 X34.819 Y73.060 E0.13836
G1 X34.819 Y52.857 E0.63346
G1 X43.645 Y52.857 E0.27673
G1 X43.645 Y73.060 E0.63346
G1 X39.292 Y73.060 E0.13648
G1 X39.232 Y73.437 F10800.000
G1 F1200.000
G1 X34.442 Y73.437 E0.15019
G1 X34.442 Y52.480 E0.65710
G1 X44.022 Y52.480 E0.30037
G1 X44.022 Y73.437 E0.65710
G1 X39.292 Y73.437 E0.14831
G1 X38.902 Y73.212 F10800.000
G1 E-0.80000 F2100.00000
G1 Z0.800 F10800.000
G1 X35.705 Y72.947
G1 Z0.200
G1 E0.80000 F2100.00000
G1 F1200.000
G1 X35.102 Y72.344 E0.02713
G1 X35.102 Y71.803 E0.01718
G1 X36.076 Y72.777 E0.04380
G1 X36.617 Y72.777 E0.01718
G1 X35.102 Y71.262 E0.06810
G1 X35.102 Y70.722 E0.01718
G1 X37.158 Y72.777 E0.09240
G1 X37.698 Y72.777 E0.01718
G1 X35.102 Y70.181 E0.11670
G1 X35.102 Y69.641 E0.01718
G1 X38.239 Y72.777 E0.14100
G1 X38.779 Y72.777 E0.01718
G1 X35.102 Y69.100 E0.16530
G1 X35.102 Y68.559 E0.01718
G1 X39.320 Y72.777 E0.18961
G1 X39.861 Y72.777 E0.01718
G1 X35.102 Y68.019 E0.21391
G1 X35.102 Y67.478 E0.01718
G1 X40.401 Y72.777 E0.23821
G1 X40.942 Y72.777 E0.01718
G1 X35.102 Y66.938 E0.26251
G1 X35.102 Y66.397 E0.01718
G1 X41.482 Y72.777 E0.28681
G1 X42.023 Y72.777 E0.01718
G1 X35.102 Y65.856 E0.31111
G1 X35.102 Y65.316 E0.01718
G1 X42.564 Y72.777 E0.33541
G1 X43.104 Y72.777 E0.01718
G1 X35.102 Y64.775 E0.35971
G1 X35.102 Y64.234 E0.01718
G1 X43.362 Y72.495 E0.37131
G1 X43.362 Y71.954 E0.01718
G1 X35.102 Y63.694 E0.37131
G1 X35.102 Y63.153 E0.01718
G1 X43.362 Y71.414 E0.37131
G1 X43.362 Y70.873 E0.01718
G1 X35.102 Y62.613 E0.37131
G1 X35.102 Y62.072 E0.01718
G1 X43.362 Y70.332 E0.37131
G1 X43.362 Y69.792 E0.01718
G1 X35.102 Y61.531 E0.37131
G1 X35.102 Y60.991 E0.01718
G1 X43.362 Y69.251 E0.37131
G1 X43.362 Y68.711 E0.01718
G1 X35.102 Y60.450 E0.37131
G1 X35.102 Y59.910 E0.01718
G1 X43.362 Y68.170 E0.37131
G1 X43.362 Y67.629 E0.01718
G1 X35.102 Y59.369 E0.37131
G1 X35.102 Y58.828 E0.01718
G1 X43.362 Y67.089 E0.37131
G1 X43.362 Y66.548 E0.01718
G1 X35.102 Y58.288 E0.37131
G1 X35.102 Y57.747 E0.01718
G1 X43.362 Y66.007 E0.37131
G1 X43.362 Y65.467 E0.01718
G1 X35.102 Y57.207 E0.37131
G1 X35.102 Y56.666 E0.01718
G1 X43.532 Y65.096 E0.37894
G1 E-0.80000 F2100.00000
G1 Z0.800 F10800.000
G1 X43.532 Y53.743
G1 Z0.200
G1 E0.80000 F2100.00000
G1 F1200.000
G1 X42.928 Y53.140 E0.02713
G1 X42.388 Y53.140 E0.01718
G1 X43.362 Y54.114 E0.04381
G1 X43.362 Y54.655 E0.01718
G1 X41.847 Y53.140 E0.06811
G1 X41.306 Y53.140 E0.01718
G1 X43.362 Y55.195 E0.09241
G1 X43.362 Y55.736 E0.01718
G1 X40.766 Y53.140 E0.11671
G1 X40.225 Y53.140 E0.01718
G1 X43.362 Y56.277 E0.14101
G1 X43.362 Y56.817 E0.01718
G1 X39.685 Y53.140 E0.16531
G1 X39.144 Y53.140 E0.01718
G1 X43.362 Y57.358 E0.18961
G1 X43.362 Y57.898 E0.01718
G1 X38.603 Y53.140 E0.21391
G1 X38.063 Y53.140 E0.01718
G1 X43.362 Y58.439 E0.23821
G1 X43.362 Y58.980 E0.01718
G1 X41.332 Y56.949 E0.09128
G1 X41.355 Y57.220 E0.00864
G1 X41.332 Y57.490 E0.00861
G1 X43.362 Y59.520 E0.09128
G1 X43.362 Y60.061 E0.01718
G1 X41.231 Y57.930 E0.09578
G1 X41.059 Y58.298 E0.01292
G1 X43.362 Y60.601 E0.10353
M73 Q0 S133
G1 X43.362 Y61.142 E0.01718
G1 X40.832 Y58.612 E0.11375
M73 P0 R133
G1 X40.555 Y58.876 E0.01215
G1 X43.362 Y61.683 E0.12618
G1 X43.362 Y62.223 E0.01718
G1 X40.228 Y59.089 E0.14088
G1 X39.958 Y59.215 E0.00946
G1 X39.844 Y59.246 E0.00376
G1 X43.362 Y62.764 E0.15815
G1 X43.362 Y63.304 E0.01718
G1 X39.387 Y59.329 E0.17868
G1 X39.232 Y59.343 E0.00495
G1 X38.815 Y59.298 E0.01334
G1 X43.362 Y63.845 E0.20441
G1 X43.362 Y64.386 E0.01718
G1 X35.102 Y56.125 E0.37131
G1 X35.102 Y55.585 E0.01718
G1 X37.154 Y57.637 E0.09225
G1 X37.109 Y57.220 E0.01334
G1 X37.122 Y57.065 E0.00495
G1 X35.102 Y55.044 E0.09082
G1 X35.102 Y54.504 E0.01718
G1 X37.206 Y56.608 E0.09459
G1 X37.237 Y56.494 E0.00376
G1 X37.363 Y56.224 E0.00946
G1 X35.102 Y53.963 E0.10163
G1 X35.102 Y53.422 E0.01718
G1 X37.576 Y55.897 E0.11123
G1 X37.840 Y55.620 E0.01215
G1 X35.360 Y53.140 E0.11150
G1 X35.900 Y53.140 E0.01718
G1 X38.154 Y55.393 E0.10128
G1 X38.522 Y55.220 E0.01292
G1 X36.441 Y53.140 E0.09353
G1 X36.982 Y53.140 E0.01718
G1 X38.962 Y55.120 E0.08903
G1 X39.214 Y55.098 E0.00804
G1 X39.503 Y55.121 E0.00921
G1 X37.353 Y52.970 E0.09667
G1 E-0.80000 F2100.00000
G1 Z0.800 F10800.000
G1 X39.232 Y86.437
G1 Z0.200
G1 E0.80000 F2100.00000
G1 F1200.000
G1 X38.913 Y86.409 E0.01005
G1 X38.603 Y86.326 E0.01005
G1 X38.312 Y86.190 E0.01005
G1 X38.050 Y86.006 E0.01005
G1 X37.823 Y85.779 E0.01005
G1 X37.639 Y85.517 E0.01005
G1 X37.504 Y85.226 E0.01005
G1 X37.421 Y84.917 E0.01005
G1 X37.393 Y84.597 E0.01005
G1 X37.421 Y84.278 E0.01005
G1 X37.504 Y83.968 E0.01005
G1 X37.639 Y83.678 E0.01005
G1 X37.823 Y83.415 E0.01005
G1 X38.050 Y83.188 E0.01005
G1 X38.312 Y83.004 E0.01005
G1 X38.603 Y82.869 E0.01005
G1 X38.913 Y82.786 E0.01005
G1 X39.215 Y82.759 E0.00953
G1 X39.549 Y82.785 E0.01047
G1 X39.861 Y82.869 E0.01015
G1 X40.152 Y83.004 E0.01005
G1 X40.414 Y83.188 E0.01005
G1 X40.641 Y83.415 E0.01005
G1 X40.825 Y83.678 E0.01005
G1 X40.953 Y83.953 E0.00953
G1 X41.043 Y84.275 E0.01047
G1 X41.071 Y84.597 E0.01015
G1 X41.043 Y84.917 E0.01005
G1 X40.960 Y85.226 E0.01005
G1 X40.825 Y85.517 E0.01005
G1 X40.641 Y85.779 E0.01005
G1 X40.414 Y86.006 E0.01005
G1 X40.152 Y86.190 E0.01005
G1 X39.861 Y86.326 E0.01005
G1 X39.551 Y86.409 E0.01005
G1 X39.292 Y86.431 E0.00817
G1 X39.232 Y86.058 F10800.000
G1 F1200.000
G1 X38.978 Y86.036 E0.00798
G1 X38.732 Y85.970 E0.00798
G1 X38.502 Y85.862 E0.00798
G1 X38.293 Y85.716 E0.00798
G1 X38.113 Y85.536 E0.00798
G1 X37.967 Y85.328 E0.00798
G1 X37.859 Y85.097 E0.00798
G1 X37.793 Y84.851 E0.00798
G1 X37.771 Y84.597 E0.00798
G1 X37.793 Y84.344 E0.00798
G1 X37.859 Y84.098 E0.00798
G1 X37.967 Y83.867 E0.00798
G1 X38.113 Y83.658 E0.00798
G1 X38.293 Y83.478 E0.00798
G1 X38.502 Y83.332 E0.00798
G1 X38.732 Y83.224 E0.00798
