; generated by PrusaSlicer 2.1.1+win64 on 2020-06-04 at 17:05:49 UTC

; 

; external perimeters extrusion width = 0.45mm
; perimeters extrusion width = 0.45mm
; infill extrusion width = 0.45mm
; solid infill extrusion width = 0.45mm
; top infill extrusion width = 0.40mm
; support material extrusion width = 0.35mm
; first layer extrusion width = 0.42mm

M73 P0 R23
M73 Q0 S23
M201 X1000 Y1000 Z1000 E5000 ; sets maximum accelerations, mm/sec^2
M203 X200 Y200 Z12 E120 ; sets maximum feedrates, mm/sec
M204 P1250 R1250 T1250 ; sets acceleration (P, T) and retract acceleration (R), mm/sec^2
M205 X8.00 Y8.00 Z0.40 E1.50 ; sets the jerk limits, mm/sec
M205 S0 T0 ; sets the minimum extruding and travel feed rate, mm/sec
M107
M862.3 P "MK3S" ; printer model check
M862.1 P0.4 ; nozzle diameter check
M115 U3.8.0 ; tell printer latest fw version
G90 ; use absolute coordinates
M83 ; extruder relative mode
M104 S215 ; set extruder temp
M140 S60 ; set bed temp
M190 S60 ; wait for bed temp
M109 S215 ; wait for extruder temp
G28 W ; home all without mesh bed level
G80 ; mesh bed leveling
G1 Y-3.0 F1000.0 ; go outside print area
G92 E0.0
G1 X60.0 E9.0 F1000.0 ; intro line
M73 Q0 S23
M73 P0 R22
G1 X100.0 E12.5 F1000.0 ; intro line
G92 E0.0
M221 S95
G21 ; set units to millimeters
G90 ; use absolute coordinates
M83 ; use relative distances for extrusion
M900 K30 ; Filament gcode
;BEFORE_LAYER_CHANGE
G92 E0.0
;0.2


G1 E-0.80000 F2100.00000
G1 Z0.600 F10800.000
;AFTER_LAYER_CHANGE
;0.2
G1 X90.193 Y101.240
G1 Z0.200
G1 E0.80000 F2100.00000
M204 S1000
G1 F1200
G1 X90.503 Y100.930 E0.01374
G1 X91.485 Y100.757 E0.03125
G1 X91.613 Y100.770 E0.00403
G1 X91.697 Y100.803 E0.00283
G1 X90.846 Y101.653 E0.03771
G1 X91.380 Y102.186 E0.02365
G1 X92.445 Y101.121 E0.04723
G1 X92.773 Y101.313 E0.01192
G1 X93.084 Y101.548 E0.01223
G1 X91.913 Y102.720 E0.05193
G1 X92.446 Y103.253 E0.02365
G1 X93.786 Y101.913 E0.05941
G1 X94.008 Y101.970 E0.00717
G1 X94.319 Y102.447 E0.01785
G1 X92.980 Y103.786 E0.05940
G1 X93.513 Y104.319 E0.02365
G1 X94.937 Y102.895 E0.06316
G1 X95.297 Y103.076 E0.01262
G1 X95.465 Y103.101 E0.00534
G1 X95.869 Y103.030 E0.01285
G1 X94.046 Y104.853 E0.08082
G1 X94.579 Y105.386 E0.02365
G1 X97.164 Y102.802 E0.11459
G1 X98.458 Y102.573 E0.04123
G1 X95.113 Y105.919 E0.14836
G1 X95.646 Y106.452 E0.02365
G1 X99.753 Y102.345 E0.18213
G1 X101.048 Y102.117 E0.04123
G1 X96.179 Y106.986 E0.21590
G1 X96.712 Y107.519 E0.02365
G1 X102.343 Y101.888 E0.24967
G1 X103.638 Y101.660 E0.04123
G1 X97.246 Y108.052 E0.28344
G1 X97.779 Y108.586 E0.02365
G1 X104.933 Y101.432 E0.31721
G1 X106.228 Y101.203 E0.04123
G1 X99.944 Y107.487 E0.27865
G1 X100.477 Y108.021 E0.02365
G1 X107.523 Y100.975 E0.31242
G1 X108.220 Y100.852 E0.02220
G1 X108.466 Y101.098 E0.01091
G1 X100.890 Y108.674 E0.33592
G1 E-0.80000 F2100.00000
G1 Z0.800 F10800.000
G1 X141.398 Y94.830
G1 Z0.200
G1 E0.80000 F2100.00000
G1 F1200
G1 X140.444 Y95.784 E0.04233
G1 X140.977 Y96.317 E0.02365
G1 X142.484 Y94.810 E0.06682
G1 X143.779 Y94.582 E0.04123
G1 X139.879 Y98.482 E0.17293
G1 X140.412 Y99.015 E0.02365
G1 X145.073 Y94.354 E0.20670
G1 X146.368 Y94.126 E0.04123
G1 X140.945 Y99.549 E0.24047
G1 X141.479 Y100.082 E0.02365
G1 X147.663 Y93.897 E0.27424
G1 X148.958 Y93.669 E0.04123
G1 X142.012 Y100.615 E0.30801
G1 X142.545 Y101.148 E0.02365
G1 X150.253 Y93.441 E0.34178
G1 X151.548 Y93.212 E0.04123
G1 X141.447 Y103.313 E0.44789
G1 X141.980 Y103.846 E0.02365
G1 X152.843 Y92.984 E0.48166
G1 X154.138 Y92.756 E0.04123
G1 X142.514 Y104.380 E0.51543
G1 X143.047 Y104.913 E0.02365
G1 X155.397 Y92.563 E0.54761
G1 X155.930 Y93.096 E0.02365
G1 X143.580 Y105.446 E0.54761
G1 X144.113 Y105.979 E0.02365
G1 X156.463 Y93.630 E0.54761
G1 X156.996 Y94.163 E0.02365
G1 X144.647 Y106.513 E0.54761
G1 X145.180 Y107.046 E0.02365
G1 X157.530 Y94.696 E0.54761
G1 X157.748 Y94.915 E0.00969
G1 X156.117 Y96.546 E0.07234
G1 X156.432 Y96.861 E0.01395
G1 X145.713 Y107.579 E0.47527
G1 X146.246 Y108.112 E0.02365
G1 X156.965 Y97.394 E0.47527
G1 X157.498 Y97.927 E0.02365
G1 X146.780 Y108.646 E0.47527
G1 X147.030 Y108.896 E0.01109
G1 X148.661 Y107.265 E0.07234
G1 X148.944 Y107.548 E0.01255
G1 X158.031 Y98.461 E0.40294
G1 X158.565 Y98.994 E0.02365
G1 X149.478 Y108.081 E0.40294
G1 X150.011 Y108.614 E0.02365
G1 X159.098 Y99.527 E0.40294
G1 X159.380 Y99.809 E0.01249
G1 X157.748 Y101.440 E0.07234
G1 X158.000 Y101.692 E0.01116
G1 X152.175 Y107.516 E0.25826
G1 X152.709 Y108.049 E0.02365
G1 X158.533 Y102.225 E0.25826
G1 X159.066 Y102.758 E0.02365
G1 X153.122 Y108.703 E0.26358
G1 E-0.80000 F2100.00000
G1 Z0.800 F10800.000
G1 X105.079 Y100.276
G1 Z0.200
G1 E0.80000 F2100.00000
G1 F1200
G1 X95.548 Y101.956 E0.30345
G1 X95.358 Y101.860 E0.00668
G1 X95.275 Y101.779 E0.00364
G1 X95.176 Y101.722 E0.00359
G1 X94.703 Y101.000 E0.02708
G1 X93.922 Y100.799 E0.02528
G1 X93.395 Y100.387 E0.02096
G1 X92.874 Y100.083 E0.01893
G1 X92.492 Y99.915 E0.01308
G1 X91.878 Y99.680 E0.02061
G1 X91.039 Y99.581 E0.02650
G1 X90.449 Y99.095 E0.02395
G1 X88.981 Y90.770 E0.26507
G1 X154.134 Y79.281 E2.07434
G1 X156.245 Y91.254 E0.38117
G1 X105.138 Y100.265 E1.62715
G1 X105.144 Y100.647 F10800.000
G1 F1200
G1 X95.490 Y102.349 E0.30738
G1 X95.135 Y102.170 E0.01247
G1 X95.046 Y102.082 E0.00392
G1 X94.910 Y102.006 E0.00489
G1 X94.467 Y101.328 E0.02537
G1 X93.752 Y101.144 E0.02316
G1 X93.183 Y100.700 E0.02263
G1 X92.703 Y100.419 E0.01745
G1 X92.349 Y100.264 E0.01212
G1 X91.787 Y100.049 E0.01886
G1 X90.885 Y99.942 E0.02850
G1 X90.106 Y99.318 E0.03129
G1 X88.544 Y90.464 E0.28192
G1 X154.440 Y78.845 E2.09798
G1 X156.682 Y91.560 E0.40482
G1 X105.203 Y100.637 E1.63898
G1 X104.863 Y100.362 F10800.000
G1 E-0.80000 F2100.00000
G1 Z0.800 F10800.000
G1 X95.718 Y101.811
G1 Z0.200
G1 E0.80000 F2100.00000
G1 F1200
G1 X90.252 Y96.345 E0.24390
G1 X90.137 Y95.694 E0.02087
G1 X96.028 Y101.585 E0.26285
G1 X96.484 Y101.504 E0.01461
G1 X90.022 Y95.042 E0.28833
G1 X89.907 Y94.391 E0.02087
G1 X96.940 Y101.424 E0.31381
G1 X97.396 Y101.343 E0.01461
G1 X89.792 Y93.739 E0.33929
G1 X89.677 Y93.088 E0.02087
G1 X97.852 Y101.263 E0.36477
G1 X98.308 Y101.182 E0.01461
G1 X89.562 Y92.436 E0.39025
G1 X89.447 Y91.785 E0.02087
G1 X98.765 Y101.102 E0.41573
G1 X99.221 Y101.021 E0.01461
G1 X89.333 Y91.133 E0.44121
G1 X89.309 Y90.999 E0.00430
G1 X89.671 Y90.935 E0.01160
G1 X99.677 Y100.941 E0.44646
G1 X100.133 Y100.861 E0.01461
G1 X90.127 Y90.855 E0.44646
G1 X90.583 Y90.774 E0.01461
G1 X100.589 Y100.780 E0.44646
G1 X101.045 Y100.700 E0.01461
G1 X91.040 Y90.694 E0.44646
G1 X91.496 Y90.613 E0.01461
G1 X101.502 Y100.619 E0.44646
G1 X101.958 Y100.539 E0.01461
G1 X91.952 Y90.533 E0.44646
G1 X92.408 Y90.453 E0.01461
G1 X102.414 Y100.458 E0.44646
G1 X102.870 Y100.378 E0.01461
G1 X92.864 Y90.372 E0.44646
G1 X93.320 Y90.292 E0.01461
G1 X103.326 Y100.298 E0.44646
G1 X103.783 Y100.217 E0.01461
G1 X93.777 Y90.211 E0.44646
G1 X94.233 Y90.131 E0.01461
G1 X104.239 Y100.137 E0.44646
G1 X104.695 Y100.056 E0.01461
G1 X94.689 Y90.050 E0.44646
G1 X95.145 Y89.970 E0.01461
G1 X105.151 Y99.976 E0.44646
G1 X105.607 Y99.895 E0.01461
G1 X95.601 Y89.889 E0.44646
G1 X96.058 Y89.809 E0.01461
G1 X106.063 Y99.815 E0.44646
G1 X106.520 Y99.734 E0.01461
G1 X96.514 Y89.729 E0.44646
M73 Q4 S22
G1 X96.970 Y89.648 E0.01461
G1 X106.976 Y99.654 E0.44646
M73 P4 R21
G1 X107.432 Y99.574 E0.01461
G1 X97.426 Y89.568 E0.44646
G1 X97.882 Y89.487 E0.01461
G1 X107.888 Y99.493 E0.44646
G1 X108.344 Y99.413 E0.01461
G1 X98.338 Y89.407 E0.44646
G1 X98.795 Y89.326 E0.01461
G1 X108.801 Y99.332 E0.44646
G1 X109.257 Y99.252 E0.01461
G1 X99.251 Y89.246 E0.44646
G1 X99.707 Y89.166 E0.01461
G1 X109.713 Y99.171 E0.44646
G1 X110.169 Y99.091 E0.01461
G1 X100.163 Y89.085 E0.44646
G1 X100.619 Y89.005 E0.01461
G1 X110.625 Y99.011 E0.44646
G1 X111.081 Y98.930 E0.01461
G1 X101.076 Y88.924 E0.44646
G1 X101.532 Y88.844 E0.01461
G1 X111.538 Y98.850 E0.44646
G1 X111.994 Y98.769 E0.01461
G1 X101.988 Y88.763 E0.44646
G1 X102.444 Y88.683 E0.01461
G1 X112.450 Y98.689 E0.44646
G1 X112.906 Y98.608 E0.01461
G1 X102.900 Y88.602 E0.44646
G1 X103.356 Y88.522 E0.01461
G1 X113.362 Y98.528 E0.44646
G1 X113.819 Y98.447 E0.01461
G1 X103.813 Y88.442 E0.44646
G1 X104.269 Y88.361 E0.01461
G1 X114.275 Y98.367 E0.44646
G1 X114.731 Y98.287 E0.01461
G1 X104.725 Y88.281 E0.44646
G1 X105.181 Y88.200 E0.01461
G1 X115.187 Y98.206 E0.44646
G1 X115.643 Y98.126 E0.01461
G1 X105.637 Y88.120 E0.44646
G1 X106.094 Y88.039 E0.01461
G1 X116.099 Y98.045 E0.44646
G1 X116.556 Y97.965 E0.01461
G1 X106.550 Y87.959 E0.44646
G1 X107.006 Y87.879 E0.01461
G1 X117.012 Y97.884 E0.44646
G1 X117.468 Y97.804 E0.01461
G1 X107.462 Y87.798 E0.44646
G1 X107.918 Y87.718 E0.01461
G1 X117.924 Y97.724 E0.44646
G1 X118.380 Y97.643 E0.01461
G1 X108.374 Y87.637 E0.44646
G1 X108.831 Y87.557 E0.01461
G1 X118.836 Y97.563 E0.44646
G1 X119.293 Y97.482 E0.01461
G1 X109.287 Y87.476 E0.44646
G1 X109.743 Y87.396 E0.01461
G1 X119.749 Y97.402 E0.44646
G1 X120.205 Y97.321 E0.01461
G1 X110.199 Y87.315 E0.44646
G1 X110.655 Y87.235 E0.01461
G1 X120.661 Y97.241 E0.44646
G1 X121.117 Y97.160 E0.01461
G1 X111.111 Y87.155 E0.44646
G1 X111.568 Y87.074 E0.01461
G1 X121.574 Y97.080 E0.44646
G1 X122.030 Y97.000 E0.01461
G1 X112.024 Y86.994 E0.44646
G1 X112.480 Y86.913 E0.01461
G1 X122.486 Y96.919 E0.44646
G1 X122.942 Y96.839 E0.01461
G1 X112.936 Y86.833 E0.44646
G1 X113.392 Y86.752 E0.01461
G1 X123.398 Y96.758 E0.44646
G1 X123.854 Y96.678 E0.01461
G1 X113.849 Y86.672 E0.44646
G1 X114.305 Y86.592 E0.01461
G1 X124.311 Y96.597 E0.44646
G1 X124.767 Y96.517 E0.01461
G1 X114.761 Y86.511 E0.44646
G1 X115.217 Y86.431 E0.01461
G1 X125.223 Y96.437 E0.44646
G1 X125.679 Y96.356 E0.01461
G1 X115.673 Y86.350 E0.44646
G1 X116.129 Y86.270 E0.01461
G1 X126.135 Y96.276 E0.44646
G1 X126.592 Y96.195 E0.01461
G1 X116.586 Y86.189 E0.44646
G1 X117.042 Y86.109 E0.01461
G1 X127.048 Y96.115 E0.44646
G1 X127.504 Y96.034 E0.01461
G1 X117.498 Y86.028 E0.44646
G1 X117.954 Y85.948 E0.01461
G1 X127.960 Y95.954 E0.44646
G1 X128.416 Y95.874 E0.01461
G1 X118.410 Y85.868 E0.44646
G1 X118.867 Y85.787 E0.01461
G1 X128.872 Y95.793 E0.44646
G1 X129.329 Y95.713 E0.01461
G1 X119.323 Y85.707 E0.44646
G1 X119.779 Y85.626 E0.01461
G1 X129.785 Y95.632 E0.44646
G1 X130.241 Y95.552 E0.01461
G1 X120.235 Y85.546 E0.44646
G1 X120.691 Y85.465 E0.01461
G1 X130.697 Y95.471 E0.44646
G1 X131.153 Y95.391 E0.01461
G1 X121.147 Y85.385 E0.44646
G1 X121.604 Y85.305 E0.01461
G1 X131.610 Y95.310 E0.44646
G1 X132.066 Y95.230 E0.01461
G1 X122.060 Y85.224 E0.44646
G1 X122.516 Y85.144 E0.01461
G1 X132.522 Y95.150 E0.44646
G1 X132.978 Y95.069 E0.01461
G1 X122.972 Y85.063 E0.44646
G1 X123.428 Y84.983 E0.01461
G1 X133.434 Y94.989 E0.44646
G1 X133.890 Y94.908 E0.01461
G1 X123.885 Y84.902 E0.44646
G1 X124.341 Y84.822 E0.01461
G1 X134.347 Y94.828 E0.44646
G1 X134.803 Y94.747 E0.01461
G1 X124.797 Y84.741 E0.44646
G1 X125.253 Y84.661 E0.01461
G1 X135.259 Y94.667 E0.44646
G1 X135.715 Y94.587 E0.01461
G1 X125.709 Y84.581 E0.44646
G1 X126.165 Y84.500 E0.01461
G1 X136.171 Y94.506 E0.44646
G1 X136.627 Y94.426 E0.01461
G1 X126.622 Y84.420 E0.44646
G1 X127.078 Y84.339 E0.01461
G1 X137.084 Y94.345 E0.44646
G1 X137.540 Y94.265 E0.01461
G1 X127.534 Y84.259 E0.44646
G1 X127.990 Y84.178 E0.01461
G1 X137.996 Y94.184 E0.44646
G1 X138.452 Y94.104 E0.01461
G1 X128.446 Y84.098 E0.44646
G1 X128.902 Y84.018 E0.01461
G1 X138.908 Y94.023 E0.44646
G1 X139.365 Y93.943 E0.01461
G1 X129.359 Y83.937 E0.44646
G1 X129.815 Y83.857 E0.01461
G1 X139.821 Y93.863 E0.44646
G1 X140.277 Y93.782 E0.01461
G1 X130.271 Y83.776 E0.44646
G1 X130.727 Y83.696 E0.01461
G1 X140.733 Y93.702 E0.44646
G1 X141.189 Y93.621 E0.01461
G1 X131.183 Y83.615 E0.44646
G1 X131.640 Y83.535 E0.01461
G1 X141.645 Y93.541 E0.44646
G1 X142.102 Y93.460 E0.01461
G1 X132.096 Y83.455 E0.44646
G1 X132.552 Y83.374 E0.01461
G1 X142.558 Y93.380 E0.44646
G1 X143.014 Y93.300 E0.01461
G1 X133.008 Y83.294 E0.44646
G1 X133.464 Y83.213 E0.01461
G1 X143.470 Y93.219 E0.44646
M73 Q9 S21
G1 X143.926 Y93.139 E0.01461
G1 X133.920 Y83.133 E0.44646
M73 P9 R20
G1 X134.377 Y83.052 E0.01461
G1 X144.383 Y93.058 E0.44646
G1 X144.839 Y92.978 E0.01461
G1 X134.833 Y82.972 E0.44646
G1 X135.289 Y82.891 E0.01461
G1 X145.295 Y92.897 E0.44646
G1 X145.751 Y92.817 E0.01461
G1 X135.745 Y82.811 E0.44646
G1 X136.201 Y82.731 E0.01461
G1 X146.207 Y92.736 E0.44646
G1 X146.663 Y92.656 E0.01461
G1 X136.658 Y82.650 E0.44646
G1 X137.114 Y82.570 E0.01461
G1 X147.120 Y92.576 E0.44646
G1 X147.576 Y92.495 E0.01461
G1 X137.570 Y82.489 E0.44646
G1 X138.026 Y82.409 E0.01461
G1 X148.032 Y92.415 E0.44646
G1 X148.488 Y92.334 E0.01461
G1 X138.482 Y82.328 E0.44646
G1 X138.938 Y82.248 E0.01461
G1 X148.944 Y92.254 E0.44646
G1 X149.401 Y92.173 E0.01461
G1 X139.395 Y82.168 E0.44646
G1 X139.851 Y82.087 E0.01461
G1 X149.857 Y92.093 E0.44646
G1 X150.313 Y92.013 E0.01461
G1 X140.307 Y82.007 E0.44646
G1 X140.763 Y81.926 E0.01461
G1 X150.769 Y91.932 E0.44646
G1 X151.225 Y91.852 E0.01461
G1 X141.219 Y81.846 E0.44646
G1 X141.676 Y81.765 E0.01461
G1 X151.681 Y91.771 E0.44646
G1 X152.138 Y91.691 E0.01461
G1 X142.132 Y81.685 E0.44646
G1 X142.588 Y81.604 E0.01461
G1 X152.594 Y91.610 E0.44646
G1 X153.050 Y91.530 E0.01461
G1 X143.044 Y81.524 E0.44646
G1 X143.500 Y81.444 E0.01461
G1 X153.506 Y91.449 E0.44646
G1 X153.962 Y91.369 E0.01461
G1 X143.956 Y81.363 E0.44646
G1 X144.413 Y81.283 E0.01461
G1 X154.418 Y91.289 E0.44646
G1 X154.875 Y91.208 E0.01461
G1 X144.869 Y81.202 E0.44646
G1 X145.325 Y81.122 E0.01461
G1 X155.331 Y91.128 E0.44646
G1 X155.787 Y91.047 E0.01461
G1 X145.781 Y81.041 E0.44646
G1 X146.237 Y80.961 E0.01461
G1 X155.836 Y90.559 E0.42828
G1 X155.721 Y89.908 E0.02087
G1 X146.693 Y80.881 E0.40280
G1 X147.150 Y80.800 E0.01461
G1 X155.606 Y89.256 E0.37732
G1 X155.491 Y88.605 E0.02087
G1 X147.606 Y80.720 E0.35184
G1 X148.062 Y80.639 E0.01461
G1 X155.376 Y87.953 E0.32636
G1 X155.261 Y87.302 E0.02087
G1 X148.518 Y80.559 E0.30088
G1 X148.974 Y80.478 E0.01461
G1 X155.146 Y86.650 E0.27539
G1 X155.032 Y85.999 E0.02087
G1 X149.431 Y80.398 E0.24991
G1 X149.887 Y80.317 E0.01461
G1 X154.917 Y85.347 E0.22443
G1 X154.802 Y84.696 E0.02087
G1 X150.343 Y80.237 E0.19895
G1 X150.799 Y80.157 E0.01461
G1 X154.687 Y84.044 E0.17347
G1 X154.572 Y83.393 E0.02087
G1 X151.255 Y80.076 E0.14799
G1 X151.711 Y79.996 E0.01461
G1 X154.457 Y82.741 E0.12251
G1 X154.342 Y82.090 E0.02087
G1 X152.168 Y79.915 E0.09703
G1 X152.624 Y79.835 E0.01461
G1 X154.227 Y81.438 E0.07155
G1 X154.113 Y80.787 E0.02087
G1 X153.080 Y79.754 E0.04607
G1 X153.536 Y79.674 E0.01461
G1 X154.207 Y80.345 E0.02992
G1 E-0.80000 F2100.00000
G1 Z0.800 F10800.000
G1 X94.097 Y100.727
G1 Z0.200
G1 E0.80000 F2100.00000
G1 F1200
G1 X90.366 Y96.997 E0.16644
G1 X90.481 Y97.648 E0.02087
G1 X92.417 Y99.584 E0.08636
G1 X91.946 Y99.403 E0.01589
G1 X91.667 Y99.370 E0.00888
G1 X90.387 Y98.090 E0.05711
G1 E-0.80000 F2100.00000
G1 Z0.800 F10800.000
G1 X95.344 Y130.445
G1 Z0.200
G1 E0.80000 F2100.00000
G1 F1200
G1 X95.653 Y130.135 E0.01374
G1 X96.635 Y129.962 E0.03125
G1 X96.763 Y129.976 E0.00403
G1 X96.847 Y130.008 E0.00283
G1 X95.997 Y130.858 E0.03771
G1 X96.530 Y131.392 E0.02365
G1 X97.595 Y130.326 E0.04723
G1 X97.923 Y130.518 E0.01192
G1 X98.235 Y130.754 E0.01223
G1 X97.063 Y131.925 E0.05193
G1 X97.597 Y132.458 E0.02365
G1 X98.936 Y131.118 E0.05941
G1 X99.158 Y131.175 E0.00717
G1 X99.469 Y131.652 E0.01785
G1 X98.130 Y132.991 E0.05940
G1 X98.663 Y133.525 E0.02365
G1 X100.088 Y132.100 E0.06316
G1 X100.447 Y132.282 E0.01262
G1 X100.615 Y132.306 E0.00534
G1 X101.019 Y132.235 E0.01285
G1 X99.196 Y134.058 E0.08082
G1 X99.730 Y134.591 E0.02365
G1 X102.314 Y132.007 E0.11459
G1 X103.609 Y131.779 E0.04123
G1 X100.263 Y135.124 E0.14836
G1 X100.796 Y135.658 E0.02365
G1 X104.904 Y131.550 E0.18213
G1 X106.199 Y131.322 E0.04123
G1 X101.330 Y136.191 E0.21590
G1 X101.863 Y136.724 E0.02365
G1 X107.493 Y131.094 E0.24967
G1 X108.788 Y130.865 E0.04123
G1 X102.396 Y137.258 E0.28344
G1 X102.929 Y137.791 E0.02365
G1 X110.083 Y130.637 E0.31721
G1 X111.378 Y130.409 E0.04123
G1 X105.094 Y136.693 E0.27865
G1 X105.627 Y137.226 E0.02365
G1 X112.673 Y130.180 E0.31242
