; generated by PrusaSlicer 2.1.1+win64 on 2020-06-23 at 18:46:56 UTC

; 

; external perimeters extrusion width = 0.45mm
; perimeters extrusion width = 0.45mm
; infill extrusion width = 0.45mm
; solid infill extrusion width = 0.45mm
; top infill extrusion width = 0.40mm
; first layer extrusion width = 0.42mm

M73 P0 R52
M73 Q0 S53
M201 X1000 Y1000 Z1000 E5000 ; sets maximum accelerations, mm/sec^2
M203 X200 Y200 Z12 E120 ; sets maximum feedrates, mm/sec
M204 P1250 R1250 T1250 ; sets acceleration (P, T) and retract acceleration (R), mm/sec^2
M205 X8.00 Y8.00 Z0.40 E1.50 ; sets the jerk limits, mm/sec
M205 S0 T0 ; sets the minimum extruding and travel feed rate, mm/sec
M107
M862.3 P "MK3S" ; printer model check
M862.1 P0.4 ; nozzle diameter check
M115 U3.8.0 ; tell printer latest fw version
G90 ; use absolute coordinates
M83 ; extruder relative mode
M104 S215 ; set extruder temp
M140 S60 ; set bed temp
M190 S60 ; wait for bed temp
M109 S215 ; wait for extruder temp
G28 W ; home all without mesh bed level
G80 ; mesh bed leveling
G1 Y-3.0 F1000.0 ; go outside print area
G92 E0.0
G1 X60.0 E9.0 F1000.0 ; intro line
M73 Q0 S53
M73 P0 R52
G1 X100.0 E12.5 F1000.0 ; intro line
G92 E0.0
M221 S95
G21 ; set units to millimeters
G90 ; use absolute coordinates
M83 ; use relative distances for extrusion
M900 K30 ; Filament gcode
;BEFORE_LAYER_CHANGE
G92 E0.0
;0.2


G1 E-0.80000 F2100.00000
G1 Z0.600 F10800.000
;AFTER_LAYER_CHANGE
;0.2
G1 X157.256 Y89.233
G1 Z0.200
G1 E0.80000 F2100.00000
M204 S1000
G1 F1200
G1 X155.104 Y89.091 E0.06763
G1 X152.989 Y88.671 E0.06763
G1 X150.946 Y87.977 E0.06763
G1 X149.012 Y87.023 E0.06763
G1 X147.219 Y85.825 E0.06763
G1 X145.597 Y84.403 E0.06763
G1 X144.175 Y82.781 E0.06763
G1 X142.977 Y80.988 E0.06763
G1 X142.023 Y79.054 E0.06763
G1 X141.329 Y77.011 E0.06763
G1 X140.909 Y74.896 E0.06763
G1 X140.767 Y72.744 E0.06763
G1 X140.909 Y70.591 E0.06763
G1 X141.329 Y68.476 E0.06763
G1 X142.023 Y66.434 E0.06763
G1 X142.977 Y64.499 E0.06763
G1 X144.175 Y62.706 E0.06763
G1 X145.597 Y61.084 E0.06763
G1 X147.219 Y59.662 E0.06763
G1 X149.012 Y58.464 E0.06763
G1 X150.946 Y57.510 E0.06763
G1 X152.989 Y56.816 E0.06763
G1 X155.104 Y56.396 E0.06763
G1 X157.256 Y56.255 E0.06763
G1 X159.409 Y56.396 E0.06763
G1 X161.524 Y56.816 E0.06763
G1 X163.567 Y57.510 E0.06763
G1 X165.501 Y58.464 E0.06763
G1 X167.294 Y59.662 E0.06763
G1 X168.916 Y61.084 E0.06763
G1 X170.338 Y62.706 E0.06763
G1 X171.536 Y64.499 E0.06763
G1 X172.490 Y66.434 E0.06763
G1 X173.184 Y68.476 E0.06763
G1 X173.604 Y70.591 E0.06763
G1 X173.745 Y72.744 E0.06763
G1 X173.604 Y74.896 E0.06763
G1 X173.184 Y77.011 E0.06763
G1 X172.490 Y79.054 E0.06763
G1 X171.536 Y80.988 E0.06763
G1 X170.338 Y82.781 E0.06763
G1 X168.916 Y84.403 E0.06763
G1 X167.294 Y85.825 E0.06763
G1 X165.501 Y87.023 E0.06763
G1 X163.567 Y87.977 E0.06763
G1 X161.524 Y88.671 E0.06763
G1 X159.409 Y89.091 E0.06763
G1 X157.316 Y89.229 E0.06575
G1 X157.256 Y88.855 F10800.000
G1 F1200
G1 X155.154 Y88.717 E0.06608
G1 X153.087 Y88.306 E0.06608
G1 X151.091 Y87.628 E0.06608
G1 X149.201 Y86.696 E0.06608
G1 X147.449 Y85.525 E0.06608
G1 X145.864 Y84.136 E0.06608
G1 X144.475 Y82.551 E0.06608
G1 X143.304 Y80.799 E0.06608
G1 X142.372 Y78.909 E0.06608
G1 X141.694 Y76.913 E0.06608
G1 X141.283 Y74.846 E0.06608
G1 X141.145 Y72.744 E0.06608
G1 X141.283 Y70.641 E0.06608
G1 X141.694 Y68.574 E0.06608
G1 X142.372 Y66.578 E0.06608
G1 X143.304 Y64.688 E0.06608
G1 X144.475 Y62.936 E0.06608
G1 X145.864 Y61.351 E0.06608
G1 X147.449 Y59.962 E0.06608
G1 X149.201 Y58.791 E0.06608
G1 X151.091 Y57.859 E0.06608
G1 X153.087 Y57.181 E0.06608
G1 X155.154 Y56.770 E0.06608
G1 X157.256 Y56.632 E0.06608
G1 X159.359 Y56.770 E0.06608
G1 X161.426 Y57.181 E0.06608
G1 X163.422 Y57.859 E0.06608
G1 X165.312 Y58.791 E0.06608
G1 X167.064 Y59.962 E0.06608
G1 X168.649 Y61.351 E0.06608
G1 X170.038 Y62.936 E0.06608
G1 X171.209 Y64.688 E0.06608
G1 X172.141 Y66.578 E0.06608
G1 X172.819 Y68.574 E0.06608
G1 X173.230 Y70.641 E0.06608
G1 X173.368 Y72.744 E0.06608
G1 X173.230 Y74.846 E0.06608
G1 X172.819 Y76.913 E0.06608
G1 X172.141 Y78.909 E0.06608
G1 X171.209 Y80.799 E0.06608
G1 X170.038 Y82.551 E0.06608
G1 X168.649 Y84.136 E0.06608
G1 X167.064 Y85.525 E0.06608
G1 X165.312 Y86.696 E0.06608
G1 X163.422 Y87.628 E0.06608
G1 X161.426 Y88.306 E0.06608
G1 X159.359 Y88.717 E0.06608
G1 X157.316 Y88.851 E0.06420
G1 X157.056 Y89.201 F10800.000
G1 E-0.80000 F2100.00000
G1 Z0.800 F10800.000
G1 X157.256 Y101.405
G1 Z0.200
G1 E0.80000 F2100.00000
G1 F1200
G1 X153.515 Y101.160 E0.11755
G1 X149.838 Y100.429 E0.11755
G1 X146.288 Y99.223 E0.11755
G1 X142.926 Y97.565 E0.11755
G1 X139.808 Y95.482 E0.11755
G1 X136.990 Y93.010 E0.11755
G1 X134.518 Y90.192 E0.11755
G1 X132.435 Y87.074 E0.11755
G1 X130.777 Y83.712 E0.11755
G1 X129.571 Y80.162 E0.11755
G1 X128.840 Y76.485 E0.11755
G1 X128.595 Y72.744 E0.11755
G1 X128.840 Y69.002 E0.11755
G1 X129.571 Y65.325 E0.11755
G1 X130.777 Y61.775 E0.11755
G1 X132.435 Y58.413 E0.11755
G1 X134.518 Y55.295 E0.11755
G1 X136.990 Y52.477 E0.11755
G1 X139.808 Y50.005 E0.11755
G1 X142.926 Y47.922 E0.11755
G1 X146.288 Y46.264 E0.11755
G1 X149.838 Y45.059 E0.11755
G1 X153.515 Y44.327 E0.11755
G1 X157.256 Y44.082 E0.11755
G1 X160.998 Y44.327 E0.11755
G1 X164.675 Y45.059 E0.11755
G1 X168.225 Y46.264 E0.11755
G1 X171.587 Y47.922 E0.11755
G1 X174.705 Y50.005 E0.11755
G1 X177.523 Y52.477 E0.11755
G1 X179.995 Y55.295 E0.11755
G1 X182.078 Y58.413 E0.11755
G1 X183.736 Y61.775 E0.11755
G1 X184.942 Y65.325 E0.11755
G1 X185.673 Y69.002 E0.11755
G1 X185.918 Y72.744 E0.11755
G1 X185.673 Y76.485 E0.11755
G1 X184.941 Y80.162 E0.11755
G1 X183.736 Y83.712 E0.11755
G1 X182.078 Y87.074 E0.11755
G1 X179.995 Y90.192 E0.11755
G1 X177.523 Y93.010 E0.11755
G1 X174.705 Y95.482 E0.11755
G1 X171.587 Y97.565 E0.11755
G1 X168.225 Y99.223 E0.11755
G1 X164.675 Y100.429 E0.11755
G1 X160.998 Y101.160 E0.11755
G1 X157.316 Y101.401 E0.11567
G1 X157.256 Y101.783 F10800.000
G1 F1200
G1 X153.466 Y101.535 E0.11910
G1 X149.740 Y100.794 E0.11910
G1 X146.143 Y99.573 E0.11910
G1 X142.737 Y97.893 E0.11910
G1 X139.578 Y95.782 E0.11910
G1 X136.722 Y93.278 E0.11910
G1 X134.218 Y90.422 E0.11910
G1 X132.107 Y87.263 E0.11910
G1 X130.427 Y83.857 E0.11910
G1 X129.206 Y80.260 E0.11910
G1 X128.465 Y76.534 E0.11910
G1 X128.217 Y72.744 E0.11910
G1 X128.465 Y68.953 E0.11910
G1 X129.206 Y65.228 E0.11910
G1 X130.427 Y61.631 E0.11910
G1 X132.107 Y58.224 E0.11910
G1 X134.218 Y55.065 E0.11910
G1 X136.722 Y52.209 E0.11910
G1 X139.578 Y49.705 E0.11910
G1 X142.737 Y47.595 E0.11910
G1 X146.143 Y45.915 E0.11910
G1 X149.740 Y44.694 E0.11910
G1 X153.466 Y43.952 E0.11910
G1 X157.256 Y43.704 E0.11910
G1 X161.047 Y43.952 E0.11910
G1 X164.772 Y44.694 E0.11910
G1 X168.369 Y45.915 E0.11910
G1 X171.776 Y47.595 E0.11910
G1 X174.935 Y49.705 E0.11910
G1 X177.791 Y52.209 E0.11910
G1 X180.295 Y55.065 E0.11910
G1 X182.405 Y58.224 E0.11910
G1 X184.086 Y61.631 E0.11910
G1 X185.307 Y65.228 E0.11910
G1 X186.048 Y68.953 E0.11910
G1 X186.296 Y72.744 E0.11910
G1 X186.048 Y76.534 E0.11910
G1 X185.306 Y80.260 E0.11910
G1 X184.085 Y83.857 E0.11910
G1 X182.405 Y87.263 E0.11910
G1 X180.295 Y90.422 E0.11910
G1 X177.791 Y93.278 E0.11910
G1 X174.935 Y95.782 E0.11910
G1 X171.776 Y97.893 E0.11910
G1 X168.369 Y99.573 E0.11910
G1 X164.772 Y100.794 E0.11910
G1 X161.047 Y101.535 E0.11910
G1 X157.316 Y101.779 E0.11722
G1 X157.056 Y101.437 F10800.000
G1 E-0.80000 F2100.00000
G1 Z0.800 F10800.000
G1 X161.845 Y100.876
G1 Z0.200
G1 E0.80000 F2100.00000
G1 F1200
G1 X129.268 Y68.300 E1.44945
G1 X129.179 Y68.746 E0.01432
G1 X161.254 Y100.821 E1.42712
G1 X160.961 Y100.879 E0.00942
G1 X160.789 Y100.890 E0.00542
G1 X129.110 Y69.211 E1.40951
G1 X129.077 Y69.714 E0.01583
G1 X160.286 Y100.923 E1.38863
G1 X159.784 Y100.956 E0.01583
G1 X129.044 Y70.216 E1.36776
G1 X129.011 Y70.718 E0.01583
G1 X159.282 Y100.989 E1.34688
G1 X158.780 Y101.022 E0.01583
G1 X128.978 Y71.220 E1.32600
G1 X128.945 Y71.722 E0.01583
G1 X158.278 Y101.055 E1.30512
G1 X157.776 Y101.088 E0.01583
G1 X128.912 Y72.224 E1.28424
G1 X128.879 Y72.727 E0.01583
G1 X157.273 Y101.121 E1.26336
G1 X156.703 Y101.086 E0.01798
G1 X128.914 Y73.297 E1.23642
G1 X128.952 Y73.870 E0.01805
G1 X156.130 Y101.048 E1.20927
G1 X155.558 Y101.010 E0.01805
G1 X128.990 Y74.442 E1.18212
M73 Q2 S51
M73 P2 R51
G1 X129.027 Y75.015 E0.01805
G1 X154.985 Y100.973 E1.15497
G1 X154.413 Y100.935 E0.01805
G1 X129.065 Y75.587 E1.12783
G1 X129.102 Y76.160 E0.01805
G1 X153.840 Y100.898 E1.10068
G1 X153.552 Y100.879 E0.00907
G1 X153.220 Y100.813 E0.01067
G1 X129.187 Y76.780 E1.06930
G1 X129.320 Y77.448 E0.02143
G1 X152.552 Y100.680 E1.03367
G1 X151.884 Y100.547 E0.02143
G1 X129.453 Y78.116 E0.99804
G1 X129.586 Y78.784 E0.02143
G1 X151.216 Y100.414 E0.96241
G1 X150.548 Y100.281 E0.02143
G1 X129.719 Y79.452 E0.92678
G1 X129.858 Y80.127 E0.02168
G1 X149.873 Y100.142 E0.89054
G1 X149.063 Y99.867 E0.02692
G1 X130.133 Y80.937 E0.84227
G1 X130.408 Y81.747 E0.02692
G1 X148.253 Y99.592 E0.79399
G1 X147.443 Y99.317 E0.02692
G1 X130.683 Y82.557 E0.74571
G1 X130.958 Y83.367 E0.02692
G1 X146.633 Y99.042 E0.69743
G1 X146.397 Y98.962 E0.00785
G1 X145.649 Y98.593 E0.02623
G1 X131.034 Y83.978 E0.65028
G1 E-0.80000 F2100.00000
G1 Z0.800 F10800.000
G1 X131.554 Y85.034
G1 Z0.200
G1 E0.80000 F2100.00000
G1 F1200
G1 X144.966 Y98.446 E0.59675
G1 E-0.80000 F2100.00000
G1 Z0.800 F10800.000
G1 X143.911 Y97.925
G1 Z0.200
G1 E0.80000 F2100.00000
G1 F1200
G1 X132.075 Y86.089 E0.52661
G1 E-0.80000 F2100.00000
G1 Z0.800 F10800.000
G1 X132.663 Y87.212
G1 Z0.200
G1 E0.80000 F2100.00000
G1 F1200
G1 X142.788 Y97.337 E0.45049
G1 E-0.80000 F2100.00000
G1 Z0.800 F10800.000
G1 X141.175 Y96.260
G1 Z0.200
G1 E0.80000 F2100.00000
G1 F1200
G1 X133.740 Y88.825 E0.33080
G1 E-0.80000 F2100.00000
G1 Z0.800 F10800.000
G1 X135.352 Y90.972
G1 Z0.200
G1 E0.80000 F2100.00000
G1 F1200
G1 X139.028 Y94.648 E0.16355
G1 E-0.80000 F2100.00000
G1 Z0.800 F10800.000
G1 X147.960 Y86.457
G1 Z0.200
G1 E0.80000 F2100.00000
G1 F1200
G1 X162.291 Y100.787 E0.63762
G1 X162.737 Y100.699 F10800.000
G1 F1200
G1 X149.360 Y87.321 E0.59522
G1 E-0.80000 F2100.00000
G1 Z0.800 F10800.000
G1 X150.415 Y87.842
G1 Z0.200
G1 E0.80000 F2100.00000
G1 F1200
G1 X163.039 Y100.466 E0.56168
G1 X163.486 Y100.377 E0.01432
G1 X151.610 Y88.501 E0.52838
G1 X152.420 Y88.776 E0.02692
G1 X163.932 Y100.288 E0.51220
G1 X164.378 Y100.199 E0.01432
G1 X153.175 Y88.996 E0.49847
G1 X153.843 Y89.129 E0.02143
G1 X164.801 Y100.087 E0.48756
G1 X165.201 Y99.951 E0.01327
G1 X154.511 Y89.262 E0.47562
G1 X155.163 Y89.379 E0.02084
G1 X165.600 Y99.816 E0.46438
G1 X166.000 Y99.680 E0.01327
G1 X155.736 Y89.416 E0.45668
G1 X156.308 Y89.454 E0.01805
G1 X166.399 Y99.545 E0.44898
G1 X166.799 Y99.409 E0.01327
G1 X156.881 Y89.491 E0.44127
G1 X157.256 Y89.516 E0.01184
G1 X157.429 Y89.505 E0.00545
G1 X167.198 Y99.273 E0.43465
G1 X167.598 Y99.138 E0.01327
G1 X157.932 Y89.472 E0.43008
G1 X158.434 Y89.439 E0.01583
G1 X167.997 Y99.002 E0.42551
G1 X168.368 Y98.838 E0.01276
G1 X158.936 Y89.406 E0.41966
G1 X159.438 Y89.373 E0.01583
G1 X168.726 Y98.661 E0.41326
G1 X169.085 Y98.484 E0.01257
G1 X159.885 Y89.285 E0.40931
G1 X160.332 Y89.196 E0.01432
G1 X169.443 Y98.307 E0.40539
G1 X169.801 Y98.131 E0.01257
G1 X160.778 Y89.107 E0.40148
G1 X161.224 Y89.019 E0.01432
G1 X170.160 Y97.954 E0.39757
G1 X170.518 Y97.777 E0.01257
G1 X161.663 Y88.922 E0.39400
G1 X162.062 Y88.787 E0.01327
G1 X170.876 Y97.601 E0.39217
G1 X171.235 Y97.424 E0.01257
G1 X162.462 Y88.651 E0.39034
G1 X162.861 Y88.515 E0.01327
G1 X171.578 Y97.232 E0.38782
G1 X171.898 Y97.017 E0.01214
G1 X163.261 Y88.380 E0.38432
G1 X163.660 Y88.244 E0.01327
G1 X172.219 Y96.803 E0.38081
G1 X172.540 Y96.589 E0.01214
G1 X164.020 Y88.069 E0.37907
G1 X164.379 Y87.892 E0.01257
G1 X172.861 Y96.374 E0.37740
G1 X173.181 Y96.160 E0.01214
G1 X164.737 Y87.715 E0.37573
G1 X165.095 Y87.539 E0.01257
G1 X173.502 Y95.946 E0.37405
G1 X173.823 Y95.731 E0.01214
G1 X165.454 Y87.362 E0.37238
G1 X165.643 Y87.269 E0.00663
G1 X165.794 Y87.168 E0.00574
G1 X174.144 Y95.517 E0.37150
G1 X174.465 Y95.303 E0.01214
G1 X166.115 Y86.953 E0.37150
G1 X166.436 Y86.739 E0.01214
G1 X174.757 Y95.060 E0.37025
G1 X175.042 Y94.810 E0.01193
G1 X166.757 Y86.525 E0.36866
G1 X167.077 Y86.310 E0.01214
G1 X175.327 Y94.560 E0.36707
G1 X175.612 Y94.310 E0.01193
G1 X167.398 Y86.096 E0.36548
G1 X167.691 Y85.853 E0.01196
G1 X175.897 Y94.060 E0.36514
G1 X176.183 Y93.810 E0.01193
G1 X167.976 Y85.603 E0.36514
G1 X168.261 Y85.353 E0.01193
G1 X176.468 Y93.560 E0.36514
G1 X176.753 Y93.310 E0.01193
G1 X168.546 Y85.103 E0.36514
G1 X168.831 Y84.853 E0.01193
G1 X177.038 Y93.060 E0.36514
G1 X177.323 Y92.810 E0.01193
G1 X169.116 Y84.603 E0.36514
G1 X169.366 Y84.318 E0.01193
G1 X177.573 Y92.525 E0.36514
G1 X177.823 Y92.240 E0.01193
G1 X169.616 Y84.033 E0.36514
G1 X169.866 Y83.748 E0.01193
G1 X178.073 Y91.955 E0.36514
G1 X178.323 Y91.670 E0.01193
G1 X170.116 Y83.463 E0.36514
G1 X170.366 Y83.178 E0.01193
G1 X178.573 Y91.385 E0.36514
M73 Q3 S50
M73 P3 R50
G1 X178.823 Y91.099 E0.01193
G1 X170.609 Y82.885 E0.36548
G1 X170.823 Y82.564 E0.01214
G1 X179.073 Y90.814 E0.36707
G1 X179.323 Y90.529 E0.01193
G1 X171.037 Y82.244 E0.36866
G1 X171.252 Y81.923 E0.01214
G1 X179.573 Y90.244 E0.37025
G1 X179.816 Y89.952 E0.01196
G1 X171.466 Y81.602 E0.37150
G1 X171.680 Y81.281 E0.01214
G1 X180.030 Y89.631 E0.37150
G1 X180.244 Y89.310 E0.01214
G1 X171.875 Y80.941 E0.37238
G1 X172.052 Y80.582 E0.01257
G1 X180.459 Y88.989 E0.37405
G1 X180.673 Y88.669 E0.01214
G1 X172.228 Y80.224 E0.37573
G1 X172.405 Y79.866 E0.01257
G1 X180.887 Y88.348 E0.37740
G1 X181.102 Y88.027 E0.01214
G1 X172.582 Y79.507 E0.37907
G1 X172.757 Y79.147 E0.01259
G1 X181.316 Y87.706 E0.38081
G1 X181.530 Y87.385 E0.01214
G1 X172.893 Y78.748 E0.38432
G1 X173.028 Y78.348 E0.01327
G1 X181.745 Y87.065 E0.38782
G1 X181.937 Y86.722 E0.01237
G1 X173.164 Y77.949 E0.39034
G1 X173.299 Y77.549 E0.01327
G1 X182.113 Y86.363 E0.39217
G1 X182.290 Y86.005 E0.01257
G1 X173.435 Y77.150 E0.39400
G1 X173.532 Y76.711 E0.01413
G1 X182.467 Y85.647 E0.39757
G1 X182.644 Y85.288 E0.01257
G1 X173.620 Y76.265 E0.40148
G1 X173.709 Y75.819 E0.01432
G1 X182.820 Y84.930 E0.40539
G1 X182.997 Y84.572 E0.01257
G1 X173.798 Y75.372 E0.40931
G1 X173.886 Y74.925 E0.01434
G1 X183.174 Y84.213 E0.41326
G1 X183.351 Y83.855 E0.01257
G1 X173.919 Y74.423 E0.41966
G1 X173.952 Y73.921 E0.01583
G1 X183.515 Y83.484 E0.42551
G1 X183.651 Y83.085 E0.01327
G1 X173.985 Y73.419 E0.43008
G1 X174.017 Y72.916 E0.01583
G1 X183.786 Y82.685 E0.43465
G1 X183.922 Y82.286 E0.01327
G1 X174.004 Y72.368 E0.44127
G1 X173.967 Y71.795 E0.01805
G1 X184.057 Y81.886 E0.44898
G1 X184.193 Y81.487 E0.01327
G1 X173.929 Y71.223 E0.45668
G1 X173.892 Y70.650 E0.01805
G1 X184.329 Y81.087 E0.46438
G1 X184.464 Y80.688 E0.01327
G1 X173.775 Y69.998 E0.47562
G1 X173.642 Y69.330 E0.02143
G1 X184.600 Y80.288 E0.48756
G1 X184.668 Y80.088 E0.00664
G1 X184.712 Y79.865 E0.00715
G1 X173.509 Y68.662 E0.49847
G1 X173.457 Y68.403 E0.00833
G1 X173.289 Y67.907 E0.01645
G1 X184.801 Y79.419 E0.51220
G1 X184.890 Y78.973 E0.01432
G1 X173.014 Y67.097 E0.52838
G1 X172.728 Y66.276 E0.02737
G1 X185.123 Y78.671 E0.55150
G1 X185.212 Y78.224 F10800.000
G1 F1200
G1 X171.834 Y64.847 E0.59522
G1 E-0.80000 F2100.00000
G1 Z0.800 F10800.000
G1 X170.970 Y63.448
G1 Z0.200
G1 E0.80000 F2100.00000
G1 F1200
G1 X185.300 Y77.778 E0.63762
G1 E-0.80000 F2100.00000
G1 Z0.800 F10800.000
G1 X183.479 Y61.509
G1 Z0.200
G1 E0.80000 F2100.00000
G1 F1200
G1 X168.864 Y46.894 E0.65027
G1 X168.116 Y46.525 E0.02623
G1 X167.880 Y46.445 E0.00785
G1 X183.555 Y62.120 E0.69743
G1 X183.830 Y62.930 E0.02692
G1 X167.070 Y46.170 E0.74571
G1 X166.260 Y45.895 E0.02692
G1 X184.105 Y63.740 E0.79399
G1 X184.380 Y64.550 E0.02692
G1 X165.450 Y45.620 E0.84226
G1 X164.640 Y45.345 E0.02692
G1 X184.655 Y65.360 E0.89054
G1 X184.794 Y66.035 E0.02168
G1 X163.965 Y45.206 E0.92678
G1 X163.297 Y45.073 E0.02143
G1 X184.927 Y66.703 E0.96241
G1 X185.060 Y67.371 E0.02143
G1 X162.629 Y44.940 E0.99804
G1 X161.961 Y44.807 E0.02143
G1 X185.193 Y68.039 E1.03367
G1 X185.326 Y68.707 E0.02143
