; generated by PrusaSlicer 2.2.0+win64 on 2020-10-02 at 21:05:42 UTC

; 

; external perimeters extrusion width = 0.45mm
; perimeters extrusion width = 0.45mm
; infill extrusion width = 0.45mm
; solid infill extrusion width = 0.45mm
; top infill extrusion width = 0.40mm
; first layer extrusion width = 0.42mm

M73 P0 R76
M73 Q0 S77
M201 X1000 Y1000 Z1000 E5000 ; sets maximum accelerations, mm/sec^2
M203 X200 Y200 Z12 E120 ; sets maximum feedrates, mm/sec
M204 P1250 R1250 T1250 ; sets acceleration (P, T) and retract acceleration (R), mm/sec^2
M205 X8.00 Y8.00 Z0.40 E1.50 ; sets the jerk limits, mm/sec
M205 S0 T0 ; sets the minimum extruding and travel feed rate, mm/sec
M107
M862.3 P "MK3S" ; printer model check
M862.1 P0.4 ; nozzle diameter check
M115 U3.8.0 ; tell printer latest fw version
G90 ; use absolute coordinates
M83 ; extruder relative mode
M104 S215 ; set extruder temp
M140 S60 ; set bed temp
M190 S60 ; wait for bed temp
M109 S215 ; wait for extruder temp
G28 W ; home all without mesh bed level
G80 ; mesh bed leveling
G1 Y-3.0 F1000.0 ; go outside print area
G92 E0.0
G1 X60.0 E9.0 F1000.0 ; intro line
M73 Q0 S77
M73 P0 R76
G1 X100.0 E12.5 F1000.0 ; intro line
G92 E0.0
M221 S95
G21 ; set units to millimeters
G90 ; use absolute coordinates
M83 ; use relative distances for extrusion
M900 K0.06 ; Filament gcode LA 1.5
M900 K30 ; Filament gcode LA 1.0
;BEFORE_LAYER_CHANGE
G92 E0.0
;0.2


G1 E-0.80000 F2100.00000
G1 Z0.600 F10800.000
;AFTER_LAYER_CHANGE
;0.2
G1 X189.513 Y89.233
G1 Z0.200
G1 E0.80000 F2100.00000
M204 S1000
G1 F1200.000
G1 X187.361 Y89.091 E0.06763
G1 X185.245 Y88.671 E0.06763
G1 X183.203 Y87.977 E0.06763
G1 X181.268 Y87.023 E0.06763
G1 X179.475 Y85.825 E0.06763
G1 X177.853 Y84.403 E0.06763
G1 X176.431 Y82.781 E0.06763
G1 X175.233 Y80.988 E0.06763
G1 X174.279 Y79.054 E0.06763
G1 X173.586 Y77.011 E0.06763
G1 X173.165 Y74.896 E0.06763
G1 X173.024 Y72.744 E0.06763
G1 X173.165 Y70.591 E0.06763
G1 X173.586 Y68.476 E0.06763
G1 X174.279 Y66.434 E0.06763
G1 X175.233 Y64.499 E0.06763
G1 X176.431 Y62.706 E0.06763
G1 X177.853 Y61.084 E0.06763
G1 X179.475 Y59.662 E0.06763
G1 X181.268 Y58.464 E0.06763
G1 X183.203 Y57.510 E0.06763
G1 X185.245 Y56.816 E0.06763
G1 X187.361 Y56.396 E0.06763
G1 X189.513 Y56.255 E0.06763
G1 X191.665 Y56.396 E0.06763
G1 X193.781 Y56.816 E0.06763
G1 X195.823 Y57.510 E0.06763
G1 X197.757 Y58.464 E0.06763
G1 X199.551 Y59.662 E0.06763
G1 X201.172 Y61.084 E0.06763
G1 X202.594 Y62.706 E0.06763
G1 X203.793 Y64.499 E0.06763
G1 X204.747 Y66.434 E0.06763
G1 X205.440 Y68.476 E0.06763
G1 X205.861 Y70.591 E0.06763
G1 X206.002 Y72.744 E0.06763
G1 X205.861 Y74.896 E0.06763
G1 X205.440 Y77.011 E0.06763
G1 X204.747 Y79.054 E0.06763
G1 X203.793 Y80.988 E0.06763
G1 X202.594 Y82.781 E0.06763
G1 X201.172 Y84.403 E0.06763
G1 X199.551 Y85.825 E0.06763
G1 X197.757 Y87.023 E0.06763
G1 X195.823 Y87.977 E0.06763
G1 X193.781 Y88.671 E0.06763
G1 X191.665 Y89.091 E0.06763
G1 X189.573 Y89.229 E0.06575
G1 X189.513 Y88.855 F10800.000
G1 F1200.000
G1 X187.410 Y88.717 E0.06608
G1 X185.343 Y88.306 E0.06608
G1 X183.347 Y87.628 E0.06608
G1 X181.457 Y86.696 E0.06608
G1 X179.705 Y85.525 E0.06608
G1 X178.121 Y84.136 E0.06608
G1 X176.731 Y82.551 E0.06608
G1 X175.560 Y80.799 E0.06608
G1 X174.628 Y78.909 E0.06608
G1 X173.951 Y76.913 E0.06608
G1 X173.540 Y74.846 E0.06608
G1 X173.402 Y72.744 E0.06608
G1 X173.540 Y70.641 E0.06608
G1 X173.951 Y68.574 E0.06608
G1 X174.628 Y66.578 E0.06608
G1 X175.560 Y64.688 E0.06608
G1 X176.731 Y62.936 E0.06608
G1 X178.121 Y61.351 E0.06608
G1 X179.705 Y59.962 E0.06608
G1 X181.457 Y58.791 E0.06608
G1 X183.347 Y57.859 E0.06608
G1 X185.343 Y57.181 E0.06608
G1 X187.410 Y56.770 E0.06608
G1 X189.513 Y56.632 E0.06608
G1 X191.616 Y56.770 E0.06608
G1 X193.683 Y57.181 E0.06608
G1 X195.678 Y57.859 E0.06608
G1 X197.568 Y58.791 E0.06608
G1 X199.321 Y59.962 E0.06608
G1 X200.905 Y61.351 E0.06608
G1 X202.295 Y62.936 E0.06608
G1 X203.466 Y64.688 E0.06608
G1 X204.398 Y66.578 E0.06608
G1 X205.075 Y68.574 E0.06608
G1 X205.486 Y70.641 E0.06608
G1 X205.624 Y72.744 E0.06608
G1 X205.486 Y74.846 E0.06608
G1 X205.075 Y76.913 E0.06608
G1 X204.398 Y78.909 E0.06608
G1 X203.465 Y80.799 E0.06608
G1 X202.295 Y82.551 E0.06608
G1 X200.905 Y84.136 E0.06608
G1 X199.321 Y85.525 E0.06608
G1 X197.568 Y86.696 E0.06608
G1 X195.678 Y87.628 E0.06608
G1 X193.683 Y88.306 E0.06608
G1 X191.616 Y88.717 E0.06608
G1 X189.573 Y88.851 E0.06420
G1 X189.313 Y89.201 F10800.000
G1 E-0.80000 F2100.00000
G1 Z0.800 F10800.000
G1 X189.513 Y101.405
G1 Z0.200
G1 E0.80000 F2100.00000
G1 F1200.000
G1 X185.772 Y101.160 E0.11755
G1 X182.095 Y100.429 E0.11755
G1 X178.545 Y99.223 E0.11755
G1 X175.182 Y97.565 E0.11755
G1 X172.065 Y95.482 E0.11755
G1 X169.246 Y93.010 E0.11755
G1 X166.774 Y90.192 E0.11755
G1 X164.691 Y87.074 E0.11755
G1 X163.033 Y83.712 E0.11755
G1 X161.828 Y80.162 E0.11755
G1 X161.096 Y76.485 E0.11755
G1 X160.851 Y72.744 E0.11755
G1 X161.096 Y69.002 E0.11755
G1 X161.828 Y65.325 E0.11755
G1 X163.033 Y61.775 E0.11755
G1 X164.691 Y58.413 E0.11755
G1 X166.774 Y55.295 E0.11755
G1 X169.246 Y52.477 E0.11755
G1 X172.065 Y50.005 E0.11755
G1 X175.182 Y47.922 E0.11755
G1 X178.545 Y46.264 E0.11755
G1 X182.095 Y45.059 E0.11755
G1 X185.772 Y44.327 E0.11755
G1 X189.513 Y44.082 E0.11755
G1 X193.254 Y44.327 E0.11755
G1 X196.931 Y45.059 E0.11755
G1 X200.481 Y46.264 E0.11755
G1 X203.844 Y47.922 E0.11755
G1 X206.961 Y50.005 E0.11755
G1 X209.780 Y52.477 E0.11755
G1 X212.252 Y55.295 E0.11755
G1 X214.335 Y58.413 E0.11755
G1 X215.993 Y61.775 E0.11755
G1 X217.198 Y65.325 E0.11755
G1 X217.929 Y69.002 E0.11755
G1 X218.175 Y72.744 E0.11755
G1 X217.929 Y76.485 E0.11755
G1 X217.198 Y80.162 E0.11755
G1 X215.993 Y83.712 E0.11755
G1 X214.335 Y87.074 E0.11755
G1 X212.252 Y90.192 E0.11755
G1 X209.780 Y93.010 E0.11755
G1 X206.961 Y95.482 E0.11755
G1 X203.844 Y97.565 E0.11755
G1 X200.481 Y99.223 E0.11755
G1 X196.931 Y100.429 E0.11755
G1 X193.254 Y101.160 E0.11755
G1 X189.573 Y101.401 E0.11567
G1 X189.513 Y101.783 F10800.000
G1 F1200.000
G1 X185.722 Y101.535 E0.11910
G1 X181.997 Y100.794 E0.11910
G1 X178.400 Y99.573 E0.11910
G1 X174.993 Y97.893 E0.11910
G1 X171.835 Y95.782 E0.11910
G1 X168.979 Y93.278 E0.11910
G1 X166.474 Y90.422 E0.11910
G1 X164.364 Y87.263 E0.11910
G1 X162.684 Y83.857 E0.11910
G1 X161.463 Y80.260 E0.11910
G1 X160.722 Y76.534 E0.11910
G1 X160.473 Y72.744 E0.11910
G1 X160.722 Y68.953 E0.11910
G1 X161.463 Y65.228 E0.11910
G1 X162.684 Y61.631 E0.11910
G1 X164.364 Y58.224 E0.11910
G1 X166.474 Y55.065 E0.11910
G1 X168.979 Y52.210 E0.11910
G1 X171.835 Y49.705 E0.11910
G1 X174.993 Y47.595 E0.11910
G1 X178.400 Y45.915 E0.11910
G1 X181.997 Y44.694 E0.11910
G1 X185.722 Y43.952 E0.11910
G1 X189.513 Y43.704 E0.11910
G1 X193.303 Y43.952 E0.11910
G1 X197.029 Y44.694 E0.11910
G1 X200.626 Y45.915 E0.11910
G1 X204.033 Y47.595 E0.11910
G1 X207.191 Y49.705 E0.11910
G1 X210.047 Y52.210 E0.11910
G1 X212.552 Y55.065 E0.11910
G1 X214.662 Y58.224 E0.11910
G1 X216.342 Y61.631 E0.11910
G1 X217.563 Y65.228 E0.11910
G1 X218.304 Y68.953 E0.11910
G1 X218.552 Y72.744 E0.11910
G1 X218.304 Y76.534 E0.11910
G1 X217.563 Y80.260 E0.11910
G1 X216.342 Y83.857 E0.11910
G1 X214.662 Y87.263 E0.11910
G1 X212.551 Y90.422 E0.11910
G1 X210.047 Y93.278 E0.11910
G1 X207.191 Y95.782 E0.11910
G1 X204.033 Y97.893 E0.11910
G1 X200.626 Y99.573 E0.11910
G1 X197.029 Y100.794 E0.11910
G1 X193.303 Y101.535 E0.11910
G1 X189.573 Y101.779 E0.11722
G1 X189.313 Y101.437 F10800.000
G1 E-0.80000 F2100.00000
G1 Z0.800 F10800.000
G1 X180.217 Y86.457
G1 Z0.200
G1 E0.80000 F2100.00000
G1 F1200.000
G1 X194.403 Y100.643 E0.63120
G1 X194.849 Y100.554 E0.01432
G1 X181.989 Y87.694 E0.57219
G1 X183.045 Y88.215 E0.03703
G1 X195.296 Y100.466 E0.54507
G1 X195.742 Y100.377 E0.01432
G1 X183.867 Y88.501 E0.52838
G1 X184.677 Y88.776 E0.02692
G1 X196.188 Y100.288 E0.51219
G1 X196.635 Y100.199 E0.01432
G1 X185.432 Y88.996 E0.49847
G1 X186.100 Y89.129 E0.02143
G1 X197.058 Y100.087 E0.48756
G1 X197.457 Y99.951 E0.01327
G1 X186.768 Y89.262 E0.47562
G1 X187.420 Y89.379 E0.02084
G1 X197.857 Y99.816 E0.46438
G1 X198.256 Y99.680 E0.01327
G1 X187.992 Y89.416 E0.45668
G1 X188.565 Y89.454 E0.01805
G1 X198.656 Y99.545 E0.44898
G1 X199.055 Y99.409 E0.01327
G1 X189.137 Y89.491 E0.44127
G1 X189.513 Y89.516 E0.01184
G1 X189.686 Y89.505 E0.00545
G1 X199.455 Y99.273 E0.43465
G1 X199.854 Y99.138 E0.01327
G1 X190.188 Y89.472 E0.43008
G1 X190.690 Y89.439 E0.01583
G1 X200.254 Y99.002 E0.42551
G1 X200.624 Y98.838 E0.01276
G1 X191.192 Y89.406 E0.41966
G1 X191.695 Y89.373 E0.01583
G1 X200.983 Y98.661 E0.41326
G1 X201.341 Y98.484 E0.01257
G1 X192.142 Y89.285 E0.40931
G1 X192.588 Y89.196 E0.01432
G1 X201.699 Y98.307 E0.40539
G1 X202.058 Y98.131 E0.01257
G1 X193.034 Y89.107 E0.40148
G1 X193.481 Y89.019 E0.01432
G1 X202.416 Y97.954 E0.39757
G1 X202.774 Y97.777 E0.01257
G1 X193.919 Y88.922 E0.39400
G1 X194.319 Y88.787 E0.01327
G1 X203.133 Y97.601 E0.39217
G1 X203.491 Y97.424 E0.01257
G1 X194.718 Y88.651 E0.39034
G1 X195.118 Y88.515 E0.01327
G1 X203.834 Y97.232 E0.38782
G1 X204.155 Y97.017 E0.01214
G1 X195.517 Y88.380 E0.38432
G1 X195.917 Y88.244 E0.01327
G1 X204.476 Y96.803 E0.38081
G1 X204.796 Y96.589 E0.01214
G1 X196.277 Y88.069 E0.37907
G1 X196.635 Y87.892 E0.01257
G1 X205.117 Y96.374 E0.37740
G1 X205.438 Y96.160 E0.01214
G1 X196.993 Y87.715 E0.37573
G1 X197.352 Y87.539 E0.01257
G1 X205.759 Y95.946 E0.37405
G1 X206.079 Y95.731 E0.01214
G1 X197.710 Y87.362 E0.37238
G1 X197.899 Y87.269 E0.00663
G1 X198.051 Y87.168 E0.00574
G1 X206.400 Y95.517 E0.37150
G1 X206.721 Y95.303 E0.01214
G1 X198.372 Y86.953 E0.37150
G1 X198.692 Y86.739 E0.01214
G1 X207.014 Y95.060 E0.37024
G1 X207.299 Y94.810 E0.01193
G1 X199.013 Y86.525 E0.36866
G1 X199.334 Y86.310 E0.01214
G1 X207.584 Y94.560 E0.36707
G1 X207.869 Y94.310 E0.01193
G1 X199.655 Y86.096 E0.36548
M73 Q1 S76
G1 X199.947 Y85.853 E0.01196
G1 X208.154 Y94.060 E0.36514
M73 P1 R75
G1 X208.439 Y93.810 E0.01193
G1 X200.232 Y85.603 E0.36514
G1 X200.517 Y85.353 E0.01193
G1 X208.724 Y93.560 E0.36514
G1 X209.009 Y93.310 E0.01193
G1 X200.803 Y85.103 E0.36514
G1 X201.088 Y84.853 E0.01193
G1 X209.294 Y93.060 E0.36514
G1 X209.579 Y92.810 E0.01193
G1 X201.373 Y84.603 E0.36514
G1 X201.623 Y84.318 E0.01193
G1 X209.829 Y92.525 E0.36514
G1 X210.079 Y92.240 E0.01193
G1 X201.873 Y84.033 E0.36514
G1 X202.123 Y83.748 E0.01193
G1 X210.329 Y91.955 E0.36514
G1 X210.579 Y91.670 E0.01193
G1 X202.373 Y83.463 E0.36514
G1 X202.623 Y83.178 E0.01193
G1 X210.829 Y91.385 E0.36514
G1 X211.079 Y91.100 E0.01193
G1 X202.865 Y82.885 E0.36548
G1 X203.080 Y82.565 E0.01214
G1 X211.329 Y90.814 E0.36707
G1 X211.579 Y90.529 E0.01193
G1 X203.294 Y82.244 E0.36866
G1 X203.508 Y81.923 E0.01214
G1 X211.829 Y90.244 E0.37024
G1 X212.072 Y89.952 E0.01196
G1 X203.723 Y81.602 E0.37150
G1 X203.937 Y81.281 E0.01214
G1 X212.286 Y89.631 E0.37150
G1 X212.501 Y89.310 E0.01214
G1 X204.131 Y80.941 E0.37238
G1 X204.308 Y80.582 E0.01257
G1 X212.715 Y88.989 E0.37405
G1 X212.929 Y88.669 E0.01214
G1 X204.485 Y80.224 E0.37573
G1 X204.662 Y79.866 E0.01257
G1 X213.144 Y88.348 E0.37740
G1 X213.358 Y88.027 E0.01214
G1 X204.838 Y79.507 E0.37907
G1 X205.014 Y79.147 E0.01259
G1 X213.572 Y87.706 E0.38081
G1 X213.787 Y87.385 E0.01214
G1 X205.149 Y78.748 E0.38432
G1 X205.285 Y78.348 E0.01327
G1 X214.001 Y87.065 E0.38782
G1 X214.193 Y86.722 E0.01237
G1 X205.420 Y77.949 E0.39034
G1 X205.556 Y77.550 E0.01327
G1 X214.370 Y86.363 E0.39217
G1 X214.547 Y86.005 E0.01257
G1 X205.692 Y77.150 E0.39400
G1 X205.788 Y76.711 E0.01413
G1 X214.723 Y85.647 E0.39757
G1 X214.900 Y85.288 E0.01257
G1 X205.877 Y76.265 E0.40148
G1 X205.966 Y75.819 E0.01432
G1 X215.077 Y84.930 E0.40539
G1 X215.254 Y84.572 E0.01257
G1 X206.054 Y75.372 E0.40931
G1 X206.142 Y74.925 E0.01434
G1 X215.430 Y84.213 E0.41326
G1 X215.607 Y83.855 E0.01257
G1 X206.175 Y74.423 E0.41966
G1 X206.208 Y73.921 E0.01583
G1 X215.771 Y83.484 E0.42551
G1 X215.907 Y83.085 E0.01327
G1 X206.241 Y73.419 E0.43008
G1 X206.274 Y72.917 E0.01583
G1 X216.043 Y82.685 E0.43465
G1 X216.178 Y82.286 E0.01327
G1 X206.261 Y72.368 E0.44127
G1 X206.223 Y71.796 E0.01805
G1 X216.314 Y81.886 E0.44898
G1 X216.449 Y81.487 E0.01327
G1 X206.186 Y71.223 E0.45668
G1 X206.148 Y70.650 E0.01805
G1 X216.585 Y81.087 E0.46438
G1 X216.721 Y80.688 E0.01327
G1 X206.031 Y69.998 E0.47562
G1 X205.898 Y69.330 E0.02143
G1 X216.856 Y80.288 E0.48756
G1 X216.924 Y80.088 E0.00664
G1 X216.969 Y79.865 E0.00715
G1 X205.765 Y68.662 E0.49847
G1 X205.714 Y68.403 E0.00833
G1 X205.546 Y67.907 E0.01645
G1 X217.057 Y79.419 E0.51219
G1 X217.146 Y78.973 E0.01432
G1 X205.271 Y67.097 E0.52838
G1 X204.984 Y66.276 E0.02737
G1 X217.235 Y78.526 E0.54507
G1 X217.324 Y78.080 E0.01432
G1 X204.464 Y65.220 E0.57219
G1 X204.038 Y64.357 E0.03027
G1 X203.841 Y64.063 E0.01115
G1 X217.412 Y77.634 E0.60383
G1 X217.501 Y77.187 E0.01432
G1 X185.069 Y44.755 E1.44303
G1 X185.515 Y44.666 E0.01432
G1 X217.590 Y76.741 E1.42712
G1 X217.648 Y76.448 E0.00941
G1 X217.660 Y76.276 E0.00542
G1 X185.981 Y44.597 E1.40951
G1 X186.483 Y44.564 E0.01583
G1 X217.693 Y75.774 E1.38863
G1 X217.725 Y75.271 E0.01583
G1 X186.985 Y44.531 E1.36775
G1 X187.487 Y44.498 E0.01583
G1 X217.758 Y74.769 E1.34687
G1 X217.791 Y74.267 E0.01583
G1 X187.989 Y44.465 E1.32599
G1 X188.492 Y44.432 E0.01583
G1 X217.824 Y73.765 E1.30511
G1 X217.857 Y73.263 E0.01583
G1 X188.994 Y44.399 E1.28423
G1 X189.496 Y44.366 E0.01583
G1 X217.890 Y72.760 E1.26336
G1 X217.855 Y72.190 E0.01798
G1 X190.066 Y44.402 E1.23642
G1 X190.639 Y44.439 E0.01805
G1 X217.817 Y71.618 E1.20927
G1 X217.780 Y71.045 E0.01805
G1 X191.212 Y44.477 E1.18212
M73 Q2 S75
M73 P2 R74
G1 X191.784 Y44.514 E0.01805
G1 X217.742 Y70.472 E1.15497
G1 X217.705 Y69.900 E0.01805
G1 X192.357 Y44.552 E1.12782
G1 X192.929 Y44.589 E0.01805
G1 X217.667 Y69.327 E1.10068
G1 X217.648 Y69.039 E0.00907
G1 X217.582 Y68.707 E0.01067
G1 X193.550 Y44.674 E1.06930
G1 X194.218 Y44.807 E0.02143
G1 X217.449 Y68.039 E1.03367
G1 X217.317 Y67.371 E0.02143
G1 X194.885 Y44.940 E0.99804
G1 X195.553 Y45.073 E0.02143
G1 X217.184 Y66.703 E0.96241
G1 X217.051 Y66.035 E0.02143
G1 X196.221 Y45.206 E0.92678
G1 X196.896 Y45.345 E0.02168
G1 X216.911 Y65.360 E0.89054
G1 X216.636 Y64.550 E0.02692
G1 X197.706 Y45.620 E0.84226
G1 X198.516 Y45.895 E0.02692
G1 X216.361 Y63.740 E0.79399
G1 X216.086 Y62.930 E0.02692
G1 X199.326 Y46.170 E0.74571
G1 X200.137 Y46.445 E0.02692
G1 X215.811 Y62.120 E0.69743
G1 X215.731 Y61.884 E0.00785
G1 X215.362 Y61.136 E0.02623
G1 X201.121 Y46.894 E0.63367
G1 X202.176 Y47.415 E0.03703
G1 X214.842 Y60.080 E0.56353
G1 X214.321 Y59.024 E0.03703
G1 X203.232 Y47.936 E0.49339
G1 X203.702 Y48.167 E0.01649
G1 X204.597 Y48.765 E0.03385
G1 X213.491 Y57.660 E0.39576
G1 X212.414 Y56.047 E0.06102
G1 X206.209 Y49.843 E0.27606
G1 X206.788 Y50.230 E0.02191
G1 X209.576 Y52.674 E0.11665
G1 X211.417 Y54.515 E0.08191
G1 E-0.80000 F2100.00000
G1 Z0.800 F10800.000
G1 X198.809 Y59.030
G1 Z0.200
G1 E0.80000 F2100.00000
G1 F1200.000
G1 X184.623 Y44.844 E0.63120
G1 X184.176 Y44.933 E0.01432
G1 X197.036 Y57.793 E0.57219
G1 X195.981 Y57.272 E0.03703
G1 X183.730 Y45.022 E0.54507
G1 X183.284 Y45.110 E0.01432
G1 X195.159 Y56.986 E0.52838
G1 X194.349 Y56.711 E0.02692
G1 X182.837 Y45.199 E0.51219
G1 X182.391 Y45.288 E0.01432
G1 X193.594 Y56.491 E0.49847
G1 X192.926 Y56.358 E0.02143
G1 X181.968 Y45.400 E0.48756
G1 X181.569 Y45.536 E0.01327
G1 X192.258 Y56.225 E0.47562
G1 X191.606 Y56.108 E0.02084
G1 X181.169 Y45.671 E0.46438
G1 X180.770 Y45.807 E0.01327
G1 X191.034 Y56.071 E0.45668
G1 X190.461 Y56.033 E0.01805
G1 X180.370 Y45.943 E0.44898
G1 X179.971 Y46.078 E0.01327
G1 X189.888 Y55.996 E0.44127
G1 X189.513 Y55.971 E0.01184
G1 X189.340 Y55.983 E0.00545
G1 X179.571 Y46.214 E0.43465
G1 X179.172 Y46.349 E0.01327
G1 X188.838 Y56.015 E0.43008
G1 X188.336 Y56.048 E0.01583
G1 X178.772 Y46.485 E0.42551
G1 X178.402 Y46.649 E0.01276
G1 X187.833 Y56.081 E0.41966
G1 X187.331 Y56.114 E0.01583
G1 X178.043 Y46.826 E0.41326
G1 X177.685 Y47.003 E0.01257
G1 X186.884 Y56.202 E0.40931
G1 X186.438 Y56.291 E0.01432
G1 X177.326 Y47.180 E0.40539
G1 X176.968 Y47.356 E0.01257
