; generated by PrusaSlicer 2.3.1+win64 on 2021-07-22 at 20:05:51 UTC

; 

; external perimeters extrusion width = 0.60mm
; perimeters extrusion width = 0.50mm
; infill extrusion width = 0.50mm
; solid infill extrusion width = 0.50mm
; top infill extrusion width = 0.45mm
; support material extrusion width = 0.38mm
; first layer extrusion width = 0.42mm

M73 P0 R61
M73 Q0 S62
M201 X1000 Y1000 Z1000 E5000 ; sets maximum accelerations, mm/sec^2
M203 X200 Y200 Z12 E120 ; sets maximum feedrates, mm/sec
M204 P1250 R1250 T1250 ; sets acceleration (P, T) and retract acceleration (R), mm/sec^2
M205 X8.00 Y8.00 Z0.40 E1.50 ; sets the jerk limits, mm/sec
M205 S0 T0 ; sets the minimum extruding and travel feed rate, mm/sec
M107
;TYPE:Custom
M862.3 P "MK3S" ; printer model check
M862.1 P0.4 ; nozzle diameter check
M115 U3.8.0 ; tell printer latest fw version
G90 ; use absolute coordinates
M83 ; extruder relative mode
M104 S215 ; set extruder temp
M140 S60 ; set bed temp
M190 S60 ; wait for bed temp
M109 S215 ; wait for extruder temp
G28 W ; home all without mesh bed level
G80 ; mesh bed leveling
G1 Y-3.0 F1000.0 ; go outside print area
G92 E0.0
G1 X60.0 E9.0 F1000.0 ; intro line
G1 X100.0 E12.5 F1000.0 ; intro line
G92 E0.0
M221 S95
G21 ; set units to millimeters
G90 ; use absolute coordinates
M83 ; use relative distances for extrusion
M900 K0.05 ; Filament gcode LA 1.5
M900 K30 ; Filament gcode LA 1.0
;LAYER_CHANGE
;Z:0.2
;HEIGHT:0.2
;BEFORE_LAYER_CHANGE
G92 E0.0
;0.2


G1 E-0.80000 F2100.000
G1 Z0.600 F10800.000
;AFTER_LAYER_CHANGE
;0.2
; printing object bracket.stl id:0 copy 3
G1 X176.634 Y60.346
G1 Z0.200
G1 E0.80000 F2100.000
M204 S1000
;TYPE:Support material
;WIDTH:0.42
G1 F1200.000
G1 X176.634 Y44.942 E0.48297
G1 X177.388 Y44.942 E0.02365
G1 X177.388 Y60.176 E0.47765
G1 X178.142 Y60.176 E0.02365
G1 X178.142 Y44.942 E0.47764
G1 X178.896 Y44.942 E0.02365
G1 X178.896 Y60.176 E0.47764
G1 X179.650 Y60.176 E0.02365
G1 X179.650 Y44.942 E0.47763
G1 X180.404 Y44.942 E0.02365
G1 X180.404 Y60.175 E0.47763
G1 X181.158 Y60.175 E0.02365
G1 X181.158 Y44.942 E0.47762
G1 X181.913 Y44.942 E0.02365
G1 X181.913 Y60.175 E0.47761
G1 X182.667 Y60.175 E0.02365
G1 X182.667 Y44.942 E0.47761
G1 X183.421 Y44.942 E0.02365
G1 X183.421 Y60.175 E0.47760
G1 X183.802 Y60.175 E0.01193
G1 X184.088 Y60.461 E0.01269
G1 X184.089 Y64.774 E0.13525
G1 X184.175 Y64.774 E0.00271
G1 X184.175 Y44.942 E0.62182
G1 X184.929 Y44.942 E0.02365
G1 X184.929 Y64.774 E0.62182
G1 X185.683 Y64.774 E0.02365
G1 X185.683 Y44.942 E0.62182
M73 Q0 S61
G1 X186.438 Y44.942 E0.02365
G1 X186.438 Y64.944 E0.62714
G1 E-0.80000 F2100.000
G1 Z0.800 F10800.000
G1 X186.438 Y97.363
G1 Z0.200
G1 E0.80000 F2100.000
G1 F1200.000
G1 X186.438 Y77.361 E0.62714
G1 X185.683 Y77.361 E0.02365
G1 X185.683 Y97.193 E0.62182
G1 X184.929 Y97.193 E0.02365
G1 X184.929 Y77.361 E0.62182
G1 X184.175 Y77.361 E0.02365
G1 X184.175 Y97.193 E0.62182
G1 X183.421 Y97.193 E0.02365
G1 X183.421 Y81.152 E0.50296
G1 X182.667 Y81.152 E0.02365
G1 X182.667 Y97.193 E0.50296
G1 X181.913 Y97.193 E0.02365
G1 X181.913 Y81.152 E0.50295
G1 X181.158 Y81.152 E0.02365
G1 X181.158 Y97.193 E0.50294
G1 X180.404 Y97.193 E0.02365
G1 X180.404 Y81.153 E0.50294
G1 X179.650 Y81.153 E0.02365
G1 X179.650 Y97.193 E0.50293
G1 X178.896 Y97.193 E0.02365
G1 X178.896 Y81.153 E0.50293
G1 X178.142 Y81.153 E0.02365
G1 X178.142 Y97.193 E0.50292
G1 X177.388 Y97.193 E0.02365
G1 X177.388 Y81.153 E0.50292
G1 X176.634 Y81.153 E0.02365
G1 X176.634 Y97.363 E0.50823
G1 E-0.80000 F2100.000
G1 Z0.800 F10800.000
G1 X167.076 Y76.174
G1 Z0.200
G1 E0.80000 F2100.000
;TYPE:Perimeter
G1 F1200.000
G1 X166.072 Y76.403 E0.03230
G1 X165.279 Y76.455 E0.02491
G1 X165.000 Y76.448 E0.00873
G1 X163.998 Y76.312 E0.03171
G1 X163.011 Y75.992 E0.03255
G1 X162.097 Y75.500 E0.03255
G1 X161.285 Y74.853 E0.03255
G1 X160.602 Y74.071 E0.03255
G1 X160.070 Y73.180 E0.03255
G1 X159.705 Y72.208 E0.03255
G1 X159.520 Y71.187 E0.03255
G1 X159.520 Y70.148 E0.03255
G1 X159.705 Y69.127 E0.03255
G1 X160.070 Y68.155 E0.03255
G1 X160.602 Y67.264 E0.03255
G1 X161.285 Y66.482 E0.03255
G1 X162.097 Y65.835 E0.03255
G1 X163.011 Y65.343 E0.03255
G1 X163.998 Y65.022 E0.03255
G1 X165.000 Y64.887 E0.03171
G1 X165.279 Y64.880 E0.00873
G1 X166.072 Y64.931 E0.02491
G1 X167.076 Y65.161 E0.03230
G1 X168.030 Y65.569 E0.03255
G1 X168.897 Y66.141 E0.03255
G1 X169.647 Y66.858 E0.03255
G1 X170.257 Y67.698 E0.03255
G1 X170.708 Y68.633 E0.03255
G1 X170.984 Y69.634 E0.03255
G1 X171.077 Y70.667 E0.03255
G1 X170.984 Y71.701 E0.03255
G1 X170.708 Y72.702 E0.03255
G1 X170.257 Y73.637 E0.03255
G1 X169.647 Y74.477 E0.03255
G1 X168.897 Y75.194 E0.03255
G1 X168.030 Y75.766 E0.03255
G1 X167.131 Y76.151 E0.03067
G1 X166.983 Y75.804 F10800.000
;TYPE:External perimeter
G1 F1200.000
G1 X166.017 Y76.029 E0.03109
G1 X165.271 Y76.077 E0.02345
G1 X165.030 Y76.072 E0.00755
G1 X164.082 Y75.943 E0.02998
G1 X163.160 Y75.644 E0.03042
G1 X162.305 Y75.184 E0.03042
G1 X161.547 Y74.579 E0.03042
G1 X160.909 Y73.848 E0.03042
G1 X160.411 Y73.016 E0.03042
G1 X160.070 Y72.107 E0.03042
G1 X159.897 Y71.153 E0.03042
G1 X159.897 Y70.182 E0.03042
G1 X160.070 Y69.228 E0.03042
G1 X160.411 Y68.319 E0.03042
G1 X160.909 Y67.487 E0.03042
G1 X161.547 Y66.756 E0.03042
G1 X162.305 Y66.151 E0.03042
G1 X163.160 Y65.691 E0.03042
G1 X164.082 Y65.392 E0.03042
G1 X165.030 Y65.263 E0.02998
G1 X165.271 Y65.258 E0.00755
G1 X166.017 Y65.306 E0.02345
G1 X166.959 Y65.521 E0.03028
G1 X167.851 Y65.902 E0.03042
G1 X168.661 Y66.437 E0.03042
G1 X169.362 Y67.107 E0.03042
G1 X169.932 Y67.892 E0.03042
G1 X170.353 Y68.766 E0.03042
G1 X170.611 Y69.701 E0.03042
G1 X170.698 Y70.667 E0.03042
G1 X170.611 Y71.634 E0.03042
G1 X170.353 Y72.569 E0.03042
G1 X169.932 Y73.443 E0.03042
M73 P1 R61
G1 X169.362 Y74.228 E0.03042
M73 Q1 S61
G1 X168.661 Y74.898 E0.03042
G1 X167.851 Y75.433 E0.03042
G1 X167.038 Y75.780 E0.02772
G1 X166.901 Y76.196 F10800.000
G1 E-0.80000 F2100.000
G1 Z0.800 F10800.000
G1 X143.299 Y93.231
G1 Z0.200
G1 E0.80000 F2100.000
;TYPE:Perimeter
G1 F1200.000
G1 X143.909 Y94.071 E0.03255
G1 X144.360 Y95.006 E0.03255
G1 X144.636 Y96.007 E0.03255
G1 X144.729 Y97.041 E0.03255
G1 X144.636 Y98.074 E0.03255
G1 X144.360 Y99.075 E0.03255
G1 X143.909 Y100.010 E0.03255
G1 X143.299 Y100.850 E0.03255
G1 X142.549 Y101.568 E0.03255
G1 X141.682 Y102.139 E0.03255
G1 X140.728 Y102.547 E0.03255
G1 X139.716 Y102.778 E0.03255
G1 X138.679 Y102.825 E0.03255
G1 X137.650 Y102.686 E0.03255
G1 X136.663 Y102.365 E0.03255
G1 X135.749 Y101.873 E0.03255
G1 X134.937 Y101.226 E0.03255
G1 X134.254 Y100.444 E0.03255
G1 X133.722 Y99.553 E0.03255
G1 X133.357 Y98.581 E0.03255
G1 X133.174 Y97.575 E0.03207
G1 X133.153 Y96.989 E0.01838
G1 X133.175 Y96.504 E0.01521
G1 X133.357 Y95.500 E0.03199
G1 X133.722 Y94.528 E0.03255
G1 X134.254 Y93.637 E0.03255
G1 X134.937 Y92.855 E0.03255
G1 X135.749 Y92.208 E0.03255
G1 X136.663 Y91.716 E0.03255
G1 X137.650 Y91.396 E0.03255
G1 X138.679 Y91.256 E0.03255
G1 X139.716 Y91.303 E0.03255
G1 X140.728 Y91.534 E0.03255
G1 X141.682 Y91.942 E0.03255
G1 X142.549 Y92.514 E0.03255
G1 X143.256 Y93.189 E0.03067
G1 X142.995 Y93.462 F10800.000
;TYPE:External perimeter
G1 F1200.000
G1 X143.584 Y94.265 E0.03122
G1 X144.005 Y95.139 E0.03042
G1 X144.263 Y96.074 E0.03042
G1 X144.350 Y97.041 E0.03042
G1 X144.263 Y98.007 E0.03042
G1 X144.005 Y98.942 E0.03042
G1 X143.584 Y99.816 E0.03042
G1 X143.014 Y100.601 E0.03042
G1 X142.313 Y101.272 E0.03042
G1 X141.503 Y101.806 E0.03042
G1 X140.611 Y102.187 E0.03042
G1 X139.665 Y102.403 E0.03042
G1 X138.696 Y102.447 E0.03042
G1 X137.734 Y102.317 E0.03042
G1 X136.812 Y102.017 E0.03042
G1 X135.957 Y101.557 E0.03042
G1 X135.199 Y100.952 E0.03042
G1 X134.560 Y100.221 E0.03042
G1 X134.063 Y99.389 E0.03042
G1 X133.722 Y98.480 E0.03042
G1 X133.550 Y97.534 E0.03016
G1 X133.530 Y96.990 E0.01705
G1 X133.550 Y96.546 E0.01394
G1 X133.722 Y95.601 E0.03013
G1 X134.063 Y94.693 E0.03042
G1 X134.560 Y93.860 E0.03042
G1 X135.199 Y93.129 E0.03042
G1 X135.957 Y92.524 E0.03042
G1 X136.812 Y92.064 E0.03042
G1 X137.734 Y91.765 E0.03042
G1 X138.696 Y91.634 E0.03042
G1 X139.665 Y91.678 E0.03042
G1 X140.611 Y91.894 E0.03042
G1 X141.503 Y92.275 E0.03042
G1 X142.313 Y92.810 E0.03042
G1 X142.952 Y93.421 E0.02772
G1 X143.387 Y93.383 F10800.000
G1 E-0.80000 F2100.000
G1 Z0.800 F10800.000
G1 X169.126 Y79.880
G1 Z0.200
G1 E0.80000 F2100.000
;TYPE:Perimeter
G1 F1200.000
G1 X145.867 Y103.117 E1.03088
G1 X144.633 Y104.279 E0.05312
G1 X143.263 Y105.172 E0.05128
G1 X141.757 Y105.809 E0.05128
G1 X140.162 Y106.169 E0.05128
G1 X138.528 Y106.241 E0.05128
G1 X136.907 Y106.024 E0.05128
G1 X135.350 Y105.523 E0.05128
G1 X133.906 Y104.754 E0.05128
G1 X132.621 Y103.742 E0.05128
G1 X131.536 Y102.519 E0.05128
G1 X130.683 Y101.123 E0.05128
G1 X130.091 Y99.599 E0.05128
M73 P1 R60
G1 X129.775 Y97.979 E0.05174
G1 X129.729 Y97.080 E0.02824
G1 X129.751 Y96.377 E0.02204
G1 X130.019 Y94.745 E0.05187
G1 X130.566 Y93.203 E0.05128
G1 X131.377 Y91.783 E0.05128
G1 X132.701 Y90.200 E0.06471
G1 X158.751 Y64.174 E1.15458
G1 X159.873 Y63.215 E0.04626
G1 X161.104 Y62.461 E0.04528
G1 X162.439 Y61.908 E0.04528
G1 X163.843 Y61.570 E0.04528
G1 X165.298 Y61.455 E0.04576
G1 X182.812 Y61.451 E0.54917
G1 X182.817 Y79.876 E0.57773
G1 X169.186 Y79.880 E0.42738
G1 X169.282 Y80.257 F10800.000
;TYPE:External perimeter
G1 F1200.000
G1 X146.129 Y103.388 E1.02616
G1 X144.867 Y104.576 E0.05435
G1 X143.441 Y105.506 E0.05339
G1 X141.873 Y106.169 E0.05339
G1 X140.212 Y106.544 E0.05339
G1 X138.511 Y106.619 E0.05339
G1 X136.823 Y106.393 E0.05339
G1 X135.203 Y105.871 E0.05339
G1 X133.699 Y105.071 E0.05339
G1 X132.362 Y104.018 E0.05339
G1 X131.231 Y102.744 E0.05339
G1 X130.344 Y101.291 E0.05339
G1 X129.727 Y99.704 E0.05339
G1 X129.400 Y98.025 E0.05363
G1 X129.351 Y97.084 E0.02957
G1 X129.375 Y96.340 E0.02331
G1 X129.653 Y94.650 E0.05370
G1 X130.222 Y93.046 E0.05339
G1 X131.066 Y91.567 E0.05339
G1 X132.422 Y89.945 E0.06630
G1 X158.495 Y63.896 E1.15557
G1 X159.651 Y62.909 E0.04765
G1 X160.933 Y62.124 E0.04714
G1 X162.322 Y61.548 E0.04714
G1 X163.783 Y61.197 E0.04714
G1 X165.283 Y61.078 E0.04715
G1 X183.189 Y61.073 E0.56146
G1 X183.194 Y80.253 E0.60138
G1 X169.342 Y80.257 E0.43431
G1 X168.891 Y80.173 F10800.000
G1 E-0.80000 F2100.000
G1 Z0.800 F10800.000
G1 X182.700 Y62.330
G1 Z0.200
G1 E0.80000 F2100.000
;TYPE:Solid infill
;WIDTH:0.4218
G1 F1200.000
G1 X182.103 Y61.734 E0.02657
G1 X181.567 Y61.734 E0.01688
G1 X182.530 Y62.696 E0.04288
G1 X182.530 Y63.232 E0.01688
G1 X181.032 Y61.734 E0.06676
G1 X180.496 Y61.734 E0.01688
G1 X182.530 Y63.768 E0.09063
G1 X182.530 Y64.304 E0.01688
G1 X179.960 Y61.734 E0.11450
G1 X179.425 Y61.734 E0.01688
G1 X182.530 Y64.840 E0.13837
G1 X182.531 Y65.376 E0.01688
G1 X178.889 Y61.734 E0.16224
G1 X178.353 Y61.734 E0.01688
G1 X182.531 Y65.912 E0.18612
G1 X182.531 Y66.448 E0.01688
G1 X177.818 Y61.735 E0.20999
G1 X177.282 Y61.735 E0.01688
G1 X182.531 Y66.984 E0.23386
G1 X182.531 Y67.520 E0.01688
G1 X176.746 Y61.735 E0.25773
G1 X176.211 Y61.735 E0.01688
G1 X182.531 Y68.056 E0.28160
G1 X182.531 Y68.592 E0.01688
G1 X175.675 Y61.735 E0.30548
G1 X175.139 Y61.735 E0.01688
G1 X182.531 Y69.127 E0.32935
G1 X182.532 Y69.663 E0.01688
G1 X174.603 Y61.735 E0.35322
G1 X174.068 Y61.736 E0.01688
G1 X182.532 Y70.199 E0.37709
G1 X182.532 Y70.735 E0.01688
G1 X173.532 Y61.736 E0.40096
G1 X172.996 Y61.736 E0.01688
G1 X182.532 Y71.271 E0.42484
G1 X182.532 Y71.807 E0.01688
G1 X172.461 Y61.736 E0.44871
G1 X171.925 Y61.736 E0.01688
G1 X182.532 Y72.343 E0.47258
G1 X182.532 Y72.879 E0.01688
G1 X171.389 Y61.736 E0.49645
G1 X170.854 Y61.736 E0.01688
G1 X182.532 Y73.415 E0.52032
G1 X182.533 Y73.951 E0.01688
G1 X170.318 Y61.736 E0.54420
G1 X169.782 Y61.737 E0.01688
G1 X182.533 Y74.487 E0.56807
G1 X182.533 Y75.023 E0.01688
G1 X169.247 Y61.737 E0.59194
G1 X168.711 Y61.737 E0.01688
G1 X182.533 Y75.559 E0.61581
G1 X182.533 Y76.095 E0.01688
G1 X168.175 Y61.737 E0.63969
G1 X167.640 Y61.737 E0.01688
G1 X182.533 Y76.631 E0.66356
M73 P2 R60
M73 Q2 S61
G1 X182.533 Y77.167 E0.01688
G1 X167.104 Y61.737 E0.68743
G1 X166.568 Y61.737 E0.01688
G1 X182.533 Y77.703 E0.71130
G1 X182.533 Y78.238 E0.01688
G1 X166.033 Y61.738 E0.73517
G1 X165.497 Y61.738 E0.01688
G1 X182.534 Y78.774 E0.75905
M73 Q2 S60
G1 X182.534 Y79.310 E0.01688
G1 X164.987 Y61.763 E0.78178
G1 X164.490 Y61.803 E0.01569
G1 X167.888 Y65.200 E0.15137
G1 X168.165 Y65.319 E0.00950
G1 X169.074 Y65.919 E0.03431
G1 X169.861 Y66.671 E0.03431
G1 X170.501 Y67.552 E0.03431
G1 X170.744 Y68.056 E0.01762
G1 X182.281 Y79.594 E0.51404
G1 X181.746 Y79.594 E0.01688
G1 X171.083 Y68.932 E0.47504
G1 X171.269 Y69.653 E0.02348
G1 X181.210 Y79.594 E0.44288
G1 X180.674 Y79.594 E0.01688
G1 X171.322 Y70.242 E0.41665
G1 X171.361 Y70.667 E0.01345
G1 X171.348 Y70.804 E0.00432
G1 X180.138 Y79.594 E0.39163
G1 X179.603 Y79.594 E0.01688
G1 X171.304 Y71.296 E0.36973
G1 X171.255 Y71.782 E0.01540
G1 X179.067 Y79.594 E0.34807
G1 X178.531 Y79.595 E0.01688
G1 X171.139 Y72.202 E0.32936
G1 X171.023 Y72.622 E0.01372
G1 X177.996 Y79.595 E0.31066
G1 X177.460 Y79.595 E0.01688
G1 X170.874 Y73.009 E0.29344
G1 X170.700 Y73.370 E0.01265
G1 X176.924 Y79.595 E0.27733
G1 X176.389 Y79.595 E0.01688
G1 X170.525 Y73.732 E0.26122
G1 X170.307 Y74.049 E0.01214
G1 X175.853 Y79.595 E0.24708
G1 X175.317 Y79.595 E0.01688
G1 X170.082 Y74.360 E0.23326
G1 X169.855 Y74.669 E0.01208
G1 X174.782 Y79.595 E0.21948
G1 X174.246 Y79.596 E0.01688
G1 X169.581 Y74.931 E0.20782
G1 X169.307 Y75.193 E0.01194
G1 X173.710 Y79.596 E0.19616
G1 X173.174 Y79.596 E0.01688
G1 X169.026 Y75.448 E0.18481
G1 X168.704 Y75.661 E0.01218
G1 X172.639 Y79.596 E0.17532
G1 X172.103 Y79.596 E0.01688
G1 X168.381 Y75.874 E0.16584
G1 X168.165 Y76.016 E0.00815
G1 X168.041 Y76.069 E0.00426
G1 X171.567 Y79.596 E0.15713
G1 X171.032 Y79.596 E0.01688
G1 X167.665 Y76.230 E0.14998
G1 X167.290 Y76.390 E0.01286
G1 X170.496 Y79.596 E0.14284
G1 X169.960 Y79.597 E0.01688
G1 X166.874 Y76.510 E0.13750
G1 X166.438 Y76.610 E0.01410
G1 X169.425 Y79.597 E0.13307
G1 X169.009 Y79.597 E0.01309
G1 X168.949 Y79.657 E0.00268
G1 X165.985 Y76.692 E0.13207
G1 X165.481 Y76.725 E0.01589
G1 X168.681 Y79.925 E0.14256
G1 X168.413 Y80.192 E0.01194
G1 X164.947 Y76.726 E0.15442
G1 X164.327 Y76.642 E0.01971
G1 X168.145 Y80.460 E0.17009
G1 X167.877 Y80.728 E0.01194
G1 X163.644 Y76.495 E0.18861
G1 X162.899 Y76.253 E0.02465
G1 X162.827 Y76.214 E0.00258
G1 X167.729 Y81.116 E0.21838
G1 E-0.80000 F2100.000
G1 Z0.800 F10800.000
G1 X167.274 Y65.122
G1 Z0.200
G1 E0.80000 F2100.000
G1 F1200.000
G1 X163.994 Y61.842 E0.14615
G1 X163.887 Y61.851 E0.00337
G1 X163.548 Y61.932 E0.01099
G1 X166.312 Y64.696 E0.12316
G1 X166.112 Y64.651 E0.00646
G1 X165.705 Y64.624 E0.01287
G1 X163.116 Y62.036 E0.11533
G1 X162.684 Y62.140 E0.01400
G1 X165.145 Y64.601 E0.10964
G1 X164.656 Y64.648 E0.01546
G1 X162.286 Y62.277 E0.10562
G1 X161.907 Y62.434 E0.01292
G1 X164.185 Y64.712 E0.10147
G1 X163.935 Y64.746 E0.00794
G1 X163.744 Y64.808 E0.00631
G1 X161.528 Y62.591 E0.09874
G1 X161.160 Y62.759 E0.01275
G1 X163.340 Y64.939 E0.09714
G1 X162.936 Y65.070 E0.01340
G1 X160.827 Y62.962 E0.09393
G1 X160.495 Y63.166 E0.01228
G1 X162.582 Y65.253 E0.09298
G1 X162.234 Y65.440 E0.01246
G1 X160.163 Y63.369 E0.09227
G1 X160.040 Y63.445 E0.00454
G1 X159.858 Y63.600 E0.00754
G1 X161.893 Y65.636 E0.09069
G1 X161.595 Y65.873 E0.01201
G1 X159.569 Y63.847 E0.09028
G1 X159.280 Y64.094 E0.01197
G1 X161.297 Y66.111 E0.08987
G1 X161.089 Y66.277 E0.00839
G1 X161.014 Y66.363 E0.00361
G1 X158.991 Y64.341 E0.09011
G1 X158.944 Y64.381 E0.00197
G1 X158.720 Y64.605 E0.00997
G1 X160.764 Y66.649 E0.09107
G1 X160.514 Y66.935 E0.01196
G1 X158.452 Y64.873 E0.09189
G1 X158.184 Y65.141 E0.01194
G1 X160.286 Y67.243 E0.09365
G1 X160.085 Y67.578 E0.01231
G1 X157.916 Y65.408 E0.09666
G1 X157.647 Y65.676 E0.01194
G1 X159.885 Y67.913 E0.09968
G1 X159.814 Y68.032 E0.00435
G1 X159.719 Y68.284 E0.00848
G1 X157.379 Y65.944 E0.10425
G1 X157.111 Y66.212 E0.01194
G1 X159.573 Y68.674 E0.10968
G1 X159.429 Y69.065 E0.01315
G1 X156.843 Y66.480 E0.11519
G1 X156.575 Y66.747 E0.01194
G1 X159.347 Y69.519 E0.12347
G1 X159.264 Y69.972 E0.01452
