; generated by PrusaSlicer 2.3.1+win64 on 2022-05-30 at 16:57:40 UTC

; 

; external perimeters extrusion width = 0.45mm
; perimeters extrusion width = 0.45mm
; infill extrusion width = 0.45mm
; solid infill extrusion width = 0.45mm
; top infill extrusion width = 0.40mm
; first layer extrusion width = 0.42mm

M73 P0 R94
M73 Q0 S94
M201 X1000 Y1000 Z1000 E5000 ; sets maximum accelerations, mm/sec^2
M203 X200 Y200 Z12 E120 ; sets maximum feedrates, mm/sec
M204 P1250 R1250 T1250 ; sets acceleration (P, T) and retract acceleration (R), mm/sec^2
M205 X8.00 Y8.00 Z0.40 E1.50 ; sets the jerk limits, mm/sec
M205 S0 T0 ; sets the minimum extruding and travel feed rate, mm/sec
M107
;TYPE:Custom
M862.3 P "MK3S" ; printer model check
M862.1 P0.4 ; nozzle diameter check
M115 U3.8.0 ; tell printer latest fw version
G90 ; use absolute coordinates
M83 ; extruder relative mode
M104 S215 ; set extruder temp
M140 S60 ; set bed temp
M190 S60 ; wait for bed temp
M109 S215 ; wait for extruder temp
G28 W ; home all without mesh bed level
G80 ; mesh bed leveling
G1 Y-3.0 F1000.0 ; go outside print area
G92 E0.0
G1 X60.0 E9.0 F1000.0 ; intro line
G1 X100.0 E12.5 F1000.0 ; intro line
G92 E0.0
M221 S95
G21 ; set units to millimeters
G90 ; use absolute coordinates
M83 ; use relative distances for extrusion
M900 K0.05 ; Filament gcode LA 1.5
M900 K30 ; Filament gcode LA 1.0
;LAYER_CHANGE
;Z:0.2
;HEIGHT:0.2
;BEFORE_LAYER_CHANGE
G92 E0.0
;0.2


G1 E-0.80000 F2100.000
G1 Z0.600 F11700.000
;AFTER_LAYER_CHANGE
;0.2
G1 X96.861 Y84.890
G1 Z0.200
G1 E0.80000 F2100.000
M204 S1000
;TYPE:Skirt
;WIDTH:0.42
G1 F1080.000
G1 X97.561 Y84.779 E0.02225
G1 X152.426 Y84.779 E1.72024
G1 X153.314 Y84.953 E0.02837
G1 X154.076 Y85.449 E0.02849
G1 X154.594 Y86.190 E0.02837
G1 X154.798 Y87.075 E0.02849
G1 X154.798 Y122.908 E1.12351
G1 X154.719 Y123.457 E0.01740
G1 X154.514 Y123.973 E0.01740
G1 X154.192 Y124.430 E0.01752
G1 X153.776 Y124.797 E0.01740
G1 X153.139 Y125.110 E0.02225
G1 X152.439 Y125.221 E0.02225
G1 X97.551 Y125.220 E1.72096
G1 X96.990 Y125.147 E0.01775
G1 X96.465 Y124.944 E0.01763
G1 X96.000 Y124.621 E0.01775
G1 X95.624 Y124.198 E0.01775
G1 X95.313 Y123.564 E0.02213
G1 X95.201 Y122.871 E0.02201
G1 X95.201 Y87.118 E1.12100
G1 X95.277 Y86.561 E0.01763
G1 X95.481 Y86.037 E0.01763
G1 X95.802 Y85.576 E0.01763
G1 X96.224 Y85.203 E0.01763
G1 X96.807 Y84.917 E0.02037
; printing object obelisk-diffuser.STL id:0 copy 0
G1 E-0.80000 F2100.000
G1 Z0.800 F11700.000
G1 X111.216 Y95.442
G1 Z0.200
G1 E0.80000 F2100.000
;TYPE:Perimeter
G1 F1080.000
G1 X111.733 Y94.734 E0.02747
G1 X112.385 Y93.951 E0.03195
G1 X113.083 Y93.210 E0.03192
G1 X113.824 Y92.512 E0.03192
G1 X114.606 Y91.861 E0.03192
G1 X115.426 Y91.257 E0.03192
G1 X116.281 Y90.705 E0.03192
G1 X117.114 Y90.235 E0.02999
G1 X118.082 Y89.759 E0.03382
G1 X119.024 Y89.369 E0.03195
G1 X119.986 Y89.037 E0.03192
G1 X120.967 Y88.764 E0.03192
G1 X121.962 Y88.550 E0.03192
G1 X122.969 Y88.397 E0.03192
G1 X123.982 Y88.305 E0.03192
G1 X124.938 Y88.276 E0.02999
G1 X126.017 Y88.305 E0.03382
G1 X127.031 Y88.397 E0.03195
G1 X128.038 Y88.550 E0.03192
G1 X129.033 Y88.764 E0.03192
G1 X129.954 Y89.021 E0.02999
G1 X130.975 Y89.369 E0.03382
G1 X131.917 Y89.759 E0.03195
G1 X132.832 Y90.204 E0.03192
G1 X133.719 Y90.705 E0.03192
M73 P0 R93
G1 X134.522 Y91.224 E0.02999
G1 X135.393 Y91.860 E0.03382
G1 X136.176 Y92.512 E0.03195
G1 X136.917 Y93.210 E0.03192
G1 X137.615 Y93.951 E0.03192
G1 X138.266 Y94.733 E0.03192
G1 X138.870 Y95.553 E0.03192
G1 X139.422 Y96.408 E0.03192
G1 X139.923 Y97.295 E0.03192
G1 X140.368 Y98.210 E0.03192
G1 X140.758 Y99.151 E0.03192
G1 X141.090 Y100.113 E0.03192
G1 X141.363 Y101.094 E0.03192
G1 X141.577 Y102.089 E0.03192
G1 X141.730 Y103.096 E0.03192
G1 X141.822 Y104.109 E0.03192
G1 X141.853 Y105.127 E0.03192
G1 X141.822 Y106.145 E0.03192
G1 X141.730 Y107.158 E0.03192
G1 X141.577 Y108.165 E0.03192
G1 X141.363 Y109.160 E0.03192
G1 X141.090 Y110.141 E0.03192
G1 X140.758 Y111.103 E0.03192
G1 X140.368 Y112.044 E0.03192
G1 X139.923 Y112.959 E0.03192
G1 X139.422 Y113.846 E0.03192
G1 X138.870 Y114.701 E0.03192
G1 X138.266 Y115.521 E0.03192
G1 X137.654 Y116.255 E0.02999
G1 X136.918 Y117.043 E0.03382
G1 X136.176 Y117.742 E0.03195
G1 X135.394 Y118.393 E0.03192
G1 X134.574 Y118.997 E0.03192
G1 X133.719 Y119.549 E0.03192
G1 X132.886 Y120.019 E0.02999
M73 Q0 S93
G1 X131.918 Y120.495 E0.03382
G1 X130.976 Y120.885 E0.03195
G1 X130.014 Y121.217 E0.03192
G1 X129.033 Y121.490 E0.03192
G1 X128.038 Y121.704 E0.03192
G1 X127.031 Y121.857 E0.03192
G1 X126.018 Y121.949 E0.03192
G1 X125.000 Y121.980 E0.03192
G1 X123.982 Y121.949 E0.03192
G1 X122.969 Y121.857 E0.03192
G1 X121.962 Y121.704 E0.03192
G1 X120.967 Y121.490 E0.03192
G1 X119.986 Y121.217 E0.03192
G1 X119.024 Y120.885 E0.03192
G1 X118.083 Y120.495 E0.03192
G1 X117.168 Y120.050 E0.03192
G1 X116.281 Y119.549 E0.03192
G1 X115.426 Y118.997 E0.03192
G1 X114.606 Y118.393 E0.03192
G1 X113.872 Y117.781 E0.02999
G1 X113.084 Y117.045 E0.03382
G1 X112.385 Y116.303 E0.03195
G1 X111.734 Y115.521 E0.03192
G1 X111.130 Y114.701 E0.03192
G1 X110.578 Y113.846 E0.03192
G1 X110.077 Y112.959 E0.03192
G1 X109.632 Y112.044 E0.03192
G1 X109.242 Y111.103 E0.03192
G1 X108.910 Y110.141 E0.03192
G1 X108.637 Y109.160 E0.03192
G1 X108.423 Y108.165 E0.03192
G1 X108.270 Y107.158 E0.03192
G1 X108.178 Y106.145 E0.03192
G1 X108.147 Y105.127 E0.03192
G1 X108.178 Y104.109 E0.03192
G1 X108.264 Y103.157 E0.02999
G1 X108.423 Y102.090 E0.03382
G1 X108.637 Y101.094 E0.03195
G1 X108.910 Y100.113 E0.03192
G1 X109.242 Y99.151 E0.03192
G1 X109.632 Y98.210 E0.03192
G1 X110.077 Y97.295 E0.03192
G1 X110.578 Y96.408 E0.03192
G1 X111.181 Y95.490 E0.03445
G1 X111.485 Y95.713 F11700.000
;TYPE:External perimeter
G1 F1080.000
G1 X112.030 Y94.966 E0.02897
G1 X112.668 Y94.202 E0.03122
G1 X113.350 Y93.477 E0.03120
G1 X114.075 Y92.795 E0.03120
G1 X114.839 Y92.158 E0.03120
G1 X115.641 Y91.568 E0.03120
G1 X116.477 Y91.027 E0.03120
G1 X117.290 Y90.568 E0.02929
G1 X118.238 Y90.103 E0.03310
G1 X119.158 Y89.722 E0.03122
G1 X120.098 Y89.397 E0.03120
G1 X121.057 Y89.130 E0.03120
G1 X122.030 Y88.921 E0.03120
G1 X123.014 Y88.771 E0.03120
G1 X124.005 Y88.681 E0.03120
G1 X124.939 Y88.653 E0.02929
G1 X125.994 Y88.681 E0.03310
G1 X126.986 Y88.771 E0.03122
G1 X127.970 Y88.921 E0.03120
G1 X128.943 Y89.130 E0.03120
G1 X129.843 Y89.381 E0.02929
G1 X130.842 Y89.722 E0.03310
G1 X131.762 Y90.103 E0.03122
G1 X132.657 Y90.539 E0.03120
G1 X133.523 Y91.027 E0.03120
G1 X134.308 Y91.535 E0.02929
G1 X135.161 Y92.157 E0.03310
G1 X135.925 Y92.795 E0.03122
G1 X136.650 Y93.477 E0.03120
G1 X137.332 Y94.202 E0.03120
G1 X137.969 Y94.966 E0.03120
G1 X138.559 Y95.768 E0.03120
G1 X139.100 Y96.604 E0.03120
G1 X139.588 Y97.470 E0.03120
G1 X140.024 Y98.365 E0.03120
G1 X140.405 Y99.285 E0.03120
G1 X140.730 Y100.225 E0.03120
G1 X140.997 Y101.184 E0.03120
G1 X141.206 Y102.157 E0.03120
G1 X141.356 Y103.141 E0.03120
G1 X141.446 Y104.132 E0.03120
G1 X141.476 Y105.127 E0.03120
G1 X141.446 Y106.122 E0.03120
G1 X141.356 Y107.113 E0.03120
G1 X141.206 Y108.097 E0.03120
G1 X140.997 Y109.070 E0.03120
G1 X140.730 Y110.029 E0.03120
G1 X140.405 Y110.969 E0.03120
G1 X140.024 Y111.889 E0.03120
G1 X139.588 Y112.784 E0.03120
G1 X139.100 Y113.650 E0.03120
G1 X138.559 Y114.486 E0.03120
G1 X137.969 Y115.288 E0.03120
G1 X137.371 Y116.006 E0.02929
G1 X136.650 Y116.777 E0.03310
G1 X135.925 Y117.459 E0.03122
G1 X135.161 Y118.096 E0.03120
G1 X134.359 Y118.686 E0.03120
G1 X133.523 Y119.227 E0.03120
G1 X132.710 Y119.686 E0.02929
G1 X131.762 Y120.151 E0.03310
G1 X130.842 Y120.532 E0.03122
G1 X129.902 Y120.857 E0.03120
G1 X128.943 Y121.124 E0.03120
G1 X127.970 Y121.333 E0.03120
G1 X126.986 Y121.483 E0.03120
G1 X125.995 Y121.573 E0.03120
G1 X125.000 Y121.603 E0.03120
G1 X124.005 Y121.573 E0.03120
G1 X123.014 Y121.483 E0.03120
G1 X122.030 Y121.333 E0.03120
G1 X121.057 Y121.124 E0.03120
G1 X120.098 Y120.857 E0.03120
G1 X119.158 Y120.532 E0.03120
G1 X118.238 Y120.151 E0.03120
G1 X117.343 Y119.715 E0.03120
G1 X116.477 Y119.227 E0.03120
G1 X115.641 Y118.686 E0.03120
G1 X114.839 Y118.096 E0.03120
G1 X114.121 Y117.498 E0.02929
G1 X113.350 Y116.777 E0.03310
G1 X112.668 Y116.052 E0.03122
G1 X112.031 Y115.288 E0.03120
G1 X111.441 Y114.486 E0.03120
G1 X110.900 Y113.650 E0.03120
G1 X110.412 Y112.784 E0.03120
G1 X109.976 Y111.889 E0.03120
G1 X109.595 Y110.969 E0.03120
G1 X109.270 Y110.029 E0.03120
G1 X109.003 Y109.070 E0.03120
G1 X108.794 Y108.097 E0.03120
G1 X108.644 Y107.113 E0.03120
G1 X108.554 Y106.122 E0.03120
G1 X108.524 Y105.127 E0.03120
G1 X108.554 Y104.132 E0.03120
G1 X108.639 Y103.202 E0.02929
G1 X108.794 Y102.158 E0.03310
G1 X109.003 Y101.184 E0.03122
G1 X109.270 Y100.225 E0.03120
G1 X109.595 Y99.285 E0.03120
G1 X109.976 Y98.365 E0.03120
G1 X110.412 Y97.470 E0.03120
G1 X110.900 Y96.604 E0.03120
G1 X111.450 Y95.761 E0.03154
G1 X111.314 Y95.351 F11700.000
G1 E-0.80000 F2100.000
G1 Z0.800 F11700.000
G1 X98.365 Y87.944
G1 Z0.200
G1 E0.80000 F2100.000
;TYPE:Perimeter
G1 F1080.000
G1 X151.635 Y87.944 E1.67025
G1 X151.635 Y122.056 E1.06958
G1 X98.365 Y122.056 E1.67025
G1 X98.365 Y88.004 E1.06770
G1 X97.988 Y87.566 F11700.000
;TYPE:External perimeter
G1 F1080.000
G1 X152.012 Y87.566 E1.69390
G1 X152.012 Y122.433 E1.09323
G1 X97.988 Y122.433 E1.69390
G1 X97.988 Y87.626 E1.09135
G1 X98.381 Y87.642 F11700.000
G1 E-0.80000 F2100.000
G1 Z0.800 F11700.000
G1 X121.082 Y88.623
G1 Z0.200
G1 E0.80000 F2100.000
;TYPE:Solid infill
;WIDTH:0.421585
G1 F1080.000
G1 X120.684 Y88.226 E0.01768
G1 X120.149 Y88.226 E0.01686
G1 X120.518 Y88.595 E0.01643
G1 X120.099 Y88.712 E0.01369
G1 X119.613 Y88.226 E0.02163
G1 X119.078 Y88.226 E0.01686
G1 X119.691 Y88.840 E0.02731
G1 X119.293 Y88.977 E0.01326
G1 X118.542 Y88.226 E0.03343
G1 X118.007 Y88.226 E0.01686
G1 X118.896 Y89.116 E0.03961
G1 X118.518 Y89.273 E0.01291
G1 X117.471 Y88.226 E0.04659
G1 X116.936 Y88.226 E0.01686
G1 X118.139 Y89.430 E0.05358
G1 X117.771 Y89.597 E0.01273
G1 X116.400 Y88.226 E0.06103
G1 X115.865 Y88.226 E0.01686
G1 X117.412 Y89.773 E0.06889
G1 X117.053 Y89.950 E0.01260
G1 X115.329 Y88.226 E0.07675
G1 X114.794 Y88.226 E0.01686
G1 X116.707 Y90.140 E0.08520
G1 X116.365 Y90.333 E0.01238
G1 X114.258 Y88.226 E0.09380
G1 X113.723 Y88.226 E0.01686
G1 X116.028 Y90.532 E0.10265
G1 X115.703 Y90.742 E0.01219
G1 X113.187 Y88.226 E0.11201
G1 X112.652 Y88.226 E0.01686
G1 X115.378 Y90.952 E0.12137
G1 X115.063 Y91.173 E0.01210
G1 X112.116 Y88.226 E0.13123
G1 X111.581 Y88.226 E0.01686
G1 X114.755 Y91.400 E0.14133
G1 X114.446 Y91.627 E0.01206
G1 X111.045 Y88.226 E0.15144
G1 X110.510 Y88.226 E0.01686
G1 X114.153 Y91.870 E0.16225
G1 X113.861 Y92.114 E0.01197
G1 X109.974 Y88.226 E0.17309
G1 X109.439 Y88.226 E0.01686
G1 X113.573 Y92.361 E0.18409
G1 X113.297 Y92.620 E0.01193
G1 X108.903 Y88.226 E0.19566
G1 X108.368 Y88.226 E0.01686
G1 X113.021 Y92.880 E0.20722
G1 X112.754 Y93.148 E0.01192
G1 X107.832 Y88.226 E0.21914
M73 Q1 S93
G1 X107.297 Y88.226 E0.01686
G1 X112.494 Y93.424 E0.23142
M73 P1 R93
G1 X112.234 Y93.699 E0.01193
G1 X106.761 Y88.226 E0.24371
G1 X106.226 Y88.226 E0.01686
G1 X111.987 Y93.988 E0.25654
G1 X111.744 Y94.280 E0.01197
G1 X105.690 Y88.226 E0.26955
G1 X105.155 Y88.226 E0.01686
G1 X111.501 Y94.573 E0.28259
G1 X111.275 Y94.882 E0.01207
G1 X104.619 Y88.226 E0.29637
G1 X104.084 Y88.226 E0.01686
G1 X111.049 Y95.192 E0.31015
G1 X110.826 Y95.504 E0.01209
G1 X103.548 Y88.226 E0.32405
G1 X103.013 Y88.226 E0.01686
G1 X110.615 Y95.829 E0.33854
G1 X110.405 Y96.154 E0.01219
G1 X102.477 Y88.226 E0.35302
G1 X101.942 Y88.226 E0.01686
G1 X110.206 Y96.491 E0.36801
G1 X110.013 Y96.833 E0.01238
G1 X101.406 Y88.226 E0.38326
G1 X100.870 Y88.226 E0.01686
G1 X109.821 Y97.177 E0.39853
G1 X109.645 Y97.537 E0.01261
G1 X100.335 Y88.226 E0.41457
G1 X99.799 Y88.226 E0.01686
G1 X109.470 Y97.897 E0.43061
G1 X109.303 Y98.265 E0.01274
G1 X99.264 Y88.226 E0.44702
G1 X98.728 Y88.226 E0.01686
G1 X109.146 Y98.644 E0.46388
G1 X108.989 Y99.023 E0.01291
G1 X98.648 Y88.681 E0.46049
G1 X98.648 Y89.217 E0.01686
G1 X108.850 Y99.419 E0.45431
G1 X108.713 Y99.817 E0.01326
G1 X98.648 Y89.752 E0.44819
G1 X98.648 Y90.288 E0.01686
G1 X108.585 Y100.225 E0.44251
G1 X108.469 Y100.644 E0.01369
G1 X98.648 Y90.823 E0.43731
G1 X98.648 Y91.359 E0.01686
G1 X108.354 Y101.065 E0.43219
G1 X108.259 Y101.506 E0.01420
G1 X98.648 Y91.894 E0.42798
G1 X98.648 Y92.430 E0.01686
G1 X108.165 Y101.947 E0.42377
G1 X108.090 Y102.407 E0.01470
G1 X98.648 Y92.965 E0.42044
G1 X98.648 Y93.501 E0.01686
G1 X108.021 Y102.874 E0.41736
G1 X107.963 Y103.351 E0.01515
G1 X98.648 Y94.036 E0.41478
G1 X98.648 Y94.572 E0.01686
G1 X107.918 Y103.842 E0.41280
G1 X107.888 Y104.347 E0.01593
G1 X98.648 Y95.107 E0.41144
G1 X98.648 Y95.643 E0.01686
G1 X107.872 Y104.867 E0.41074
G1 X107.872 Y105.403 E0.01688
G1 X98.648 Y96.178 E0.41076
G1 X98.648 Y96.714 E0.01686
G1 X107.889 Y105.955 E0.41151
G1 X107.929 Y106.531 E0.01816
G1 X98.648 Y97.249 E0.41328
M73 P1 R92
G1 X98.648 Y97.785 E0.01686
G1 X107.982 Y107.120 E0.41566
G1 X108.073 Y107.746 E0.01993
G1 X98.648 Y98.320 E0.41971
M73 Q1 S92
G1 X98.648 Y98.856 E0.01686
G1 X108.182 Y108.391 E0.42456
G1 X108.329 Y109.072 E0.02196
G1 X98.648 Y99.391 E0.43108
G1 X98.648 Y99.927 E0.01686
G1 X108.522 Y109.801 E0.43968
G1 X108.761 Y110.576 E0.02553
G1 X98.648 Y100.462 E0.45033
G1 X98.648 Y100.998 E0.01686
G1 X109.066 Y111.416 E0.46390
G1 X109.469 Y112.354 E0.03215
G1 X98.648 Y101.533 E0.48183
G1 X98.648 Y102.069 E0.01686
G1 X110.478 Y113.899 E0.52678
G1 E-0.80000 F2100.000
G1 Z0.800 F11700.000
G1 X119.277 Y121.092
G1 Z0.200
G1 E0.80000 F2100.000
G1 F1080.000
G1 X119.959 Y121.774 E0.03036
G1 X119.423 Y121.774 E0.01686
G1 X118.711 Y121.061 E0.03172
G1 X117.773 Y120.658 E0.03215
G1 X118.888 Y121.774 E0.04966
G1 X118.352 Y121.774 E0.01686
G1 X116.228 Y119.649 E0.09460
G1 E-0.80000 F2100.000
G1 Z0.800 F11700.000
G1 X117.987 Y121.943
G1 Z0.200
G1 E0.80000 F2100.000
G1 F1080.000
G1 X115.286 Y119.242 E0.12027
G1 X114.432 Y118.616 E0.03334
G1 X113.685 Y117.993 E0.03063
G1 X112.884 Y117.245 E0.03450
G1 X112.174 Y116.490 E0.03264
G1 X111.511 Y115.695 E0.03259
G1 X110.885 Y114.841 E0.03334
G1 X98.648 Y102.604 E0.54489
G1 X98.648 Y103.140 E0.01686
G1 X117.281 Y121.774 E0.82972
G1 X116.746 Y121.774 E0.01686
G1 X98.648 Y103.675 E0.80588
G1 X98.648 Y104.211 E0.01686
G1 X116.210 Y121.774 E0.78203
G1 X115.675 Y121.774 E0.01686
G1 X98.648 Y104.747 E0.75819
G1 X98.648 Y105.282 E0.01686
G1 X115.139 Y121.774 E0.73434
G1 X114.604 Y121.774 E0.01686
G1 X98.648 Y105.818 E0.71050
G1 X98.648 Y106.353 E0.01686
G1 X114.068 Y121.774 E0.68665
G1 X113.533 Y121.774 E0.01686
G1 X98.648 Y106.889 E0.66280
G1 X98.648 Y107.424 E0.01686
G1 X112.997 Y121.774 E0.63896
G1 X112.462 Y121.774 E0.01686
G1 X98.648 Y107.960 E0.61511
G1 X98.648 Y108.495 E0.01686
G1 X111.926 Y121.774 E0.59127
G1 X111.391 Y121.774 E0.01686
G1 X98.648 Y109.031 E0.56742
G1 X98.648 Y109.566 E0.01686
G1 X110.855 Y121.774 E0.54358
G1 X110.320 Y121.774 E0.01686
G1 X98.648 Y110.102 E0.51973
G1 X98.648 Y110.637 E0.01686
G1 X109.784 Y121.774 E0.49589
G1 X109.249 Y121.774 E0.01686
G1 X98.648 Y111.173 E0.47204
G1 X98.648 Y111.708 E0.01686
G1 X108.713 Y121.774 E0.44820
G1 X108.178 Y121.774 E0.01686
G1 X98.648 Y112.244 E0.42435
G1 X98.648 Y112.779 E0.01686
G1 X107.642 Y121.774 E0.40051
G1 X107.107 Y121.774 E0.01686
G1 X98.648 Y113.315 E0.37666
M73 P2 R92
M73 Q2 S92
G1 X98.648 Y113.850 E0.01686
G1 X106.571 Y121.774 E0.35281
G1 X106.036 Y121.774 E0.01686
G1 X98.648 Y114.386 E0.32897
G1 X98.648 Y114.921 E0.01686
G1 X105.500 Y121.774 E0.30512
G1 X104.965 Y121.774 E0.01686
G1 X98.648 Y115.457 E0.28128
G1 X98.648 Y115.992 E0.01686
G1 X104.429 Y121.774 E0.25743
G1 X103.894 Y121.774 E0.01686
G1 X98.648 Y116.528 E0.23359
G1 X98.648 Y117.063 E0.01686
G1 X103.358 Y121.774 E0.20974
G1 X102.822 Y121.774 E0.01686
G1 X98.648 Y117.599 E0.18590
G1 X98.648 Y118.134 E0.01686
G1 X102.287 Y121.774 E0.16205
G1 X101.751 Y121.774 E0.01686
G1 X98.648 Y118.670 E0.13821
G1 X98.648 Y119.205 E0.01686
G1 X101.216 Y121.774 E0.11436
G1 X100.680 Y121.774 E0.01686
G1 X98.648 Y119.741 E0.09051
G1 X98.648 Y120.276 E0.01686
