; generated by Slic3r Prusa Edition 1.42.0-alpha3+ on 2019-01-28 at 11:00:37

; 

; external perimeters extrusion width = 0.45mm
; perimeters extrusion width = 0.45mm
; infill extrusion width = 0.45mm
; solid infill extrusion width = 0.45mm
; top infill extrusion width = 0.40mm
; first layer extrusion width = 0.42mm

M201 X9000 Y9000 Z500 E10000 ; sets maximum accelerations, mm/sec^2
M203 X500 Y500 Z12 E120 ; sets maximum feedrates, mm/sec
M204 P2000 R1500 T2000 ; sets acceleration (P, T) and retract acceleration (R), mm/sec^2
M205 X10.00 Y10.00 Z0.20 E2.50 ; sets the jerk limits, mm/sec
M205 S0 T0 ; sets the minimum extruding and travel feed rate, mm/sec
M107
M115 U3.1.0 ; tell printer latest fw version
M83  ; extruder relative mode
M204 S2000 T1500 ; MK2 firmware only supports the old M204 format
M104 S215 ; set extruder temp
M140 S60 ; set bed temp
M190 S60 ; wait for bed temp
M109 S215 ; wait for extruder temp
G28 W ; home all without mesh bed level
G80 ; mesh bed leveling
G1 Y-3.0 F1000.0 ; go outside print area
G92 E0.0
G1 X60.0 E9.0  F1000.0 ; intro line
G1 X100.0 E12.5  F1000.0 ; intro line
G92 E0.0
M900 K30; Filament gcode
G21 ; set units to millimeters
G90 ; use absolute coordinates
M83 ; use relative distances for extrusion
;BEFORE_LAYER_CHANGE
G92 E0.0
;0.2


G1 E-0.80000 F2100.00000
G1 Z0.600 F10800.000
;AFTER_LAYER_CHANGE
;0.2
G1 X98.222 Y85.568
G1 Z0.200
G1 E0.80000 F2100.00000
M204 S1000
G1 F1200
G1 X98.876 Y85.462 E0.02078
G1 X151.110 Y85.462 E1.63776
G1 X151.930 Y85.623 E0.02620
G1 X152.630 Y86.079 E0.02620
G1 X153.108 Y86.764 E0.02620
G1 X153.294 Y87.579 E0.02620
G1 X153.295 Y122.404 E1.09193
G1 X153.224 Y122.906 E0.01589
G1 X153.038 Y123.381 E0.01601
G1 X152.748 Y123.798 E0.01589
G1 X152.371 Y124.136 E0.01589
G1 X151.779 Y124.433 E0.02078
G1 X151.124 Y124.538 E0.02078
G1 X98.871 Y124.538 E1.63838
G1 X98.357 Y124.471 E0.01623
G1 X97.877 Y124.288 E0.01612
G1 X97.453 Y123.998 E0.01612
G1 X97.106 Y123.613 E0.01623
G1 X96.810 Y123.024 E0.02066
G1 X96.704 Y122.374 E0.02066
G1 X96.705 Y87.622 E1.08961
G1 X96.772 Y87.112 E0.01612
G1 X96.956 Y86.632 E0.01612
G1 X97.247 Y86.208 E0.01612
G1 X97.629 Y85.864 E0.01612
G1 X98.168 Y85.594 E0.01889
; PURGING FINISHED
G1 F8640
G1 X98.876 Y85.462 E-0.16627
G1 X101.447 Y85.462 E-0.59373
G1 E-0.04000 F2100.00000
G1 Z0.800 F10800.000
G1 X111.464 Y96.297
G1 Z0.200
G1 E0.80000 F2100.00000
G1 F1200
G1 X113.489 Y93.831 E0.10006
G1 X115.956 Y91.806 E0.10006
G1 X118.770 Y90.302 E0.10006
G1 X121.824 Y89.375 E0.10006
G1 X125.000 Y89.062 E0.10006
G1 X128.176 Y89.375 E0.10006
G1 X131.230 Y90.302 E0.10006
G1 X134.044 Y91.806 E0.10006
G1 X136.511 Y93.830 E0.10006
G1 X138.536 Y96.297 E0.10006
G1 X140.040 Y99.112 E0.10006
G1 X140.966 Y102.166 E0.10006
G1 X141.279 Y105.342 E0.10006
G1 X140.966 Y108.517 E0.10006
G1 X140.040 Y111.571 E0.10006
G1 X138.536 Y114.386 E0.10006
G1 X136.511 Y116.853 E0.10006
G1 X134.044 Y118.877 E0.10006
G1 X131.230 Y120.381 E0.10006
G1 X128.176 Y121.308 E0.10006
G1 X125.000 Y121.621 E0.10006
G1 X121.824 Y121.308 E0.10006
G1 X118.770 Y120.381 E0.10006
G1 X115.956 Y118.877 E0.10006
G1 X113.489 Y116.853 E0.10006
G1 X111.464 Y114.386 E0.10006
G1 X109.960 Y111.571 E0.10006
G1 X109.034 Y108.517 E0.10006
G1 X108.721 Y105.342 E0.10006
G1 X109.034 Y102.166 E0.10006
G1 X109.960 Y99.112 E0.10006
G1 X111.436 Y96.350 E0.09818
G1 X111.288 Y95.939 F10800.000
G1 F8640
G1 X113.489 Y93.831 E-0.75046
G1 X113.521 Y93.804 E-0.00954
G1 E-0.04000 F2100.00000
G1 Z0.800 F10800.000
G1 X122.593 Y121.762
G1 Z0.200
G1 E0.80000 F2100.00000
G1 F1200
G1 X99.480 Y121.762 E0.72469
G1 X99.481 Y88.238 E1.05114
G1 X150.519 Y88.240 E1.60028
G1 X150.520 Y121.762 E1.05109
G1 X127.407 Y121.762 E0.72469
G1 X128.250 Y121.679 E0.02654
G1 X131.375 Y120.731 E0.10239
G1 X134.255 Y119.192 E0.10239
G1 X136.779 Y117.120 E0.10239
G1 X138.851 Y114.596 E0.10239
G1 X140.390 Y111.716 E0.10239
G1 X141.338 Y108.591 E0.10239
G1 X141.658 Y105.342 E0.10239
G1 X141.338 Y102.092 E0.10239
G1 X140.390 Y98.967 E0.10239
G1 X138.851 Y96.087 E0.10239
G1 X136.779 Y93.563 E0.10239
G1 X134.255 Y91.491 E0.10239
G1 X131.375 Y89.952 E0.10239
G1 X128.250 Y89.004 E0.10239
G1 X125.000 Y88.684 E0.10239
G1 X121.991 Y88.980 E0.09481
G1 X121.750 Y89.004 E0.00758
G1 X118.625 Y89.952 E0.10239
G1 X115.745 Y91.491 E0.10239
G1 X113.221 Y93.563 E0.10239
G1 X111.149 Y96.087 E0.10239
G1 X109.610 Y98.967 E0.10239
G1 X108.662 Y102.092 E0.10239
G1 X108.342 Y105.342 E0.10239
G1 X108.662 Y108.591 E0.10239
G1 X109.610 Y111.716 E0.10239
G1 X111.149 Y114.596 E0.10239
G1 X113.221 Y117.120 E0.10239
G1 X115.745 Y119.192 E0.10239
G1 X118.625 Y120.731 E0.10239
G1 X121.750 Y121.679 E0.10239
G1 X122.533 Y121.757 E0.02466
G1 F8640
G1 X119.242 Y121.757 E-0.76000
G1 E-0.04000 F2100.00000
G1 Z0.800 F10800.000
G1 X99.102 Y122.139
G1 Z0.200
G1 E0.80000 F2100.00000
G1 F1200
G1 X99.104 Y87.861 E1.07479
G1 X150.896 Y87.862 E1.62393
G1 X150.898 Y122.139 E1.07473
G1 X99.162 Y122.139 E1.62211
G1 X99.232 Y121.761 F10800.000
G1 F8640
G1 X99.157 Y118.848 E-0.76000
G1 E-0.04000 F2100.00000
G1 Z0.800 F10800.000
G1 X100.358 Y121.649
G1 Z0.200
G1 E0.80000 F2100.00000
G1 F1200
G1 X99.762 Y121.054 E0.02653
G1 X99.762 Y120.518 E0.01686
G1 X100.724 Y121.480 E0.04281
G1 X101.259 Y121.480 E0.01686
G1 X99.762 Y119.983 E0.06665
G1 X99.762 Y119.447 E0.01686
G1 X101.795 Y121.480 E0.09048
G1 X102.330 Y121.480 E0.01686
G1 X99.762 Y118.912 E0.11432
G1 X99.762 Y118.376 E0.01686
G1 X102.866 Y121.480 E0.13816
G1 X103.401 Y121.480 E0.01686
G1 X99.762 Y117.841 E0.16200
G1 X99.763 Y117.306 E0.01686
G1 X103.937 Y121.480 E0.18584
G1 X104.472 Y121.480 E0.01686
G1 X99.763 Y116.770 E0.20968
G1 X99.763 Y116.235 E0.01686
G1 X105.007 Y121.480 E0.23351
G1 X105.543 Y121.480 E0.01686
G1 X99.763 Y115.699 E0.25735
G1 X99.763 Y115.164 E0.01686
G1 X106.078 Y121.480 E0.28119
G1 X106.614 Y121.480 E0.01686
G1 X99.763 Y114.628 E0.30503
G1 X99.763 Y114.093 E0.01686
G1 X107.149 Y121.480 E0.32887
G1 X107.685 Y121.480 E0.01686
G1 X99.763 Y113.558 E0.35270
G1 X99.763 Y113.022 E0.01686
G1 X108.220 Y121.480 E0.37654
G1 X108.756 Y121.480 E0.01686
G1 X99.763 Y112.487 E0.40038
G1 X99.763 Y111.951 E0.01686
G1 X109.291 Y121.480 E0.42422
G1 X109.826 Y121.480 E0.01686
G1 X99.763 Y111.416 E0.44806
G1 X99.763 Y110.880 E0.01686
G1 X110.362 Y121.480 E0.47189
G1 X110.897 Y121.480 E0.01686
G1 X99.763 Y110.345 E0.49573
G1 X99.763 Y109.810 E0.01686
G1 X111.433 Y121.480 E0.51957
G1 X111.968 Y121.480 E0.01686
G1 X99.763 Y109.274 E0.54341
G1 X99.763 Y108.739 E0.01686
G1 X112.504 Y121.480 E0.56725
G1 X113.039 Y121.480 E0.01686
G1 X99.763 Y108.203 E0.59108
G1 X99.763 Y107.668 E0.01686
G1 X113.574 Y121.480 E0.61492
G1 X114.110 Y121.480 E0.01686
G1 X99.763 Y107.133 E0.63876
G1 X99.763 Y106.597 E0.01686
G1 X114.645 Y121.480 E0.66260
G1 X115.181 Y121.480 E0.01686
G1 X99.763 Y106.062 E0.68644
G1 X99.763 Y105.526 E0.01686
G1 X115.716 Y121.480 E0.71027
G1 X116.252 Y121.480 E0.01686
G1 X99.763 Y104.991 E0.73411
G1 X99.763 Y104.455 E0.01686
G1 X116.787 Y121.480 E0.75795
G1 X117.323 Y121.480 E0.01686
G1 X99.763 Y103.920 E0.78179
G1 X99.763 Y103.385 E0.01686
G1 X111.134 Y114.755 E0.50624
G1 F8640
G1 X108.806 Y112.428 E-0.76000
G1 E-0.04000 F2100.00000
G1 Z0.800 F10800.000
G1 X110.460 Y113.546
G1 Z0.200
G1 E0.80000 F2100.00000
G1 F1200
G1 X99.763 Y102.849 E0.47624
G1 X99.763 Y102.314 E0.01686
G1 X109.432 Y111.982 E0.43047
G1 X109.348 Y111.825 E0.00562
G1 X109.146 Y111.162 E0.02183
G1 X99.763 Y101.778 E0.41776
G1 X99.763 Y101.243 E0.01686
G1 X108.913 Y110.393 E0.40738
G1 X108.680 Y109.624 E0.02529
G1 X99.763 Y100.707 E0.39700
G1 X99.763 Y100.172 E0.01686
G1 X108.447 Y108.856 E0.38662
G1 X108.383 Y108.647 E0.00688
G1 X108.341 Y108.214 E0.01368
G1 X99.763 Y99.637 E0.38190
G1 X99.763 Y99.101 E0.01686
G1 X108.282 Y107.620 E0.37929
G1 X108.224 Y107.026 E0.01879
G1 X99.763 Y98.566 E0.37669
G1 X99.763 Y98.030 E0.01686
G1 X108.165 Y106.433 E0.37408
G1 X108.107 Y105.839 E0.01879
G1 X99.763 Y97.495 E0.37148
G1 X99.763 Y96.959 E0.01686
G1 X108.066 Y105.262 E0.36965
G1 X108.114 Y104.775 E0.01542
G1 X99.763 Y96.424 E0.37178
G1 X99.763 Y95.889 E0.01686
G1 X108.162 Y104.287 E0.37392
G1 X108.210 Y103.800 E0.01542
G1 X99.763 Y95.353 E0.37606
G1 X99.763 Y94.818 E0.01686
G1 X108.258 Y103.312 E0.37819
G1 X108.306 Y102.825 E0.01542
G1 X99.763 Y94.282 E0.38033
G1 X99.763 Y93.747 E0.01686
G1 X108.354 Y102.337 E0.38247
G1 X108.383 Y102.036 E0.00953
G1 X108.431 Y101.879 E0.00517
G1 X99.763 Y93.212 E0.38591
G1 X99.763 Y92.676 E0.01686
G1 X108.556 Y101.468 E0.39145
G1 X108.680 Y101.058 E0.01352
G1 X99.763 Y92.141 E0.39700
G1 X99.763 Y91.605 E0.01686
G1 X108.805 Y100.647 E0.40255
G1 X108.930 Y100.236 E0.01352
G1 X99.763 Y91.070 E0.40810
G1 X99.763 Y90.534 E0.01686
G1 X109.054 Y99.825 E0.41364
G1 X109.179 Y99.414 E0.01352
G1 X99.763 Y89.999 E0.41919
G1 X99.763 Y89.464 E0.01686
G1 X109.303 Y99.004 E0.42474
G1 X109.348 Y98.858 E0.00479
G1 X109.468 Y98.633 E0.00804
G1 X99.763 Y88.928 E0.43207
G1 X99.763 Y88.520 E0.01284
G1 X99.891 Y88.520 E0.00402
G1 X109.654 Y98.284 E0.43468
G1 X109.841 Y97.935 E0.01246
G1 X100.427 Y88.520 E0.41915
G1 X100.962 Y88.520 E0.01686
G1 X110.028 Y97.586 E0.40361
G1 X110.214 Y97.237 E0.01246
G1 X101.498 Y88.521 E0.38808
G1 X102.033 Y88.521 E0.01686
G1 X110.401 Y96.888 E0.37254
G1 X110.587 Y96.539 E0.01246
G1 X102.568 Y88.521 E0.35700
G1 X103.104 Y88.521 E0.01686
G1 X110.774 Y96.190 E0.34147
G1 X110.913 Y95.929 E0.00932
G1 X110.974 Y95.855 E0.00301
G1 X103.639 Y88.521 E0.32655
G1 X104.175 Y88.521 E0.01686
G1 X111.215 Y95.561 E0.31345
G1 X111.457 Y95.267 E0.01198
G1 X104.710 Y88.521 E0.30036
G1 X105.246 Y88.521 E0.01686
G1 X111.698 Y94.973 E0.28726
G1 X111.939 Y94.679 E0.01198
G1 X105.781 Y88.521 E0.27417
G1 X106.317 Y88.521 E0.01686
G1 X112.181 Y94.385 E0.26107
G1 X112.422 Y94.091 E0.01198
G1 X106.852 Y88.521 E0.24798
G1 X107.388 Y88.521 E0.01686
G1 X112.663 Y93.796 E0.23489
G1 X112.905 Y93.502 E0.01198
G1 X107.923 Y88.521 E0.22179
G1 X108.459 Y88.521 E0.01686
G1 X113.174 Y93.236 E0.20992
G1 X113.468 Y92.994 E0.01198
G1 X108.994 Y88.521 E0.19918
G1 X109.529 Y88.521 E0.01686
G1 X113.762 Y92.753 E0.18843
G1 X114.056 Y92.512 E0.01198
G1 X110.065 Y88.521 E0.17768
G1 X110.600 Y88.521 E0.01686
G1 X114.350 Y92.270 E0.16694
G1 X114.644 Y92.029 E0.01198
G1 X111.136 Y88.521 E0.15619
G1 X111.671 Y88.521 E0.01686
G1 X114.938 Y91.788 E0.14544
G1 X115.232 Y91.546 E0.01198
G1 X112.207 Y88.521 E0.13470
G1 X112.742 Y88.521 E0.01686
G1 X115.526 Y91.305 E0.12395
G1 X115.864 Y91.107 E0.01232
G1 X113.278 Y88.521 E0.11514
G1 X113.813 Y88.521 E0.01686
G1 X116.213 Y90.921 E0.10683
G1 X116.562 Y90.734 E0.01246
G1 X114.349 Y88.521 E0.09853
G1 X114.884 Y88.521 E0.01686
G1 X116.911 Y90.547 E0.09022
G1 X117.259 Y90.361 E0.01246
G1 X115.419 Y88.521 E0.08192
G1 X115.955 Y88.521 E0.01686
G1 X117.608 Y90.174 E0.07361
G1 X117.957 Y89.988 E0.01246
G1 X116.490 Y88.521 E0.06531
G1 X117.026 Y88.521 E0.01686
G1 X118.306 Y89.801 E0.05701
G1 X118.517 Y89.689 E0.00751
G1 X118.680 Y89.640 E0.00537
G1 X117.561 Y88.521 E0.04980
G1 X118.097 Y88.521 E0.01686
G1 X119.091 Y89.515 E0.04425
G1 X119.501 Y89.390 E0.01352
G1 X118.632 Y88.521 E0.03870
G1 X119.168 Y88.521 E0.01686
G1 X119.912 Y89.266 E0.03315
G1 X120.323 Y89.141 E0.01352
G1 X119.703 Y88.521 E0.02760
G1 X120.239 Y88.521 E0.01686
G1 X120.734 Y89.016 E0.02205
G1 X121.145 Y88.892 E0.01352
G1 X120.774 Y88.521 E0.01650
G1 X121.310 Y88.521 E0.01686
G1 X121.692 Y88.903 E0.01701
G1 X122.032 Y88.606 F10800.000
G1 F1200
G1 X122.526 Y88.582 E0.01406
G1 X124.008 Y88.509 E0.02523
G1 X125.003 Y88.461 E0.00556
G1 X125.498 Y88.485 E0.00465
G1 X125.992 Y88.509 E0.00653
G1 X126.487 Y88.534 E0.00842
G1 X126.981 Y88.558 E0.01030
G1 X127.476 Y88.582 E0.01219
G1 X127.970 Y88.607 E0.01407
G1 X128.102 Y88.352 F10800.000
G1 F1200
G1 X128.550 Y88.799 E0.02002
G1 X129.323 Y89.034 E0.02556
G1 X128.811 Y88.521 E0.02292
G1 X129.349 Y88.522 E0.01704
G1 X130.095 Y89.268 E0.03341
G1 X130.868 Y89.502 E0.02556
G1 X129.887 Y88.522 E0.04390
G1 X130.426 Y88.522 E0.01704
G1 X132.132 Y90.228 E0.07639
G1 F8640
G1 X130.426 Y88.522 E-0.55731
G1 X129.887 Y88.522 E-0.12431
G1 X130.127 Y88.762 E-0.07838
G1 E-0.04000 F2100.00000
G1 Z0.800 F10800.000
G1 X133.289 Y90.846
G1 Z0.200
G1 E0.80000 F2100.00000
G1 F1200
G1 X130.964 Y88.522 E0.10406
G1 X131.502 Y88.522 E0.01704
G1 X134.649 Y91.668 E0.14083
G1 F8640
G1 X132.321 Y89.340 E-0.76000
G1 E-0.04000 F2100.00000
G1 Z0.800 F10800.000
G1 X138.674 Y95.693
G1 Z0.200
G1 E0.80000 F2100.00000
G1 F1200
G1 X150.237 Y107.257 E0.51761
G1 X150.237 Y106.718 E0.01704
G1 X132.041 Y88.522 E0.81452
G1 X132.579 Y88.522 E0.01704
G1 X150.237 Y106.180 E0.79042
G1 X150.237 Y105.641 E0.01704
G1 X133.117 Y88.522 E0.76632
G1 X133.656 Y88.522 E0.01704
G1 X150.237 Y105.103 E0.74222
G1 X150.237 Y104.565 E0.01704
G1 X134.194 Y88.522 E0.71812
G1 X134.732 Y88.522 E0.01704
G1 X150.237 Y104.026 E0.69402
G1 X150.237 Y103.488 E0.01704
G1 X135.271 Y88.522 E0.66993
G1 X135.809 Y88.522 E0.01704
G1 X150.237 Y102.950 E0.64583
G1 X150.237 Y102.411 E0.01704
G1 X136.347 Y88.522 E0.62173
G1 X136.886 Y88.522 E0.01704
G1 X150.237 Y101.873 E0.59763
G1 X150.237 Y101.335 E0.01704
G1 X137.424 Y88.522 E0.57353
G1 X137.962 Y88.522 E0.01704
G1 X150.237 Y100.796 E0.54943
G1 X150.237 Y100.258 E0.01704
G1 X138.501 Y88.522 E0.52534
G1 X139.039 Y88.522 E0.01704
G1 X150.237 Y99.720 E0.50124
G1 X150.237 Y99.181 E0.01704
G1 X139.577 Y88.522 E0.47714
G1 X140.116 Y88.522 E0.01704
G1 X150.237 Y98.643 E0.45304
G1 X150.237 Y98.105 E0.01704
G1 X140.654 Y88.522 E0.42894
G1 X141.193 Y88.522 E0.01704
G1 X150.237 Y97.566 E0.40484
G1 X150.237 Y97.028 E0.01704
G1 X141.731 Y88.522 E0.38075
G1 X142.269 Y88.522 E0.01704
G1 X150.237 Y96.490 E0.35665
G1 X150.237 Y95.951 E0.01704
G1 X142.808 Y88.522 E0.33255
G1 X143.346 Y88.522 E0.01704
G1 X150.237 Y95.413 E0.30845
G1 X150.237 Y94.875 E0.01704
G1 X143.884 Y88.522 E0.28435
G1 X144.423 Y88.522 E0.01704
G1 X150.237 Y94.336 E0.26025
G1 X150.237 Y93.798 E0.01704
G1 X144.961 Y88.522 E0.23616
G1 X145.499 Y88.522 E0.01704
G1 X150.237 Y93.260 E0.21206
G1 X150.237 Y92.721 E0.01704
G1 X146.038 Y88.522 E0.18796
G1 X146.576 Y88.522 E0.01704
G1 X150.237 Y92.183 E0.16386
G1 X150.237 Y91.645 E0.01704
G1 X147.114 Y88.522 E0.13976
G1 X147.653 Y88.522 E0.01704
G1 X150.237 Y91.106 E0.11566
G1 X150.237 Y90.568 E0.01704
G1 X148.191 Y88.522 E0.09157
G1 X148.729 Y88.522 E0.01704
G1 X150.237 Y90.029 E0.06747
G1 X150.237 Y89.491 E0.01704
G1 X149.268 Y88.522 E0.04337
G1 X149.806 Y88.522 E0.01704
G1 X150.406 Y89.122 E0.02687
G1 F8640
G1 X149.806 Y88.522 E-0.19600
G1 X149.268 Y88.522 E-0.12431
G1 X150.237 Y89.491 E-0.31639
G1 X150.237 Y90.025 E-0.12331
G1 E-0.04000 F2100.00000
G1 Z0.800 F10800.000
G1 X139.495 Y97.053
G1 Z0.200
G1 E0.80000 F2100.00000
G1 F1200
G1 X150.407 Y107.965 E0.48843
G1 X150.407 Y108.503 F10800.000
G1 F1200
G1 X140.527 Y98.623 E0.44226
G1 X140.652 Y98.858 E0.00845
G1 X140.839 Y99.473 E0.02036
G1 X150.237 Y108.872 E0.42068
G1 X150.237 Y109.410 E0.01704
G1 X141.074 Y100.246 E0.41019
G1 X141.308 Y101.019 E0.02556
G1 X150.237 Y109.948 E0.39969
G1 X150.237 Y110.487 E0.01704
G1 X141.542 Y101.792 E0.38920
G1 X141.617 Y102.036 E0.00809
G1 X141.657 Y102.444 E0.01298
G1 X150.237 Y111.025 E0.38408
G1 X150.237 Y111.563 E0.01704
G1 X141.716 Y103.042 E0.38145
G1 X141.774 Y103.639 E0.01899
G1 X150.237 Y112.102 E0.37882
G1 X150.237 Y112.640 E0.01704
G1 X141.833 Y104.236 E0.37619
G1 X141.892 Y104.833 E0.01899
G1 X150.237 Y113.178 E0.37355
G1 X150.237 Y113.717 E0.01704
G1 X141.935 Y105.414 E0.37163
G1 X141.887 Y105.904 E0.01559
G1 X150.237 Y114.255 E0.37380
G1 X150.237 Y114.793 E0.01704
G1 X141.838 Y106.394 E0.37596
G1 X141.790 Y106.884 E0.01559
G1 X150.237 Y115.332 E0.37812
G1 X150.237 Y115.870 E0.01704
G1 X141.742 Y107.374 E0.38028
G1 X141.694 Y107.865 E0.01559
G1 X150.237 Y116.408 E0.38244
G1 X150.237 Y116.947 E0.01704
G1 X141.645 Y108.355 E0.38460
G1 X141.617 Y108.647 E0.00929
G1 X141.566 Y108.814 E0.00552
G1 X150.237 Y117.485 E0.38815
G1 X150.238 Y118.023 E0.01704
G1 X141.441 Y109.227 E0.39376
G1 X141.315 Y109.640 E0.01366
G1 X150.238 Y118.562 E0.39937
