; generated by PrusaSlicer 2.1.1+win64 on 2020-07-14 at 18:50:32 UTC

; 

; external perimeters extrusion width = 0.45mm
; perimeters extrusion width = 0.45mm
; infill extrusion width = 0.45mm
; solid infill extrusion width = 0.45mm
; top infill extrusion width = 0.40mm
; first layer extrusion width = 0.42mm

M73 P0 R40
M73 Q0 S40
M201 X1000 Y1000 Z1000 E5000 ; sets maximum accelerations, mm/sec^2
M203 X200 Y200 Z12 E120 ; sets maximum feedrates, mm/sec
M204 P1250 R1250 T1250 ; sets acceleration (P, T) and retract acceleration (R), mm/sec^2
M205 X8.00 Y8.00 Z0.40 E1.50 ; sets the jerk limits, mm/sec
M205 S0 T0 ; sets the minimum extruding and travel feed rate, mm/sec
M107
M862.3 P "MK3S" ; printer model check
M862.1 P0.4 ; nozzle diameter check
M115 U3.8.0 ; tell printer latest fw version
G90 ; use absolute coordinates
M83 ; extruder relative mode
M104 S215 ; set extruder temp
M140 S60 ; set bed temp
M190 S60 ; wait for bed temp
M109 S215 ; wait for extruder temp
G28 W ; home all without mesh bed level
G80 ; mesh bed leveling
G1 Y-3.0 F1000.0 ; go outside print area
G92 E0.0
G1 X60.0 E9.0 F1000.0 ; intro line
M73 Q0 S40
M73 P0 R40
G1 X100.0 E12.5 F1000.0 ; intro line
G92 E0.0
M221 S95
G21 ; set units to millimeters
G90 ; use absolute coordinates
M83 ; use relative distances for extrusion
M900 K30 ; Filament gcode
;BEFORE_LAYER_CHANGE
G92 E0.0
;0.2


G1 E-0.80000 F2100.00000
G1 Z0.600 F10800.000
;AFTER_LAYER_CHANGE
;0.2
G1 X143.000 Y118.237
G1 Z0.200
G1 E0.80000 F2100.00000
M204 S1000
G1 F1200
G1 X139.263 Y118.237 E0.11717
G1 X139.263 Y111.913 E0.19829
G1 X146.737 Y111.913 E0.23435
G1 X146.737 Y118.237 E0.19829
G1 X143.060 Y118.237 E0.11529
G1 X143.000 Y117.860 F10800.000
G1 F1200
G1 X139.640 Y117.860 E0.10535
G1 X139.640 Y112.290 E0.17464
G1 X146.360 Y112.290 E0.21070
G1 X146.360 Y117.860 E0.17464
G1 X143.060 Y117.860 E0.10347
G1 X142.928 Y118.253 F10800.000
G1 E-0.80000 F2100.00000
G1 Z0.800 F10800.000
G1 X143.000 Y119.063
G1 Z0.200
G1 E0.80000 F2100.00000
G1 F1200
G1 X138.437 Y119.063 E0.14307
G1 X138.437 Y115.477 E0.11244
G1 X138.370 Y114.625 E0.02678
G1 X138.163 Y113.767 E0.02770
G1 X137.830 Y112.963 E0.02728
G1 X137.372 Y112.215 E0.02750
G1 X136.802 Y111.548 E0.02750
G1 X136.135 Y110.978 E0.02751
G1 X135.381 Y110.518 E0.02770
G1 X134.577 Y110.185 E0.02728
G1 X133.724 Y109.980 E0.02750
G1 X132.873 Y109.913 E0.02677
G1 X128.587 Y109.913 E0.13438
G1 X128.587 Y108.587 E0.04157
G1 X157.413 Y108.587 E0.90381
G1 X157.413 Y109.913 E0.04157
G1 X153.127 Y109.913 E0.13438
G1 X152.276 Y109.980 E0.02677
G1 X151.423 Y110.185 E0.02750
G1 X150.613 Y110.520 E0.02750
G1 X149.865 Y110.978 E0.02750
G1 X149.198 Y111.548 E0.02750
G1 X148.628 Y112.215 E0.02750
G1 X148.170 Y112.963 E0.02750
G1 X147.835 Y113.773 E0.02750
G1 X147.630 Y114.626 E0.02750
G1 X147.563 Y115.477 E0.02677
G1 X147.563 Y119.063 E0.11244
G1 X143.060 Y119.063 E0.14119
G1 X143.000 Y119.440 F10800.000
G1 F1200
G1 X138.060 Y119.440 E0.15489
G1 X138.060 Y115.492 E0.12379
G1 X137.996 Y114.685 E0.02538
G1 X137.803 Y113.884 E0.02584
G1 X137.493 Y113.134 E0.02543
G1 X137.066 Y112.437 E0.02564
G1 X136.534 Y111.816 E0.02564
G1 X135.913 Y111.284 E0.02564
G1 X135.209 Y110.855 E0.02584
G1 X134.460 Y110.544 E0.02543
G1 X133.665 Y110.354 E0.02564
G1 X132.858 Y110.290 E0.02538
G1 X128.210 Y110.290 E0.14574
G1 X128.210 Y108.210 E0.06522
G1 X157.790 Y108.210 E0.92746
G1 X157.790 Y110.290 E0.06522
G1 X153.142 Y110.290 E0.14574
G1 X152.335 Y110.354 E0.02538
G1 X151.540 Y110.544 E0.02564
G1 X150.784 Y110.857 E0.02564
G1 X150.087 Y111.284 E0.02564
G1 X149.466 Y111.816 E0.02564
G1 X148.934 Y112.437 E0.02564
G1 X148.507 Y113.134 E0.02564
G1 X148.194 Y113.890 E0.02564
G1 X148.004 Y114.685 E0.02564
G1 X147.940 Y115.492 E0.02538
G1 X147.940 Y119.440 E0.12379
G1 X143.060 Y119.440 E0.15301
G1 X142.728 Y119.147 F10800.000
G1 E-0.80000 F2100.00000
G1 Z0.800 F10800.000
G1 X147.150 Y115.452
G1 Z0.200
G1 E0.80000 F2100.00000
G1 F1200
G1 X147.150 Y118.426 E0.11114
G1 X147.112 Y118.612 E0.00709
G1 X146.926 Y118.650 E0.00709
G1 X139.074 Y118.650 E0.29342
G1 X138.888 Y118.612 E0.00709
G1 X138.850 Y118.426 E0.00709
G1 X138.850 Y115.470 E0.11048
G1 X138.812 Y114.504 E0.03613
G1 X138.933 Y114.386 F10800.000
G1 F1200
G1 X138.498 Y113.951 E0.01955
G1 X138.432 Y113.679 E0.00893
G1 X138.196 Y113.108 E0.01968
G1 X138.980 Y113.892 E0.03530
G1 X138.980 Y113.351 E0.01723
G1 X134.499 Y108.870 E0.20169
G1 X135.041 Y108.870 E0.01723
G1 X138.980 Y112.809 E0.17732
G1 X138.980 Y112.268 E0.01723
G1 X135.582 Y108.870 E0.15295
G1 X136.124 Y108.870 E0.01723
G1 X138.980 Y111.726 E0.12859
G1 X138.980 Y111.630 E0.00307
G1 X139.425 Y111.630 E0.01417
G1 X136.665 Y108.870 E0.12425
G1 X137.206 Y108.870 E0.01723
G1 X139.967 Y111.630 E0.12425
G1 X140.508 Y111.630 E0.01723
G1 X137.748 Y108.870 E0.12425
G1 X138.289 Y108.870 E0.01723
G1 X141.049 Y111.630 E0.12425
G1 X141.591 Y111.630 E0.01723
G1 X138.830 Y108.870 E0.12425
G1 X139.372 Y108.870 E0.01723
G1 X142.132 Y111.630 E0.12425
G1 X142.673 Y111.630 E0.01723
G1 X139.913 Y108.870 E0.12425
G1 X140.454 Y108.870 E0.01723
G1 X143.215 Y111.630 E0.12425
G1 X143.756 Y111.630 E0.01723
G1 X140.996 Y108.870 E0.12425
G1 X141.537 Y108.870 E0.01723
G1 X144.297 Y111.630 E0.12425
G1 X144.839 Y111.630 E0.01723
G1 X142.078 Y108.870 E0.12425
G1 X142.620 Y108.870 E0.01723
G1 X145.380 Y111.630 E0.12425
G1 X145.921 Y111.630 E0.01723
G1 X143.161 Y108.870 E0.12425
G1 X143.703 Y108.870 E0.01723
G1 X146.632 Y111.800 E0.13189
G1 E-0.80000 F2100.00000
G1 Z0.800 F10800.000
G1 X147.576 Y114.367
G1 Z0.200
G1 E0.80000 F2100.00000
G1 F1200
G1 X147.020 Y113.811 E0.02502
G1 X147.020 Y113.270 E0.01723
G1 X147.540 Y113.790 E0.02340
G1 X147.565 Y113.685 E0.00342
G1 X147.685 Y113.394 E0.01003
G1 X147.020 Y112.729 E0.02996
G1 X147.020 Y112.187 E0.01723
G1 X147.844 Y113.011 E0.03710
G1 X147.918 Y112.834 E0.00611
G1 X148.028 Y112.654 E0.00672
G1 X144.244 Y108.870 E0.17033
G1 X144.785 Y108.870 E0.01723
G1 X148.234 Y112.318 E0.15522
G1 X148.448 Y111.991 E0.01245
G1 X145.327 Y108.870 E0.14050
G1 X145.868 Y108.870 E0.01723
G1 X148.697 Y111.699 E0.12735
G1 X148.947 Y111.407 E0.01222
G1 X146.409 Y108.870 E0.11421
G1 X146.951 Y108.870 E0.01723
G1 X149.230 Y111.149 E0.10259
G1 X149.522 Y110.900 E0.01222
G1 X147.492 Y108.870 E0.09137
G1 X148.033 Y108.870 E0.01723
G1 X149.831 Y110.668 E0.08092
G1 X150.167 Y110.462 E0.01253
G1 X148.575 Y108.870 E0.07166
G1 X149.116 Y108.870 E0.01723
G1 X150.505 Y110.259 E0.06252
G1 X150.888 Y110.100 E0.01319
G1 X149.657 Y108.870 E0.05538
G1 X150.199 Y108.870 E0.01723
G1 X151.271 Y109.942 E0.04825
G1 X151.698 Y109.828 E0.01408
G1 X150.740 Y108.870 E0.04312
G1 X151.282 Y108.870 E0.01723
G1 X152.135 Y109.723 E0.03840
G1 X152.622 Y109.669 E0.01561
G1 X151.823 Y108.870 E0.03597
G1 X152.364 Y108.870 E0.01723
G1 X153.125 Y109.630 E0.03422
G1 X153.666 Y109.630 E0.01723
G1 X152.906 Y108.870 E0.03422
G1 X153.447 Y108.870 E0.01723
G1 X154.207 Y109.630 E0.03422
G1 X154.749 Y109.630 E0.01723
G1 X153.988 Y108.870 E0.03422
G1 X154.530 Y108.870 E0.01723
G1 X155.290 Y109.630 E0.03422
G1 X155.831 Y109.630 E0.01723
G1 X155.071 Y108.870 E0.03422
G1 X155.612 Y108.870 E0.01723
G1 X156.373 Y109.630 E0.03422
G1 X156.914 Y109.630 E0.01723
G1 X156.154 Y108.870 E0.03422
G1 X156.695 Y108.870 E0.01723
G1 X157.300 Y109.475 E0.02722
G1 E-0.80000 F2100.00000
G1 Z0.800 F10800.000
G1 X147.188 Y114.502
G1 Z0.200
G1 E0.80000 F2100.00000
G1 F1200
G1 X147.169 Y114.977 E0.01993
G1 X147.150 Y115.452 E0.01885
G1 E-0.80000 F2100.00000
G1 Z0.800 F10800.000
G1 X135.618 Y110.530
G1 Z0.200
G1 E0.80000 F2100.00000
G1 F1200
G1 X133.958 Y108.870 E0.07474
G1 X133.417 Y108.870 E0.01723
G1 X134.398 Y109.851 E0.04415
G1 X133.700 Y109.694 E0.02276
G1 X132.875 Y108.870 E0.03711
G1 X132.334 Y108.870 E0.01723
G1 X133.112 Y109.648 E0.03503
G1 X132.553 Y109.630 E0.01781
G1 X131.793 Y108.870 E0.03422
G1 X131.251 Y108.870 E0.01723
G1 X132.012 Y109.630 E0.03422
G1 X131.470 Y109.630 E0.01723
G1 X130.710 Y108.870 E0.03422
G1 X130.169 Y108.870 E0.01723
G1 X130.929 Y109.630 E0.03422
G1 X130.388 Y109.630 E0.01723
G1 X129.627 Y108.870 E0.03422
G1 X129.086 Y108.870 E0.01723
G1 X129.846 Y109.630 E0.03422
G1 X129.305 Y109.630 E0.01723
G1 X128.700 Y109.025 E0.02722
G1 E-0.80000 F2100.00000
G1 Z0.800 F10800.000
G1 X143.000 Y100.587
G1 Z0.200
G1 E0.80000 F2100.00000
G1 F1200
G1 X139.263 Y100.587 E0.11717
G1 X139.263 Y94.263 E0.19829
G1 X146.737 Y94.263 E0.23435
G1 X146.737 Y100.587 E0.19829
G1 X143.060 Y100.587 E0.11529
G1 X143.000 Y100.210 F10800.000
G1 F1200
G1 X139.640 Y100.210 E0.10535
G1 X139.640 Y94.640 E0.17464
G1 X146.360 Y94.640 E0.21070
G1 X146.360 Y100.210 E0.17464
G1 X143.060 Y100.210 E0.10347
G1 X142.928 Y100.603 F10800.000
G1 E-0.80000 F2100.00000
G1 Z0.800 F10800.000
G1 X143.000 Y101.413
G1 Z0.200
G1 E0.80000 F2100.00000
G1 F1200
G1 X138.437 Y101.413 E0.14307
G1 X138.437 Y97.827 E0.11244
G1 X138.370 Y96.975 E0.02678
G1 X138.163 Y96.117 E0.02770
G1 X137.830 Y95.313 E0.02728
G1 X137.372 Y94.565 E0.02750
G1 X136.802 Y93.898 E0.02750
G1 X136.135 Y93.328 E0.02751
G1 X135.381 Y92.868 E0.02770
G1 X134.577 Y92.535 E0.02728
G1 X133.724 Y92.330 E0.02750
G1 X132.873 Y92.263 E0.02677
G1 X128.587 Y92.263 E0.13438
G1 X128.587 Y90.937 E0.04157
G1 X157.413 Y90.937 E0.90381
G1 X157.413 Y92.263 E0.04157
G1 X153.127 Y92.263 E0.13438
G1 X152.276 Y92.330 E0.02677
G1 X151.423 Y92.535 E0.02750
G1 X150.613 Y92.870 E0.02750
G1 X149.865 Y93.328 E0.02750
G1 X149.198 Y93.898 E0.02750
G1 X148.628 Y94.565 E0.02750
G1 X148.170 Y95.313 E0.02750
G1 X147.835 Y96.123 E0.02750
G1 X147.630 Y96.976 E0.02750
G1 X147.563 Y97.827 E0.02677
G1 X147.563 Y101.413 E0.11244
G1 X143.060 Y101.413 E0.14119
G1 X143.000 Y101.790 F10800.000
G1 F1200
G1 X138.060 Y101.790 E0.15489
G1 X138.060 Y97.842 E0.12379
G1 X137.996 Y97.035 E0.02538
G1 X137.803 Y96.234 E0.02584
G1 X137.493 Y95.484 E0.02543
G1 X137.066 Y94.787 E0.02564
G1 X136.534 Y94.166 E0.02564
G1 X135.913 Y93.634 E0.02564
G1 X135.209 Y93.205 E0.02584
G1 X134.460 Y92.894 E0.02543
G1 X133.665 Y92.704 E0.02564
G1 X132.858 Y92.640 E0.02538
G1 X128.210 Y92.640 E0.14574
G1 X128.210 Y90.560 E0.06522
G1 X157.790 Y90.560 E0.92746
G1 X157.790 Y92.640 E0.06522
G1 X153.142 Y92.640 E0.14574
G1 X152.335 Y92.704 E0.02538
G1 X151.540 Y92.894 E0.02564
G1 X150.784 Y93.207 E0.02564
G1 X150.087 Y93.634 E0.02564
G1 X149.466 Y94.166 E0.02564
G1 X148.934 Y94.787 E0.02564
G1 X148.507 Y95.484 E0.02564
G1 X148.194 Y96.240 E0.02564
G1 X148.004 Y97.035 E0.02564
G1 X147.940 Y97.842 E0.02538
G1 X147.940 Y101.790 E0.12379
G1 X143.060 Y101.790 E0.15301
G1 X142.728 Y101.497 F10800.000
G1 E-0.80000 F2100.00000
G1 Z0.800 F10800.000
G1 X147.150 Y97.802
G1 Z0.200
G1 E0.80000 F2100.00000
G1 F1200
G1 X147.150 Y100.776 E0.11114
G1 X147.112 Y100.962 E0.00709
G1 X146.926 Y101.000 E0.00709
G1 X139.074 Y101.000 E0.29342
G1 X138.888 Y100.962 E0.00709
G1 X138.850 Y100.776 E0.00709
G1 X138.850 Y97.820 E0.11048
G1 X138.812 Y96.854 E0.03613
G1 X138.933 Y96.736 F10800.000
G1 F1200
G1 X138.498 Y96.301 E0.01955
G1 X138.432 Y96.029 E0.00893
G1 X138.196 Y95.458 E0.01968
G1 X138.980 Y96.242 E0.03530
G1 X138.980 Y95.701 E0.01723
G1 X134.499 Y91.220 E0.20169
G1 X135.041 Y91.220 E0.01723
G1 X138.980 Y95.159 E0.17732
G1 X138.980 Y94.618 E0.01723
G1 X135.582 Y91.220 E0.15295
G1 X136.124 Y91.220 E0.01723
G1 X138.980 Y94.076 E0.12859
G1 X138.980 Y93.980 E0.00307
G1 X139.425 Y93.980 E0.01417
G1 X136.665 Y91.220 E0.12425
G1 X137.206 Y91.220 E0.01723
G1 X139.967 Y93.980 E0.12425
G1 X140.508 Y93.980 E0.01723
G1 X137.748 Y91.220 E0.12425
G1 X138.289 Y91.220 E0.01723
G1 X141.049 Y93.980 E0.12425
G1 X141.591 Y93.980 E0.01723
G1 X138.830 Y91.220 E0.12425
G1 X139.372 Y91.220 E0.01723
G1 X142.132 Y93.980 E0.12425
G1 X142.673 Y93.980 E0.01723
G1 X139.913 Y91.220 E0.12425
G1 X140.454 Y91.220 E0.01723
G1 X143.215 Y93.980 E0.12425
G1 X143.756 Y93.980 E0.01723
G1 X140.996 Y91.220 E0.12425
G1 X141.537 Y91.220 E0.01723
G1 X144.297 Y93.980 E0.12425
G1 X144.839 Y93.980 E0.01723
G1 X142.078 Y91.220 E0.12425
G1 X142.620 Y91.220 E0.01723
G1 X145.380 Y93.980 E0.12425
G1 X145.921 Y93.980 E0.01723
G1 X143.161 Y91.220 E0.12425
G1 X143.703 Y91.220 E0.01723
G1 X146.632 Y94.150 E0.13189
G1 E-0.80000 F2100.00000
G1 Z0.800 F10800.000
G1 X147.576 Y96.717
G1 Z0.200
G1 E0.80000 F2100.00000
G1 F1200
G1 X147.020 Y96.161 E0.02502
G1 X147.020 Y95.620 E0.01723
G1 X147.540 Y96.140 E0.02340
G1 X147.565 Y96.035 E0.00342
G1 X147.685 Y95.744 E0.01003
G1 X147.020 Y95.079 E0.02996
G1 X147.020 Y94.537 E0.01723
G1 X147.844 Y95.361 E0.03710
G1 X147.918 Y95.184 E0.00611
G1 X148.028 Y95.004 E0.00672
G1 X144.244 Y91.220 E0.17033
G1 X144.785 Y91.220 E0.01723
G1 X148.234 Y94.668 E0.15522
G1 X148.448 Y94.341 E0.01245
G1 X145.327 Y91.220 E0.14050
G1 X145.868 Y91.220 E0.01723
G1 X148.697 Y94.049 E0.12735
G1 X148.947 Y93.757 E0.01222
G1 X146.409 Y91.220 E0.11421
G1 X146.951 Y91.220 E0.01723
G1 X149.230 Y93.499 E0.10259
G1 X149.522 Y93.250 E0.01222
G1 X147.492 Y91.220 E0.09137
G1 X148.033 Y91.220 E0.01723
G1 X149.831 Y93.018 E0.08092
G1 X150.167 Y92.812 E0.01253
G1 X148.575 Y91.220 E0.07166
G1 X149.116 Y91.220 E0.01723
G1 X150.505 Y92.609 E0.06252
G1 X150.888 Y92.450 E0.01319
G1 X149.657 Y91.220 E0.05538
G1 X150.199 Y91.220 E0.01723
G1 X151.271 Y92.292 E0.04825
G1 X151.698 Y92.178 E0.01408
G1 X150.740 Y91.220 E0.04312
G1 X151.282 Y91.220 E0.01723
G1 X152.135 Y92.073 E0.03840
G1 X152.622 Y92.019 E0.01561
G1 X151.823 Y91.220 E0.03597
G1 X152.364 Y91.220 E0.01723
G1 X153.125 Y91.980 E0.03422
G1 X153.666 Y91.980 E0.01723
G1 X152.906 Y91.220 E0.03422
G1 X153.447 Y91.220 E0.01723
G1 X154.207 Y91.980 E0.03422
G1 X154.749 Y91.980 E0.01723
G1 X153.988 Y91.220 E0.03422
G1 X154.530 Y91.220 E0.01723
G1 X155.290 Y91.980 E0.03422
G1 X155.831 Y91.980 E0.01723
G1 X155.071 Y91.220 E0.03422
G1 X155.612 Y91.220 E0.01723
G1 X156.373 Y91.980 E0.03422
G1 X156.914 Y91.980 E0.01723
G1 X156.154 Y91.220 E0.03422
G1 X156.695 Y91.220 E0.01723
G1 X157.300 Y91.825 E0.02722
G1 E-0.80000 F2100.00000
G1 Z0.800 F10800.000
G1 X147.188 Y96.852
G1 Z0.200
G1 E0.80000 F2100.00000
G1 F1200
G1 X147.169 Y97.327 E0.01993
G1 X147.150 Y97.802 E0.01885
G1 E-0.80000 F2100.00000
G1 Z0.800 F10800.000
G1 X135.618 Y92.880
G1 Z0.200
G1 E0.80000 F2100.00000
G1 F1200
G1 X133.958 Y91.220 E0.07474
G1 X133.417 Y91.220 E0.01723
G1 X134.398 Y92.201 E0.04415
G1 X133.700 Y92.044 E0.02276
G1 X132.875 Y91.220 E0.03711
G1 X132.334 Y91.220 E0.01723
G1 X133.112 Y91.998 E0.03503
G1 X132.553 Y91.980 E0.01781
G1 X131.793 Y91.220 E0.03422
G1 X131.251 Y91.220 E0.01723
G1 X132.012 Y91.980 E0.03422
G1 X131.470 Y91.980 E0.01723
G1 X130.710 Y91.220 E0.03422
G1 X130.169 Y91.220 E0.01723
G1 X130.929 Y91.980 E0.03422
G1 X130.388 Y91.980 E0.01723
G1 X129.627 Y91.220 E0.03422
G1 X129.086 Y91.220 E0.01723
G1 X129.846 Y91.980 E0.03422
G1 X129.305 Y91.980 E0.01723
G1 X128.700 Y91.375 E0.02722
G1 E-0.80000 F2100.00000
G1 Z0.800 F10800.000
G1 X107.000 Y100.587
G1 Z0.200
G1 E0.80000 F2100.00000
G1 F1200
G1 X103.263 Y100.587 E0.11717
G1 X103.263 Y94.263 E0.19829
G1 X110.737 Y94.263 E0.23435
G1 X110.737 Y100.587 E0.19829
G1 X107.060 Y100.587 E0.11529
G1 X107.000 Y100.210 F10800.000
G1 F1200
G1 X103.640 Y100.210 E0.10535
G1 X103.640 Y94.640 E0.17464
G1 X110.360 Y94.640 E0.21070
G1 X110.360 Y100.210 E0.17464
G1 X107.060 Y100.210 E0.10347
G1 X106.928 Y100.603 F10800.000
G1 E-0.80000 F2100.00000
G1 Z0.800 F10800.000
G1 X107.000 Y101.413
G1 Z0.200
G1 E0.80000 F2100.00000
G1 F1200
G1 X102.437 Y101.413 E0.14307
G1 X102.437 Y97.827 E0.11244
G1 X102.370 Y96.975 E0.02678
G1 X102.163 Y96.117 E0.02770
G1 X101.830 Y95.313 E0.02728
G1 X101.372 Y94.565 E0.02750
G1 X100.802 Y93.898 E0.02750
G1 X100.135 Y93.328 E0.02751
G1 X99.381 Y92.868 E0.02770
G1 X98.577 Y92.535 E0.02728
G1 X97.724 Y92.330 E0.02750
G1 X96.873 Y92.263 E0.02677
G1 X92.587 Y92.263 E0.13438
G1 X92.587 Y90.937 E0.04157
G1 X121.413 Y90.937 E0.90381
G1 X121.413 Y92.263 E0.04157
G1 X117.127 Y92.263 E0.13438
G1 X116.276 Y92.330 E0.02677
G1 X115.423 Y92.535 E0.02750
G1 X114.613 Y92.870 E0.02750
G1 X113.865 Y93.328 E0.02750
G1 X113.198 Y93.898 E0.02750
G1 X112.628 Y94.565 E0.02750
