; generated by PrusaSlicer 2.4.2+win64 on 2022-08-25 at 17:20:37 UTC

; 

; external perimeters extrusion width = 0.45mm
; perimeters extrusion width = 0.45mm
; infill extrusion width = 0.45mm
; solid infill extrusion width = 0.45mm
; top infill extrusion width = 0.40mm
; support material extrusion width = 0.35mm
; first layer extrusion width = 0.42mm

M73 P0 R195
M73 C165
M73 Q0 S196
M73 D166
M201 X1000 Y1000 Z200 E5000 ; sets maximum accelerations, mm/sec^2
M203 X200 Y200 Z12 E120 ; sets maximum feedrates, mm / sec
M204 P1250 R1250 T1250 ; sets acceleration (P, T) and retract acceleration (R), mm/sec^2
M205 X8.00 Y8.00 Z0.40 E4.50 ; sets the jerk limits, mm/sec
M205 S0 T0 ; sets the minimum extruding and travel feed rate, mm/sec
M107
;TYPE:Custom
M862.3 P "MK3S" ; printer model check
M862.1 P0.4 ; nozzle diameter check
M115 U3.10.1 ; tell printer latest fw version
G90 ; use absolute coordinates
M83 ; extruder relative mode
M104 S215 ; set extruder temp
M140 S60 ; set bed temp
M190 S60 ; wait for bed temp
M109 S215 ; wait for extruder temp
G28 W ; home all without mesh bed level
G80 ; mesh bed leveling
G1 Z0.2 F720
G1 Y-3 F1000 ; go outside print area
G92 E0
G1 X60 E9 F1000 ; intro line
G1 X100 E12.5 F1000 ; intro line
G92 E0
M221 S95

; Don't change E values below. Excessive value can damage the printer.

G21 ; set units to millimeters
G90 ; use absolute coordinates
M83 ; use relative distances for extrusion
M900 K0.05 ; Filament gcode LA 1.5
M900 K30 ; Filament gcode LA 1.0
M107
;LAYER_CHANGE
;Z:0.2
;HEIGHT:0.2
;BEFORE_LAYER_CHANGE
G92 E0.0
;0.2


G1 E-.8 F2100
G1 Z.4 F720
;AFTER_LAYER_CHANGE
;0.2
G1 X10 Y32.746 F10800
G1 Z.2 F720
G1 E.8 F2100
M204 S800
;TYPE:Skirt/Brim
;WIDTH:0.42
G1 F600
G1 X240 Y32.746 E7.21149
G1 X241.676 Y33.141 E.05397
M73 P0 R194
M73 C164
G1 X242.999 Y34.242 E.05397
G1 X243.754 Y36.5 E.07467
G1 X243.754 Y173.5 E4.29554
G1 X243.359 Y175.176 E.05397
M73 D165
G1 X242.258 Y176.499 E.05397
G1 X240 Y177.254 E.07467
G1 X10 Y177.254 E7.21149
G1 X8.324 Y176.859 E.05397
M73 Q0 S195
G1 X7.001 Y175.758 E.05397
G1 X6.246 Y173.5 E.07467
G1 X6.246 Y36.5 E4.29554
G1 X6.641 Y34.824 E.05397
M73 P0 R193
M73 C163
G1 X7.742 Y33.501 E.05397
G1 X9.943 Y32.765 E.07279
M204 S1000
G1 X10 Y33.123 F10800
M204 S800
G1 F600
G1 X240 Y33.123 E7.21149
G1 X241.583 Y33.517 E.05115
M73 D164
G1 X242.797 Y34.607 E.05115
G1 X243.377 Y36.5 E.06207
G1 X243.377 Y173.5 E4.29554
G1 X242.983 Y175.083 E.05115
M73 P1 R193
M73 Q1 S194
G1 X241.893 Y176.297 E.05115
G1 X240 Y176.877 E.06207
G1 X10 Y176.877 E7.21149
G1 X8.417 Y176.483 E.05115
M73 P1 R192
M73 C162
G1 X7.203 Y175.393 E.05115
G1 X6.623 Y173.5 E.06207
G1 X6.623 Y36.5 E4.29554
G1 X7.017 Y34.917 E.05115
M73 D163
G1 X8.107 Y33.703 E.05115
G1 X9.943 Y33.141 E.06019
M204 S1000
; printing object Airlock Cover Base.stl id:1 copy 0
;WIPE_START
G1 F8640
G1 X13.234 Y33.14 E-.76
;WIPE_END
G1 E-.04 F2100
G1 Z.6 F720
G1 X195.91 Y52.546 F10800
G1 Z.2 F720
G1 E.8 F2100
M204 S800
;TYPE:Perimeter
G1 F540
G1 X210.953 Y72.975 E.79547
G1 X210.953 Y86.654 E.4289
G1 X236.145 Y86.654 E.78987
G1 X236.145 Y127.094 E1.26797
M73 Q1 S193
G1 X210.953 Y127.094 E.78987
G1 X210.953 Y140.773 E.4289
G1 X195.91 Y161.202 E.79547
G1 X157.844 Y161.202 E1.19352
G1 X142.8 Y140.773 E.79547
G1 X142.8 Y126.282 E.45436
G1 X130.303 Y126.282 E.39185
G1 X130.303 Y87.466 E1.21706
G1 X142.8 Y87.466 E.39185
G1 X142.8 Y72.975 E.45436
M73 P1 R191
G1 X157.844 Y52.546 E.79547
M73 C161
G1 X195.85 Y52.546 E1.19164
M204 S1000
;WIPE_START
G1 F8640
G1 X197.806 Y55.192 E-.76
;WIPE_END
G1 E-.04 F2100
G1 Z.6 F720
G1 X130.68 Y87.843 F10800
G1 Z.2 F720
G1 E.8 F2100
M204 S800
G1 F540
G1 X142.637 Y87.843 E.37491
G1 X142.637 Y125.905 E1.19341
G1 X130.68 Y125.905 E.37491
G1 X130.68 Y87.903 E1.19153
M204 S1000
M73 D162
G1 X131.057 Y88.22 F10800
M204 S800
;TYPE:External perimeter
G1 F300
G1 X142.26 Y88.22 E.35127
G1 X142.26 Y125.528 E1.16977
G1 X131.057 Y125.528 E.35127
G1 X131.057 Y88.28 E1.16788
M204 S1000
M73 Q1 S192
G1 X131.018 Y87.822 F10800
;WIPE_START
M73 P2 R191
G1 F8640
G1 X134.348 Y88.262 E-.76
;WIPE_END
G1 E-.04 F2100
G1 Z.6 F720
G1 X195.529 Y52.923 F10800
G1 Z.2 F720
M73 Q2 S192
G1 E.8 F2100
M204 S800
;TYPE:Perimeter
G1 F540
G1 X195.719 Y52.923 E.00598
G1 X210.576 Y73.099 E.78561
G1 X210.576 Y87.031 E.43684
G1 X235.768 Y87.031 E.78987
G1 X235.768 Y126.717 E1.24432
G1 X210.576 Y126.717 E.78987
G1 X210.576 Y140.649 E.43684
G1 X195.719 Y160.825 E.78561
G1 X158.035 Y160.825 E1.18157
G1 X143.177 Y140.649 E.78561
M73 P2 R190
M73 C160
G1 X143.177 Y73.099 E2.11801
G1 X158.035 Y52.923 E.78561
G1 X195.469 Y52.923 E1.17371
M204 S1000
;WIPE_START
M73 D161
G1 F8640
G1 X195.719 Y52.923 E-.05787
G1 X197.522 Y55.371 E-.70213
;WIPE_END
G1 E-.04 F2100
G1 Z.6 F720
G1 X210.944 Y87.408 F10800
G1 Z.2 F720
G1 E.8 F2100
M204 S800
;TYPE:External perimeter
G1 F300
G1 X235.391 Y87.408 E.76652
G1 X235.391 Y126.34 E1.22068
G1 X210.944 Y126.34 E.76652
M73 Q2 S191
G1 X210.944 Y87.468 E1.2188
M204 S1000
G1 X210.87 Y87.015 F10800
;WIPE_START
G1 F8640
G1 X214.235 Y87.46 E-.76
;WIPE_END
G1 E-.04 F2100
G1 Z.6 F720
G1 X210.199 Y73.222 F10800
G1 Z.2 F720
G1 E.8 F2100
M204 S800
G1 F300
G1 X210.199 Y140.526 E2.11024
G1 X195.529 Y160.448 E.77575
M73 P2 R189
M73 C159
G1 X158.225 Y160.448 E1.16962
G1 X143.555 Y140.526 E.77575
G1 X143.555 Y73.222 E2.11024
M73 D160
G1 X158.225 Y53.3 E.77575
M73 Q2 S190
G1 X195.529 Y53.3 E1.16962
G1 X210.164 Y73.174 E.77387
M204 S1000
M73 P3 R189
M73 Q3 S190
G1 X210.596 Y73.271 F10800
;WIPE_START
G1 F8640
G1 X210.165 Y76.466 E-.76
;WIPE_END
G1 E-.04 F2100
G1 Z.6 F720
G1 X138.605 Y43.709 F10800
G1 Z.2 F720
G1 E.8 F2100
M204 S800
;TYPE:Perimeter
G1 F300
G1 X138.494 Y44.264 E.01777
G1 X138.249 Y44.857 E.0201
G1 X137.893 Y45.389 E.0201
G1 X137.439 Y45.843 E.0201
G1 X136.907 Y46.199 E.0201
G1 X136.314 Y46.444 E.0201
G1 X135.686 Y46.569 E.0201
G1 X135.045 Y46.569 E.0201
G1 X134.416 Y46.444 E.0201
G1 X133.824 Y46.199 E.0201
G1 X133.291 Y45.843 E.0201
G1 X132.838 Y45.389 E.0201
G1 X132.482 Y44.857 E.0201
G1 X132.236 Y44.264 E.0201
G1 X132.111 Y43.636 E.0201
G1 X132.111 Y42.995 E.0201
G1 X132.236 Y42.366 E.0201
G1 X132.482 Y41.774 E.0201
G1 X132.838 Y41.241 E.0201
G1 X133.291 Y40.788 E.0201
G1 X133.824 Y40.432 E.0201
G1 X134.394 Y40.195 E.01935
G1 X134.735 Y40.11 E.01104
G1 X135.123 Y40.059 E.01226
G1 X135.688 Y40.062 E.01772
G1 X136.314 Y40.186 E.02002
G1 X136.907 Y40.432 E.0201
G1 X137.439 Y40.788 E.0201
G1 X137.893 Y41.241 E.0201
G1 X138.249 Y41.774 E.0201
G1 X138.494 Y42.366 E.0201
G1 X138.619 Y42.995 E.0201
G1 X138.616 Y43.65 E.02054
M204 S1000
G1 X138.235 Y43.635 F10800
M204 S800
G1 F300
G1 X138.132 Y44.154 E.0166
G1 X137.915 Y44.678 E.01777
G1 X137.6 Y45.149 E.01777
G1 X137.199 Y45.55 E.01777
G1 X136.728 Y45.865 E.01777
G1 X136.204 Y46.082 E.01777
G1 X135.649 Y46.192 E.01777
G1 X135.082 Y46.192 E.01777
G1 X134.526 Y46.082 E.01777
G1 X134.002 Y45.865 E.01777
G1 X133.531 Y45.55 E.01777
G1 X133.131 Y45.149 E.01777
G1 X132.816 Y44.678 E.01777
G1 X132.599 Y44.154 E.01777
G1 X132.488 Y43.599 E.01777
G1 X132.488 Y43.032 E.01777
G1 X132.599 Y42.476 E.01777
G1 X132.816 Y41.952 E.01777
G1 X133.131 Y41.481 E.01777
G1 X133.531 Y41.081 E.01777
G1 X134.002 Y40.766 E.01777
G1 X134.513 Y40.554 E.01731
G1 X134.806 Y40.481 E.00949
G1 X135.147 Y40.436 E.01077
G1 X135.65 Y40.439 E.01578
G1 X136.204 Y40.549 E.01772
G1 X136.728 Y40.766 E.01777
G1 X137.199 Y41.081 E.01777
G1 X137.6 Y41.481 E.01777
G1 X137.915 Y41.952 E.01777
G1 X138.132 Y42.476 E.01777
G1 X138.242 Y43.032 E.01777
G1 X138.242 Y43.576 E.01705
M204 S1000
G1 X137.865 Y43.561 F10800
M204 S800
;TYPE:External perimeter
G1 F300
G1 X137.769 Y44.044 E.01544
G1 X137.58 Y44.499 E.01544
G1 X137.307 Y44.909 E.01544
G1 X136.959 Y45.257 E.01544
G1 X136.549 Y45.53 E.01544
G1 X136.094 Y45.719 E.01544
G1 X135.611 Y45.815 E.01544
G1 X135.119 Y45.815 E.01544
G1 X134.636 Y45.719 E.01544
G1 X134.181 Y45.53 E.01544
G1 X133.772 Y45.257 E.01544
G1 X133.423 Y44.909 E.01544
G1 X133.15 Y44.499 E.01544
G1 X132.961 Y44.044 E.01544
G1 X132.865 Y43.561 E.01544
G1 X132.865 Y43.069 E.01544
G1 X132.961 Y42.586 E.01544
G1 X133.15 Y42.131 E.01544
G1 X133.423 Y41.722 E.01544
G1 X133.772 Y41.373 E.01544
G1 X134.181 Y41.1 E.01544
G1 X134.631 Y40.913 E.01528
M73 P3 R188
G1 X134.877 Y40.852 E.00794
G1 X135.171 Y40.813 E.00929
G1 X135.612 Y40.815 E.01384
G1 X136.094 Y40.911 E.01542
G1 X136.549 Y41.1 E.01544
G1 X136.959 Y41.373 E.01544
G1 X137.307 Y41.722 E.01544
G1 X137.58 Y42.131 E.01544
M73 C158
G1 X137.769 Y42.586 E.01544
G1 X137.865 Y43.069 E.01544
G1 X137.865 Y43.501 E.01356
M204 S1000
G1 X138.19 Y43.794 F10800
;WIPE_START
G1 F8640
G1 X137.769 Y44.044 E-.12732
G1 X137.58 Y44.499 E-.1137
G1 X137.307 Y44.909 E-.1137
G1 X136.959 Y45.257 E-.1137
G1 X136.549 Y45.53 E-.1137
G1 X136.094 Y45.719 E-.1137
G1 X135.822 Y45.773 E-.06417
;WIPE_END
G1 E-.04 F2100
G1 Z.6 F720
G1 X221.608 Y43.507 F10800
G1 Z.2 F720
G1 E.8 F2100
M204 S800
;TYPE:Perimeter
G1 F300
G1 X221.594 Y43.434 E.00233
G1 X221.594 Y42.793 E.02009
G1 X221.719 Y42.165 E.02009
G1 X221.964 Y41.573 E.02009
G1 X222.32 Y41.04 E.02009
G1 X222.773 Y40.587 E.02009
G1 X223.306 Y40.231 E.02009
G1 X223.876 Y39.995 E.01935
G1 X224.218 Y39.909 E.01104
G1 X224.605 Y39.858 E.01225
G1 X225.17 Y39.861 E.01772
G1 X225.796 Y39.986 E.02001
G1 X226.388 Y40.231 E.02009
G1 X226.921 Y40.587 E.02009
G1 X227.374 Y41.04 E.02009
G1 X227.73 Y41.573 E.02009
G1 X227.976 Y42.165 E.02009
G1 X228.101 Y42.793 E.02009
G1 X228.101 Y43.434 E.02009
G1 X227.976 Y44.063 E.02009
G1 X227.73 Y44.655 E.02009
G1 X227.374 Y45.188 E.02009
G1 X226.921 Y45.641 E.02009
G1 X226.388 Y45.997 E.02009
G1 X225.796 Y46.242 E.02009
G1 X225.168 Y46.367 E.02009
G1 X224.527 Y46.367 E.02009
G1 X223.898 Y46.242 E.02009
G1 X223.306 Y45.997 E.02009
G1 X222.773 Y45.641 E.02009
G1 X222.32 Y45.188 E.02009
G1 X221.964 Y44.655 E.02009
G1 X221.719 Y44.063 E.02009
G1 X221.62 Y43.566 E.01588
M204 S1000
G1 X221.978 Y43.434 F10800
M204 S800
G1 F300
G1 X221.971 Y42.831 E.01891
G1 X222.082 Y42.275 E.01776
G1 X222.298 Y41.751 E.01776
G1 X222.613 Y41.28 E.01776
G1 X223.014 Y40.88 E.01776
G1 X223.485 Y40.565 E.01776
G1 X223.995 Y40.354 E.01731
G1 X224.288 Y40.28 E.00949
G1 X224.629 Y40.235 E.01077
G1 X225.132 Y40.238 E.01578
G1 X225.686 Y40.348 E.01771
G1 X226.21 Y40.565 E.01777
G1 X226.681 Y40.88 E.01776
G1 X227.081 Y41.28 E.01776
G1 X227.396 Y41.751 E.01776
G1 X227.613 Y42.275 E.01777
G1 X227.723 Y42.831 E.01776
G1 X227.723 Y43.397 E.01776
G1 X227.613 Y43.953 E.01776
G1 X227.396 Y44.476 E.01776
G1 X227.081 Y44.947 E.01776
G1 X226.681 Y45.348 E.01776
G1 X226.21 Y45.663 E.01776
G1 X225.686 Y45.88 E.01776
G1 X225.131 Y45.99 E.01776
G1 X224.564 Y45.99 E.01776
G1 X224.008 Y45.88 E.01776
G1 X223.485 Y45.663 E.01776
G1 X223.014 Y45.348 E.01776
G1 X222.613 Y44.947 E.01776
G1 X222.298 Y44.476 E.01776
G1 X222.082 Y43.953 E.01776
G1 X221.99 Y43.492 E.01472
M204 S1000
G1 X222.348 Y43.36 F10800
M204 S800
;TYPE:External perimeter
G1 F300
G1 X222.348 Y42.868 E.01544
G1 X222.444 Y42.385 E.01544
G1 X222.632 Y41.93 E.01544
G1 X222.906 Y41.521 E.01544
G1 X223.254 Y41.173 E.01544
G1 X223.663 Y40.899 E.01544
G1 X224.113 Y40.713 E.01527
G1 X224.359 Y40.651 E.00794
G1 X224.653 Y40.612 E.00928
G1 X225.094 Y40.615 E.01384
G1 X225.576 Y40.711 E.01542
G1 X226.031 Y40.899 E.01544
G1 X226.44 Y41.173 E.01544
G1 X226.788 Y41.521 E.01544
G1 X227.062 Y41.93 E.01544
G1 X227.25 Y42.385 E.01544
G1 X227.346 Y42.868 E.01544
G1 X227.346 Y43.36 E.01544
G1 X227.25 Y43.843 E.01544
G1 X227.062 Y44.298 E.01544
G1 X226.788 Y44.707 E.01544
G1 X226.44 Y45.055 E.01544
G1 X226.031 Y45.329 E.01544
G1 X225.576 Y45.517 E.01544
G1 X225.093 Y45.613 E.01544
G1 X224.601 Y45.613 E.01544
G1 X224.118 Y45.517 E.01544
G1 X223.663 Y45.329 E.01544
G1 X223.254 Y45.055 E.01544
G1 X222.906 Y44.707 E.01544
G1 X222.632 Y44.298 E.01544
G1 X222.444 Y43.843 E.01544
G1 X222.36 Y43.419 E.01355
M204 S1000
G1 X221.984 Y43.195 F10800
;WIPE_START
G1 F8640
G1 X222.348 Y42.868 E-.12729
G1 X222.444 Y42.385 E-.11367
G1 X222.632 Y41.93 E-.11367
G1 X222.906 Y41.521 E-.11367
G1 X223.254 Y41.173 E-.11367
G1 X223.663 Y40.899 E-.11367
G1 X223.921 Y40.792 E-.06435
;WIPE_END
G1 E-.04 F2100
G1 Z.6 F720
G1 X225.241 Y163.647 F10800
G1 Z.2 F720
G1 E.8 F2100
M204 S800
;TYPE:Perimeter
G1 F300
G1 X225.796 Y163.758 E.01775
G1 X226.388 Y164.003 E.02009
G1 X226.921 Y164.359 E.02009
G1 X227.374 Y164.812 E.02009
G1 X227.73 Y165.345 E.02009
M73 D159
G1 X227.976 Y165.937 E.02009
G1 X228.101 Y166.566 E.02009
G1 X228.101 Y167.207 E.02009
G1 X227.976 Y167.835 E.02009
G1 X227.73 Y168.427 E.02009
G1 X227.374 Y168.96 E.02009
G1 X226.921 Y169.413 E.02009
G1 X226.388 Y169.769 E.02009
G1 X225.796 Y170.014 E.02009
G1 X225.168 Y170.139 E.02009
G1 X224.527 Y170.139 E.02009
G1 X223.898 Y170.014 E.02009
G1 X223.306 Y169.769 E.02009
G1 X222.773 Y169.413 E.02009
G1 X222.32 Y168.96 E.02009
G1 X221.964 Y168.427 E.02009
G1 X221.719 Y167.835 E.02009
G1 X221.594 Y167.207 E.02009
G1 X221.594 Y166.566 E.02009
G1 X221.719 Y165.937 E.02009
G1 X221.964 Y165.345 E.02009
G1 X222.32 Y164.812 E.02009
G1 X222.773 Y164.359 E.02009
G1 X223.306 Y164.003 E.02009
G1 X223.876 Y163.767 E.01935
G1 X224.218 Y163.681 E.01104
G1 X224.605 Y163.63 E.01225
G1 X225.182 Y163.636 E.0181
M204 S1000
G1 X225.168 Y164.017 F10800
M204 S800
G1 F300
G1 X225.686 Y164.12 E.01658
G1 X226.21 Y164.337 E.01776
G1 X226.681 Y164.652 E.01776
G1 X227.081 Y165.053 E.01776
G1 X227.396 Y165.524 E.01776
G1 X227.613 Y166.047 E.01776
G1 X227.723 Y166.603 E.01776
G1 X227.723 Y167.169 E.01776
G1 X227.613 Y167.725 E.01776
G1 X227.396 Y168.249 E.01777
G1 X227.081 Y168.72 E.01776
G1 X226.681 Y169.12 E.01776
G1 X226.21 Y169.435 E.01776
G1 X225.686 Y169.652 E.01776
G1 X225.131 Y169.762 E.01776
G1 X224.564 Y169.762 E.01776
G1 X224.008 Y169.652 E.01776
G1 X223.485 Y169.435 E.01776
G1 X223.014 Y169.12 E.01776
G1 X222.613 Y168.72 E.01776
G1 X222.298 Y168.249 E.01776
G1 X222.082 Y167.725 E.01777
G1 X221.971 Y167.169 E.01776
G1 X221.971 Y166.603 E.01776
G1 X222.082 Y166.047 E.01776
G1 X222.298 Y165.524 E.01776
G1 X222.613 Y165.053 E.01776
G1 X223.014 Y164.652 E.01776
G1 X223.485 Y164.337 E.01776
G1 X223.995 Y164.126 E.01731
G1 X224.288 Y164.052 E.00949
G1 X224.629 Y164.008 E.01077
G1 X225.108 Y164.01 E.01503
M204 S1000
G1 X225.094 Y164.387 F10800
M204 S800
;TYPE:External perimeter
G1 F300
G1 X225.576 Y164.483 E.01542
G1 X226.031 Y164.671 E.01544
G1 X226.44 Y164.945 E.01544
G1 X226.788 Y165.293 E.01544
G1 X227.062 Y165.702 E.01544
G1 X227.25 Y166.157 E.01544
G1 X227.346 Y166.64 E.01544
G1 X227.346 Y167.132 E.01544
G1 X227.25 Y167.615 E.01544
G1 X227.062 Y168.07 E.01544
G1 X226.788 Y168.479 E.01544
G1 X226.44 Y168.827 E.01544
G1 X226.031 Y169.101 E.01544
G1 X225.576 Y169.289 E.01544
G1 X225.093 Y169.385 E.01544
G1 X224.601 Y169.385 E.01544
G1 X224.118 Y169.289 E.01544
G1 X223.663 Y169.101 E.01544
G1 X223.254 Y168.827 E.01544
G1 X222.906 Y168.479 E.01544
G1 X222.632 Y168.07 E.01544
G1 X222.444 Y167.615 E.01544
G1 X222.348 Y167.132 E.01544
G1 X222.348 Y166.64 E.01544
G1 X222.444 Y166.157 E.01544
G1 X222.632 Y165.702 E.01544
G1 X222.906 Y165.293 E.01544
G1 X223.254 Y164.945 E.01544
G1 X223.663 Y164.671 E.01544
G1 X224.113 Y164.485 E.01527
G1 X224.359 Y164.423 E.00794
G1 X224.653 Y164.385 E.00928
G1 X225.034 Y164.387 E.01195
M204 S1000
G1 X225.332 Y164.066 F10800
;WIPE_START
G1 F8640
G1 X225.576 Y164.483 E-.12717
G1 X226.031 Y164.671 E-.11367
G1 X226.44 Y164.945 E-.11367
G1 X226.788 Y165.293 E-.11367
G1 X227.062 Y165.702 E-.11367
G1 X227.25 Y166.157 E-.11367
G1 X227.305 Y166.431 E-.06447
;WIPE_END
G1 E-.04 F2100
G1 Z.6 F720
G1 X138.619 Y166.439 F10800
G1 Z.2 F720
G1 E.8 F2100
M204 S800
;TYPE:Perimeter
G1 F300
G1 X138.619 Y167.005 E.01777
G1 X138.494 Y167.634 E.0201
G1 X138.249 Y168.226 E.0201
G1 X137.893 Y168.759 E.0201
G1 X137.439 Y169.212 E.0201
G1 X136.907 Y169.568 E.0201
G1 X136.314 Y169.814 E.0201
G1 X135.686 Y169.939 E.0201
G1 X135.045 Y169.939 E.0201
G1 X134.416 Y169.814 E.0201
G1 X133.824 Y169.568 E.0201
G1 X133.291 Y169.212 E.0201
G1 X132.838 Y168.759 E.0201
G1 X132.482 Y168.226 E.0201
G1 X132.236 Y167.634 E.0201
