; generated by PrusaSlicer 2.4.1+win64 on 2022-06-01 at 17:13:18 UTC

; 

; external perimeters extrusion width = 0.45mm
; perimeters extrusion width = 0.45mm
; infill extrusion width = 0.45mm
; solid infill extrusion width = 0.45mm
; top infill extrusion width = 0.40mm
; first layer extrusion width = 0.42mm

; external perimeters extrusion width = 0.45mm
; perimeters extrusion width = 0.45mm
; infill extrusion width = 0.45mm
; solid infill extrusion width = 0.45mm
; top infill extrusion width = 0.40mm
; first layer extrusion width = 0.42mm

; external perimeters extrusion width = 0.45mm
; perimeters extrusion width = 0.45mm
; infill extrusion width = 0.45mm
; solid infill extrusion width = 0.45mm
; top infill extrusion width = 0.40mm
; first layer extrusion width = 0.42mm

M73 P0 R86
M73 Q0 S87
M107
;TYPE:Custom
M862.3 P "MK3S" ; printer model check
M862.1 P0.4 ; nozzle diameter check
M115 U3.10.1 ; tell printer latest fw version
G90 ; use absolute coordinates
M83 ; extruder relative mode
M104 S215 ; set extruder temp
M140 S60 ; set bed temp
M190 S60 ; wait for bed temp
M109 S215 ; wait for extruder temp
G28 W ; home all without mesh bed level
G80 ; mesh bed leveling
G1 Y-3.0 F1000.0 ; go outside print area
G92 E0.0
G1 X60.0 E9.0 F1000.0 ; intro line
G1 X100.0 E12.5 F1000.0 ; intro line
G92 E0.0
M221 S95

; Don't change E values below. Excessive value can damage the printer.
M907 E430 ; set extruder motor current
G21 ; set units to millimeters
G90 ; use absolute coordinates
M83 ; use relative distances for extrusion
M900 K0.05 ; Filament gcode LA 1.5
M900 K30 ; Filament gcode LA 1.0
M107
;LAYER_CHANGE
;Z:0.2
;HEIGHT:0.2
;BEFORE_LAYER_CHANGE
G92 E0.0
;0.2


G1 E-.8 F2100
G1 Z.4 F10800
;AFTER_LAYER_CHANGE
;0.2
G1 X58.356 Y77.169
G1 Z.2
G1 E.8 F2100
M204 S1000
;TYPE:Skirt/Brim
;WIDTH:0.42
G1 F1200
G1 X60.35 Y75.761 E.07653
G1 X62.41 Y74.454 E.07653
G1 X64.533 Y73.249 E.07653
G1 X66.712 Y72.15 E.07653
G1 X68.943 Y71.16 E.07653
G1 X71.22 Y70.281 E.07653
G1 X73.538 Y69.515 E.07653
G1 X75.822 Y68.881 E.07433
G1 X112.409 Y59.488 E1.18436
G1 X113 Y59.414 E.01868
G1 X137 Y59.414 E.7525
G1 X137.591 Y59.488 E.01868
G1 X174.178 Y68.881 E1.18436
G1 X176.574 Y69.549 E.078
G1 X178.89 Y70.32 E.07653
G1 X181.165 Y71.205 E.07653
G1 X183.288 Y72.15 E.07286
G1 X185.436 Y73.233 E.07544
G1 X187.59 Y74.454 E.07762
G1 X189.65 Y75.761 E.07653
G1 X191.738 Y77.239 E.0802
G1 X193.7 Y78.787 E.07834
G1 X194.674 Y79.689 E.04164
G1 X195.555 Y80.683 E.04164
G1 X196.206 Y81.564 E.03436
G1 X197.006 Y82.904 E.04892
G1 X197.562 Y84.11 E.04164
G1 X197.93 Y85.142 E.03436
G1 X198.308 Y86.656 E.04892
G1 X198.491 Y87.972 E.04164
G1 X198.547 Y89.182 E.038
G1 X198.544 Y127.331 E1.19613
G1 X198.466 Y128.675 E.04221
G1 X198.255 Y130.005 E.04221
G1 X197.913 Y131.307 E.04221
G1 X197.444 Y132.568 E.04221
G1 X196.852 Y133.778 E.04221
G1 X196.143 Y134.922 E.04221
G1 X195.325 Y135.991 E.04221
G1 X194.405 Y136.973 E.04221
G1 X193.351 Y137.889 E.04376
G1 X192.296 Y138.642 E.04065
G1 X191.337 Y139.202 E.03482
G1 X190.118 Y139.774 E.04221
G1 X188.667 Y140.276 E.04815
G1 X139.495 Y152.877 E1.59157
G1 X134.837 Y153.312 E.14669
G1 X114.476 Y153.889 E.63866
G1 X113.815 Y153.814 E.02086
G1 X61.329 Y140.275 E1.69952
G1 X59.882 Y139.774 E.04803
G1 X58.872 Y139.311 E.03482
G1 X57.704 Y138.642 E.04221
G1 X56.608 Y137.86 E.04221
G1 X55.427 Y136.808 E.04958
G1 X54.675 Y135.991 E.03483
G1 X53.857 Y134.922 E.04221
G1 X53.148 Y133.778 E.04221
G1 X52.556 Y132.568 E.04221
G1 X52.014 Y131.065 E.0501
G1 X51.699 Y129.773 E.04169
G1 X51.511 Y128.441 E.04221
G1 X51.453 Y127.213 E.03852
G1 X51.453 Y89.182 E1.19244
G1 X51.532 Y87.74 E.04529
G1 X51.738 Y86.428 E.04164
G1 X52.07 Y85.142 E.04164
G1 X52.527 Y83.895 E.04164
G1 X53.104 Y82.699 E.04164
G1 X53.794 Y81.564 E.04164
G1 X54.592 Y80.503 E.04164
G1 X55.49 Y79.525 E.04164
G1 X56.434 Y78.674 E.03984
G1 X58.309 Y77.206 E.07465
;WIPE_START
G1 F8640
G1 X60.35 Y75.761 E-.57741
G1 X61.017 Y75.338 E-.18259
;WIPE_END
G1 E-.04 F2100
G1 Z.6 F10800
G1 X131.351 Y141.865
G1 Z.2
G1 E.8 F2100
G1 F1200
G1 X132.073 Y141.361 E.02761
G1 X132.929 Y141.071 E.02834
G1 X133.812 Y141.031 E.02772
G1 X136.416 Y141.491 E.08293
G1 X137.037 Y141.688 E.0204
G1 X137.592 Y141.959 E.01936
G1 X138.115 Y142.311 E.01979
G1 X138.589 Y142.743 E.02011
G1 X138.991 Y143.232 E.01984
G1 X139.343 Y143.823 E.02159
G1 X139.585 Y144.418 E.02011
G1 X139.735 Y145.028 E.01972
G1 X139.969 Y147.616 E.08145
G1 X139.888 Y148.19 E.01818
G1 X139.649 Y148.782 E.02002
G1 X139.087 Y149.479 E.02807
G1 X138.708 Y149.778 E.01515
G1 X137.852 Y150.116 E.02884
G1 X135.723 Y150.302 E.067
G1 X134.645 Y150.042 E.03477
G1 X134.291 Y149.819 E.0131
G1 X133.792 Y149.379 E.02088
G1 X133.511 Y148.991 E.01501
G1 X133.251 Y148.386 E.02064
G1 X133.133 Y147.264 E.0354
G1 X132.715 Y147.255 E.01311
G1 X132.238 Y147.158 E.01524
G1 X131.508 Y146.796 E.02556
G1 X131.065 Y146.399 E.01865
G1 X130.762 Y146.007 E.01553
G1 X130.419 Y145.122 E.02977
G1 X130.348 Y144.2 E.02899
G1 X130.464 Y143.335 E.02737
G1 X130.784 Y142.575 E.02583
G1 X131.314 Y141.912 E.02662
G1 X131.593 Y142.156 F10800
G1 F1200
G1 X132.223 Y141.707 E.02426
G1 X132.976 Y141.446 E.02498
G1 X133.768 Y141.406 E.02487
G1 X136.314 Y141.854 E.08106
G1 X136.909 Y142.043 E.01956
G1 X137.413 Y142.291 E.01763
G1 X137.892 Y142.616 E.01813
G1 X138.307 Y142.994 E.01761
G1 X138.674 Y143.438 E.01807
G1 X139.012 Y144.004 E.02067
G1 X139.222 Y144.522 E.01752
G1 X139.361 Y145.078 E.01796
G1 X139.592 Y147.588 E.07904
G1 X139.528 Y148.076 E.01544
G1 X139.336 Y148.569 E.01657
G1 X138.806 Y149.227 E.02648
G1 X138.54 Y149.439 E.01069
G1 X137.79 Y149.742 E.02535
G1 X135.721 Y149.924 E.06514
G1 X134.818 Y149.705 E.02913
G1 X134.529 Y149.526 E.01068
G1 X134.058 Y149.111 E.01966
G1 X133.83 Y148.789 E.01239
G1 X133.623 Y148.317 E.01614
G1 X133.472 Y146.886 E.04511
G1 X132.771 Y146.882 E.02199
G1 X132.339 Y146.794 E.01381
G1 X131.702 Y146.472 E.02238
G1 X131.331 Y146.131 E.01581
G1 X131.101 Y145.841 E.01161
G1 X130.792 Y145.064 E.02622
G1 X130.725 Y144.19 E.02747
G1 X130.823 Y143.454 E.02327
G1 X131.097 Y142.787 E.02264
G1 X131.556 Y142.203 E.02327
G1 X131.837 Y142.444 F10800
G1 F1200
G1 X132.377 Y142.053 E.02091
G1 X133.026 Y141.82 E.0216
G1 X133.725 Y141.781 E.02195
G1 X136.236 Y142.223 E.07995
G1 X136.779 Y142.398 E.0179
G1 X137.234 Y142.623 E.01591
G1 X137.649 Y142.905 E.01572
G1 X138.026 Y143.246 E.01595
G1 X138.358 Y143.644 E.01626
G1 X138.681 Y144.184 E.01973
G1 X138.867 Y144.65 E.01573
G1 X138.987 Y145.128 E.01543
G1 X139.216 Y147.563 E.07671
G1 X139.166 Y147.969 E.01281
G1 X139.023 Y148.357 E.01299
G1 X138.525 Y148.975 E.02488
G1 X138.368 Y149.103 E.00633
G1 X137.728 Y149.369 E.02175
G1 X135.719 Y149.545 E.06323
G1 X134.989 Y149.368 E.02355
G1 X134.765 Y149.231 E.00822
G1 X134.325 Y148.843 E.01841
G1 X134.164 Y148.615 E.00876
G1 X133.994 Y148.245 E.01274
G1 X133.811 Y146.508 E.05477
G1 X132.822 Y146.508 E.03103
G1 X132.481 Y146.443 E.01088
G1 X131.937 Y146.175 E.01903
G1 X131.594 Y145.862 E.01455
G1 X131.438 Y145.67 E.00774
G1 X131.166 Y145.004 E.02256
G1 X131.103 Y144.18 E.02591
G1 X131.182 Y143.572 E.01925
G1 X131.413 Y142.995 E.01948
G1 X131.801 Y142.492 E.01992
G1 X132.085 Y142.729 F10800
G1 F1200
G1 X132.535 Y142.396 E.01756
G1 X133.079 Y142.195 E.01818
G1 X133.682 Y142.156 E.01895
G1 X136.158 Y142.592 E.07882
G1 X136.625 Y142.742 E.01537
G1 X137.055 Y142.955 E.01506
G1 X137.407 Y143.194 E.01333
G1 X137.747 Y143.499 E.01431
G1 X138.043 Y143.852 E.01445
G1 X138.337 Y144.34 E.01787
G1 X138.505 Y144.755 E.01403
G1 X138.617 Y145.205 E.01455
G1 X138.838 Y147.578 E.07473
G1 X138.804 Y147.859 E.00887
G1 X138.68 Y148.196 E.01126
G1 X138.249 Y148.717 E.02121
G1 X138.156 Y148.79 E.00369
G1 X137.665 Y148.996 E.0167
G1 X135.717 Y149.167 E.06132
G1 X135.158 Y149.03 E.01806
G1 X134.998 Y148.935 E.00581
G1 X134.617 Y148.604 E.01585
G1 X134.499 Y148.44 E.00634
G1 X134.35 Y148.117 E.01113
G1 X134.154 Y146.131 E.06257
G1 X132.838 Y146.131 E.04128
G1 X132.619 Y146.092 E.00699
G1 X132.17 Y145.878 E.01559
G1 X131.86 Y145.594 E.01316
G1 X131.75 Y145.456 E.00555
G1 X131.54 Y144.946 E.0173
G1 X131.48 Y144.172 E.02433
G1 X131.552 Y143.646 E.01666
G1 X131.729 Y143.201 E.01502
G1 X132.049 Y142.777 E.01663
G1 X132.336 Y143.012 F10800
G1 F1200
G1 X132.697 Y142.737 E.01422
G1 X133.136 Y142.568 E.01473
G1 X133.64 Y142.532 E.01586
G1 X136.079 Y142.961 E.07764
G1 X136.494 Y143.096 E.01368
G1 X136.875 Y143.287 E.01335
G1 X137.166 Y143.484 E.01102
G1 X137.468 Y143.753 E.01269
G1 X137.729 Y144.061 E.01264
G1 X137.993 Y144.496 E.01597
G1 X138.15 Y144.884 E.0131
G1 X138.248 Y145.281 E.01284
G1 X138.461 Y147.594 E.07281
G1 X138.443 Y147.75 E.00494
G1 X138.338 Y148.033 E.00945
G1 X137.979 Y148.453 E.01733
G1 X137.602 Y148.623 E.01299
G1 X135.716 Y148.788 E.05936
G1 X135.323 Y148.69 E.0127
G1 X135.229 Y148.635 E.00342
G1 X134.905 Y148.359 E.01335
G1 X134.832 Y148.262 E.00379
G1 X134.706 Y147.989 E.00944
G1 X134.499 Y145.754 E.07038
G1 X132.852 Y145.754 E.05165
G1 X132.749 Y145.737 E.00325
G1 X132.401 Y145.578 E.01199
G1 X132.127 Y145.327 E.01165
G1 X132.063 Y145.244 E.0033
G1 X131.913 Y144.886 E.01216
G1 X131.858 Y144.163 E.02276
G1 X131.912 Y143.759 E.01278
G1 X132.049 Y143.402 E.01199
G1 X132.301 Y143.06 E.01331
G1 X132.592 Y143.29 F10800
G1 F1200
G1 X132.866 Y143.075 E.0109
G1 X133.198 Y142.941 E.01124
G1 X133.6 Y142.908 E.01264
G1 X136 Y143.33 E.07641
G1 X136.362 Y143.45 E.01195
G1 X136.694 Y143.617 E.01165
G1 X136.926 Y143.775 E.00879
G1 X137.191 Y144.009 E.0111
G1 X137.416 Y144.271 E.01083
G1 X137.65 Y144.654 E.01407
G1 X137.787 Y144.988 E.0113
G1 X137.878 Y145.357 E.01194
M73 Q0 S86
G1 X138.084 Y147.61 E.07092
G1 X137.998 Y147.867 E.0085
G1 X137.739 Y148.157 E.01218
G1 X137.534 Y148.251 E.00707
G1 X135.716 Y148.41 E.05721
G1 X135.454 Y148.333 E.00857
G1 X135.184 Y148.106 E.01106
G1 X135.063 Y147.861 E.00856
G1 X134.845 Y145.377 E.07819
G1 X132.871 Y145.377 E.06189
G1 X132.633 Y145.279 E.00809
G1 X132.378 Y145.038 E.01099
G1 X132.287 Y144.825 E.00725
G1 X132.235 Y144.156 E.02106
G1 X132.282 Y143.834 E.01019
G1 X132.371 Y143.6 E.00786
G1 X132.557 Y143.339 E.01006
G1 X132.86 Y143.561 F10800
G1 F1200
G1 X133.068 Y143.394 E.00837
G1 X133.306 Y143.303 E.00798
G1 X133.558 Y143.283 E.00793
G1 X135.92 Y143.699 E.07521
G1 X136.228 Y143.802 E.01018
G1 X136.511 Y143.947 E.00996
G1 X136.687 Y144.067 E.00666
G1 X136.914 Y144.265 E.00946
G1 X137.12 Y144.505 E.00992
G1 X137.307 Y144.811 E.01125
G1 X137.433 Y145.117 E.01036
G1 X137.508 Y145.432 E.01015
G1 X137.703 Y147.588 E.06789
G1 X137.681 Y147.66 E.00236
G1 X137.526 Y147.844 E.00755
G1 X137.459 Y147.879 E.00235
G1 X135.725 Y148.031 E.05458
G1 X135.654 Y148.008 E.00235
G1 X135.469 Y147.853 E.00755
G1 X135.435 Y147.787 E.00235
G1 X135.191 Y145 E.08771
G1 X132.924 Y145 E.07107
G1 X132.858 Y144.974 E.00222
G1 X132.691 Y144.821 E.00711
G1 X132.66 Y144.756 E.00225
G1 X132.613 Y144.15 E.01907
G1 X132.65 Y143.916 E.00742
G1 X132.711 Y143.764 E.00515
G1 X132.824 Y143.61 E.00599
;WIPE_START
G1 F8640
G1 X133.068 Y143.394 E-.07513
G1 X133.306 Y143.303 E-.05878
G1 X133.558 Y143.283 E-.05838
G1 X135.92 Y143.699 E-.55389
G1 X135.977 Y143.718 E-.01382
;WIPE_END
G1 E-.04 F2100
G1 Z.6 F10800
G1 X119.374 Y145.605
G1 Z.2
G1 E.8 F2100
G1 F1200
G1 X119.608 Y148.192 E.08145
G1 X119.527 Y148.766 E.01818
G1 X119.288 Y149.358 E.02002
G1 X118.726 Y150.055 E.02807
G1 X118.347 Y150.354 E.01515
G1 X117.491 Y150.692 E.02884
G1 X115.362 Y150.878 E.067
G1 X114.284 Y150.618 E.03477
G1 X113.93 Y150.395 E.0131
G1 X113.431 Y149.955 E.02088
G1 X113.15 Y149.568 E.01501
G1 X112.89 Y148.963 E.02064
G1 X112.772 Y147.84 E.0354
G1 X112.353 Y147.832 E.01311
G1 X111.877 Y147.734 E.01524
G1 X111.147 Y147.372 E.02556
G1 X110.704 Y146.975 E.01865
G1 X110.401 Y146.583 E.01553
G1 X110.058 Y145.698 E.02977
G1 X109.987 Y144.776 E.02899
G1 X110.103 Y143.911 E.02737
G1 X110.423 Y143.152 E.02583
G1 X110.99 Y142.442 E.0285
G1 X111.712 Y141.937 E.02761
G1 X112.568 Y141.647 E.02834
G1 X113.451 Y141.607 E.02772
G1 X116.055 Y142.067 E.08293
G1 X116.676 Y142.265 E.0204
G1 X117.231 Y142.535 E.01936
G1 X117.754 Y142.888 E.01979
G1 X118.228 Y143.319 E.02011
G1 X118.63 Y143.809 E.01984
G1 X118.982 Y144.4 E.02159
G1 X119.224 Y144.994 E.02011
G1 X119.359 Y145.546 E.01784
G1 X118.995 Y145.637 F10800
G1 F1200
G1 X119.231 Y148.164 E.07958
G1 X119.167 Y148.653 E.01544
G1 X118.975 Y149.145 E.01657
G1 X118.445 Y149.803 E.02648
G1 X118.179 Y150.016 E.01069
G1 X117.429 Y150.319 E.02535
G1 X115.36 Y150.5 E.06514
G1 X114.457 Y150.282 E.02913
G1 X114.168 Y150.102 E.01068
G1 X113.697 Y149.687 E.01966
G1 X113.469 Y149.365 E.01239
G1 X113.262 Y148.894 E.01614
G1 X113.111 Y147.463 E.04511
G1 X112.41 Y147.458 E.02199
G1 X111.978 Y147.37 E.01381
G1 X111.341 Y147.048 E.02238
G1 X110.969 Y146.708 E.01581
G1 X110.74 Y146.417 E.01161
G1 X110.431 Y145.64 E.02622
G1 X110.364 Y144.766 E.02747
G1 X110.462 Y144.031 E.02327
G1 X110.736 Y143.363 E.02264
G1 X111.232 Y142.732 E.02515
G1 X111.862 Y142.284 E.02426
G1 X112.615 Y142.022 E.02498
G1 X113.407 Y141.982 E.02487
G1 X115.953 Y142.431 E.08106
G1 X116.548 Y142.62 E.01956
G1 X117.052 Y142.867 E.01763
G1 X117.531 Y143.192 E.01813
G1 X117.946 Y143.57 E.01761
G1 X118.313 Y144.014 E.01807
G1 X118.651 Y144.581 E.02067
G1 X118.861 Y145.099 E.01752
G1 X118.981 Y145.579 E.01553
G1 X118.617 Y145.67 F10800
G1 F1200
G1 X118.855 Y148.14 E.07779
G1 X118.805 Y148.545 E.01281
G1 X118.662 Y148.934 E.01299
G1 X118.164 Y149.552 E.02488
G1 X118.007 Y149.679 E.00633
G1 X117.367 Y149.946 E.02175
G1 X115.358 Y150.122 E.06323
G1 X114.628 Y149.944 E.02355
G1 X114.404 Y149.808 E.00822
G1 X113.964 Y149.419 E.01841
G1 X113.803 Y149.191 E.00876
G1 X113.633 Y148.822 E.01274
G1 X113.45 Y147.085 E.05477
G1 X112.461 Y147.085 E.03103
G1 X112.12 Y147.02 E.01088
G1 X111.576 Y146.752 E.01903
G1 X111.233 Y146.438 E.01455
G1 X111.077 Y146.247 E.00774
G1 X110.805 Y145.581 E.02256
G1 X110.742 Y144.757 E.02591
G1 X110.821 Y144.148 E.01925
G1 X111.052 Y143.571 E.01948
G1 X111.476 Y143.02 E.02181
G1 X112.016 Y142.629 E.02091
G1 X112.665 Y142.397 E.0216
G1 X113.364 Y142.357 E.02195
G1 X115.875 Y142.8 E.07995
G1 X116.418 Y142.974 E.0179
G1 X116.873 Y143.199 E.01591
G1 X117.288 Y143.481 E.01572
G1 X117.665 Y143.822 E.01595
G1 X117.997 Y144.221 E.01626
G1 X118.32 Y144.761 E.01973
G1 X118.506 Y145.227 E.01573
G1 X118.603 Y145.612 E.01245
G1 X118.237 Y145.704 F10800
G1 F1200
G1 X118.477 Y148.155 E.07722
G1 X118.443 Y148.436 E.00887
G1 X118.319 Y148.772 E.01126
G1 X117.888 Y149.294 E.02121
G1 X117.795 Y149.366 E.00369
G1 X117.304 Y149.573 E.0167
G1 X115.356 Y149.743 E.06132
G1 X114.797 Y149.606 E.01806
G1 X114.637 Y149.511 E.00581
G1 X114.256 Y149.18 E.01585
G1 X114.138 Y149.016 E.00634
G1 X113.989 Y148.693 E.01113
G1 X113.793 Y146.707 E.06257
G1 X112.477 Y146.707 E.04128
G1 X112.257 Y146.668 E.00699
G1 X111.809 Y146.454 E.01559
G1 X111.499 Y146.17 E.01316
G1 X111.389 Y146.032 E.00555
G1 X111.179 Y145.522 E.0173
G1 X111.119 Y144.748 E.02433
G1 X111.191 Y144.222 E.01666
G1 X111.368 Y143.777 E.01502
G1 X111.724 Y143.306 E.01851
G1 X112.174 Y142.972 E.01756
G1 X112.718 Y142.771 E.01818
G1 X113.321 Y142.733 E.01895
G1 X115.797 Y143.169 E.07882
G1 X116.264 Y143.318 E.01537
G1 X116.694 Y143.532 E.01506
G1 X117.046 Y143.77 E.01333
G1 X117.386 Y144.075 E.01431
G1 X117.682 Y144.428 E.01445
G1 X117.976 Y144.917 E.01787
G1 X118.144 Y145.331 E.01403
G1 X118.222 Y145.645 E.01015
G1 X117.857 Y145.735 F10800
G1 F1200
G1 X117.887 Y145.857 E.00394
G1 X118.1 Y148.17 E.07281
G1 X118.082 Y148.326 E.00494
G1 X117.977 Y148.609 E.00945
G1 X117.618 Y149.029 E.01733
G1 X117.241 Y149.2 E.01299
G1 X115.355 Y149.365 E.05936
G1 X114.962 Y149.267 E.0127
G1 X114.867 Y149.212 E.00342
G1 X114.544 Y148.936 E.01335
G1 X114.471 Y148.839 E.00379
G1 X114.345 Y148.565 E.00944
G1 X114.138 Y146.33 E.07038
G1 X112.491 Y146.33 E.05165
G1 X112.388 Y146.314 E.00325
G1 X112.04 Y146.155 E.01199
G1 X111.766 Y145.904 E.01165
G1 X111.702 Y145.821 E.0033
G1 X111.552 Y145.463 E.01216
G1 X111.497 Y144.739 E.02276
G1 X111.551 Y144.335 E.01278
G1 X111.688 Y143.978 E.01199
