; generated by PrusaSlicer 2.2.0+win64 on 2022-03-23 at 20:56:28 UTC

; 

; external perimeters extrusion width = 0.45mm
; perimeters extrusion width = 0.45mm
; infill extrusion width = 0.45mm
; solid infill extrusion width = 0.45mm
; top infill extrusion width = 0.40mm
; first layer extrusion width = 0.42mm

M73 P0 R90
M73 Q0 S90
M201 X1000 Y1000 Z200 E5000 ; sets maximum accelerations, mm/sec^2
M203 X200 Y200 Z12 E120 ; sets maximum feedrates, mm/sec
M204 P1250 R1250 T1250 ; sets acceleration (P, T) and retract acceleration (R), mm/sec^2
M205 X8.00 Y8.00 Z0.40 E4.50 ; sets the jerk limits, mm/sec
M205 S0 T0 ; sets the minimum extruding and travel feed rate, mm/sec
M107
M862.3 P "MK3S" ; printer model check
M862.1 P0.4 ; nozzle diameter check
M115 U3.10.1 ; tell printer latest fw version
G90 ; use absolute coordinates
M83 ; extruder relative mode
M104 S215 ; set extruder temp
M140 S60 ; set bed temp
M190 S60 ; wait for bed temp
M109 S215 ; wait for extruder temp
G28 W ; home all without mesh bed level
G80 ; mesh bed leveling
G1 Y-3.0 F1000.0 ; go outside print area
G92 E0.0
G1 X60.0 E9.0 F1000.0 ; intro line
M73 Q0 S90
M73 P0 R90
G1 X100.0 E12.5 F1000.0 ; intro line
G92 E0.0
M221 S95

; Don't change E values below. Excessive value can damage the printer.
M907 E430 ; set extruder motor current
G21 ; set units to millimeters
G90 ; use absolute coordinates
M83 ; use relative distances for extrusion
M900 K0.05 ; Filament gcode LA 1.5
M900 K30 ; Filament gcode LA 1.0
;BEFORE_LAYER_CHANGE
G92 E0.0
;0.2


G1 E-0.80000 F2100.00000
G1 Z0.400 F10800.000
;AFTER_LAYER_CHANGE
;0.2
G1 X53.489 Y36.934
G1 Z0.200
G1 E0.80000 F2100.00000
M204 S1000
G1 F1200.000
G1 X54.303 Y35.855 E0.04239
G1 X55.176 Y34.907 E0.04037
G1 X56.224 Y33.971 E0.04408
G1 X57.310 Y33.184 E0.04206
G1 X58.479 Y32.502 E0.04242
G1 X59.615 Y31.979 E0.03921
G1 X60.975 Y31.505 E0.04517
G1 X62.191 Y31.215 E0.03921
G1 X63.771 Y31.006 E0.04994
G1 X186.239 Y31.005 E3.83993
G1 X187.874 Y31.213 E0.05167
G1 X189.098 Y31.504 E0.03945
G1 X190.448 Y31.973 E0.04481
G1 X191.594 Y32.500 E0.03956
G1 X192.757 Y33.178 E0.04218
G1 X193.846 Y33.967 E0.04217
G1 X194.836 Y34.843 E0.04145
G1 X195.763 Y35.843 E0.04275
G1 X196.518 Y36.838 E0.03916
G1 X197.332 Y38.174 E0.04905
G1 X197.870 Y39.301 E0.03915
G1 X198.327 Y40.560 E0.04201
G1 X198.658 Y41.859 E0.04201
G1 X198.847 Y43.096 E0.03926
G1 X198.927 Y44.544 E0.04547
G1 X198.927 Y82.579 E1.19256
G1 X198.866 Y83.855 E0.04005
G1 X198.669 Y85.204 E0.04275
G1 X198.373 Y86.402 E0.03870
G1 X197.852 Y87.858 E0.04848
G1 X197.322 Y88.969 E0.03859
G1 X196.640 Y90.106 E0.04158
G1 X195.852 Y91.168 E0.04147
G1 X194.986 Y92.127 E0.04052
G1 X120.369 Y166.804 E3.30997
G1 X119.415 Y167.667 E0.04033
G1 X117.524 Y169.147 E0.07527
G1 X115.519 Y170.564 E0.07701
G1 X113.419 Y171.896 E0.07797
G1 X111.285 Y173.106 E0.07692
G1 X109.100 Y174.206 E0.07669
G1 X106.950 Y175.161 E0.07375
G1 X104.574 Y176.081 E0.07990
G1 X102.247 Y176.850 E0.07685
G1 X99.985 Y177.476 E0.07360
G1 X97.488 Y178.040 E0.08025
G1 X95.080 Y178.457 E0.07664
G1 X92.753 Y178.745 E0.07351
G1 X90.192 Y178.936 E0.08051
G1 X87.806 Y178.994 E0.07484
G1 X85.473 Y178.941 E0.07317
G1 X82.642 Y178.731 E0.08899
G1 X80.541 Y178.471 E0.06639
G1 X78.175 Y178.067 E0.07526
G1 X75.712 Y177.522 E0.07910
G1 X73.363 Y176.877 E0.07637
G1 X71.073 Y176.126 E0.07556
G1 X68.291 Y175.040 E0.09363
G1 X66.481 Y174.236 E0.06210
G1 X64.331 Y173.158 E0.07542
G1 X62.103 Y171.899 E0.08024
G1 X60.064 Y170.608 E0.07565
G1 X58.061 Y169.198 E0.07680
G1 X56.104 Y167.670 E0.07786
G1 X55.149 Y166.805 E0.04038
G1 X54.229 Y165.793 E0.04290
G1 X53.436 Y164.725 E0.04170
G1 X52.750 Y163.582 E0.04181
G1 X52.184 Y162.387 E0.04145
G1 X51.733 Y161.128 E0.04192
G1 X51.410 Y159.843 E0.04156
G1 X51.215 Y158.528 E0.04168
G1 X51.150 Y157.273 E0.03941
G1 X51.149 Y44.544 E3.53452
G1 X51.216 Y43.199 E0.04223
G1 X51.416 Y41.866 E0.04225
G1 X51.748 Y40.561 E0.04225
G1 X52.205 Y39.301 E0.04201
G1 X52.792 Y38.079 E0.04250
G1 X53.458 Y36.985 E0.04015
; printing object BaseIndent.stl id:1 copy 0
G1 F8640.000
G1 X54.303 Y35.855 E-0.32599
G1 X55.176 Y34.907 E-0.29731
G1 X55.617 Y34.513 E-0.13670
G1 E-0.04000 F2100.00000
G1 Z0.600 F10800.000
G1 X112.411 Y48.326
G1 Z0.200
G1 E0.80000 F2100.00000
G1 F1200.000
G1 X113.730 Y48.266 E0.04139
G1 X118.496 Y48.264 E0.14944
G1 X118.496 Y56.584 E0.26087
G1 X113.730 Y56.581 E0.14943
G1 X112.411 Y56.521 E0.04140
G1 X112.411 Y48.386 E0.25507
G1 X112.378 Y47.927 F10800.000
G1 X112.448 Y47.947
G1 F1200.000
G1 X112.463 Y47.255 E0.02169
G1 X112.464 Y34.281 E0.40680
G1 X112.640 Y34.304 E0.00557
G1 X113.649 Y34.541 E0.03251
G1 X114.630 Y34.877 E0.03250
G1 X115.573 Y35.307 E0.03249
G1 X116.468 Y35.828 E0.03248
G1 X117.307 Y36.436 E0.03246
G1 X118.081 Y37.122 E0.03245
G1 X118.783 Y37.882 E0.03243
G1 X119.406 Y38.707 E0.03242
G1 X119.944 Y39.590 E0.03241
G1 X120.391 Y40.521 E0.03239
G1 X120.744 Y41.492 E0.03238
G1 X120.998 Y42.492 E0.03237
G1 X121.152 Y43.513 E0.03237
G1 X121.204 Y44.564 E0.03298
G1 X121.204 Y82.556 E1.19122
G1 X121.153 Y83.592 E0.03254
G1 X121.004 Y84.600 E0.03193
G1 X120.756 Y85.588 E0.03194
G1 X120.413 Y86.547 E0.03195
G1 X119.977 Y87.469 E0.03196
G1 X119.452 Y88.343 E0.03197
G1 X118.845 Y89.162 E0.03198
G1 X118.160 Y89.919 E0.03200
G1 X117.397 Y90.611 E0.03231
G1 X115.599 Y92.017 E0.07155
G1 X113.726 Y93.338 E0.07187
G1 X111.790 Y94.565 E0.07187
G1 X109.795 Y95.696 E0.07189
G1 X107.747 Y96.727 E0.07191
G1 X105.650 Y97.657 E0.07192
G1 X103.543 Y98.470 E0.07081
G1 X101.330 Y99.202 E0.07307
G1 X99.118 Y99.814 E0.07195
G1 X96.878 Y100.316 E0.07197
G1 X94.616 Y100.708 E0.07198
G1 X92.337 Y100.988 E0.07199
G1 X90.047 Y101.156 E0.07201
G1 X87.800 Y101.211 E0.07047
G1 X85.506 Y101.156 E0.07194
G1 X83.218 Y100.988 E0.07193
G1 X80.883 Y100.700 E0.07378
G1 X78.680 Y100.317 E0.07010
G1 X76.441 Y99.816 E0.07194
G1 X74.230 Y99.204 E0.07193
G1 X72.051 Y98.485 E0.07193
G1 X69.911 Y97.660 E0.07193
G1 X67.813 Y96.731 E0.07193
G1 X65.764 Y95.699 E0.07193
G1 X63.768 Y94.568 E0.07193
G1 X61.831 Y93.340 E0.07193
G1 X59.956 Y92.019 E0.07193
G1 X58.155 Y90.611 E0.07165
G1 X57.392 Y89.919 E0.03231
G1 X56.707 Y89.162 E0.03200
G1 X56.100 Y88.343 E0.03198
G1 X55.575 Y87.469 E0.03197
G1 X55.139 Y86.547 E0.03196
G1 X54.796 Y85.588 E0.03195
G1 X54.548 Y84.600 E0.03194
G1 X54.399 Y83.592 E0.03193
G1 X54.348 Y82.556 E0.03254
G1 X54.348 Y44.564 E1.19122
G1 X54.400 Y43.513 E0.03298
G1 X54.554 Y42.492 E0.03237
G1 X54.808 Y41.492 E0.03237
G1 X55.161 Y40.521 E0.03238
G1 X55.608 Y39.590 E0.03239
G1 X56.146 Y38.707 E0.03241
G1 X56.769 Y37.882 E0.03242
G1 X57.471 Y37.122 E0.03243
G1 X58.245 Y36.436 E0.03245
G1 X59.084 Y35.828 E0.03246
G1 X59.979 Y35.307 E0.03248
G1 X60.922 Y34.877 E0.03249
G1 X61.903 Y34.541 E0.03250
G1 X62.912 Y34.304 E0.03251
G1 X63.088 Y34.281 E0.00557
G1 X63.088 Y84.415 E1.57193
G1 X63.150 Y85.396 E0.03081
G1 X63.339 Y86.386 E0.03159
G1 X63.651 Y87.344 E0.03160
G1 X64.080 Y88.256 E0.03160
G1 X64.621 Y89.107 E0.03161
G1 X65.256 Y89.874 E0.03124
G1 X66.635 Y91.253 E0.06113
G1 X68.089 Y92.534 E0.06076
G1 X69.621 Y93.721 E0.06077
G1 X71.225 Y94.810 E0.06079
G1 X72.895 Y95.797 E0.06080
G1 X74.623 Y96.676 E0.06081
G1 X76.404 Y97.446 E0.06082
G1 X78.229 Y98.102 E0.06083
G1 X80.093 Y98.643 E0.06084
G1 X81.987 Y99.065 E0.06085
G1 X83.904 Y99.368 E0.06085
G1 X85.836 Y99.551 E0.06085
G1 X87.776 Y99.612 E0.06086
G1 X89.716 Y99.551 E0.06086
G1 X91.648 Y99.368 E0.06085
G1 X93.565 Y99.065 E0.06085
G1 X95.459 Y98.643 E0.06085
G1 X97.323 Y98.102 E0.06084
G1 X99.148 Y97.446 E0.06083
G1 X100.929 Y96.676 E0.06082
G1 X102.657 Y95.797 E0.06081
G1 X104.327 Y94.810 E0.06080
G1 X105.931 Y93.721 E0.06079
G1 X107.463 Y92.534 E0.06077
G1 X108.917 Y91.253 E0.06076
G1 X110.296 Y89.874 E0.06113
G1 X110.931 Y89.107 E0.03124
G1 X111.472 Y88.256 E0.03161
G1 X111.901 Y87.344 E0.03160
G1 X112.213 Y86.386 E0.03160
G1 X112.402 Y85.396 E0.03159
G1 X112.464 Y84.415 E0.03081
G1 X112.464 Y57.643 E0.83942
G1 X112.450 Y56.900 E0.02329
G1 X113.721 Y56.958 E0.03989
G1 X118.873 Y56.961 E0.16152
G1 X118.873 Y47.886 E0.28453
G1 X113.721 Y47.889 E0.16154
G1 X112.508 Y47.944 E0.03805
G1 F8640.000
G1 X112.463 Y47.255 E-0.15943
G1 X112.463 Y44.654 E-0.60057
G1 E-0.04000 F2100.00000
G1 Z0.600 F10800.000
G1 X112.087 Y33.850
G1 Z0.200
G1 E0.80000 F2100.00000
G1 F1200.000
G1 X112.708 Y33.933 E0.01965
G1 X113.754 Y34.178 E0.03368
G1 X114.770 Y34.526 E0.03367
G1 X115.746 Y34.972 E0.03366
G1 X116.674 Y35.512 E0.03365
G1 X117.543 Y36.141 E0.03364
G1 X118.345 Y36.853 E0.03362
G1 X119.072 Y37.640 E0.03361
G1 X119.718 Y38.495 E0.03359
G1 X120.275 Y39.410 E0.03358
G1 X120.739 Y40.375 E0.03357
G1 X121.105 Y41.381 E0.03356
G1 X121.368 Y42.418 E0.03355
G1 X121.527 Y43.476 E0.03355
G1 X121.581 Y44.554 E0.03386
G1 X121.581 Y82.565 E1.19180
G1 X121.529 Y83.629 E0.03341
G1 X121.374 Y84.674 E0.03310
G1 X121.117 Y85.698 E0.03310
G1 X120.761 Y86.692 E0.03311
G1 X120.310 Y87.647 E0.03312
G1 X119.766 Y88.553 E0.03313
G1 X119.137 Y89.402 E0.03314
G1 X118.427 Y90.186 E0.03316
G1 X117.640 Y90.900 E0.03333
G1 X115.824 Y92.320 E0.07228
G1 X113.935 Y93.651 E0.07245
G1 X111.984 Y94.888 E0.07245
G1 X109.973 Y96.028 E0.07247
G1 X107.908 Y97.068 E0.07249
G1 X105.794 Y98.005 E0.07250
G1 X103.670 Y98.825 E0.07139
G1 X101.440 Y99.563 E0.07365
G1 X99.210 Y100.180 E0.07254
G1 X96.952 Y100.686 E0.07255
G1 X94.672 Y101.081 E0.07256
G1 X92.374 Y101.363 E0.07258
G1 X90.065 Y101.533 E0.07259
G1 X87.800 Y101.588 E0.07104
G1 X85.488 Y101.533 E0.07252
G1 X83.181 Y101.364 E0.07252
G1 X80.827 Y101.073 E0.07437
G1 X78.607 Y100.687 E0.07067
G1 X76.350 Y100.181 E0.07252
G1 X74.120 Y99.565 E0.07252
G1 X71.924 Y98.841 E0.07251
G1 X69.766 Y98.009 E0.07251
G1 X67.652 Y97.072 E0.07251
G1 X65.586 Y96.032 E0.07251
G1 X63.574 Y94.892 E0.07251
G1 X61.621 Y93.654 E0.07251
G1 X59.731 Y92.321 E0.07252
G1 X57.912 Y90.900 E0.07237
G1 X57.125 Y90.186 E0.03333
G1 X56.415 Y89.402 E0.03316
G1 X55.786 Y88.553 E0.03314
G1 X55.242 Y87.647 E0.03313
G1 X54.791 Y86.692 E0.03312
G1 X54.435 Y85.698 E0.03311
G1 X54.178 Y84.674 E0.03310
G1 X54.023 Y83.629 E0.03310
G1 X53.971 Y82.565 E0.03341
G1 X53.971 Y44.554 E1.19180
G1 X54.025 Y43.476 E0.03386
G1 X54.184 Y42.418 E0.03355
G1 X54.447 Y41.381 E0.03355
G1 X54.813 Y40.375 E0.03356
G1 X55.277 Y39.410 E0.03357
G1 X55.834 Y38.495 E0.03358
G1 X56.480 Y37.640 E0.03359
G1 X57.207 Y36.853 E0.03361
G1 X58.009 Y36.141 E0.03362
G1 X58.878 Y35.512 E0.03364
G1 X59.806 Y34.972 E0.03365
G1 X60.782 Y34.526 E0.03366
G1 X61.798 Y34.178 E0.03367
G1 X62.844 Y33.933 E0.03368
G1 X63.465 Y33.850 E0.01965
G1 X63.465 Y84.403 E1.58505
M73 Q1 S89
M73 P1 R89
G1 X63.525 Y85.348 E0.02969
G1 X63.705 Y86.292 E0.03010
G1 X64.002 Y87.205 E0.03011
G1 X64.411 Y88.074 E0.03012
G1 X64.926 Y88.885 E0.03013
G1 X65.535 Y89.620 E0.02994
G1 X66.893 Y90.978 E0.06020
G1 X68.329 Y92.243 E0.06002
G1 X69.843 Y93.416 E0.06003
G1 X71.427 Y94.492 E0.06004
G1 X73.076 Y95.466 E0.06006
G1 X74.784 Y96.335 E0.06007
G1 X76.542 Y97.095 E0.06008
G1 X78.346 Y97.743 E0.06009
G1 X80.187 Y98.277 E0.06010
G1 X82.058 Y98.695 E0.06010
G1 X83.951 Y98.994 E0.06011
G1 X85.860 Y99.174 E0.06011
G1 X87.776 Y99.234 E0.06011
G1 X89.692 Y99.174 E0.06011
G1 X91.601 Y98.994 E0.06011
G1 X93.494 Y98.695 E0.06011
G1 X95.365 Y98.277 E0.06010
G1 X97.206 Y97.743 E0.06010
G1 X99.010 Y97.095 E0.06009
G1 X100.768 Y96.335 E0.06008
G1 X102.476 Y95.466 E0.06007
G1 X104.125 Y94.492 E0.06006
G1 X105.709 Y93.416 E0.06004
G1 X107.223 Y92.243 E0.06003
G1 X108.659 Y90.978 E0.06002
G1 X110.017 Y89.620 E0.06020
G1 X110.626 Y88.885 E0.02994
G1 X111.141 Y88.074 E0.03013
G1 X111.550 Y87.205 E0.03012
G1 X111.847 Y86.292 E0.03011
G1 X112.027 Y85.348 E0.03010
G1 X112.087 Y84.403 E0.02969
G1 X112.087 Y57.646 E0.83894
G1 X112.068 Y56.649 E0.03129
G1 X112.034 Y56.155 E0.01551
G1 X112.034 Y48.741 E0.23247
G1 X112.065 Y48.248 E0.01549
G1 X112.086 Y47.251 E0.03127
G1 X112.087 Y33.910 E0.41828
G1 X112.414 Y34.080 F10800.000
G1 F8640.000
G1 X112.708 Y33.933 E-0.14353
G1 X113.754 Y34.178 E-0.24802
G1 X114.770 Y34.526 E-0.24796
G1 X115.245 Y34.743 E-0.12049
G1 E-0.04000 F2100.00000
G1 Z0.600 F10800.000
G1 X119.261 Y38.703
G1 Z0.200
G1 E0.80000 F2100.00000
G1 F1200.000
G1 X117.881 Y37.323 E0.06126
G1 X117.129 Y36.656 E0.03156
G1 X116.313 Y36.066 E0.03163
G1 X115.777 Y35.754 E0.01948
G1 X119.611 Y39.587 E0.17022
G1 X119.695 Y39.725 E0.00508
G1 X120.136 Y40.646 E0.03205
G1 X114.717 Y35.227 E0.24063
G1 X114.525 Y35.140 E0.00661
G1 X113.872 Y34.916 E0.02169
G1 X120.440 Y41.485 E0.29168
G1 X120.636 Y42.214 E0.02371
G1 X113.132 Y34.710 E0.33322
G1 X112.747 Y34.620 E0.01242
G1 X112.747 Y34.859 E0.00752
G1 X120.771 Y42.883 E0.35633
G1 X120.866 Y43.512 E0.01996
G1 X112.747 Y35.393 E0.36053
G1 X112.747 Y35.927 E0.01677
G1 X120.897 Y44.077 E0.36191
G1 X120.921 Y44.636 E0.01756
G1 X112.747 Y36.461 E0.36301
G1 X112.747 Y36.995 E0.01677
G1 X120.921 Y45.170 E0.36301
G1 X120.921 Y45.704 E0.01677
G1 X112.747 Y37.529 E0.36301
G1 X112.747 Y38.063 E0.01677
G1 X120.921 Y46.238 E0.36301
G1 X120.921 Y46.772 E0.01677
G1 X112.747 Y38.597 E0.36301
G1 X112.747 Y39.131 E0.01677
G1 X120.921 Y47.306 E0.36301
G1 X120.921 Y47.840 E0.01677
G1 X112.747 Y39.665 E0.36301
G1 X112.746 Y40.199 E0.01677
G1 X120.921 Y48.374 E0.36301
G1 X120.921 Y48.908 E0.01677
G1 X112.746 Y40.733 E0.36302
G1 X112.746 Y41.267 E0.01677
G1 X120.921 Y49.442 E0.36302
G1 X120.921 Y49.976 E0.01677
G1 X119.156 Y48.211 E0.07841
G1 X119.156 Y48.745 E0.01677
G1 X120.921 Y50.510 E0.07841
G1 X120.921 Y51.044 E0.01677
G1 X119.156 Y49.279 E0.07841
G1 X119.156 Y49.813 E0.01677
G1 X120.921 Y51.578 E0.07841
G1 X120.921 Y52.112 E0.01677
G1 X119.156 Y50.347 E0.07841
G1 X119.156 Y50.881 E0.01677
G1 X120.921 Y52.647 E0.07841
G1 X120.921 Y53.181 E0.01677
G1 X119.156 Y51.415 E0.07841
G1 X119.156 Y51.949 E0.01677
G1 X120.921 Y53.715 E0.07841
G1 X120.921 Y54.249 E0.01677
G1 X119.156 Y52.483 E0.07841
G1 X119.156 Y53.017 E0.01677
G1 X120.921 Y54.783 E0.07841
G1 X120.921 Y55.317 E0.01677
G1 X119.156 Y53.551 E0.07841
G1 X119.156 Y54.085 E0.01677
G1 X120.921 Y55.851 E0.07841
G1 X120.921 Y56.385 E0.01677
G1 X119.156 Y54.619 E0.07841
G1 X119.156 Y55.153 E0.01677
G1 X120.921 Y56.919 E0.07841
G1 X120.921 Y57.453 E0.01677
G1 X119.156 Y55.687 E0.07841
G1 X119.156 Y56.221 E0.01677
G1 X120.921 Y57.987 E0.07841
G1 X120.921 Y58.521 E0.01677
G1 X119.156 Y56.755 E0.07841
G1 X119.156 Y57.244 E0.01534
G1 X119.110 Y57.244 E0.00143
G1 X120.921 Y59.055 E0.08043
G1 X120.921 Y59.589 E0.01677
G1 X118.576 Y57.244 E0.10416
G1 X118.041 Y57.243 E0.01678
G1 X120.921 Y60.123 E0.12789
G1 X120.921 Y60.657 E0.01677
G1 X117.507 Y57.243 E0.15162
G1 X116.973 Y57.243 E0.01678
G1 X120.921 Y61.191 E0.17535
G1 X120.921 Y61.725 E0.01677
G1 X116.438 Y57.242 E0.19908
G1 X115.904 Y57.242 E0.01678
G1 X120.921 Y62.259 E0.22281
G1 X120.921 Y62.793 E0.01677
G1 X115.369 Y57.242 E0.24654
G1 X114.835 Y57.241 E0.01678
G1 X120.921 Y63.328 E0.27027
G1 X120.921 Y63.862 E0.01677
G1 X114.301 Y57.241 E0.29400
G1 X113.766 Y57.241 E0.01678
G1 X120.921 Y64.396 E0.31773
G1 X120.921 Y64.930 E0.01677
G1 X113.209 Y57.218 E0.34246
G1 X112.738 Y57.196 E0.01480
G1 X112.740 Y57.282 E0.00270
G1 X120.921 Y65.464 E0.36330
G1 X120.921 Y65.998 E0.01677
G1 X112.747 Y57.823 E0.36301
G1 X112.747 Y58.357 E0.01677
G1 X120.921 Y66.532 E0.36301
G1 X120.921 Y67.066 E0.01677
G1 X112.747 Y58.891 E0.36301
G1 X112.747 Y59.425 E0.01677
G1 X120.921 Y67.600 E0.36301
G1 X120.921 Y68.134 E0.01677
G1 X112.747 Y59.959 E0.36301
G1 X112.747 Y60.493 E0.01677
G1 X120.921 Y68.668 E0.36301
G1 X120.921 Y69.202 E0.01677
G1 X112.747 Y61.027 E0.36301
G1 X112.747 Y61.561 E0.01677
G1 X120.921 Y69.736 E0.36301
G1 X120.921 Y70.270 E0.01677
G1 X112.747 Y62.095 E0.36301
G1 X112.747 Y62.629 E0.01677
G1 X120.921 Y70.804 E0.36301
G1 X120.921 Y71.338 E0.01677
G1 X112.747 Y63.164 E0.36301
G1 X112.747 Y63.698 E0.01677
G1 X120.921 Y71.872 E0.36301
G1 X120.921 Y72.406 E0.01677
G1 X112.747 Y64.232 E0.36301
G1 X112.747 Y64.766 E0.01677
G1 X120.921 Y72.940 E0.36301
G1 X120.921 Y73.474 E0.01677
G1 X112.747 Y65.300 E0.36301
G1 X112.747 Y65.834 E0.01677
G1 X120.921 Y74.008 E0.36301
