; generated by PrusaSlicer 2.2.0+win64 on 2022-03-23 at 20:52:49 UTC

; 

; external perimeters extrusion width = 0.45mm
; perimeters extrusion width = 0.45mm
; infill extrusion width = 0.45mm
; solid infill extrusion width = 0.45mm
; top infill extrusion width = 0.40mm
; first layer extrusion width = 0.42mm

M73 P0 R131
M73 Q0 S131
M201 X1000 Y1000 Z200 E5000 ; sets maximum accelerations, mm/sec^2
M203 X200 Y200 Z12 E120 ; sets maximum feedrates, mm/sec
M204 P1250 R1250 T1250 ; sets acceleration (P, T) and retract acceleration (R), mm/sec^2
M205 X8.00 Y8.00 Z0.40 E4.50 ; sets the jerk limits, mm/sec
M205 S0 T0 ; sets the minimum extruding and travel feed rate, mm/sec
M107
M862.3 P "MK3S" ; printer model check
M862.1 P0.4 ; nozzle diameter check
M115 U3.10.1 ; tell printer latest fw version
G90 ; use absolute coordinates
M83 ; extruder relative mode
M104 S215 ; set extruder temp
M140 S60 ; set bed temp
M190 S60 ; wait for bed temp
M109 S215 ; wait for extruder temp
G28 W ; home all without mesh bed level
G80 ; mesh bed leveling
G1 Y-3.0 F1000.0 ; go outside print area
G92 E0.0
G1 X60.0 E9.0 F1000.0 ; intro line
M73 Q0 S131
M73 P0 R131
G1 X100.0 E12.5 F1000.0 ; intro line
G92 E0.0
M221 S95

; Don't change E values below. Excessive value can damage the printer.
M907 E430 ; set extruder motor current
G21 ; set units to millimeters
G90 ; use absolute coordinates
M83 ; use relative distances for extrusion
M900 K0.05 ; Filament gcode LA 1.5
M900 K30 ; Filament gcode LA 1.0
;BEFORE_LAYER_CHANGE
G92 E0.0
;0.2


G1 E-0.80000 F2100.00000
G1 Z0.400 F10800.000
;AFTER_LAYER_CHANGE
;0.2
G1 X56.954 Y70.962
G1 Z0.200
G1 E0.80000 F2100.00000
M204 S1000
G1 F1200.000
G1 X58.233 Y70.120 E0.04801
G1 X59.537 Y69.457 E0.04587
G1 X60.836 Y68.960 E0.04360
G1 X62.208 Y68.592 E0.04456
G1 X63.608 Y68.370 E0.04444
G1 X65.008 Y68.296 E0.04396
G1 X184.974 Y68.296 E3.76143
G1 X186.383 Y68.369 E0.04424
G1 X187.670 Y68.570 E0.04086
G1 X189.174 Y68.963 E0.04873
G1 X190.486 Y69.467 E0.04408
G1 X191.659 Y70.060 E0.04122
G1 X193.042 Y70.959 E0.05170
G1 X194.061 Y71.789 E0.04122
G1 X195.061 Y72.789 E0.04432
G1 X195.948 Y73.884 E0.04420
G1 X196.663 Y74.978 E0.04098
G1 X197.414 Y76.446 E0.05170
G1 X197.883 Y77.678 E0.04134
G1 X198.228 Y78.955 E0.04146
G1 X198.472 Y80.443 E0.04730
G1 X198.547 Y81.859 E0.04444
G1 X198.547 Y119.908 E1.19300
G1 X198.490 Y121.130 E0.03836
G1 X198.291 Y122.528 E0.04427
G1 X197.997 Y123.721 E0.03854
G1 X197.475 Y125.187 E0.04879
G1 X196.949 Y126.294 E0.03842
G1 X196.265 Y127.437 E0.04177
G1 X195.480 Y128.499 E0.04141
G1 X194.560 Y129.514 E0.04296
G1 X193.613 Y130.374 E0.04010
G1 X191.680 Y131.891 E0.07703
G1 X189.701 Y133.292 E0.07605
G1 X187.671 Y134.584 E0.07545
G1 X185.467 Y135.837 E0.07948
G1 X183.339 Y136.913 E0.07477
G1 X181.133 Y137.895 E0.07569
G1 X178.836 Y138.786 E0.07725
G1 X176.520 Y139.554 E0.07653
G1 X174.168 Y140.208 E0.07653
G1 X171.843 Y140.733 E0.07474
G1 X169.326 Y141.172 E0.08011
G1 X166.957 Y141.464 E0.07486
G1 X164.496 Y141.645 E0.07736
G1 X162.085 Y141.704 E0.07562
G1 X87.911 Y141.704 E2.32567
G1 X85.476 Y141.644 E0.07636
G1 X83.039 Y141.464 E0.07665
G1 X80.620 Y141.164 E0.07641
G1 X78.215 Y140.745 E0.07653
G1 X75.834 Y140.209 E0.07653
G1 X73.483 Y139.555 E0.07653
G1 X71.166 Y138.787 E0.07653
G1 X68.890 Y137.905 E0.07653
G1 X66.660 Y136.912 E0.07653
G1 X64.482 Y135.811 E0.07653
G1 X62.361 Y134.604 E0.07653
G1 X60.299 Y133.291 E0.07665
G1 X58.307 Y131.881 E0.07653
G1 X56.320 Y130.317 E0.07927
G1 X55.326 Y129.397 E0.04247
G1 X54.516 Y128.494 E0.03806
G1 X53.792 Y127.519 E0.03807
G1 X53.053 Y126.298 E0.04474
G1 X52.493 Y125.114 E0.04105
G1 X52.035 Y123.835 E0.04260
G1 X51.713 Y122.550 E0.04153
G1 X51.518 Y121.236 E0.04165
G1 X51.453 Y119.955 E0.04022
G1 X51.453 Y81.869 E1.19417
G1 X51.533 Y80.403 E0.04603
G1 X51.777 Y78.934 E0.04670
G1 X52.118 Y77.676 E0.04086
G1 X52.580 Y76.462 E0.04074
G1 X53.267 Y75.093 E0.04801
G1 X54.051 Y73.885 E0.04515
G1 X55.020 Y72.704 E0.04789
G1 X55.946 Y71.782 E0.04098
G1 X56.907 Y71.000 E0.03886
; printing object SuperJackpotFace.stl id:0 copy 1
G1 F8640.000
G1 X58.233 Y70.120 E-0.36736
G1 X59.537 Y69.457 E-0.33780
G1 X59.759 Y69.372 E-0.05484
G1 E-0.04000 F2100.00000
G1 Z0.600 F10800.000
G1 X82.140 Y99.700
G1 Z0.200
G1 E0.80000 F2100.00000
G1 F1200.000
G1 X82.868 Y99.039 E0.03084
G1 X83.746 Y98.419 E0.03369
G1 X84.661 Y97.942 E0.03235
G1 X85.628 Y97.586 E0.03230
G1 X86.632 Y97.357 E0.03230
G1 X87.611 Y97.263 E0.03084
G1 X88.685 Y97.291 E0.03369
G1 X89.704 Y97.456 E0.03235
G1 X90.691 Y97.749 E0.03230
G1 X91.633 Y98.166 E0.03230
G1 X92.514 Y98.700 E0.03230
G1 X93.319 Y99.342 E0.03230
G1 X94.036 Y100.082 E0.03230
G1 X94.652 Y100.907 E0.03230
G1 X95.158 Y101.805 E0.03230
G1 X95.544 Y102.760 E0.03230
G1 X95.805 Y103.756 E0.03230
G1 X95.937 Y104.778 E0.03230
G1 X95.937 Y105.808 E0.03230
G1 X95.811 Y106.783 E0.03084
G1 X95.545 Y107.824 E0.03369
G1 X95.158 Y108.781 E0.03235
G1 X94.652 Y109.678 E0.03230
G1 X94.036 Y110.504 E0.03230
G1 X93.319 Y111.244 E0.03230
G1 X92.514 Y111.886 E0.03230
G1 X91.633 Y112.420 E0.03230
G1 X90.691 Y112.837 E0.03230
G1 X90.198 Y112.983 E0.01615
G1 X89.704 Y113.130 E0.01615
G1 X88.687 Y113.294 E0.03230
G1 X87.657 Y113.327 E0.03230
G1 X86.632 Y113.228 E0.03230
G1 X85.628 Y112.999 E0.03230
G1 X84.661 Y112.643 E0.03230
G1 X83.748 Y112.167 E0.03230
G1 X82.903 Y111.578 E0.03230
G1 X82.140 Y110.885 E0.03230
G1 X81.473 Y110.101 E0.03230
G1 X80.911 Y109.237 E0.03230
G1 X80.464 Y108.309 E0.03230
G1 X80.139 Y107.332 E0.03230
G1 X79.942 Y106.321 E0.03230
G1 X79.876 Y105.293 E0.03230
G1 X79.942 Y104.265 E0.03230
G1 X80.139 Y103.254 E0.03230
G1 X80.464 Y102.276 E0.03230
G1 X80.911 Y101.348 E0.03230
G1 X81.473 Y100.485 E0.03230
G1 X82.102 Y99.746 E0.03042
G1 X82.389 Y99.990 F10800.000
G1 F1200.000
G1 X83.105 Y99.334 E0.03047
G1 X83.943 Y98.742 E0.03218
G1 X84.814 Y98.288 E0.03080
G1 X85.735 Y97.949 E0.03078
G1 X86.692 Y97.730 E0.03078
G1 X87.624 Y97.640 E0.02935
G1 X88.650 Y97.667 E0.03218
G1 X89.620 Y97.824 E0.03080
G1 X90.561 Y98.103 E0.03078
G1 X91.458 Y98.501 E0.03078
G1 X92.298 Y99.010 E0.03078
G1 X93.065 Y99.622 E0.03078
G1 X93.748 Y100.327 E0.03078
G1 X94.335 Y101.113 E0.03078
G1 X94.817 Y101.969 E0.03078
G1 X95.186 Y102.879 E0.03078
G1 X95.435 Y103.828 E0.03078
G1 X95.560 Y104.802 E0.03078
G1 X95.560 Y105.784 E0.03078
G1 X95.440 Y106.712 E0.02935
G1 X95.186 Y107.706 E0.03218
G1 X94.817 Y108.617 E0.03080
G1 X94.335 Y109.472 E0.03078
G1 X93.748 Y110.259 E0.03078
G1 X93.065 Y110.964 E0.03078
G1 X92.298 Y111.576 E0.03078
G1 X91.458 Y112.085 E0.03078
G1 X90.561 Y112.482 E0.03078
G1 X90.090 Y112.622 E0.01539
G1 X89.620 Y112.762 E0.01539
G1 X88.651 Y112.918 E0.03078
G1 X87.669 Y112.950 E0.03078
G1 X86.692 Y112.855 E0.03078
G1 X85.735 Y112.637 E0.03078
G1 X84.814 Y112.298 E0.03078
G1 X83.944 Y111.844 E0.03078
G1 X83.139 Y111.282 E0.03078
G1 X82.412 Y110.622 E0.03078
G1 X81.775 Y109.875 E0.03078
G1 X81.240 Y109.052 E0.03078
G1 X80.814 Y108.168 E0.03078
G1 X80.505 Y107.236 E0.03078
G1 X80.317 Y106.272 E0.03078
G1 X80.254 Y105.293 E0.03078
G1 X80.317 Y104.313 E0.03078
G1 X80.505 Y103.350 E0.03078
G1 X80.814 Y102.418 E0.03078
G1 X81.240 Y101.533 E0.03078
G1 X81.775 Y100.711 E0.03078
G1 X82.350 Y100.036 E0.02778
G1 X82.278 Y99.606 F10800.000
G1 F8640.000
G1 X83.105 Y99.334 E-0.23812
G1 X83.943 Y98.742 E-0.23695
G1 X84.814 Y98.288 E-0.22681
G1 X85.050 Y98.201 E-0.05812
G1 E-0.04000 F2100.00000
G1 Z0.600 F10800.000
G1 X113.825 Y105.359
G1 Z0.200
G1 E0.80000 F2100.00000
G1 F1200.000
G1 X119.900 Y105.359 E0.19045
G1 X119.900 Y115.433 E0.31587
G1 X113.825 Y115.433 E0.19045
G1 X113.825 Y105.419 E0.31399
G1 X114.203 Y105.736 F10800.000
G1 F1200.000
G1 X119.522 Y105.736 E0.16680
G1 X119.522 Y115.056 E0.29222
G1 X114.203 Y115.056 E0.16680
G1 X114.203 Y105.796 E0.29034
G1 X114.134 Y105.342 F10800.000
G1 F8640.000
G1 X117.494 Y105.759 E-0.76000
G1 E-0.04000 F2100.00000
G1 Z0.600 F10800.000
G1 X55.930 Y105.359
G1 Z0.200
G1 E0.80000 F2100.00000
G1 F1200.000
G1 X62.005 Y105.359 E0.19045
G1 X62.005 Y115.433 E0.31587
G1 X55.930 Y115.433 E0.19045
G1 X55.930 Y105.419 E0.31399
G1 X56.308 Y105.736 F10800.000
G1 F1200.000
G1 X61.627 Y105.736 E0.16680
G1 X61.627 Y115.056 E0.29222
G1 X56.308 Y115.056 E0.16680
G1 X56.308 Y105.796 E0.29034
G1 X56.239 Y105.342 F10800.000
G1 F8640.000
G1 X59.599 Y105.759 E-0.76000
G1 E-0.04000 F2100.00000
G1 Z0.600 F10800.000
G1 X54.617 Y105.796
G1 Z0.200
G1 E0.80000 F2100.00000
G1 F1200.000
G1 X54.617 Y81.893 E0.74945
G1 X54.675 Y80.784 E0.03482
G1 X54.846 Y79.708 E0.03417
G1 X55.128 Y78.655 E0.03417
G1 X55.518 Y77.638 E0.03417
G1 X56.013 Y76.667 E0.03417
G1 X56.607 Y75.753 E0.03417
G1 X57.292 Y74.906 E0.03417
G1 X58.063 Y74.135 E0.03417
G1 X58.910 Y73.449 E0.03417
G1 X59.824 Y72.856 E0.03417
G1 X60.795 Y72.361 E0.03417
G1 X61.813 Y71.970 E0.03417
G1 X62.865 Y71.688 E0.03417
G1 X63.942 Y71.518 E0.03417
G1 X65.051 Y71.460 E0.03482
G1 X110.804 Y71.461 E1.43457
G1 X111.888 Y71.518 E0.03404
G1 X112.965 Y71.688 E0.03417
G1 X114.017 Y71.970 E0.03417
G1 X115.035 Y72.361 E0.03417
G1 X116.006 Y72.856 E0.03417
G1 X116.920 Y73.449 E0.03417
G1 X117.767 Y74.135 E0.03417
G1 X118.538 Y74.906 E0.03417
G1 X119.223 Y75.753 E0.03417
G1 X119.817 Y76.667 E0.03417
G1 X120.311 Y77.637 E0.03415
G1 X120.707 Y78.674 E0.03478
G1 X120.984 Y79.708 E0.03357
G1 X121.155 Y80.784 E0.03417
G1 X121.213 Y81.893 E0.03482
G1 X121.213 Y119.885 E1.19119
G1 X121.162 Y120.921 E0.03254
G1 X121.013 Y121.929 E0.03194
G1 X120.766 Y122.917 E0.03194
G1 X120.424 Y123.877 E0.03194
G1 X119.990 Y124.798 E0.03192
G1 X119.457 Y125.687 E0.03251
G1 X118.862 Y126.492 E0.03138
G1 X118.180 Y127.248 E0.03194
G1 X117.420 Y127.941 E0.03224
G1 X115.630 Y129.345 E0.07134
G1 X113.765 Y130.666 E0.07164
G1 X111.838 Y131.892 E0.07164
G1 X109.852 Y133.022 E0.07164
G1 X107.813 Y134.053 E0.07164
G1 X105.726 Y134.983 E0.07164
G1 X103.595 Y135.808 E0.07164
G1 X101.426 Y136.528 E0.07164
G1 X99.225 Y137.139 E0.07164
G1 X96.996 Y137.642 E0.07164
G1 X94.745 Y138.034 E0.07164
G1 X92.478 Y138.315 E0.07164
G1 X90.199 Y138.484 E0.07164
G1 X87.915 Y138.540 E0.07164
G1 X85.631 Y138.484 E0.07164
G1 X83.352 Y138.315 E0.07164
G1 X81.085 Y138.034 E0.07164
G1 X78.887 Y137.651 E0.06994
G1 X76.605 Y137.139 E0.07335
G1 X74.404 Y136.528 E0.07163
G1 X72.235 Y135.808 E0.07164
G1 X70.104 Y134.983 E0.07164
G1 X68.017 Y134.053 E0.07164
G1 X65.978 Y133.022 E0.07164
G1 X63.992 Y131.892 E0.07164
G1 X62.065 Y130.666 E0.07164
G1 X60.200 Y129.345 E0.07164
G1 X58.410 Y127.941 E0.07134
G1 X57.650 Y127.248 E0.03224
G1 X56.968 Y126.492 E0.03194
G1 X56.362 Y125.673 E0.03194
G1 X55.840 Y124.798 E0.03194
G1 X55.406 Y123.877 E0.03194
G1 X55.064 Y122.917 E0.03194
G1 X54.817 Y121.929 E0.03194
G1 X54.668 Y120.921 E0.03194
G1 X54.617 Y119.885 E0.03254
G1 X54.617 Y105.856 E0.43985
G1 X54.240 Y105.856 F10800.000
G1 F1200.000
G1 X54.240 Y81.883 E0.75164
G1 X54.300 Y80.745 E0.03575
G1 X54.476 Y79.629 E0.03541
G1 X54.769 Y78.539 E0.03541
G1 X55.173 Y77.484 E0.03541
G1 X55.686 Y76.478 E0.03541
G1 X56.301 Y75.531 E0.03541
G1 X57.012 Y74.653 E0.03541
G1 X57.810 Y73.855 E0.03541
G1 X58.688 Y73.144 E0.03541
G1 X59.635 Y72.529 E0.03541
G1 X60.642 Y72.016 E0.03541
G1 X61.696 Y71.611 E0.03541
G1 X62.787 Y71.319 E0.03541
G1 X63.902 Y71.142 E0.03541
G1 X65.041 Y71.083 E0.03575
G1 X110.814 Y71.084 E1.43519
G1 X111.928 Y71.142 E0.03497
G1 X113.043 Y71.319 E0.03541
G1 X114.134 Y71.611 E0.03541
G1 X115.188 Y72.016 E0.03541
G1 X116.195 Y72.529 E0.03541
G1 X117.142 Y73.144 E0.03541
G1 X118.020 Y73.855 E0.03541
G1 X118.818 Y74.653 E0.03541
G1 X119.529 Y75.531 E0.03541
G1 X120.144 Y76.478 E0.03541
G1 X120.657 Y77.484 E0.03540
G1 X121.066 Y78.557 E0.03602
G1 X121.354 Y79.629 E0.03480
G1 X121.530 Y80.745 E0.03541
G1 X121.590 Y81.883 E0.03575
G1 X121.590 Y119.894 E1.19179
G1 X121.538 Y120.958 E0.03341
G1 X121.383 Y122.002 E0.03310
G1 X121.128 Y123.027 E0.03310
G1 X120.773 Y124.021 E0.03310
G1 X120.323 Y124.975 E0.03309
G1 X119.771 Y125.897 E0.03367
G1 X119.155 Y126.731 E0.03253
G1 X118.448 Y127.515 E0.03310
G1 X117.664 Y128.229 E0.03325
G1 X115.855 Y129.648 E0.07207
G1 X113.975 Y130.979 E0.07222
G1 X112.032 Y132.215 E0.07222
G1 X110.030 Y133.355 E0.07222
G1 X107.975 Y134.394 E0.07222
G1 X105.870 Y135.331 E0.07222
G1 X103.723 Y136.163 E0.07222
G1 X101.536 Y136.888 E0.07222
G1 X99.317 Y137.505 E0.07222
G1 X97.070 Y138.012 E0.07222
G1 X94.801 Y138.407 E0.07222
G1 X92.515 Y138.690 E0.07222
G1 X90.218 Y138.860 E0.07222
G1 X87.915 Y138.917 E0.07222
G1 X85.612 Y138.860 E0.07222
G1 X83.315 Y138.690 E0.07222
G1 X81.029 Y138.407 E0.07222
G1 X78.814 Y138.021 E0.07051
G1 X76.513 Y137.505 E0.07393
G1 X74.294 Y136.888 E0.07222
G1 X72.107 Y136.163 E0.07222
G1 X69.960 Y135.331 E0.07222
G1 X67.855 Y134.394 E0.07222
M73 Q0 S130
G1 X65.800 Y133.355 E0.07222
G1 X63.798 Y132.215 E0.07222
G1 X61.855 Y130.979 E0.07222
G1 X59.975 Y129.648 E0.07222
G1 X58.166 Y128.229 E0.07207
M73 P0 R130
G1 X57.382 Y127.515 E0.03325
G1 X56.675 Y126.731 E0.03310
G1 X56.048 Y125.882 E0.03310
G1 X55.507 Y124.976 E0.03310
G1 X55.057 Y124.021 E0.03310
G1 X54.702 Y123.027 E0.03310
G1 X54.447 Y122.002 E0.03310
G1 X54.292 Y120.958 E0.03310
G1 X54.240 Y119.894 E0.03341
G1 X54.240 Y105.916 E0.43826
G1 X54.586 Y105.656 F10800.000
G1 F8640.000
G1 X54.240 Y102.625 E-0.76000
G1 E-0.04000 F2100.00000
G1 Z0.600 F10800.000
G1 X54.730 Y98.230
G1 Z0.200
G1 E0.80000 F2100.00000
G1 F1200.000
G1 X61.577 Y105.076 E0.30478
G1 X61.041 Y105.076 E0.01685
G1 X54.900 Y98.935 E0.27340
G1 X54.900 Y99.470 E0.01685
G1 X60.506 Y105.076 E0.24956
G1 X59.971 Y105.076 E0.01685
G1 X54.900 Y100.005 E0.22573
G1 X54.900 Y100.541 E0.01685
G1 X59.435 Y105.076 E0.20190
G1 X58.900 Y105.076 E0.01685
G1 X54.900 Y101.076 E0.17807
G1 X54.900 Y101.612 E0.01685
G1 X58.365 Y105.076 E0.15423
G1 X57.829 Y105.076 E0.01685
G1 X54.900 Y102.147 E0.13040
G1 X54.900 Y102.682 E0.01685
G1 X57.294 Y105.076 E0.10657
G1 X56.758 Y105.076 E0.01685
G1 X54.900 Y103.218 E0.08274
G1 X54.900 Y103.753 E0.01685
G1 X56.223 Y105.076 E0.05890
G1 X55.688 Y105.076 E0.01685
G1 X54.900 Y104.288 E0.03507
G1 X54.900 Y104.824 E0.01685
G1 X55.648 Y105.571 E0.03329
G1 X55.648 Y106.107 E0.01685
G1 X54.900 Y105.359 E0.03329
G1 X54.900 Y105.894 E0.01685
G1 X55.648 Y106.642 E0.03329
G1 X55.648 Y107.178 E0.01685
G1 X54.900 Y106.430 E0.03329
G1 X54.900 Y106.965 E0.01685
G1 X55.648 Y107.713 E0.03329
G1 X55.648 Y108.248 E0.01685
G1 X54.900 Y107.501 E0.03329
G1 X54.900 Y108.036 E0.01685
G1 X55.648 Y108.784 E0.03329
G1 X55.648 Y109.319 E0.01685
G1 X54.900 Y108.571 E0.03329
G1 X54.900 Y109.107 E0.01685
G1 X55.648 Y109.854 E0.03329
G1 X55.648 Y110.390 E0.01685
G1 X54.900 Y109.642 E0.03329
G1 X54.900 Y110.177 E0.01685
G1 X55.648 Y110.925 E0.03329
G1 X55.648 Y111.461 E0.01685
G1 X54.900 Y110.713 E0.03329
G1 X54.900 Y111.248 E0.01685
G1 X55.648 Y111.996 E0.03329
G1 X55.648 Y112.531 E0.01685
G1 X54.900 Y111.784 E0.03329
G1 X54.900 Y112.319 E0.01685
G1 X55.648 Y113.067 E0.03329
G1 X55.648 Y113.602 E0.01685
G1 X54.900 Y112.854 E0.03329
G1 X54.900 Y113.390 E0.01685
G1 X55.648 Y114.137 E0.03329
G1 X55.648 Y114.673 E0.01685
G1 X54.900 Y113.925 E0.03329
G1 X54.900 Y114.460 E0.01685
G1 X55.648 Y115.208 E0.03329
G1 X55.648 Y115.716 E0.01598
G1 X56.155 Y115.716 E0.01598
G1 X77.487 Y137.047 E0.94959
G1 X78.177 Y137.202 E0.02226
G1 X56.691 Y115.716 E0.95648
G1 X57.226 Y115.716 E0.01685
G1 X78.867 Y137.357 E0.96338
G1 X79.520 Y137.474 E0.02088
G1 X57.762 Y115.716 E0.96861
G1 X58.297 Y115.716 E0.01685
G1 X80.168 Y137.587 E0.97364
G1 X80.817 Y137.700 E0.02071
G1 X58.832 Y115.716 E0.97866
G1 X59.368 Y115.716 E0.01685
G1 X81.446 Y137.794 E0.98282
G1 X82.057 Y137.869 E0.01938
G1 X59.903 Y115.716 E0.98619
G1 X60.438 Y115.716 E0.01685
G1 X82.668 Y137.945 E0.98956
G1 X83.279 Y138.021 E0.01938
G1 X60.974 Y115.716 E0.99293
G1 X61.509 Y115.716 E0.01685
G1 X83.862 Y138.069 E0.99508
G1 X84.440 Y138.112 E0.01825
G1 X62.044 Y115.716 E0.99698
G1 X62.287 Y115.716 E0.00765
G1 X62.287 Y115.423 E0.00921
G1 X85.019 Y138.155 E1.01191
G1 X85.597 Y138.198 E0.01825
G1 X62.287 Y114.888 E1.03765
G1 X62.287 Y114.353 E0.01685
G1 X86.148 Y138.214 E1.06219
