; generated by PrusaSlicer 2.4.1+win64 on 2022-04-27 at 19:20:14 UTC

; 

; external perimeters extrusion width = 0.45mm
; perimeters extrusion width = 0.45mm
; infill extrusion width = 0.45mm
; solid infill extrusion width = 0.45mm
; top infill extrusion width = 0.40mm
; first layer extrusion width = 0.42mm

M73 P0 R23
M73 Q0 S23
M201 X1000 Y1000 Z200 E5000 ; sets maximum accelerations, mm/sec^2
M203 X200 Y200 Z12 E120 ; sets maximum feedrates, mm / sec
M204 P1250 R1250 T1250 ; sets acceleration (P, T) and retract acceleration (R), mm/sec^2
M205 X8.00 Y8.00 Z0.40 E4.50 ; sets the jerk limits, mm/sec
M205 S0 T0 ; sets the minimum extruding and travel feed rate, mm/sec
M107
;TYPE:Custom
M862.3 P "MK3S" ; printer model check
M862.1 P0.4 ; nozzle diameter check
M115 U3.10.1 ; tell printer latest fw version
G90 ; use absolute coordinates
M83 ; extruder relative mode
M104 S215 ; set extruder temp
M140 S60 ; set bed temp
M190 S60 ; wait for bed temp
M109 S215 ; wait for extruder temp
G28 W ; home all without mesh bed level
G80 ; mesh bed leveling
G1 Z0.2 F720
G1 Y-3 F1000 ; go outside print area
G92 E0
G1 X60 E9 F1000 ; intro line
G1 X100 E12.5 F1000 ; intro line
G92 E0
M221 S95

; Don't change E values below. Excessive value can damage the printer.
M907 E430 ; set extruder motor current
G21 ; set units to millimeters
G90 ; use absolute coordinates
M83 ; use relative distances for extrusion
M900 K0.05 ; Filament gcode LA 1.5
M900 K30 ; Filament gcode LA 1.0
M107
;LAYER_CHANGE
;Z:0.2
;HEIGHT:0.2
;BEFORE_LAYER_CHANGE
G92 E0.0
;0.2


G1 E-.8 F2100
G1 Z.4 F720
;AFTER_LAYER_CHANGE
;0.2
G1 X102.701 Y90.543 F10800
G1 Z.2 F720
G1 E.8 F2100
M204 S800
;TYPE:Skirt/Brim
;WIDTH:0.42
G1 F1200
G1 X103.921 Y89.16 E.05783
G1 X107.413 Y86.195 E.14362
G1 X108.941 Y85.639 E.05098
G1 X139.262 Y85.648 E.95072
G1 X144.002 Y86.063 E.14919
G1 X145.012 Y86.389 E.03325
G1 X147.017 Y87.583 E.07318
G1 X147.784 Y88.315 E.03325
G1 X148.922 Y90.038 E.06475
G1 X149.243 Y90.764 E.02489
G1 X149.667 Y92.439 E.05416
G1 X149.74 Y93.023 E.01845
G1 X149.74 Y112.497 E.61059
G1 X149.485 Y115.514 E.09496
G1 X149.22 Y116.98 E.04668
G1 X148.614 Y118.621 E.05487
G1 X147.847 Y119.928 E.0475
G1 X146.801 Y121.165 E.05079
G1 X145.291 Y122.378 E.06074
G1 X144.421 Y122.872 E.03137
G1 X143.376 Y123.316 E.03561
G1 X141.952 Y123.694 E.04617
G1 X139.617 Y124.104 E.07433
G1 X138.412 Y124.199 E.03792
G1 X107.797 Y124.182 E.95989
G1 X106.223 Y123.926 E.05003
G1 X105 Y123.488 E.04072
G1 X103.646 Y122.707 E.04899
G1 X102.655 Y121.868 E.04073
G1 X101.702 Y120.721 E.04677
G1 X101.059 Y119.592 E.04073
G1 X100.655 Y118.535 E.03547
G1 X100.35 Y117.003 E.04898
G1 X100.32 Y96.405 E.64585
G1 X100.55 Y93.685 E.08558
M73 P1 R23
M73 Q1 S23
G1 X101.135 Y92.32 E.04656
G1 X102.662 Y90.588 E.07238
M204 S1000
;WIPE_START
G1 F8640
G1 X103.921 Y89.16 E-.43971
G1 X104.978 Y88.262 E-.32029
;WIPE_END
G1 E-.04 F2100
G1 Z.6 F720
G1 X104.725 Y92.658 F10800
G1 Z.2 F720
G1 E.8 F2100
M204 S800
G1 F1200
G1 X104.961 Y92.423 E.01047
G1 X105.819 Y91.915 E.03126
G1 X105.984 Y91.852 E.00553
G1 X106.391 Y90.921 E.03184
G1 X106.998 Y90.068 E.03285
G1 X108.085 Y89.164 E.0443
G1 X109.143 Y88.685 E.03643
G1 X110.336 Y88.461 E.03807
G1 X112.612 Y88.624 E.07153
G1 X114.133 Y89.034 E.04939
G1 X115.378 Y89.876 E.04714
G1 X116.103 Y90.735 E.03523
G1 X116.3 Y91.067 E.01209
G1 X117.203 Y89.896 E.04635
G1 X118.331 Y89.039 E.04444
G1 X119.275 Y88.657 E.03192
G1 X120.42 Y88.459 E.03644
G1 X122.651 Y88.624 E.07015
G1 X124.251 Y89.072 E.05208
G1 X125.597 Y90.047 E.05212
G1 X126.365 Y91.045 E.03948
G1 X127.231 Y89.905 E.04489
G1 X128.312 Y89.072 E.0428
G1 X129.297 Y88.661 E.03347
G1 X130.347 Y88.465 E.03347
G1 X132.685 Y88.624 E.07348
G1 X134.278 Y89.065 E.05183
G1 X135.454 Y89.875 E.04478
G1 X136.199 Y90.763 E.03635
G1 X136.381 Y91.067 E.01108
G1 X137.222 Y89.953 E.04377
G1 X138.245 Y89.136 E.04104
G1 X139.297 Y88.672 E.03606
G1 X140.448 Y88.461 E.03667
G1 X142.761 Y88.63 E.07271
G1 X144.195 Y89.009 E.04652
G1 X145.576 Y89.953 E.05243
G1 X146.221 Y90.74 E.03191
G1 X146.636 Y91.475 E.02647
G1 X147.02 Y93.021 E.04995
G1 X146.836 Y95.763 E.08617
G1 X146.688 Y96.654 E.02832
G1 X146.328 Y97.739 E.03584
G1 X145.865 Y98.623 E.03128
G1 X145.257 Y99.45 E.0322
G1 X145.622 Y99.733 E.01446
G1 X146.262 Y100.537 E.03222
G1 X146.673 Y101.305 E.02733
G1 X147.019 Y102.749 E.04654
G1 X146.834 Y105.515 E.08692
G1 X146.68 Y106.421 E.02883
G1 X146.341 Y107.447 E.03387
G1 X145.881 Y108.335 E.03137
G1 X145.256 Y109.185 E.03309
G1 X145.619 Y109.467 E.01442
G1 X146.261 Y110.273 E.03232
G1 X146.673 Y111.042 E.02736
G1 X147.019 Y112.487 E.04656
G1 X146.83 Y115.291 E.08813
G1 X146.672 Y116.191 E.02865
G1 X146.329 Y117.211 E.03373
G1 X145.854 Y118.115 E.03204
G1 X145.267 Y118.907 E.03091
G1 X144.419 Y119.726 E.03694
G1 X143.429 Y120.385 E.03729
G1 X142.045 Y120.942 E.04678
G1 X139.164 Y121.48 E.09189
G1 X138.109 Y121.525 E.0331
G1 X136.878 Y121.307 E.0392
G1 X135.715 Y120.802 E.03975
G1 X134.647 Y119.979 E.04229
G1 X134.425 Y119.701 E.01116
G1 X133.359 Y120.402 E.04
G1 X131.972 Y120.952 E.04678
G1 X129.095 Y121.483 E.09173
G1 X128.021 Y121.522 E.03371
G1 X126.837 Y121.306 E.03772
G1 X125.722 Y120.828 E.03805
G1 X124.61 Y119.98 E.04386
G1 X124.386 Y119.701 E.0112
G1 X123.321 Y120.402 E.04
G1 X121.934 Y120.952 E.04679
G1 X119.028 Y121.486 E.09264
G1 X117.939 Y121.518 E.03416
G1 X116.799 Y121.307 E.03633
G1 X115.684 Y120.828 E.03807
G1 X114.529 Y119.935 E.04577
G1 X114.339 Y119.702 E.00941
G1 X113.285 Y120.401 E.03966
G1 X111.896 Y120.952 E.04685
G1 X108.987 Y121.486 E.09272
G1 X107.806 Y121.51 E.03705
G1 X106.619 Y121.262 E.03801
G1 X105.509 Y120.746 E.03839
G1 X104.485 Y119.93 E.04104
G1 X103.548 Y118.615 E.05063
G1 X103.041 Y117.04 E.05189
G1 X103.116 Y114.735 E.0723
G1 X103.467 Y113.718 E.03373
M73 P1 R22
G1 X103.977 Y112.865 E.03116
G1 X104.965 Y111.894 E.04342
G1 X106.031 Y111.256 E.03897
G1 X105.426 Y110.958 E.02113
G1 X104.485 Y110.192 E.03806
G1 X103.551 Y108.884 E.05039
G1 X103.009 Y107.046 E.06008
G1 X103.082 Y105.171 E.05884
G1 X103.458 Y104.003 E.03847
G1 X103.936 Y103.182 E.02979
G1 X104.913 Y102.197 E.04349
G1 X106.027 Y101.517 E.04094
G1 X105.426 Y101.221 E.02101
G1 X104.481 Y100.451 E.03822
G1 X103.49 Y99.02 E.05458
G1 X103.001 Y97.24 E.05788
G1 X103.113 Y95.274 E.06175
G1 X103.459 Y94.265 E.03345
G1 X103.935 Y93.445 E.02973
G1 X104.682 Y92.701 E.03307
M204 S1000
G1 X104.949 Y92.968 F10800
M204 S800
G1 F1200
G1 X105.21 Y92.707 E.01157
G1 X105.991 Y92.252 E.02834
G1 X106.309 Y92.14 E.01056
G1 X106.351 Y91.955 E.00596
G1 X106.71 Y91.124 E.02839
G1 X107.291 Y90.307 E.03142
G1 X108.304 Y89.472 E.04117
G1 X109.275 Y89.038 E.03334
G1 X110.38 Y88.836 E.03521
G1 X112.567 Y88.999 E.06876
G1 X113.949 Y89.364 E.04481
G1 X115.145 Y90.173 E.04528
G1 X115.8 Y90.96 E.03211
G1 X116.371 Y91.986 E.03682
G1 X116.819 Y91 E.03397
G1 X117.451 Y90.182 E.0324
G1 X118.539 Y89.355 E.04286
G1 X119.36 Y89.025 E.02775
G1 X120.416 Y88.837 E.03362
G1 X122.604 Y88.999 E.06879
G1 X124.115 Y89.425 E.04922
G1 X125.353 Y90.335 E.04816
G1 X125.852 Y90.978 E.02553
G1 X126.411 Y91.984 E.03609
G1 X126.809 Y91.084 E.03086
G1 X127.482 Y90.188 E.03513
G1 X128.523 Y89.386 E.0412
G1 X129.388 Y89.027 E.02936
G1 X130.346 Y88.843 E.0306
G1 X132.64 Y88.999 E.07209
G1 X134.145 Y89.42 E.04899
G1 X135.217 Y90.169 E.041
G1 X135.895 Y90.987 E.03332
G1 X136.445 Y91.993 E.03597
G1 X136.868 Y91.047 E.0325
G1 X137.478 Y90.231 E.03195
G1 X138.421 Y89.47 E.038
G1 X139.388 Y89.039 E.03318
G1 X140.492 Y88.837 E.03518
G1 X142.714 Y89.005 E.06989
G1 X144.066 Y89.365 E.04387
G1 X145.301 Y90.212 E.04695
G1 X145.919 Y90.966 E.03055
G1 X146.295 Y91.637 E.02413
G1 X146.642 Y93.025 E.04487
G1 X146.461 Y95.729 E.08496
G1 X146.325 Y96.551 E.02611
G1 X145.987 Y97.578 E.03392
G1 X145.538 Y98.435 E.03032
G1 X144.99 Y99.176 E.0289
G1 X144.674 Y99.492 E.01402
G1 X145.343 Y99.989 E.02613
G1 X145.956 Y100.758 E.03083
G1 X146.329 Y101.461 E.02496
G1 X146.641 Y102.752 E.04166
G1 X146.459 Y105.48 E.08573
G1 X146.318 Y106.317 E.02661
G1 X145.999 Y107.287 E.032
G1 X145.553 Y108.148 E.03041
G1 X144.969 Y108.938 E.03081
G1 X144.677 Y109.23 E.01294
G1 X145.34 Y109.723 E.02593
G1 X145.956 Y110.494 E.03093
G1 X146.329 Y111.198 E.02498
G1 X146.641 Y112.49 E.04167
G1 X146.454 Y115.256 E.08692
G1 X146.31 Y116.085 E.0264
G1 X145.988 Y117.05 E.03187
G1 X145.541 Y117.903 E.03021
G1 X144.993 Y118.647 E.02897
G1 X144.17 Y119.442 E.03589
G1 X143.238 Y120.06 E.03506
G1 X141.923 Y120.585 E.04438
G1 X139.109 Y121.107 E.08974
M73 Q2 S23
G1 X138.115 Y121.147 E.03119
G1 X136.968 Y120.94 E.03656
G1 X135.889 Y120.466 E.03694
M73 P2 R22
G1 X134.901 Y119.699 E.03923
G1 X134.47 Y119.121 E.02259
G1 X134.133 Y119.441 E.01457
G1 X133.201 Y120.059 E.03508
G1 X131.885 Y120.585 E.04442
G1 X129.041 Y121.11 E.09069
G1 X128.029 Y121.144 E.03174
G1 X126.927 Y120.94 E.03512
G1 X125.894 Y120.492 E.03532
G1 X124.863 Y119.699 E.04078
G1 X124.432 Y119.121 E.02259
G1 X124.095 Y119.441 E.01456
G1 X123.162 Y120.059 E.03508
G1 X121.847 Y120.585 E.04442
G1 X118.974 Y121.113 E.09158
M73 Q2 S22
G1 X117.949 Y121.141 E.03215
G1 X116.891 Y120.94 E.03377
G1 X115.856 Y120.492 E.03536
G1 X114.784 Y119.656 E.04261
G1 X114.391 Y119.126 E.0207
G1 X114.085 Y119.418 E.01326
G1 X113.126 Y120.058 E.03617
G1 X111.809 Y120.584 E.04447
G1 X108.934 Y121.113 E.09164
G1 X107.821 Y121.133 E.03491
G1 X106.72 Y120.898 E.03531
G1 X105.69 Y120.414 E.03567
G1 X104.743 Y119.653 E.0381
G1 X103.873 Y118.422 E.04725
G1 X103.411 Y116.958 E.04815
G1 X103.492 Y114.779 E.06837
G1 X103.816 Y113.863 E.03047
G1 X104.287 Y113.081 E.02862
G1 X105.211 Y112.18 E.04045
G1 X105.948 Y111.745 E.02686
G1 X106.308 Y111.618 E.01196
G1 X106.351 Y111.429 E.00608
G1 X106.51 Y111.059 E.01262
G1 X105.645 Y110.65 E.03
G1 X104.742 Y109.915 E.03652
G1 X103.903 Y108.745 E.04516
G1 X103.387 Y107.029 E.05617
G1 X103.458 Y105.213 E.057
G1 X103.81 Y104.141 E.03537
G1 X104.248 Y103.394 E.02716
G1 X105.162 Y102.481 E.04051
G1 X105.94 Y102.012 E.02848
G1 X106.308 Y101.881 E.01224
G1 X106.351 Y101.692 E.0061
G1 X106.51 Y101.322 E.01262
G1 X105.645 Y100.913 E.03
G1 X104.739 Y100.176 E.03663
G1 X103.844 Y98.888 E.04918
G1 X103.379 Y97.229 E.05402
G1 X103.478 Y95.371 E.05832
G1 X103.81 Y94.404 E.03206
G1 X104.219 Y93.694 E.02569
G1 X104.906 Y93.01 E.0304
M204 S1000
G1 X105.17 Y93.273 F10800
M204 S800
G1 F1200
G1 X105.422 Y93.02 E.01117
G1 X106.163 Y92.588 E.0269
G1 X106.647 Y92.427 E.016
G1 X106.708 Y92.08 E.01106
G1 X107.048 Y91.292 E.0269
G1 X107.582 Y90.548 E.02872
G1 X108.522 Y89.781 E.03804
G1 X109.405 Y89.393 E.03025
G1 X110.422 Y89.212 E.03238
G1 X112.52 Y89.374 E.06599
G1 X113.819 Y89.72 E.04216
G1 X114.908 Y90.468 E.04142
G1 X115.499 Y91.187 E.02919
G1 X115.816 Y91.743 E.02005
G1 X116.063 Y92.627 E.02879
G1 X116.685 Y92.43 E.02044
G1 X116.747 Y92.076 E.01125
G1 X117.132 Y91.212 E.02967
G1 X117.733 Y90.432 E.03086
G1 X118.745 Y89.671 E.03969
G1 X119.447 Y89.392 E.02369
G1 X120.413 Y89.214 E.03079
G1 X122.558 Y89.374 E.06745
G1 X123.921 Y89.75 E.04434
G1 X125.071 Y90.587 E.0446
G1 X125.545 Y91.197 E.02421
G1 X125.878 Y91.802 E.02165
G1 X126.103 Y92.627 E.0268
G1 X126.723 Y92.43 E.02039
G1 X126.784 Y92.08 E.01114
G1 X127.124 Y91.292 E.0269
G1 X127.767 Y90.436 E.03357
G1 X128.731 Y89.701 E.03799
G1 X129.477 Y89.394 E.0253
G1 X130.393 Y89.218 E.02923
G1 X132.595 Y89.374 E.06922
G1 X133.957 Y89.748 E.04431
G1 X134.943 Y90.429 E.03757
G1 X135.592 Y91.213 E.0319
G1 X135.933 Y91.842 E.02242
G1 X136.143 Y92.626 E.02547
G1 X136.761 Y92.43 E.02032
G1 X136.822 Y92.079 E.01117
G1 X137.184 Y91.255 E.02821
G1 X137.766 Y90.476 E.03048
G1 X138.637 Y89.78 E.03496
G1 X139.518 Y89.393 E.03017
G1 X140.534 Y89.212 E.03234
G1 X142.667 Y89.379 E.0671
G1 X143.937 Y89.721 E.04123
G1 X145.026 Y90.472 E.04148
G1 X145.616 Y91.191 E.02918
G1 X145.953 Y91.798 E.02176
G1 X146.263 Y93.03 E.03983
G1 X146.085 Y95.695 E.08375
G1 X145.962 Y96.447 E.02389
G1 X145.634 Y97.445 E.03295
G1 X145.212 Y98.246 E.02838
G1 X144.697 Y98.939 E.02706
G1 X144.088 Y99.536 E.02674
G1 X145.066 Y100.245 E.03787
G1 X145.633 Y100.953 E.02843
G1 X145.969 Y101.576 E.02221
G1 X146.262 Y102.757 E.03816
G1 X146.083 Y105.446 E.0845
G1 X145.955 Y106.213 E.02439
G1 X145.646 Y107.154 E.03106
G1 X145.226 Y107.96 E.02849
G1 X144.676 Y108.7 E.02891
G1 X144.09 Y109.272 E.02567
G1 X145.063 Y109.979 E.03773
G1 X145.632 Y110.689 E.02853
G1 X145.969 Y111.313 E.02223
G1 X146.262 Y112.495 E.03817
G1 X146.079 Y115.221 E.08568
G1 X145.948 Y115.981 E.02417
G1 X145.647 Y116.889 E.03001
G1 X145.229 Y117.692 E.02839
G1 X144.719 Y118.388 E.02704
G1 X143.946 Y119.138 E.03375
G1 X143.046 Y119.735 E.03387
G1 X141.802 Y120.227 E.04196
G1 X139.054 Y120.733 E.08759
G1 X138.122 Y120.77 E.02926
G1 X137.059 Y120.574 E.03389
G1 X136.064 Y120.132 E.03413
G1 X135.156 Y119.419 E.0362
G1 X134.521 Y118.543 E.03393
G1 X133.909 Y119.137 E.02673
G1 X133.009 Y119.734 E.03387
G1 X131.764 Y120.227 E.04199
G1 X128.987 Y120.736 E.08852
G1 X128.038 Y120.766 E.02976
G1 X127.019 Y120.573 E.03251
G1 X126.067 Y120.156 E.03259
G1 X125.117 Y119.418 E.03773
G1 X124.482 Y118.543 E.03389
G1 X123.871 Y119.137 E.02672
G1 X122.971 Y119.734 E.03387
G1 X121.726 Y120.227 E.04199
G1 X118.921 Y120.739 E.08939
G1 X117.96 Y120.763 E.03015
G1 X117.021 Y120.586 E.02994
G1 X116.029 Y120.156 E.03392
G1 X115.04 Y119.378 E.03945
G1 X114.442 Y118.544 E.03218
G1 X113.86 Y119.115 E.02557
G1 X112.933 Y119.733 E.03494
G1 X111.688 Y120.227 E.04202
G1 X108.911 Y120.736 E.08852
G1 X107.876 Y120.759 E.03244
G1 X106.858 Y120.546 E.03262
G1 X105.908 Y120.106 E.03283
G1 X105 Y119.376 E.03652
G1 X104.2 Y118.231 E.04381
G1 X103.781 Y116.878 E.0444
G1 X103.867 Y114.825 E.06444
G1 X104.164 Y114.009 E.02722
G1 X104.569 Y113.333 E.02473
G1 X105.423 Y112.493 E.03754
G1 X106.122 Y112.08 E.02547
G1 X106.647 Y111.903 E.01735
G1 X106.708 Y111.554 E.01113
G1 X107.003 Y110.871 E.02333
G1 X105.865 Y110.343 E.03933
G1 X105 Y109.639 E.03495
G1 X104.229 Y108.553 E.04178
G1 X103.757 Y106.954 E.05227
G1 X103.833 Y105.257 E.05326
G1 X104.161 Y104.279 E.03233
G1 X104.533 Y103.642 E.02314
G1 X105.377 Y102.791 E.03757
G1 X106.116 Y102.346 E.02706
G1 X106.647 Y102.167 E.01756
G1 X106.708 Y101.817 E.01114
G1 X107.003 Y101.134 E.02333
G1 X105.865 Y100.606 E.03933
G1 X104.999 Y99.9 E.03502
G1 X104.172 Y98.7 E.04569
G1 X103.758 Y97.216 E.04831
G1 X103.843 Y95.468 E.05488
G1 X104.161 Y94.543 E.03066
G1 X104.505 Y93.942 E.02171
G1 X105.128 Y93.315 E.02772
M204 S1000
G1 X105.394 Y93.577 F10800
M204 S800
G1 F1200
G1 X105.634 Y93.333 E.01073
G1 X106.334 Y92.925 E.02542
G1 X106.988 Y92.715 E.02153
G1 X107.064 Y92.205 E.01618
G1 X107.385 Y91.461 E.02539
G1 X107.872 Y90.79 E.02598
G1 X108.739 Y90.09 E.03493
G1 X109.493 Y89.76 E.02582
G1 X110.464 Y89.587 E.03092
G1 X112.472 Y89.748 E.06318
G1 X113.689 Y90.075 E.0395
G1 X114.669 Y90.761 E.03751
G1 X115.195 Y91.411 E.02624
G1 X115.476 Y91.907 E.01785
G1 X115.834 Y93.228 E.04292
G1 X116.371 Y92.925 E.01932
G1 X117.026 Y92.717 E.02155
G1 X117.103 Y92.204 E.01626
G1 X117.468 Y91.386 E.0281
G1 X117.982 Y90.717 E.02645
G1 X118.91 Y90.011 E.03656
G1 X119.534 Y89.759 E.0211
G1 X120.457 Y89.59 E.0294
G1 X122.512 Y89.748 E.06463
G1 X123.73 Y90.077 E.03955
G1 X124.79 Y90.84 E.04098
G1 X125.238 Y91.416 E.02287
G1 X125.536 Y91.962 E.0195
G1 X125.871 Y93.229 E.04109
G1 X126.409 Y92.925 E.01938
G1 X127.064 Y92.717 E.02155
G1 X127.141 Y92.205 E.01624
G1 X127.462 Y91.462 E.02537
G1 X128.018 Y90.719 E.02911
G1 X128.9 Y90.039 E.03489
G1 X129.568 Y89.761 E.0227
G1 X130.439 Y89.593 E.02782
G1 X132.55 Y89.748 E.06635
G1 X133.77 Y90.077 E.03963
G1 X134.707 Y90.724 E.03569
G1 X135.288 Y91.436 E.02883
G1 X135.589 Y91.999 E.02
G1 X135.909 Y93.229 E.03986
G1 X136.447 Y92.925 E.01939
G1 X137.102 Y92.717 E.02155
G1 X137.179 Y92.205 E.01622
M73 Q3 S22
G1 X137.52 Y91.426 E.02668
G1 X138.02 Y90.756 E.0262
G1 X138.853 Y90.09 E.03342
G1 X139.608 Y89.76 E.02585
M73 P3 R22
G1 X140.53 Y89.59 E.02938
G1 X142.589 Y89.748 E.06477
G1 X143.751 Y90.05 E.03763
G1 X144.789 Y90.766 E.03955
G1 X145.312 Y91.414 E.0261
G1 X145.61 Y91.958 E.01944
G1 X145.89 Y93.091 E.03661
