; generated by PrusaSlicer 2.3.1+win64 on 2021-07-22 at 20:03:35 UTC

; 

; external perimeters extrusion width = 0.60mm
; perimeters extrusion width = 0.50mm
; infill extrusion width = 0.50mm
; solid infill extrusion width = 0.50mm
; top infill extrusion width = 0.45mm
; support material extrusion width = 0.38mm
; first layer extrusion width = 0.42mm

M73 P0 R18
M73 Q0 S19
M201 X1000 Y1000 Z1000 E5000 ; sets maximum accelerations, mm/sec^2
M203 X200 Y200 Z12 E120 ; sets maximum feedrates, mm/sec
M204 P1250 R1250 T1250 ; sets acceleration (P, T) and retract acceleration (R), mm/sec^2
M205 X8.00 Y8.00 Z0.40 E1.50 ; sets the jerk limits, mm/sec
M205 S0 T0 ; sets the minimum extruding and travel feed rate, mm/sec
M107
;TYPE:Custom
M862.3 P "MK3S" ; printer model check
M862.1 P0.4 ; nozzle diameter check
M115 U3.8.0 ; tell printer latest fw version
G90 ; use absolute coordinates
M83 ; extruder relative mode
M104 S215 ; set extruder temp
M140 S60 ; set bed temp
M190 S60 ; wait for bed temp
M109 S215 ; wait for extruder temp
G28 W ; home all without mesh bed level
G80 ; mesh bed leveling
G1 Y-3.0 F1000.0 ; go outside print area
G92 E0.0
G1 X60.0 E9.0 F1000.0 ; intro line
M73 Q0 S18
G1 X100.0 E12.5 F1000.0 ; intro line
G92 E0.0
M221 S95
G21 ; set units to millimeters
G90 ; use absolute coordinates
M83 ; use relative distances for extrusion
M900 K0.05 ; Filament gcode LA 1.5
M900 K30 ; Filament gcode LA 1.0
;LAYER_CHANGE
;Z:0.2
;HEIGHT:0.2
;BEFORE_LAYER_CHANGE
G92 E0.0
;0.2


G1 E-0.80000 F2100.000
G1 Z0.600 F10800.000
;AFTER_LAYER_CHANGE
;0.2
; printing object bracket.stl id:0 copy 0
G1 X145.362 Y87.331
G1 Z0.200
G1 E0.80000 F2100.000
M204 S1000
;TYPE:Support material
;WIDTH:0.42
G1 F1200.000
G1 X145.362 Y71.928 E0.48297
G1 X146.116 Y71.928 E0.02365
G1 X146.116 Y87.162 E0.47765
G1 X146.871 Y87.161 E0.02365
G1 X146.871 Y71.928 E0.47764
G1 X147.625 Y71.928 E0.02365
G1 X147.625 Y87.161 E0.47764
G1 X148.379 Y87.161 E0.02365
G1 X148.379 Y71.928 E0.47763
M73 P1 R18
M73 Q1 S18
G1 X149.133 Y71.928 E0.02365
G1 X149.133 Y87.161 E0.47763
G1 X149.887 Y87.161 E0.02365
G1 X149.887 Y71.928 E0.47762
G1 X150.641 Y71.928 E0.02365
G1 X150.641 Y87.161 E0.47761
G1 X151.396 Y87.160 E0.02365
G1 X151.396 Y71.928 E0.47761
G1 X152.150 Y71.928 E0.02365
G1 X152.150 Y87.160 E0.47760
G1 X152.530 Y87.160 E0.01193
G1 X152.817 Y87.446 E0.01269
G1 X152.818 Y91.760 E0.13525
G1 X152.904 Y91.760 E0.00271
G1 X152.904 Y71.928 E0.62182
G1 X153.658 Y71.928 E0.02365
G1 X153.658 Y91.760 E0.62182
G1 X154.412 Y91.760 E0.02365
G1 X154.412 Y71.928 E0.62182
G1 X155.166 Y71.928 E0.02365
G1 X155.166 Y91.930 E0.62714
G1 E-0.80000 F2100.000
G1 Z0.800 F10800.000
G1 X155.166 Y124.348
G1 Z0.200
G1 E0.80000 F2100.000
G1 F1200.000
G1 X155.166 Y104.346 E0.62714
G1 X154.412 Y104.346 E0.02365
G1 X154.412 Y124.179 E0.62182
M73 P2 R18
M73 Q2 S18
G1 X153.658 Y124.179 E0.02365
G1 X153.658 Y104.346 E0.62182
G1 X152.904 Y104.346 E0.02365
G1 X152.904 Y124.179 E0.62182
G1 X152.150 Y124.179 E0.02365
G1 X152.150 Y108.137 E0.50296
G1 X151.396 Y108.137 E0.02365
G1 X151.396 Y124.179 E0.50296
G1 X150.641 Y124.179 E0.02365
G1 X150.641 Y108.138 E0.50295
G1 X149.887 Y108.138 E0.02365
G1 X149.887 Y124.179 E0.50294
G1 X149.133 Y124.179 E0.02365
G1 X149.133 Y108.138 E0.50294
G1 X148.379 Y108.138 E0.02365
G1 X148.379 Y124.179 E0.50293
G1 X147.625 Y124.179 E0.02365
G1 X147.625 Y108.138 E0.50293
G1 X146.871 Y108.139 E0.02365
G1 X146.871 Y124.179 E0.50292
G1 X146.116 Y124.179 E0.02365
G1 X146.116 Y108.139 E0.50292
G1 X145.362 Y108.139 E0.02365
G1 X145.362 Y124.348 E0.50823
G1 E-0.80000 F2100.000
G1 Z0.800 F10800.000
M73 Q3 S18
G1 X135.805 Y103.160
M73 P3 R18
G1 Z0.200
G1 E0.80000 F2100.000
;TYPE:Perimeter
G1 F1200.000
G1 X134.800 Y103.389 E0.03230
G1 X134.008 Y103.440 E0.02491
G1 X133.729 Y103.434 E0.00873
G1 X132.727 Y103.298 E0.03171
G1 X131.740 Y102.977 E0.03255
G1 X130.826 Y102.485 E0.03255
G1 X130.014 Y101.838 E0.03255
G1 X129.331 Y101.056 E0.03255
G1 X128.799 Y100.165 E0.03255
G1 X128.434 Y99.193 E0.03255
G1 X128.248 Y98.172 E0.03255
G1 X128.248 Y97.134 E0.03255
G1 X128.434 Y96.113 E0.03255
G1 X128.799 Y95.141 E0.03255
G1 X129.331 Y94.250 E0.03255
G1 X130.014 Y93.468 E0.03255
G1 X130.826 Y92.821 E0.03255
G1 X131.740 Y92.329 E0.03255
G1 X132.727 Y92.008 E0.03255
G1 X133.729 Y91.872 E0.03171
G1 X134.008 Y91.866 E0.00873
G1 X134.800 Y91.917 E0.02491
G1 X135.805 Y92.146 E0.03230
G1 X136.759 Y92.554 E0.03255
G1 X137.625 Y93.126 E0.03255
G1 X138.376 Y93.843 E0.03255
G1 X138.986 Y94.683 E0.03255
G1 X139.436 Y95.618 E0.03255
G1 X139.712 Y96.619 E0.03255
G1 X139.806 Y97.653 E0.03255
G1 X139.712 Y98.687 E0.03255
G1 X139.436 Y99.688 E0.03255
G1 X138.986 Y100.623 E0.03255
G1 X138.376 Y101.463 E0.03255
G1 X137.625 Y102.180 E0.03255
G1 X136.759 Y102.752 E0.03255
G1 X135.860 Y103.136 E0.03067
G1 X135.712 Y102.789 F10800.000
;TYPE:External perimeter
G1 F1200.000
G1 X134.746 Y103.015 E0.03109
G1 X134.000 Y103.063 E0.02345
G1 X133.759 Y103.057 E0.00755
G1 X132.811 Y102.929 E0.02998
G1 X131.888 Y102.629 E0.03042
G1 X131.034 Y102.169 E0.03042
G1 X130.276 Y101.564 E0.03042
G1 X129.637 Y100.834 E0.03042
G1 X129.140 Y100.001 E0.03042
G1 X128.799 Y99.093 E0.03042
G1 X128.626 Y98.138 E0.03042
G1 X128.626 Y97.168 E0.03042
G1 X128.799 Y96.213 E0.03042
G1 X129.140 Y95.305 E0.03042
G1 X129.637 Y94.472 E0.03042
G1 X130.276 Y93.741 E0.03042
G1 X131.034 Y93.137 E0.03042
G1 X131.888 Y92.677 E0.03042
G1 X132.811 Y92.377 E0.03042
G1 X133.759 Y92.249 E0.02998
G1 X134.000 Y92.243 E0.00755
G1 X134.746 Y92.291 E0.02345
G1 X135.688 Y92.506 E0.03028
G1 X136.580 Y92.888 E0.03042
G1 X137.389 Y93.422 E0.03042
G1 X138.091 Y94.092 E0.03042
G1 X138.661 Y94.877 E0.03042
G1 X139.082 Y95.751 E0.03042
G1 X139.340 Y96.687 E0.03042
G1 X139.427 Y97.653 E0.03042
G1 X139.340 Y98.619 E0.03042
G1 X139.082 Y99.554 E0.03042
G1 X138.661 Y100.429 E0.03042
G1 X138.091 Y101.213 E0.03042
G1 X137.389 Y101.884 E0.03042
G1 X136.580 Y102.418 E0.03042
G1 X135.767 Y102.766 E0.02772
G1 X135.630 Y103.181 F10800.000
G1 E-0.80000 F2100.000
G1 Z0.800 F10800.000
G1 X112.028 Y120.216
G1 Z0.200
G1 E0.80000 F2100.000
;TYPE:Perimeter
G1 F1200.000
G1 X112.638 Y121.056 E0.03255
G1 X113.088 Y121.991 E0.03255
G1 X113.364 Y122.992 E0.03255
G1 X113.458 Y124.026 E0.03255
G1 X113.364 Y125.060 E0.03255
G1 X113.088 Y126.061 E0.03255
G1 X112.638 Y126.996 E0.03255
G1 X112.028 Y127.836 E0.03255
G1 X111.277 Y128.553 E0.03255
G1 X110.411 Y129.125 E0.03255
G1 X109.457 Y129.533 E0.03255
G1 X108.445 Y129.764 E0.03255
G1 X107.408 Y129.810 E0.03255
G1 X106.379 Y129.671 E0.03255
G1 X105.392 Y129.350 E0.03255
G1 X104.477 Y128.858 E0.03255
G1 X103.666 Y128.211 E0.03255
G1 X102.983 Y127.429 E0.03255
G1 X102.450 Y126.538 E0.03255
G1 X102.086 Y125.566 E0.03255
G1 X101.903 Y124.560 E0.03207
G1 X101.882 Y123.974 E0.01838
G1 X101.904 Y123.490 E0.01521
G1 X102.086 Y122.486 E0.03199
G1 X102.450 Y121.514 E0.03255
G1 X102.983 Y120.623 E0.03255
G1 X103.666 Y119.841 E0.03255
G1 X104.477 Y119.194 E0.03255
G1 X105.392 Y118.702 E0.03255
G1 X106.379 Y118.381 E0.03255
G1 X107.408 Y118.242 E0.03255
G1 X108.445 Y118.288 E0.03255
G1 X109.457 Y118.519 E0.03255
G1 X110.411 Y118.927 E0.03255
G1 X111.277 Y119.499 E0.03255
G1 X111.984 Y120.175 E0.03067
G1 X111.724 Y120.447 F10800.000
;TYPE:External perimeter
G1 F1200.000
G1 X112.313 Y121.250 E0.03122
G1 X112.734 Y122.125 E0.03042
G1 X112.992 Y123.060 E0.03042
G1 X113.079 Y124.026 E0.03042
G1 X112.992 Y124.992 E0.03042
G1 X112.734 Y125.928 E0.03042
G1 X112.313 Y126.802 E0.03042
G1 X111.743 Y127.587 E0.03042
G1 X111.041 Y128.257 E0.03042
G1 X110.232 Y128.792 E0.03042
G1 X109.340 Y129.173 E0.03042
G1 X108.394 Y129.389 E0.03042
G1 X107.424 Y129.432 E0.03042
G1 X106.463 Y129.302 E0.03042
G1 X105.540 Y129.002 E0.03042
G1 X104.686 Y128.542 E0.03042
G1 X103.927 Y127.938 E0.03042
G1 X103.289 Y127.207 E0.03042
G1 X102.792 Y126.374 E0.03042
G1 X102.451 Y125.466 E0.03042
G1 X102.279 Y124.519 E0.03016
G1 X102.259 Y123.976 E0.01705
G1 X102.279 Y123.532 E0.01394
G1 X102.451 Y122.586 E0.03013
G1 X102.792 Y121.678 E0.03042
G1 X103.289 Y120.845 E0.03042
G1 X103.927 Y120.115 E0.03042
G1 X104.686 Y119.510 E0.03042
G1 X105.540 Y119.050 E0.03042
G1 X106.463 Y118.750 E0.03042
G1 X107.424 Y118.620 E0.03042
G1 X108.394 Y118.663 E0.03042
G1 X109.340 Y118.879 E0.03042
G1 X110.232 Y119.261 E0.03042
G1 X111.041 Y119.795 E0.03042
G1 X111.680 Y120.406 E0.02772
G1 X112.116 Y120.369 F10800.000
G1 E-0.80000 F2100.000
G1 Z0.800 F10800.000
G1 X137.855 Y106.865
G1 Z0.200
G1 E0.80000 F2100.000
;TYPE:Perimeter
G1 F1200.000
G1 X114.595 Y130.102 E1.03088
G1 X113.362 Y131.264 E0.05312
G1 X111.992 Y132.157 E0.05128
G1 X110.486 Y132.794 E0.05128
G1 X108.890 Y133.154 E0.05128
G1 X107.257 Y133.227 E0.05128
G1 X105.636 Y133.009 E0.05128
G1 X104.079 Y132.508 E0.05128
G1 X102.635 Y131.740 E0.05128
G1 X101.350 Y130.728 E0.05128
M73 Q4 S18
G1 X100.264 Y129.505 E0.05128
G1 X99.412 Y128.109 E0.05128
G1 X98.820 Y126.584 E0.05128
M73 P4 R18
G1 X98.504 Y124.965 E0.05174
G1 X98.457 Y124.065 E0.02824
G1 X98.480 Y123.363 E0.02204
G1 X98.748 Y121.730 E0.05187
G1 X99.295 Y120.189 E0.05128
G1 X100.106 Y118.768 E0.05128
G1 X101.430 Y117.185 E0.06471
G1 X127.480 Y91.159 E1.15458
G1 X128.602 Y90.201 E0.04626
G1 X129.833 Y89.446 E0.04528
G1 X131.167 Y88.893 E0.04528
G1 X132.572 Y88.556 E0.04528
G1 X134.026 Y88.440 E0.04576
G1 X151.541 Y88.436 E0.54917
G1 X151.545 Y106.862 E0.57773
G1 X137.915 Y106.865 E0.42738
G1 X138.011 Y107.242 F10800.000
;TYPE:External perimeter
G1 F1200.000
G1 X114.858 Y130.373 E1.02616
G1 X113.596 Y131.562 E0.05435
G1 X112.170 Y132.491 E0.05339
G1 X110.602 Y133.154 E0.05339
G1 X108.941 Y133.529 E0.05339
G1 X107.240 Y133.605 E0.05339
G1 X105.552 Y133.378 E0.05339
G1 X103.931 Y132.857 E0.05339
G1 X102.428 Y132.057 E0.05339
G1 X101.090 Y131.003 E0.05339
G1 X99.960 Y129.730 E0.05339
G1 X99.073 Y128.277 E0.05339
G1 X98.456 Y126.690 E0.05339
G1 X98.129 Y125.011 E0.05363
G1 X98.080 Y124.069 E0.02957
G1 X98.104 Y123.326 E0.02331
G1 X98.382 Y121.636 E0.05370
G1 X98.951 Y120.031 E0.05339
G1 X99.795 Y118.552 E0.05339
G1 X101.151 Y116.930 E0.06630
G1 X127.224 Y90.882 E1.15557
G1 X128.380 Y89.895 E0.04765
G1 X129.661 Y89.109 E0.04714
G1 X131.050 Y88.534 E0.04714
G1 X132.512 Y88.182 E0.04714
G1 X134.011 Y88.063 E0.04715
G1 X151.918 Y88.059 E0.56146
M73 P5 R18
M73 Q5 S18
G1 X151.923 Y107.239 E0.60138
G1 X138.071 Y107.242 E0.43431
G1 X137.620 Y107.159 F10800.000
G1 E-0.80000 F2100.000
G1 Z0.800 F10800.000
G1 X151.428 Y89.315
M73 P5 R17
G1 Z0.200
G1 E0.80000 F2100.000
;TYPE:Solid infill
;WIDTH:0.4218
G1 F1200.000
G1 X150.832 Y88.719 E0.02657
G1 X150.296 Y88.719 E0.01688
G1 X151.259 Y89.682 E0.04288
G1 X151.259 Y90.218 E0.01688
G1 X149.760 Y88.719 E0.06676
G1 X149.225 Y88.719 E0.01688
G1 X151.259 Y90.754 E0.09063
G1 X151.259 Y91.289 E0.01688
G1 X148.689 Y88.719 E0.11450
G1 X148.153 Y88.720 E0.01688
G1 X151.259 Y91.825 E0.13837
G1 X151.259 Y92.361 E0.01688
G1 X147.618 Y88.720 E0.16224
G1 X147.082 Y88.720 E0.01688
G1 X151.259 Y92.897 E0.18612
G1 X151.260 Y93.433 E0.01688
G1 X146.546 Y88.720 E0.20999
G1 X146.011 Y88.720 E0.01688
G1 X151.260 Y93.969 E0.23386
G1 X151.260 Y94.505 E0.01688
G1 X145.475 Y88.720 E0.25773
G1 X144.939 Y88.720 E0.01688
G1 X151.260 Y95.041 E0.28160
G1 X151.260 Y95.577 E0.01688
G1 X144.404 Y88.721 E0.30548
G1 X143.868 Y88.721 E0.01688
M73 Q5 S17
G1 X151.260 Y96.113 E0.32935
G1 X151.260 Y96.649 E0.01688
G1 X143.332 Y88.721 E0.35322
G1 X142.797 Y88.721 E0.01688
G1 X151.260 Y97.185 E0.37709
G1 X151.261 Y97.721 E0.01688
G1 X142.261 Y88.721 E0.40096
G1 X141.725 Y88.721 E0.01688
G1 X151.261 Y98.257 E0.42484
G1 X151.261 Y98.793 E0.01688
G1 X141.190 Y88.721 E0.44871
G1 X140.654 Y88.721 E0.01688
G1 X151.261 Y99.329 E0.47258
M73 P6 R17
M73 Q6 S17
G1 X151.261 Y99.865 E0.01688
G1 X140.118 Y88.722 E0.49645
G1 X139.582 Y88.722 E0.01688
G1 X151.261 Y100.400 E0.52032
G1 X151.261 Y100.936 E0.01688
G1 X139.047 Y88.722 E0.54420
G1 X138.511 Y88.722 E0.01688
G1 X151.261 Y101.472 E0.56807
G1 X151.262 Y102.008 E0.01688
G1 X137.975 Y88.722 E0.59194
G1 X137.440 Y88.722 E0.01688
G1 X151.262 Y102.544 E0.61581
G1 X151.262 Y103.080 E0.01688
G1 X136.904 Y88.722 E0.63969
G1 X136.368 Y88.723 E0.01688
G1 X151.262 Y103.616 E0.66356
G1 X151.262 Y104.152 E0.01688
G1 X135.833 Y88.723 E0.68743
G1 X135.297 Y88.723 E0.01688
G1 X151.262 Y104.688 E0.71130
G1 X151.262 Y105.224 E0.01688
G1 X134.761 Y88.723 E0.73517
M73 P7 R17
M73 Q7 S17
G1 X134.226 Y88.723 E0.01688
G1 X151.262 Y105.760 E0.75905
G1 X151.263 Y106.296 E0.01688
G1 X133.715 Y88.749 E0.78178
G1 X133.219 Y88.788 E0.01569
G1 X136.617 Y92.186 E0.15137
G1 X136.894 Y92.304 E0.00950
G1 X137.802 Y92.904 E0.03431
G1 X138.590 Y93.657 E0.03431
G1 X139.230 Y94.538 E0.03431
G1 X139.472 Y95.041 E0.01762
G1 X151.010 Y106.579 E0.51404
G1 X150.474 Y106.579 E0.01688
G1 X139.812 Y95.917 E0.47504
G1 X139.998 Y96.639 E0.02348
G1 X149.939 Y106.579 E0.44288
G1 X149.403 Y106.580 E0.01688
G1 X140.051 Y97.228 E0.41665
G1 X140.090 Y97.653 E0.01345
G1 X140.077 Y97.790 E0.00432
G1 X148.867 Y106.580 E0.39163
G1 X148.332 Y106.580 E0.01688
G1 X140.033 Y98.281 E0.36973
G1 X139.984 Y98.768 E0.01540
G1 X147.796 Y106.580 E0.34807
G1 X147.260 Y106.580 E0.01688
G1 X139.868 Y99.187 E0.32936
G1 X139.752 Y99.607 E0.01372
G1 X146.725 Y106.580 E0.31066
G1 X146.189 Y106.580 E0.01688
G1 X139.603 Y99.994 E0.29344
G1 X139.428 Y100.356 E0.01265
G1 X145.653 Y106.580 E0.27733
G1 X145.117 Y106.580 E0.01688
G1 X139.254 Y100.717 E0.26122
G1 X139.036 Y101.035 E0.01214
G1 X144.582 Y106.581 E0.24708
M73 P8 R17
M73 Q8 S17
G1 X144.046 Y106.581 E0.01688
G1 X138.811 Y101.345 E0.23326
G1 X138.584 Y101.655 E0.01208
G1 X143.510 Y106.581 E0.21948
G1 X142.975 Y106.581 E0.01688
G1 X138.310 Y101.917 E0.20782
G1 X138.036 Y102.178 E0.01194
G1 X142.439 Y106.581 E0.19616
G1 X141.903 Y106.581 E0.01688
G1 X137.755 Y102.433 E0.18481
G1 X137.432 Y102.646 E0.01218
G1 X141.368 Y106.581 E0.17532
G1 X140.832 Y106.581 E0.01688
G1 X137.110 Y102.859 E0.16584
G1 X136.894 Y103.002 E0.00815
G1 X136.769 Y103.055 E0.00426
G1 X140.296 Y106.582 E0.15713
G1 X139.760 Y106.582 E0.01688
G1 X136.394 Y103.215 E0.14998
G1 X136.019 Y103.376 E0.01286
G1 X139.225 Y106.582 E0.14284
G1 X138.689 Y106.582 E0.01688
G1 X135.603 Y103.496 E0.13750
G1 X135.167 Y103.595 E0.01410
G1 X138.153 Y106.582 E0.13307
G1 X137.738 Y106.582 E0.01309
G1 X137.678 Y106.642 E0.00268
G1 X134.713 Y103.678 E0.13207
G1 X134.210 Y103.710 E0.01589
G1 X137.410 Y106.910 E0.14256
G1 X137.142 Y107.178 E0.01194
G1 X133.676 Y103.712 E0.15442
G1 X133.056 Y103.628 E0.01971
G1 X136.874 Y107.446 E0.17009
G1 X136.606 Y107.713 E0.01194
G1 X132.372 Y103.480 E0.18861
G1 X131.628 Y103.238 E0.02465
G1 X131.556 Y103.200 E0.00258
G1 X136.458 Y108.101 E0.21838
G1 E-0.80000 F2100.000
G1 Z0.800 F10800.000
G1 X136.003 Y92.108
G1 Z0.200
G1 E0.80000 F2100.000
G1 F1200.000
G1 X132.723 Y88.828 E0.14615
G1 X132.616 Y88.836 E0.00337
G1 X132.277 Y88.918 E0.01099
G1 X135.041 Y91.682 E0.12316
G1 X134.841 Y91.636 E0.00646
G1 X134.433 Y91.610 E0.01287
G1 X131.845 Y89.021 E0.11533
G1 X131.413 Y89.125 E0.01400
G1 X133.874 Y91.586 E0.10964
G1 X133.385 Y91.633 E0.01546
G1 X131.015 Y89.263 E0.10562
G1 X130.636 Y89.420 E0.01292
G1 X132.913 Y91.697 E0.10147
G1 X132.664 Y91.731 E0.00794
G1 X132.473 Y91.793 E0.00631
G1 X130.257 Y89.577 E0.09874
G1 X129.888 Y89.744 E0.01275
G1 X132.069 Y91.924 E0.09714
G1 X131.664 Y92.056 E0.01340
G1 X129.556 Y89.948 E0.09393
G1 X129.224 Y90.151 E0.01228
G1 X131.311 Y92.238 E0.09298
G1 X130.963 Y92.426 E0.01246
G1 X128.892 Y90.355 E0.09227
G1 X128.769 Y90.430 E0.00454
G1 X128.587 Y90.586 E0.00754
G1 X130.622 Y92.621 E0.09069
G1 X130.324 Y92.859 E0.01201
G1 X128.298 Y90.832 E0.09028
G1 X128.009 Y91.079 E0.01197
G1 X130.026 Y93.096 E0.08987
G1 X129.818 Y93.263 E0.00839
G1 X129.742 Y93.349 E0.00361
G1 X127.720 Y91.326 E0.09011
G1 X127.672 Y91.367 E0.00197
G1 X127.448 Y91.591 E0.00997
G1 X129.493 Y93.635 E0.09107
G1 X129.243 Y93.921 E0.01196
G1 X127.180 Y91.858 E0.09189
G1 X126.912 Y92.126 E0.01194
G1 X129.014 Y94.228 E0.09365
G1 X128.814 Y94.564 E0.01231
G1 X126.644 Y92.394 E0.09666
G1 X126.376 Y92.662 E0.01194
