; generated by PrusaSlicer 2.3.1+win64 on 2021-06-02 at 20:22:54 UTC

; 

; external perimeters extrusion width = 0.45mm
; perimeters extrusion width = 0.45mm
; infill extrusion width = 0.45mm
; solid infill extrusion width = 0.45mm
; top infill extrusion width = 0.40mm
; support material extrusion width = 0.35mm
; first layer extrusion width = 0.42mm

M73 P0 R44
M73 Q0 S45
M201 X1000 Y1000 Z1000 E5000 ; sets maximum accelerations, mm/sec^2
M203 X200 Y200 Z12 E120 ; sets maximum feedrates, mm/sec
M204 P1250 R1250 T1250 ; sets acceleration (P, T) and retract acceleration (R), mm/sec^2
M205 X8.00 Y8.00 Z0.40 E1.50 ; sets the jerk limits, mm/sec
M205 S0 T0 ; sets the minimum extruding and travel feed rate, mm/sec
M107
;TYPE:Custom
M862.3 P "MK3S" ; printer model check
M862.1 P0.4 ; nozzle diameter check
M115 U3.8.0 ; tell printer latest fw version
G90 ; use absolute coordinates
M83 ; extruder relative mode
M104 S215 ; set extruder temp
M140 S60 ; set bed temp
M190 S60 ; wait for bed temp
M109 S215 ; wait for extruder temp
G28 W ; home all without mesh bed level
G80 ; mesh bed leveling
G1 Y-3.0 F1000.0 ; go outside print area
G92 E0.0
G1 X60.0 E9.0 F1000.0 ; intro line
G1 X100.0 E12.5 F1000.0 ; intro line
G92 E0.0
M221 S95
G21 ; set units to millimeters
G90 ; use absolute coordinates
M83 ; use relative distances for extrusion
M900 K0.05 ; Filament gcode LA 1.5
M900 K30 ; Filament gcode LA 1.0
;LAYER_CHANGE
;Z:0.2
;HEIGHT:0.2
;BEFORE_LAYER_CHANGE
G92 E0.0
;0.2


G1 E-0.80000 F2100.000
G1 Z0.600 F10800.000
;AFTER_LAYER_CHANGE
;0.2
G1 X109.601 Y57.237
G1 Z0.200
G1 E0.80000 F2100.000
M204 S1000
;TYPE:External perimeter
;WIDTH:0.492227
G1 F1200.000
G1 X109.509 Y57.377 E0.00625
;WIDTH:0.447088
G1 X109.418 Y57.517 E0.00562
;WIDTH:0.401949
G1 X109.327 Y57.657 E0.00499
;WIDTH:0.35681
G1 X109.236 Y57.798 E0.00436
;WIDTH:0.311671
G1 X109.144 Y57.938 E0.00374
;WIDTH:0.266532
G1 X109.053 Y58.078 E0.00311
;WIDTH:0.221393
G1 X108.962 Y58.218 E0.00248
G1 E-0.80000 F2100.000
G1 Z0.800 F10800.000
G1 X107.085 Y63.914
G1 Z0.200
G1 E0.80000 F2100.000
;WIDTH:0.220449
G1 F1200.000
G1 X107.213 Y64.045 E0.00271
;WIDTH:0.264644
G1 X107.342 Y64.176 E0.00338
;WIDTH:0.308839
G1 X107.470 Y64.307 E0.00406
;WIDTH:0.353034
G1 X107.599 Y64.438 E0.00473
;WIDTH:0.397229
G1 X107.727 Y64.569 E0.00540
;WIDTH:0.441423
G1 X107.855 Y64.700 E0.00608
;WIDTH:0.485618
G1 X107.984 Y64.831 E0.00675
;WIDTH:0.529813
G1 X108.112 Y64.962 E0.00743
;WIDTH:0.560072
G1 X108.209 Y65.064 E0.00603
;WIDTH:0.596215
G1 X108.528 Y65.388 E0.02093
G1 E-0.80000 F2100.000
G1 Z0.800 F10800.000
G1 X110.485 Y70.204
G1 Z0.200
G1 E0.80000 F2100.000
;WIDTH:0.524109
G1 F1200.000
G1 X110.820 Y70.417 E0.01587
G1 X110.900 Y71.017 E0.02424
;WIDTH:0.48284
G1 X110.912 Y71.197 E0.00660
;WIDTH:0.470401
G1 X110.929 Y71.254 E0.00210
;WIDTH:0.440003
G1 X110.948 Y71.339 E0.00288
;WIDTH:0.407035
G1 X110.954 Y71.372 E0.00102
;WIDTH:0.3974
G1 X110.982 Y71.593 E0.00657
;WIDTH:0.35409
G1 X111.011 Y71.814 E0.00577
;WIDTH:0.310779
G1 X111.042 Y72.004 E0.00430
;WIDTH:0.265937
G1 X111.073 Y72.195 E0.00358
;WIDTH:0.221095
G1 X111.104 Y72.385 E0.00286
G1 E-0.80000 F2100.000
G1 Z0.800 F10800.000
G1 X104.041 Y73.685
G1 Z0.200
G1 E0.80000 F2100.000
;WIDTH:0.216578
G1 F1200.000
G1 X104.028 Y73.809 E0.00181
;WIDTH:0.256903
G1 X104.015 Y73.934 E0.00223
;WIDTH:0.294047
G1 X103.990 Y74.183 E0.00523
G1 X104.114 Y74.650 E0.01009
G1 E-0.80000 F2100.000
G1 Z0.800 F10800.000
G1 X118.117 Y64.992
G1 Z0.200
G1 E0.80000 F2100.000
;WIDTH:0.216665
G1 F1200.000
G1 X117.787 Y64.675 E0.00661
;WIDTH:0.351763
G1 X117.522 Y64.424 E0.00938
;WIDTH:0.450246
G1 X117.049 Y63.981 E0.02195
;WIDTH:0.584856
G1 X116.531 Y63.505 E0.03166
G1 E-0.80000 F2100.000
G1 Z0.800 F10800.000
G1 X117.723 Y50.725
G1 Z0.200
G1 E0.80000 F2100.000
;WIDTH:0.496081
G1 F1200.000
G1 X118.079 Y50.549 E0.01496
;WIDTH:0.375871
G1 X118.613 Y50.284 E0.01649
;WIDTH:0.27108
G1 X118.914 Y50.126 E0.00646
;WIDTH:0.176253
G1 X118.964 Y50.085 E0.00072
G1 X119.115 Y50.037 E0.00176
G1 X119.146 Y49.957 E0.00095
G1 E-0.80000 F2100.000
G1 Z0.800 F10800.000
G1 X116.192 Y44.966
G1 Z0.200
G1 E0.80000 F2100.000
;WIDTH:0.32968
G1 F1200.000
G1 X115.489 Y45.071 E0.01695
;WIDTH:0.45997
G1 X115.020 Y45.141 E0.01643
G1 E-0.80000 F2100.000
G1 Z0.800 F10800.000
G1 X102.333 Y44.091
G1 Z0.200
G1 E0.80000 F2100.000
;WIDTH:0.460596
G1 F1200.000
G1 X102.275 Y43.728 E0.01276
;WIDTH:0.580214
G1 X102.271 Y43.699 E0.00131
G1 X102.092 Y43.582 E0.00954
;WIDTH:0.544111
G1 X101.913 Y43.465 E0.00890
;WIDTH:0.508009
G1 X101.735 Y43.348 E0.00826
;WIDTH:0.471909
G1 X101.504 Y43.200 E0.00979
;WIDTH:0.422633
G1 X101.273 Y43.052 E0.00867
;WIDTH:0.373357
G1 X101.042 Y42.904 E0.00754
;WIDTH:0.324082
G1 X100.810 Y42.756 E0.00642
;WIDTH:0.274806
G1 X100.579 Y42.607 E0.00529
;WIDTH:0.22553
G1 X100.348 Y42.459 E0.00417
G1 E-0.80000 F2100.000
G1 Z0.800 F10800.000
G1 X101.928 Y73.261
G1 Z0.200
G1 E0.80000 F2100.000
;TYPE:Perimeter
;WIDTH:0.42
G1 F1200.000
G1 X102.123 Y73.276 E0.00614
G1 X101.567 Y73.674 E0.02146
G1 X101.256 Y73.278 E0.01579
G1 X101.363 Y73.139 E0.00549
G1 X101.739 Y73.247 E0.01228
G1 X101.868 Y73.256 E0.00405
G1 E-0.80000 F2100.000
M73 Q0 S44
G1 Z0.800 F10800.000
G1 X111.283 Y48.866
G1 Z0.200
G1 E0.80000 F2100.000
G1 F1200.000
G1 X111.762 Y48.955 E0.01528
G1 X112.123 Y48.990 E0.01136
G1 X112.765 Y49.162 E0.02084
G1 X113.125 Y49.312 E0.01223
G1 X113.657 Y49.568 E0.01852
G1 X114.238 Y49.806 E0.01968
G1 X114.421 Y49.917 E0.00673
G1 X114.590 Y50.058 E0.00689
G1 X114.759 Y50.286 E0.00889
G1 X115.011 Y50.827 E0.01874
G1 X115.158 Y51.285 E0.01508
G1 X115.452 Y51.845 E0.01983
G1 X115.338 Y51.964 E0.00516
G1 X115.263 Y52.303 E0.01089
G1 X115.383 Y52.914 E0.01954
G1 X115.534 Y53.952 E0.03289
G1 X115.837 Y54.894 E0.03101
G1 X116.158 Y55.716 E0.02767
G1 X116.276 Y56.668 E0.03010
G1 X116.311 Y57.665 E0.03127
G1 X116.401 Y57.973 E0.01006
G1 X116.995 Y59.346 E0.04691
G1 X117.153 Y59.769 E0.01415
G1 X117.003 Y59.875 E0.00574
G1 X115.740 Y60.952 E0.05204
G1 X115.383 Y61.305 E0.01575
G1 X114.926 Y61.822 E0.02163
G1 X114.731 Y61.652 E0.00811
G1 X114.148 Y62.673 E0.03687
G1 X113.794 Y63.071 E0.01668
G1 X112.758 Y64.133 E0.04652
G1 X112.650 Y64.233 E0.00463
G1 X112.504 Y64.320 E0.00531
G1 X112.313 Y64.613 E0.01096
G1 X112.037 Y64.940 E0.01340
G1 X111.090 Y65.977 E0.04405
G1 X110.622 Y66.519 E0.02245
G1 X110.409 Y66.854 E0.01247
G1 X109.333 Y68.043 E0.05025
G1 X108.695 Y68.852 E0.03232
G1 X108.341 Y69.380 E0.01993
G1 X108.219 Y69.608 E0.00810
G1 X107.978 Y70.238 E0.02117
G1 X107.918 Y70.559 E0.01022
G1 X107.904 Y70.914 E0.01115
G1 X107.880 Y71.056 E0.00452
G1 X107.555 Y71.115 E0.01034
G1 X106.704 Y71.399 E0.02813
G1 X106.402 Y71.535 E0.01039
G1 X106.304 Y71.341 E0.00681
G1 X106.455 Y71.258 E0.00541
G1 X106.735 Y71.039 E0.01112
G1 X106.999 Y70.711 E0.01320
G1 X107.191 Y70.261 E0.01535
G1 X107.280 Y70.123 E0.00516
G1 X107.705 Y69.619 E0.02066
G1 X107.866 Y69.377 E0.00912
G1 X108.033 Y68.820 E0.01824
G1 X108.405 Y67.914 E0.03068
G1 X108.509 Y67.767 E0.00566
G1 X109.328 Y66.879 E0.03789
G1 X109.478 Y66.641 E0.00880
G1 X109.534 Y66.361 E0.00897
G1 X109.867 Y66.355 E0.01044
G1 X110.173 Y65.945 E0.01606
G1 X110.234 Y65.663 E0.00906
G1 X110.617 Y65.024 E0.02336
G1 X110.865 Y64.693 E0.01297
G1 X111.150 Y64.220 E0.01730
G1 X111.500 Y63.748 E0.01844
G1 X111.558 Y63.593 E0.00518
G1 X111.602 Y63.529 E0.00242
G1 X111.907 Y63.134 E0.01567
G1 X112.573 Y62.162 E0.03694
G1 X113.623 Y61.006 E0.04898
G1 X113.909 Y60.581 E0.01604
G1 X114.113 Y60.148 E0.01502
G1 X114.142 Y59.862 E0.00901
G1 X114.111 Y59.634 E0.00720
G1 X113.891 Y58.843 E0.02574
G1 X113.499 Y57.935 E0.03101
G1 X113.454 Y57.883 E0.00216
G1 X113.283 Y57.445 E0.01476
G1 X112.700 Y56.304 E0.04015
G1 X112.380 Y55.774 E0.01943
G1 X112.294 Y55.578 E0.00670
G1 X111.643 Y54.501 E0.03947
G1 X111.141 Y55.060 E0.02356
G1 X110.975 Y54.933 E0.00655
G1 X111.203 Y54.579 E0.01321
G1 X111.043 Y54.081 E0.01640
G1 X110.840 Y53.831 E0.01012
G1 X110.519 Y53.595 E0.01249
G1 X109.999 Y53.283 E0.01902
G1 X109.102 Y52.798 E0.03197
G1 X108.823 Y52.701 E0.00926
G1 X107.824 Y52.570 E0.03159
G1 X107.378 Y52.382 E0.01518
G1 X106.560 Y52.103 E0.02710
G1 X105.843 Y51.829 E0.02407
G1 X105.746 Y51.844 E0.00307
G1 X105.437 Y51.458 E0.01549
G1 X105.320 Y51.190 E0.00916
G1 X104.997 Y50.648 E0.01978
G1 X104.700 Y50.050 E0.02095
G1 X104.514 Y49.320 E0.02361
G1 X104.463 Y48.885 E0.01374
G1 X104.412 Y48.641 E0.00781
G1 X104.254 Y48.046 E0.01931
G1 X104.089 Y47.738 E0.01093
G1 X104.058 Y47.612 E0.00408
G1 X104.017 Y47.160 E0.01422
G1 X104.109 Y45.628 E0.04815
G1 X104.108 Y45.263 E0.01144
G1 X104.140 Y45.286 E0.00122
G1 X103.934 Y42.839 E0.07699
G1 X103.822 Y42.413 E0.01382
G1 X103.691 Y42.182 E0.00832
G1 X103.494 Y41.937 E0.00984
G1 X103.184 Y41.624 E0.01382
G1 X102.565 Y41.059 E0.02628
G1 X101.896 Y40.540 E0.02656
G1 X101.669 Y40.260 E0.01130
G1 X101.373 Y40.155 E0.00985
G1 X101.097 Y39.776 E0.01469
G1 X100.817 Y39.306 E0.01717
G1 X101.043 Y38.978 E0.01247
G1 X101.111 Y38.552 E0.01354
G1 X100.992 Y38.053 E0.01606
G1 X100.820 Y37.659 E0.01351
G1 X100.590 Y37.330 E0.01257
G1 X100.259 Y37.211 E0.01101
G1 X100.028 Y37.199 E0.00727
G1 X99.711 Y37.221 E0.00996
G1 X99.323 Y37.327 E0.01260
G1 X99.153 Y37.354 E0.00539
G1 X98.791 Y37.355 E0.01137
G1 X98.414 Y37.297 E0.01194
G1 X97.908 Y37.101 E0.01701
G1 X97.455 Y36.981 E0.01472
G1 X97.313 Y36.962 E0.00447
G1 X97.032 Y36.813 E0.00999
G1 X96.782 Y36.610 E0.01007
G1 X96.552 Y36.582 E0.00728
G1 X96.472 Y36.498 E0.00363
G1 X96.033 Y35.875 E0.02388
G1 X95.671 Y35.207 E0.02383
G1 X95.285 Y34.203 E0.03373
G1 X94.964 Y33.154 E0.03441
G1 X94.875 Y32.569 E0.01853
G1 X96.332 Y32.092 E0.04806
G1 X97.025 Y31.906 E0.02250
G1 X97.537 Y31.856 E0.01613
G1 X98.145 Y31.897 E0.01909
G1 X98.646 Y31.989 E0.01597
G1 X101.055 Y32.603 E0.07796
G1 X101.415 Y32.743 E0.01212
G1 X101.869 Y33.027 E0.01678
G1 X102.341 Y33.189 E0.01565
G1 X102.741 Y32.817 E0.01715
G1 X102.997 Y32.391 E0.01558
G1 X103.084 Y31.985 E0.01302
G1 X103.281 Y31.495 E0.01655
G1 X103.672 Y31.303 E0.01368
G1 X103.865 Y31.182 E0.00711
G1 X104.454 Y31.243 E0.01858
G1 X105.578 Y31.221 E0.03524
G1 X105.998 Y31.169 E0.01326
G1 X106.382 Y31.077 E0.01239
G1 X106.694 Y31.332 E0.01265
G1 X107.042 Y31.544 E0.01276
G1 X107.992 Y31.913 E0.03196
G1 X108.199 Y31.458 E0.01569
G1 X108.797 Y31.438 E0.01879
G1 X110.311 Y31.435 E0.04745
G1 X110.714 Y31.478 E0.01271
G1 X110.858 Y31.518 E0.00470
G1 X110.999 Y31.584 E0.00486
G1 X111.897 Y32.160 E0.03346
G1 X113.020 Y31.620 E0.03908
G1 X113.143 Y31.588 E0.00398
G1 X113.618 Y31.389 E0.01615
G1 X113.918 Y31.311 E0.00971
G1 X114.433 Y31.263 E0.01621
G1 X115.502 Y31.206 E0.03358
G1 X115.764 Y31.209 E0.00820
G1 X116.538 Y31.561 E0.02667
G1 X116.802 Y31.640 E0.00863
G1 X117.025 Y31.676 E0.00711
G1 X117.347 Y31.810 E0.01091
G1 X118.261 Y32.249 E0.03179
G1 X119.229 Y32.617 E0.03247
G1 X119.449 Y32.734 E0.00781
G1 X119.173 Y33.203 E0.01706
G1 X119.042 Y33.278 E0.00473
G1 X118.761 Y33.604 E0.01350
G1 X118.507 Y34.031 E0.01560
G1 X118.289 Y34.126 E0.00744
G1 X117.947 Y34.345 E0.01273
G1 X117.774 Y34.571 E0.00894
G1 X117.688 Y34.751 E0.00624
G1 X117.278 Y34.913 E0.01382
G1 X116.978 Y35.296 E0.01524
G1 X116.848 Y35.390 E0.00505
G1 X116.627 Y35.601 E0.00958
G1 X116.437 Y35.910 E0.01136
G1 X116.366 Y36.105 E0.00650
G1 X115.218 Y36.415 E0.03729
G1 X114.597 Y36.623 E0.02052
G1 X113.895 Y36.937 E0.02413
G1 X114.134 Y37.628 E0.02292
G1 X114.422 Y38.123 E0.01796
G1 X114.346 Y38.311 E0.00635
G1 X114.186 Y38.589 E0.01005
G1 X113.886 Y38.979 E0.01543
G1 X113.723 Y39.329 E0.01211
G1 X113.561 Y39.820 E0.01623
G1 X113.372 Y40.584 E0.02467
G1 X113.161 Y41.234 E0.02143
G1 X112.930 Y41.672 E0.01551
G1 X112.587 Y42.130 E0.01794
G1 X112.404 Y42.329 E0.00846
G1 X112.080 Y42.607 E0.01340
G1 X111.516 Y43.000 E0.02155
G1 X111.298 Y43.095 E0.00749
G1 X110.944 Y43.471 E0.01618
G1 X110.588 Y44.026 E0.02067
G1 X110.422 Y44.385 E0.01239
G1 X110.119 Y45.553 E0.03783
G1 X110.981 Y45.363 E0.02769
G1 X111.372 Y45.570 E0.01386
G1 X111.538 Y45.348 E0.00869
G1 X112.385 Y45.399 E0.02661
G1 X112.414 Y45.587 E0.00595
G1 X112.153 Y45.675 E0.00862
G1 X111.310 Y45.895 E0.02732
G1 X110.969 Y46.020 E0.01139
G1 X110.944 Y46.046 E0.00114
G1 X110.792 Y46.078 E0.00488
G1 X110.495 Y46.193 E0.00999
G1 X110.117 Y46.426 E0.01392
G1 X110.033 Y46.894 E0.01492
G1 X109.857 Y47.380 E0.01619
G1 X109.897 Y47.959 E0.01819
G1 X110.007 Y48.057 E0.00463
G1 X110.030 Y48.142 E0.00275
G1 X110.254 Y48.429 E0.01143
G1 X110.603 Y48.686 E0.01357
G1 X110.858 Y48.782 E0.00856
G1 X111.224 Y48.854 E0.01170
G1 X111.297 Y48.484 F10800.000
;TYPE:External perimeter
G1 F1200.000
G1 X111.814 Y48.581 E0.01648
G1 X112.190 Y48.617 E0.01186
G1 X112.887 Y48.804 E0.02260
G1 X113.279 Y48.968 E0.01333
G1 X113.810 Y49.223 E0.01849
G1 X114.408 Y49.468 E0.02026
G1 X114.641 Y49.609 E0.00854
G1 X114.852 Y49.785 E0.00860
G1 X114.964 Y49.908 E0.00523
G1 X115.090 Y50.103 E0.00726
G1 X115.363 Y50.690 E0.02029
G1 X115.507 Y51.139 E0.01480
G1 X115.657 Y51.424 E0.01008
G1 X116.714 Y50.993 E0.03579
G1 X117.491 Y50.730 E0.02573
G1 X117.579 Y50.907 E0.00620
G1 X115.776 Y52.053 E0.06700
G1 X115.683 Y52.149 E0.00417
G1 X115.648 Y52.307 E0.00509
G1 X115.755 Y52.851 E0.01736
G1 X115.902 Y53.867 E0.03219
G1 X116.192 Y54.766 E0.02963
G1 X116.529 Y55.646 E0.02956
G1 X116.652 Y56.639 E0.03134
G1 X116.686 Y57.604 E0.03030
G1 X116.757 Y57.844 E0.00785
G1 X117.345 Y59.205 E0.04649
G1 X117.485 Y59.582 E0.01262
G1 X117.551 Y59.839 E0.00829
G1 X117.471 Y60.006 E0.00582
G1 X117.235 Y60.173 E0.00907
G1 X115.995 Y61.230 E0.05107
G1 X115.657 Y61.564 E0.01492
G1 X115.259 Y62.015 E0.01886
G1 X116.450 Y63.285 E0.05458
G1 X116.306 Y63.440 E0.00663
G1 X115.844 Y63.064 E0.01866
G1 X115.584 Y62.881 E0.00998
G1 X115.451 Y62.724 E0.00644
G1 X115.315 Y62.661 E0.00470
G1 X114.830 Y62.239 E0.02016
G1 X114.456 Y62.894 E0.02368
G1 X114.070 Y63.328 E0.01819
G1 X113.021 Y64.404 E0.04712
G1 X112.877 Y64.536 E0.00614
G1 X112.773 Y64.599 E0.00380
G1 X112.616 Y64.838 E0.00897
G1 X112.321 Y65.188 E0.01435
G1 X111.372 Y66.227 E0.04412
G1 X110.926 Y66.745 E0.02142
G1 X110.766 Y66.995 E0.00929
G1 X110.728 Y67.324 E0.01039
G1 X110.746 Y68.314 E0.03107
G1 X110.863 Y69.915 E0.05032
G1 X110.650 Y69.942 E0.00672
G1 X110.595 Y69.639 E0.00967
G1 X110.499 Y69.351 E0.00954
G1 X110.406 Y68.848 E0.01602
G1 X110.325 Y68.601 E0.00814
G1 X110.191 Y67.657 E0.02990
G1 X109.621 Y68.286 E0.02660
G1 X109.000 Y69.074 E0.03146
G1 X108.664 Y69.574 E0.01887
G1 X108.563 Y69.764 E0.00676
G1 X108.342 Y70.341 E0.01936
G1 X108.294 Y70.601 E0.00830
G1 X108.280 Y70.954 E0.01106
G1 X108.226 Y71.267 E0.00996
G1 X108.164 Y71.363 E0.00360
G1 X108.087 Y71.402 E0.00269
G1 X107.649 Y71.481 E0.01398
G1 X106.842 Y71.750 E0.02668
G1 X106.015 Y72.124 E0.02843
G1 X105.679 Y72.311 E0.01207
G1 X105.471 Y72.367 E0.00673
G1 X105.209 Y72.479 E0.00895
G1 X104.651 Y72.778 E0.01986
G1 X104.147 Y72.978 E0.01700
G1 X103.943 Y73.091 E0.00731
G1 X103.794 Y73.588 E0.01625
G1 X103.629 Y73.327 E0.00967
G1 X103.443 Y73.201 E0.00706
G1 X103.174 Y73.243 E0.00853
G1 X102.159 Y73.715 E0.03510
G1 X101.649 Y74.079 E0.01966
G1 X101.445 Y74.158 E0.00684
G1 X101.331 Y73.985 E0.00649
G1 X100.548 Y72.985 E0.03980
G1 X100.326 Y72.651 E0.01260
G1 X99.987 Y72.029 E0.02220
G1 X99.851 Y71.830 E0.00755
G1 X100.151 Y71.774 E0.00957
G1 X100.231 Y71.776 E0.00250
G1 X101.146 Y72.594 E0.03850
G1 X101.365 Y72.730 E0.00807
G1 X101.570 Y72.817 E0.00699
G1 X101.799 Y72.873 E0.00739
G1 X102.146 Y72.900 E0.01093
G1 X102.484 Y72.884 E0.01060
G1 X102.759 Y72.800 E0.00901
G1 X103.464 Y72.424 E0.02507
G1 X104.225 Y72.065 E0.02637
G1 X106.246 Y70.942 E0.07250
G1 X106.468 Y70.769 E0.00883
G1 X106.672 Y70.516 E0.01019
G1 X106.857 Y70.083 E0.01474
G1 X106.977 Y69.898 E0.00693
G1 X107.403 Y69.393 E0.02071
G1 X107.520 Y69.215 E0.00669
G1 X107.678 Y68.693 E0.01708
G1 X108.072 Y67.732 E0.03258
G1 X108.215 Y67.529 E0.00777
G1 X109.028 Y66.649 E0.03757
G1 X109.121 Y66.499 E0.00553
G1 X109.174 Y66.236 E0.00841
G1 X109.015 Y66.139 E0.00583
G1 X108.987 Y66.080 E0.00205
G1 X108.603 Y65.610 E0.01903
G1 X108.751 Y65.462 E0.00656
