; generated by PrusaSlicer 2.3.1+win64 on 2021-07-22 at 20:21:49 UTC

; 

; external perimeters extrusion width = 0.45mm
; perimeters extrusion width = 0.45mm
; infill extrusion width = 0.45mm
; solid infill extrusion width = 0.45mm
; top infill extrusion width = 0.40mm
; first layer extrusion width = 0.42mm

M73 P0 R46
M73 Q0 S46
M201 X1000 Y1000 Z1000 E5000 ; sets maximum accelerations, mm/sec^2
M203 X200 Y200 Z12 E120 ; sets maximum feedrates, mm/sec
M204 P1250 R1250 T1250 ; sets acceleration (P, T) and retract acceleration (R), mm/sec^2
M205 X8.00 Y8.00 Z0.40 E1.50 ; sets the jerk limits, mm/sec
M205 S0 T0 ; sets the minimum extruding and travel feed rate, mm/sec
M107
;TYPE:Custom
M862.3 P "MK3S" ; printer model check
M862.1 P0.4 ; nozzle diameter check
M115 U3.8.0 ; tell printer latest fw version
G90 ; use absolute coordinates
M83 ; extruder relative mode
M104 S215 ; set extruder temp
M140 S60 ; set bed temp
M190 S60 ; wait for bed temp
M109 S215 ; wait for extruder temp
G28 W ; home all without mesh bed level
G80 ; mesh bed leveling
G1 Y-3.0 F1000.0 ; go outside print area
G92 E0.0
G1 X60.0 E9.0 F1000.0 ; intro line
M73 P0 R45
G1 X100.0 E12.5 F1000.0 ; intro line
G92 E0.0
M221 S95
G21 ; set units to millimeters
G90 ; use absolute coordinates
M83 ; use relative distances for extrusion
M900 K0.05 ; Filament gcode LA 1.5
M900 K30 ; Filament gcode LA 1.0
;LAYER_CHANGE
;Z:0.2
;HEIGHT:0.2
;BEFORE_LAYER_CHANGE
G92 E0.0
;0.2


M73 Q0 S45
G1 Z0.200 F10800.000
;AFTER_LAYER_CHANGE
;0.2
G1 E-0.80000 F2100.000
G1 Z0.800 F10800.000
G1 X89.022 Y103.150
G1 Z0.200
G1 E0.80000 F2100.000
M204 S1000
;TYPE:External perimeter
;WIDTH:0.42
G1 F1200.000
G1 X89.290 Y102.993 E0.00975
G1 X89.585 Y102.891 E0.00977
G1 X89.904 Y102.848 E0.01010
G1 X90.203 Y102.866 E0.00940
G1 X90.504 Y102.945 E0.00974
G1 X90.784 Y103.081 E0.00975
G1 X91.031 Y103.268 E0.00975
G1 X91.238 Y103.501 E0.00975
G1 X91.395 Y103.769 E0.00975
G1 X91.497 Y104.063 E0.00975
G1 X91.540 Y104.371 E0.00975
G1 X91.522 Y104.682 E0.00975
G1 X91.443 Y104.982 E0.00975
G1 X91.307 Y105.262 E0.00975
G1 X91.119 Y105.510 E0.00975
G1 X90.887 Y105.717 E0.00975
G1 X90.619 Y105.874 E0.00975
G1 X90.325 Y105.976 E0.00975
G1 X90.017 Y106.019 E0.00975
G1 X89.706 Y106.000 E0.00975
G1 X89.405 Y105.922 E0.00975
G1 X89.126 Y105.786 E0.00975
G1 X88.878 Y105.598 E0.00975
G1 X88.671 Y105.366 E0.00975
G1 X88.514 Y105.098 E0.00975
G1 X88.412 Y104.804 E0.00975
G1 X88.369 Y104.496 E0.00975
G1 X88.388 Y104.185 E0.00975
G1 X88.466 Y103.884 E0.00975
G1 X88.602 Y103.604 E0.00975
G1 X88.790 Y103.357 E0.00975
G1 X88.977 Y103.190 E0.00787
G1 E-0.80000 F2100.000
G1 Z0.800 F10800.000
G1 X84.790 Y104.181
G1 Z0.200
G1 E0.80000 F2100.000
G1 F1200.000
G1 X84.808 Y104.492 E0.00975
G1 X84.766 Y104.800 E0.00975
G1 X84.664 Y105.094 E0.00975
G1 X84.507 Y105.362 E0.00975
G1 X84.300 Y105.594 E0.00975
G1 X84.052 Y105.782 E0.00975
G1 X83.772 Y105.918 E0.00975
G1 X83.471 Y105.997 E0.00975
G1 X83.161 Y106.015 E0.00975
G1 X82.853 Y105.972 E0.00975
G1 X82.559 Y105.870 E0.00975
G1 X82.291 Y105.713 E0.00975
G1 X82.058 Y105.506 E0.00975
G1 X81.870 Y105.258 E0.00975
G1 X81.735 Y104.979 E0.00975
G1 X81.656 Y104.678 E0.00975
G1 X81.638 Y104.367 E0.00975
G1 X81.680 Y104.059 E0.00975
G1 X81.782 Y103.765 E0.00975
G1 X81.940 Y103.497 E0.00975
G1 X82.146 Y103.265 E0.00975
G1 X82.394 Y103.077 E0.00975
G1 X82.677 Y102.940 E0.00986
G1 X83.032 Y102.859 E0.01142
G1 X83.285 Y102.844 E0.00795
G1 X83.593 Y102.887 E0.00975
G1 X83.887 Y102.989 E0.00975
G1 X84.156 Y103.146 E0.00975
G1 X84.388 Y103.353 E0.00975
G1 X84.576 Y103.601 E0.00975
G1 X84.711 Y103.880 E0.00975
G1 X84.775 Y104.123 E0.00787
G1 E-0.80000 F2100.000
G1 Z0.800 F10800.000
G1 X81.867 Y99.440
G1 Z0.200
G1 E0.80000 F2100.000
G1 F1200.000
G1 X81.577 Y99.553 E0.00975
G1 X81.271 Y99.608 E0.00975
G1 X80.960 Y99.602 E0.00975
G1 X80.656 Y99.535 E0.00975
G1 X80.371 Y99.410 E0.00975
G1 X80.116 Y99.233 E0.00975
G1 X79.901 Y99.008 E0.00975
G1 X79.733 Y98.747 E0.00975
G1 X79.620 Y98.457 E0.00975
G1 X79.565 Y98.151 E0.00975
G1 X79.571 Y97.840 E0.00975
G1 X79.638 Y97.536 E0.00975
G1 X79.762 Y97.251 E0.00975
G1 X79.940 Y96.996 E0.00975
G1 X80.164 Y96.780 E0.00975
G1 X80.426 Y96.613 E0.00975
G1 X80.717 Y96.499 E0.00979
G1 X81.045 Y96.444 E0.01044
G1 X81.334 Y96.451 E0.00904
G1 X81.637 Y96.517 E0.00973
G1 X81.922 Y96.642 E0.00975
G1 X82.177 Y96.820 E0.00975
G1 X82.392 Y97.044 E0.00975
G1 X82.560 Y97.306 E0.00975
G1 X82.673 Y97.596 E0.00975
G1 X82.728 Y97.902 E0.00975
G1 X82.722 Y98.213 E0.00975
G1 X82.655 Y98.517 E0.00975
G1 X82.531 Y98.801 E0.00975
G1 X82.353 Y99.057 E0.00975
G1 X82.129 Y99.272 E0.00975
G1 X81.917 Y99.408 E0.00787
G1 E-0.80000 F2100.000
G1 Z0.800 F10800.000
G1 X85.473 Y95.195
G1 Z0.200
G1 E0.80000 F2100.000
G1 F1200.000
G1 X85.276 Y94.954 E0.00975
G1 X85.129 Y94.680 E0.00975
G1 X85.039 Y94.382 E0.00975
G1 X85.008 Y94.073 E0.00975
G1 X85.039 Y93.763 E0.00975
G1 X85.129 Y93.466 E0.00975
G1 X85.276 Y93.191 E0.00975
G1 X85.473 Y92.951 E0.00975
G1 X85.713 Y92.754 E0.00975
G1 X85.991 Y92.605 E0.00986
G1 X86.342 Y92.511 E0.01142
G1 X86.595 Y92.486 E0.00795
G1 X86.904 Y92.517 E0.00975
G1 X87.202 Y92.607 E0.00975
G1 X87.476 Y92.754 E0.00975
G1 X87.717 Y92.951 E0.00975
G1 X87.914 Y93.191 E0.00975
G1 X88.060 Y93.466 E0.00975
G1 X88.151 Y93.763 E0.00975
G1 X88.181 Y94.073 E0.00975
G1 X88.151 Y94.382 E0.00975
G1 X88.060 Y94.680 E0.00975
G1 X87.914 Y94.954 E0.00975
G1 X87.717 Y95.195 E0.00975
G1 X87.476 Y95.392 E0.00975
G1 X87.202 Y95.538 E0.00975
G1 X86.904 Y95.629 E0.00975
G1 X86.595 Y95.659 E0.00975
G1 X86.285 Y95.629 E0.00975
G1 X85.988 Y95.538 E0.00975
G1 X85.713 Y95.392 E0.00975
G1 X85.519 Y95.233 E0.00787
G1 E-0.80000 F2100.000
G1 Z0.800 F10800.000
G1 X90.625 Y97.312
G1 Z0.200
G1 E0.80000 F2100.000
G1 F1200.000
G1 X90.793 Y97.050 E0.00975
G1 X91.008 Y96.826 E0.00975
G1 X91.263 Y96.648 E0.00975
G1 X91.548 Y96.524 E0.00975
G1 X91.852 Y96.457 E0.00975
G1 X92.105 Y96.452 E0.00795
G1 X92.466 Y96.504 E0.01142
G1 X92.759 Y96.619 E0.00986
G1 X93.021 Y96.787 E0.00975
G1 X93.245 Y97.002 E0.00975
G1 X93.423 Y97.257 E0.00975
G1 X93.547 Y97.542 E0.00975
G1 X93.614 Y97.846 E0.00975
G1 X93.620 Y98.157 E0.00975
G1 X93.565 Y98.463 E0.00975
G1 X93.452 Y98.753 E0.00975
G1 X93.284 Y99.015 E0.00975
G1 X93.069 Y99.239 E0.00975
G1 X92.814 Y99.417 E0.00975
G1 X92.529 Y99.541 E0.00975
G1 X92.225 Y99.608 E0.00975
G1 X91.914 Y99.614 E0.00975
G1 X91.608 Y99.559 E0.00975
G1 X91.318 Y99.446 E0.00975
G1 X91.056 Y99.278 E0.00975
G1 X90.832 Y99.063 E0.00975
G1 X90.654 Y98.808 E0.00975
G1 X90.529 Y98.523 E0.00975
G1 X90.463 Y98.219 E0.00975
G1 X90.457 Y97.908 E0.00975
G1 X90.512 Y97.602 E0.00975
G1 X90.603 Y97.368 E0.00787
G1 E-0.80000 F2100.000
G1 Z0.800 F10800.000
G1 X100.352 Y92.426
G1 Z0.200
G1 E0.80000 F2100.000
G1 F1200.000
G1 X101.207 Y94.113 E0.05930
G1 X102.037 Y97.081 E0.09661
G1 X102.149 Y97.856 E0.02458
G1 X102.196 Y98.467 E0.01921
G1 X102.271 Y100.136 E0.05236
G1 X101.903 Y103.191 E0.09650
G1 X100.947 Y106.113 E0.09639
G1 X99.439 Y108.792 E0.09639
G1 X97.438 Y111.126 E0.09639
G1 X95.019 Y113.024 E0.09639
G1 X92.275 Y114.415 E0.09646
G1 X90.376 Y114.987 E0.06219
G1 X89.786 Y115.152 E0.01921
G1 X89.325 Y115.242 E0.01473
G1 X86.251 Y115.478 E0.09665
G1 X83.199 Y115.110 E0.09639
G1 X80.277 Y114.154 E0.09639
G1 X77.598 Y112.646 E0.09639
G1 X75.264 Y110.645 E0.09639
G1 X73.366 Y108.227 E0.09639
G1 X71.973 Y105.479 E0.09659
G1 X71.666 Y104.593 E0.02939
G1 X71.501 Y104.003 E0.01922
G1 X71.148 Y102.528 E0.04756
G1 X70.913 Y99.459 E0.09652
G1 X71.281 Y96.404 E0.09647
G1 X71.827 Y94.593 E0.05930
G1 X72.018 Y94.011 E0.01921
G1 X72.232 Y93.491 E0.01762
G1 X73.744 Y90.805 E0.09664
G1 X75.745 Y88.472 E0.09639
G1 X78.164 Y86.573 E0.09639
G1 X80.906 Y85.183 E0.09639
G1 X83.866 Y84.355 E0.09639
G1 X86.932 Y84.120 E0.09639
G1 X89.984 Y84.488 E0.09639
G1 X92.906 Y85.444 E0.09639
G1 X95.585 Y86.951 E0.09639
G1 X97.919 Y88.953 E0.09639
G1 X99.817 Y91.371 E0.09639
G1 X100.325 Y92.373 E0.03521
G1 E-0.80000 F2100.000
G1 Z0.800 F10800.000
G1 X98.720 Y90.157
G1 Z0.200
G1 E0.80000 F2100.000
;TYPE:Solid infill
;WIDTH:0.423022
G1 F1200.000
G1 X97.707 Y89.143 E0.04532
G1 X95.422 Y87.184 E0.09512
G1 X94.936 Y86.911 E0.01761
G1 X99.606 Y91.581 E0.20872
G1 X100.159 Y92.671 E0.03863
G1 X93.707 Y86.219 E0.28837
G1 X92.791 Y85.704 E0.03321
G1 X92.588 Y85.637 E0.00678
G1 X100.711 Y93.761 E0.36312
G1 X100.942 Y94.216 E0.01613
G1 X101.064 Y94.651 E0.01427
G1 X91.789 Y85.376 E0.41458
G1 X90.990 Y85.114 E0.02657
G1 X101.273 Y95.397 E0.45962
G1 X101.482 Y96.144 E0.02450
G1 X90.191 Y84.853 E0.50467
G1 X89.922 Y84.765 E0.00892
G1 X89.516 Y84.716 E0.01292
G1 X101.690 Y96.890 E0.54414
G1 X101.760 Y97.139 E0.00817
G1 X101.820 Y97.558 E0.01336
G1 X88.905 Y84.643 E0.57726
G1 X88.294 Y84.569 E0.01946
G1 X101.889 Y98.164 E0.60765
G1 X101.925 Y98.737 E0.01816
G1 X87.683 Y84.495 E0.63657
G1 X87.072 Y84.422 E0.01946
G1 X101.950 Y99.300 E0.66502
G1 X101.975 Y99.863 E0.01781
G1 X86.546 Y84.433 E0.68966
M73 Q1 S45
G1 X86.046 Y84.471 E0.01583
G1 X101.956 Y100.381 E0.71112
M73 P1 R45
G1 X101.899 Y100.861 E0.01527
G1 X85.547 Y84.510 E0.73086
G1 X85.048 Y84.548 E0.01583
G1 X101.841 Y101.341 E0.75059
G1 X101.783 Y101.821 E0.01527
G1 X84.549 Y84.586 E0.77033
G1 X84.049 Y84.624 E0.01583
G1 X101.725 Y102.300 E0.79006
G1 X101.667 Y102.780 E0.01527
G1 X83.608 Y84.721 E0.80720
G1 X83.188 Y84.838 E0.01378
G1 X101.589 Y103.240 E0.82248
G1 X101.457 Y103.645 E0.01347
G1 X82.768 Y84.956 E0.83533
G1 X82.348 Y85.073 E0.01378
G1 X101.324 Y104.050 E0.84818
G1 X101.192 Y104.455 E0.01347
G1 X81.928 Y85.191 E0.86103
G1 X81.508 Y85.308 E0.01378
G1 X92.410 Y96.211 E0.48729
G1 X92.123 Y96.169 E0.00917
G1 X91.837 Y96.175 E0.00906
G1 X81.088 Y85.426 E0.48043
G1 X81.009 Y85.448 E0.00260
G1 X80.719 Y85.595 E0.01026
G1 X91.403 Y96.278 E0.47753
G1 X91.124 Y96.400 E0.00961
G1 X91.044 Y96.457 E0.00311
G1 X88.444 Y93.857 E0.11619
G1 X88.465 Y94.073 E0.00685
G1 X88.435 Y94.385 E0.00992
G1 X90.743 Y96.694 E0.10318
G1 X90.569 Y96.874 E0.00792
G1 X90.498 Y96.986 E0.00419
G1 X88.315 Y94.803 E0.09756
G1 X88.121 Y95.147 E0.01247
G1 X90.311 Y97.337 E0.09789
G1 X90.238 Y97.525 E0.00637
G1 X90.196 Y97.759 E0.00753
G1 X87.871 Y95.434 E0.10394
G1 X87.564 Y95.665 E0.01213
G1 X90.189 Y98.290 E0.11731
G1 X90.259 Y98.611 E0.01038
G1 X90.406 Y98.947 E0.01159
G1 X90.616 Y99.247 E0.01159
G1 X90.880 Y99.502 E0.01159
G1 X91.189 Y99.699 E0.01159
G1 X91.531 Y99.833 E0.01159
G1 X91.776 Y99.877 E0.00788
G1 X99.682 Y107.783 E0.35339
G1 X99.876 Y107.439 E0.01247
G1 X92.315 Y99.878 E0.33797
G1 X92.616 Y99.812 E0.00977
G1 X92.734 Y99.760 E0.00407
G1 X100.070 Y107.095 E0.32786
G1 X100.263 Y106.751 E0.01247
G1 X93.084 Y99.573 E0.32087
G1 X93.253 Y99.455 E0.00650
G1 X93.376 Y99.327 E0.00561
G1 X100.457 Y106.407 E0.31647
G1 X100.650 Y106.063 E0.01247
G1 X93.613 Y99.026 E0.31455
G1 X93.705 Y98.882 E0.00541
G1 X93.790 Y98.665 E0.00735
G1 X100.794 Y105.670 E0.31308
G1 X100.927 Y105.265 E0.01347
G1 X93.894 Y98.232 E0.31435
G1 X93.896 Y97.813 E0.01325
G1 X93.863 Y97.664 E0.00482
G1 X101.194 Y104.994 E0.32765
G1 E-0.80000 F2100.000
G1 Z0.800 F10800.000
G1 X90.993 Y114.683
G1 Z0.200
G1 E0.80000 F2100.000
G1 F1200.000
G1 X71.840 Y95.530 E0.85609
G1 X71.715 Y95.942 E0.01363
G1 X90.444 Y114.671 E0.83710
G1 X90.026 Y114.791 E0.01373
G1 X71.591 Y96.355 E0.82401
G1 X71.558 Y96.462 E0.00353
G1 X71.516 Y96.818 E0.01132
G1 X89.598 Y114.900 E0.80824
M73 Q2 S45
G1 X89.133 Y114.973 E0.01486
G1 X71.458 Y97.298 E0.79005
M73 P2 R45
G1 X71.400 Y97.777 E0.01527
G1 X88.634 Y115.012 E0.77032
G1 X88.135 Y115.050 E0.01583
G1 X71.342 Y98.257 E0.75059
G1 X71.284 Y98.737 E0.01527
G1 X87.636 Y115.088 E0.73085
G1 X87.136 Y115.126 E0.01583
G1 X71.227 Y99.217 E0.71112
G1 X71.197 Y99.465 E0.00790
G1 X71.218 Y99.746 E0.00891
G1 X86.637 Y115.165 E0.68918
G1 X86.257 Y115.194 E0.01203
G1 X86.111 Y115.176 E0.00466
G1 X71.263 Y100.328 E0.66367
M73 P2 R44
G1 X71.307 Y100.910 E0.01845
G1 X85.500 Y115.102 E0.63436
G1 X84.889 Y115.029 E0.01946
G1 X71.352 Y101.492 E0.60505
M73 Q2 S44
G1 X71.397 Y102.074 E0.01845
G1 X84.277 Y114.955 E0.57573
G1 X83.666 Y114.882 E0.01946
G1 X71.478 Y102.693 E0.54477
G1 X71.648 Y103.400 E0.02298
G1 X82.992 Y114.745 E0.50706
G1 X82.193 Y114.483 E0.02657
G1 X71.827 Y104.117 E0.46334
G1 X72.072 Y104.900 E0.02591
G1 X81.394 Y114.222 E0.41669
G1 X80.595 Y113.961 E0.02657
G1 X72.472 Y105.837 E0.36310
G1 X73.024 Y106.927 E0.03863
G1 X79.476 Y113.378 E0.28835
G1 X78.246 Y112.687 E0.04458
G1 X73.577 Y108.017 E0.20870
G1 X75.466 Y110.444 E0.09721
G1 X77.046 Y112.024 E0.07059
G1 E-0.80000 F2100.000
G1 Z0.800 F10800.000
G1 X81.544 Y104.696
G1 Z0.200
G1 E0.80000 F2100.000
G1 F1200.000
G1 X71.965 Y95.117 E0.42816
G1 X72.089 Y94.704 E0.01363
G1 X81.401 Y104.015 E0.41620
G1 X81.541 Y103.618 E0.01332
G1 X72.221 Y94.298 E0.41656
G1 X72.367 Y93.906 E0.01322
G1 X81.748 Y103.287 E0.41929
G1 X82.011 Y103.013 E0.01202
G1 X72.533 Y93.535 E0.42364
G1 X72.726 Y93.191 E0.01247
G1 X82.330 Y102.794 E0.42924
G1 X82.583 Y102.671 E0.00890
G1 X82.714 Y102.641 E0.00426
G1 X72.920 Y92.847 E0.43779
G1 X73.113 Y92.503 E0.01247
G1 X83.350 Y102.739 E0.45754
G1 X84.174 Y103.026 F10800.000
G1 F1200.000
G1 X80.839 Y99.691 E0.14905
G1 E-0.80000 F2100.000
G1 Z0.800 F10800.000
G1 X79.483 Y98.335
G1 Z0.200
G1 E0.80000 F2100.000
G1 F1200.000
G1 X73.307 Y92.159 E0.27605
G1 X73.500 Y91.815 E0.01247
G1 X79.325 Y97.640 E0.26036
G1 X79.367 Y97.448 E0.00619
G1 X79.460 Y97.237 E0.00730
G1 X73.694 Y91.471 E0.25772
G1 X73.888 Y91.127 E0.01247
G1 X79.662 Y96.901 E0.25809
G1 X79.724 Y96.811 E0.00345
G1 X79.921 Y96.622 E0.00862
G1 X74.111 Y90.812 E0.25970
G1 X74.359 Y90.523 E0.01205
G1 X80.235 Y96.399 E0.26266
G1 X80.611 Y96.237 E0.01292
G1 X74.607 Y90.233 E0.26834
G1 X74.855 Y89.944 E0.01205
G1 X81.073 Y96.162 E0.27791
G1 X81.368 Y96.169 E0.00933
G1 X81.688 Y96.239 E0.01036
G1 X75.103 Y89.655 E0.29430
G1 X75.352 Y89.365 E0.01205
G1 X88.887 Y102.901 E0.60501
M73 P3 R44
M73 Q3 S44
G1 X89.236 Y102.712 E0.01253
G1 X75.600 Y89.076 E0.60950
G1 X75.848 Y88.787 E0.01205
G1 X89.657 Y102.596 E0.61722
G1 X89.894 Y102.564 E0.00756
G1 X90.181 Y102.582 E0.00908
G1 X76.129 Y88.530 E0.62807
G1 X76.430 Y88.294 E0.01210
G1 X98.080 Y109.943 E0.96767
G1 X98.328 Y109.654 E0.01205
G1 X76.731 Y88.057 E0.96530
G1 X77.032 Y87.821 E0.01210
G1 X98.696 Y109.485 E0.96831
G1 E-0.80000 F2100.000
G1 Z0.800 F10800.000
G1 X97.952 Y110.353
G1 Z0.200
G1 E0.80000 F2100.000
G1 F1200.000
G1 X91.802 Y104.203 E0.27487
G1 X91.824 Y104.360 E0.00500
G1 X91.799 Y104.738 E0.01197
G1 X97.583 Y110.522 E0.25853
G1 X97.335 Y110.811 E0.01205
G1 X91.675 Y105.152 E0.25297
G1 X91.550 Y105.411 E0.00911
G1 X91.484 Y105.498 E0.00344
G1 X97.054 Y111.068 E0.24897
G1 X96.753 Y111.304 E0.01210
G1 X91.235 Y105.786 E0.24664
G1 X91.054 Y105.947 E0.00764
G1 X90.930 Y106.019 E0.00453
G1 X96.452 Y111.540 E0.24678
G1 X96.150 Y111.777 E0.01210
G1 X90.565 Y106.192 E0.24963
G1 X90.391 Y106.252 E0.00583
G1 X90.125 Y106.289 E0.00849
G1 X95.849 Y112.013 E0.25585
G1 X95.548 Y112.250 E0.01210
G1 X89.550 Y106.252 E0.26808
G1 X89.307 Y106.188 E0.00795
G1 X88.977 Y106.028 E0.01159
G1 X88.685 Y105.807 E0.01159
G1 X88.441 Y105.533 E0.01159
G1 X88.256 Y105.217 E0.01159
G1 X88.130 Y104.832 E0.01279
G1 X82.554 Y99.256 E0.24924
G1 X82.275 Y99.514 E0.01202
G1 X95.247 Y112.486 E0.57981
G1 X94.946 Y112.722 E0.01210
G1 X81.939 Y99.715 E0.58138
G1 X81.654 Y99.827 E0.00965
G1 X81.534 Y99.848 E0.00386
G1 X94.604 Y112.918 E0.58418
G1 X94.247 Y113.099 E0.01264
G1 X84.995 Y103.847 E0.41355
G1 X85.071 Y104.137 E0.00948
G1 X85.091 Y104.480 E0.01087
G1 X93.890 Y113.280 E0.39331
G1 X93.534 Y113.460 E0.01264
G1 X85.016 Y104.942 E0.38073
G1 X84.922 Y105.213 E0.00904
G1 X84.858 Y105.322 E0.00401
G1 X93.177 Y113.641 E0.37184
G1 X92.820 Y113.822 E0.01264
G1 X84.638 Y105.640 E0.36572
G1 X84.493 Y105.803 E0.00691
G1 X84.362 Y105.902 E0.00517
G1 X92.464 Y114.003 E0.36209
G1 X92.097 Y114.174 E0.01279
G1 X84.030 Y106.107 E0.36056
G1 X83.870 Y106.184 E0.00561
G1 X83.632 Y106.247 E0.00778
G1 X91.684 Y114.298 E0.35987
G1 X91.270 Y114.422 E0.01364
G1 X82.947 Y106.099 E0.37201
