; generated by PrusaSlicer 2.3.1+win64 on 2021-07-29 at 16:26:53 UTC

; 

; external perimeters extrusion width = 0.45mm
; perimeters extrusion width = 0.45mm
; infill extrusion width = 0.45mm
; solid infill extrusion width = 0.45mm
; top infill extrusion width = 0.40mm
; first layer extrusion width = 0.42mm

M73 P0 R46
M73 Q0 S47
M201 X1000 Y1000 Z1000 E5000 ; sets maximum accelerations, mm/sec^2
M203 X200 Y200 Z12 E120 ; sets maximum feedrates, mm/sec
M204 P1250 R1250 T1250 ; sets acceleration (P, T) and retract acceleration (R), mm/sec^2
M205 X8.00 Y8.00 Z0.40 E1.50 ; sets the jerk limits, mm/sec
M205 S0 T0 ; sets the minimum extruding and travel feed rate, mm/sec
M107
;TYPE:Custom
M862.3 P "MK3S" ; printer model check
M862.1 P0.4 ; nozzle diameter check
M115 U3.8.0 ; tell printer latest fw version
G90 ; use absolute coordinates
M83 ; extruder relative mode
M104 S215 ; set extruder temp
M140 S60 ; set bed temp
M190 S60 ; wait for bed temp
M109 S215 ; wait for extruder temp
G28 W ; home all without mesh bed level
G80 ; mesh bed leveling
G1 Y-3.0 F1000.0 ; go outside print area
G92 E0.0
G1 X60.0 E9.0 F1000.0 ; intro line
G1 X100.0 E12.5 F1000.0 ; intro line
G92 E0.0
M221 S95
G21 ; set units to millimeters
G90 ; use absolute coordinates
M83 ; use relative distances for extrusion
M900 K0.05 ; Filament gcode LA 1.5
M900 K30 ; Filament gcode LA 1.0
;LAYER_CHANGE
;Z:0.2
;HEIGHT:0.2
;BEFORE_LAYER_CHANGE
G92 E0.0
;0.2


G1 E-0.80000 F2100.000
G1 Z0.600 F10800.000
;AFTER_LAYER_CHANGE
;0.2
G1 X87.566 Y111.543
G1 Z0.200
G1 E0.80000 F2100.000
M204 S1000
;TYPE:External perimeter
;WIDTH:0.42
G1 F1200.000
G1 X87.387 Y111.206 E0.01197
G1 X87.308 Y110.906 E0.00975
G1 X87.289 Y110.595 E0.00975
G1 X87.331 Y110.287 E0.00975
G1 X87.432 Y109.993 E0.00975
G1 X87.589 Y109.724 E0.00975
G1 X87.795 Y109.492 E0.00975
G1 X88.042 Y109.303 E0.00975
G1 X88.325 Y109.166 E0.00986
G1 X88.680 Y109.084 E0.01142
G1 X88.933 Y109.069 E0.00795
G1 X89.241 Y109.111 E0.00975
G1 X89.535 Y109.212 E0.00975
G1 X89.804 Y109.369 E0.00975
G1 X90.037 Y109.575 E0.00975
G1 X90.225 Y109.823 E0.00975
G1 X90.361 Y110.102 E0.00975
G1 X90.440 Y110.403 E0.00975
G1 X90.459 Y110.713 E0.00975
G1 X90.417 Y111.022 E0.00975
G1 X90.316 Y111.316 E0.00975
G1 X90.159 Y111.584 E0.00975
G1 X89.953 Y111.817 E0.00975
G1 X89.706 Y112.005 E0.00975
G1 X89.426 Y112.142 E0.00975
G1 X89.125 Y112.221 E0.00975
G1 X88.815 Y112.240 E0.00975
G1 X88.507 Y112.198 E0.00975
G1 X88.213 Y112.096 E0.00975
G1 X87.944 Y111.940 E0.00975
G1 X87.711 Y111.734 E0.00975
G1 X87.603 Y111.591 E0.00562
G1 E-0.80000 F2100.000
G1 Z0.800 F10800.000
G1 X94.366 Y107.284
G1 Z0.200
G1 E0.80000 F2100.000
G1 F1200.000
G1 X94.294 Y107.327 E0.00261
G1 X94.000 Y107.429 E0.00975
G1 X93.692 Y107.472 E0.00975
G1 X93.382 Y107.455 E0.00975
G1 X93.081 Y107.377 E0.00975
G1 X92.801 Y107.242 E0.00975
G1 X92.552 Y107.055 E0.00975
G1 X92.345 Y106.823 E0.00975
G1 X92.188 Y106.554 E0.00975
G1 X92.085 Y106.261 E0.00975
G1 X92.042 Y105.953 E0.00975
G1 X92.059 Y105.642 E0.00975
G1 X92.137 Y105.341 E0.00975
G1 X92.272 Y105.061 E0.00975
G1 X92.460 Y104.813 E0.00975
G1 X92.692 Y104.606 E0.00975
G1 X92.960 Y104.448 E0.00975
G1 X93.253 Y104.345 E0.00975
G1 X93.504 Y104.310 E0.00795
G1 X93.868 Y104.319 E0.01142
G1 X94.173 Y104.398 E0.00986
G1 X94.453 Y104.533 E0.00975
G1 X94.701 Y104.720 E0.00975
G1 X94.908 Y104.952 E0.00975
G1 X95.066 Y105.220 E0.00975
G1 X95.169 Y105.514 E0.00975
G1 X95.212 Y105.822 E0.00975
G1 X95.194 Y106.132 E0.00975
G1 X95.116 Y106.433 E0.00975
G1 X94.981 Y106.714 E0.00975
G1 X94.794 Y106.962 E0.00975
G1 X94.562 Y107.169 E0.00975
G1 X94.417 Y107.254 E0.00526
G1 E-0.80000 F2100.000
G1 Z0.800 F10800.000
G1 X89.946 Y101.349
G1 Z0.200
G1 E0.80000 F2100.000
G1 F1200.000
G1 X89.845 Y101.309 E0.00342
G1 X89.582 Y101.142 E0.00975
G1 X89.358 Y100.927 E0.00975
G1 X89.179 Y100.672 E0.00975
G1 X89.054 Y100.387 E0.00975
G1 X88.987 Y100.084 E0.00975
G1 X88.980 Y99.773 E0.00975
G1 X89.034 Y99.467 E0.00975
G1 X89.147 Y99.177 E0.00975
G1 X89.314 Y98.915 E0.00975
G1 X89.529 Y98.690 E0.00975
G1 X89.784 Y98.512 E0.00975
G1 X90.068 Y98.386 E0.00975
G1 X90.372 Y98.319 E0.00975
G1 X90.626 Y98.313 E0.00795
G1 X90.986 Y98.365 E0.01142
G1 X91.279 Y98.479 E0.00986
G1 X91.541 Y98.646 E0.00975
G1 X91.766 Y98.861 E0.00975
G1 X91.944 Y99.116 E0.00975
G1 X92.070 Y99.401 E0.00975
G1 X92.137 Y99.704 E0.00975
G1 X92.144 Y100.015 E0.00975
G1 X92.090 Y100.322 E0.00975
G1 X91.977 Y100.611 E0.00975
G1 X91.810 Y100.874 E0.00975
G1 X91.595 Y101.098 E0.00975
G1 X91.340 Y101.277 E0.00975
G1 X91.055 Y101.402 E0.00975
G1 X90.752 Y101.469 E0.00975
G1 X90.441 Y101.476 E0.00975
G1 X90.134 Y101.422 E0.00975
G1 X90.002 Y101.370 E0.00445
G1 E-0.80000 F2100.000
G1 Z0.800 F10800.000
G1 X84.945 Y102.154
G1 Z0.200
G1 E0.80000 F2100.000
G1 F1200.000
G1 X84.799 Y102.274 E0.00593
G1 X84.525 Y102.422 E0.00975
G1 X84.227 Y102.512 E0.00975
G1 X83.918 Y102.544 E0.00975
G1 X83.609 Y102.514 E0.00975
G1 X83.311 Y102.424 E0.00975
G1 X83.036 Y102.278 E0.00975
G1 X82.795 Y102.081 E0.00975
G1 X82.598 Y101.841 E0.00975
G1 X82.450 Y101.567 E0.00975
G1 X82.360 Y101.270 E0.00975
G1 X82.328 Y100.960 E0.00975
G1 X82.358 Y100.651 E0.00975
G1 X82.448 Y100.353 E0.00975
G1 X82.594 Y100.078 E0.00975
G1 X82.791 Y99.838 E0.00975
G1 X83.031 Y99.640 E0.00975
G1 X83.308 Y99.491 E0.00986
G1 X83.659 Y99.396 E0.01142
G1 X83.912 Y99.371 E0.00795
G1 X84.221 Y99.400 E0.00975
G1 X84.519 Y99.490 E0.00975
G1 X84.793 Y99.636 E0.00975
G1 X85.034 Y99.833 E0.00975
G1 X85.232 Y100.073 E0.00975
G1 X85.379 Y100.347 E0.00975
G1 X85.470 Y100.644 E0.00975
G1 X85.501 Y100.954 E0.00975
G1 X85.471 Y101.263 E0.00975
G1 X85.382 Y101.561 E0.00975
G1 X85.236 Y101.836 E0.00975
G1 X84.991 Y102.116 E0.01166
G1 E-0.80000 F2100.000
G1 Z0.800 F10800.000
G1 X81.973 Y106.308
G1 Z0.200
G1 E0.80000 F2100.000
G1 F1200.000
G1 X82.148 Y106.195 E0.00654
G1 X82.438 Y106.081 E0.00975
G1 X82.687 Y106.036 E0.00795
G1 X83.051 Y106.031 E0.01142
G1 X83.359 Y106.097 E0.00986
G1 X83.644 Y106.222 E0.00975
G1 X83.900 Y106.399 E0.00975
G1 X84.115 Y106.623 E0.00975
G1 X84.284 Y106.884 E0.00975
G1 X84.398 Y107.173 E0.00975
G1 X84.453 Y107.480 E0.00975
G1 X84.447 Y107.790 E0.00975
G1 X84.382 Y108.094 E0.00975
G1 X84.257 Y108.380 E0.00975
G1 X84.080 Y108.635 E0.00975
G1 X83.856 Y108.851 E0.00975
G1 X83.595 Y109.019 E0.00975
G1 X83.305 Y109.133 E0.00975
G1 X82.999 Y109.189 E0.00975
G1 X82.688 Y109.183 E0.00975
G1 X82.385 Y109.117 E0.00975
G1 X82.099 Y108.993 E0.00975
G1 X81.844 Y108.816 E0.00975
G1 X81.628 Y108.592 E0.00975
G1 X81.460 Y108.330 E0.00975
G1 X81.346 Y108.041 E0.00975
G1 X81.290 Y107.735 E0.00975
G1 X81.296 Y107.424 E0.00975
G1 X81.362 Y107.120 E0.00975
G1 X81.486 Y106.835 E0.00975
G1 X81.663 Y106.579 E0.00975
G1 X81.923 Y106.340 E0.01106
G1 E-0.80000 F2100.000
G1 Z0.800 F10800.000
G1 X101.247 Y96.778
G1 Z0.200
G1 E0.80000 F2100.000
G1 F1200.000
G1 X101.801 Y97.607 E0.03126
G1 X102.977 Y100.448 E0.09639
G1 X103.577 Y103.463 E0.09639
G1 X103.577 Y106.537 E0.09639
G1 X102.976 Y109.559 E0.09661
G1 X102.725 Y110.302 E0.02458
G1 X102.490 Y110.868 E0.01921
G1 X101.802 Y112.390 E0.05236
G1 X100.093 Y114.949 E0.09650
G1 X97.919 Y117.123 E0.09639
G1 X95.363 Y118.831 E0.09639
G1 X92.522 Y120.007 E0.09639
G1 X89.507 Y120.607 E0.09639
G1 X86.431 Y120.607 E0.09644
G1 X83.876 Y120.138 E0.08147
G1 X83.425 Y120.010 E0.01468
G1 X80.640 Y118.863 E0.09443
G1 X78.021 Y117.123 E0.09861
G1 X75.847 Y114.949 E0.09638
G1 X74.139 Y112.393 E0.09639
G1 X72.963 Y109.552 E0.09639
G1 X72.363 Y106.537 E0.09639
G1 X72.363 Y103.456 E0.09659
G1 X72.490 Y102.528 E0.02939
G1 X72.609 Y101.927 E0.01922
G1 X72.961 Y100.451 E0.04756
G1 X74.139 Y97.607 E0.09652
G1 X75.848 Y95.049 E0.09647
G1 X77.155 Y93.681 E0.05930
G1 X77.588 Y93.248 E0.01921
G1 X78.014 Y92.882 E0.01762
G1 X80.577 Y91.169 E0.09664
G1 X83.417 Y89.993 E0.09639
G1 X86.433 Y89.393 E0.09639
G1 X89.507 Y89.393 E0.09639
G1 X92.522 Y89.993 E0.09640
G1 X95.304 Y91.139 E0.09433
G1 X97.872 Y92.839 E0.09655
G1 X100.093 Y95.051 E0.09830
G1 X101.213 Y96.728 E0.06324
G1 E-0.80000 F2100.000
G1 Z0.800 F10800.000
G1 X100.490 Y95.850
G1 Z0.200
G1 E0.80000 F2100.000
;TYPE:Solid infill
;WIDTH:0.42128
G1 F1200.000
G1 X97.692 Y93.059 E0.12433
G1 X96.131 Y92.025 E0.05891
G1 X100.953 Y96.847 E0.21454
G1 X101.550 Y97.741 E0.03383
G1 X101.719 Y98.148 E0.01386
G1 X94.812 Y91.242 E0.30727
G1 X93.902 Y90.867 E0.03096
G1 X102.097 Y99.062 E0.36459
G1 X102.475 Y99.975 E0.03111
G1 X92.992 Y90.492 E0.42191
G1 X92.440 Y90.265 E0.01879
G1 X92.178 Y90.213 E0.00842
G1 X102.757 Y100.792 E0.47071
G1 X102.890 Y101.460 E0.02143
G1 X91.510 Y90.080 E0.50634
G1 X90.842 Y89.947 E0.02143
G1 X103.023 Y102.128 E0.54197
G1 X103.156 Y102.796 E0.02143
G1 X90.174 Y89.814 E0.57760
M73 Q0 S46
G1 X89.506 Y89.681 E0.02143
G1 X103.289 Y103.464 E0.61323
G1 X103.294 Y104.004 E0.01700
G1 X88.965 Y89.676 E0.63751
G1 X88.430 Y89.676 E0.01683
G1 X103.294 Y104.539 E0.66132
G1 X103.294 Y105.075 E0.01683
G1 X87.895 Y89.676 E0.68513
G1 X87.360 Y89.676 E0.01683
G1 X103.294 Y105.610 E0.70893
M73 P1 R46
M73 Q1 S46
G1 X103.294 Y106.145 E0.01683
G1 X86.825 Y89.676 E0.73274
G1 X86.461 Y89.676 E0.01147
G1 X86.318 Y89.704 E0.00456
G1 X103.266 Y106.651 E0.75403
G1 X103.177 Y107.098 E0.01432
G1 X85.872 Y89.793 E0.76994
G1 X85.426 Y89.882 E0.01432
G1 X103.088 Y107.544 E0.78585
G1 X102.999 Y107.990 E0.01432
G1 X84.979 Y89.970 E0.80175
G1 X84.533 Y90.059 E0.01432
G1 X102.911 Y108.437 E0.81766
G1 X102.822 Y108.883 E0.01432
G1 X84.087 Y90.148 E0.83357
G1 X83.641 Y90.237 E0.01432
G1 X102.733 Y109.329 E0.84947
G1 X102.702 Y109.486 E0.00503
G1 X102.614 Y109.745 E0.00861
G1 X92.385 Y99.516 E0.45513
G1 X92.419 Y99.670 E0.00497
G1 X92.419 Y100.085 E0.01304
G1 X102.479 Y110.145 E0.44761
G1 X102.325 Y110.527 E0.01294
G1 X92.317 Y100.518 E0.44531
G1 X92.230 Y100.740 E0.00749
G1 X92.142 Y100.879 E0.00517
G1 X102.165 Y110.901 E0.44593
G1 X101.998 Y111.270 E0.01272
G1 X91.908 Y101.180 E0.44893
G1 X91.780 Y101.314 E0.00585
G1 X91.619 Y101.426 E0.00615
G1 X101.832 Y111.638 E0.45436
G1 X101.665 Y112.007 E0.01272
G1 X95.494 Y105.836 E0.27456
G1 X95.475 Y106.176 E0.01072
G1 X95.439 Y106.316 E0.00454
G1 X101.483 Y112.360 E0.26890
G1 X101.268 Y112.680 E0.01214
G1 X95.297 Y106.709 E0.26567
G1 X95.224 Y106.862 E0.00532
G1 X95.091 Y107.038 E0.00695
G1 X101.054 Y113.001 E0.26532
G1 X100.840 Y113.322 E0.01214
G1 X94.828 Y107.310 E0.26746
G1 X94.730 Y107.399 E0.00417
G1 X94.510 Y107.527 E0.00800
G1 X100.625 Y113.643 E0.27207
M73 P1 R45
G1 X100.411 Y113.963 E0.01214
G1 X94.131 Y107.683 E0.27942
G1 X93.667 Y107.754 E0.01477
G1 X100.197 Y114.284 E0.29053
G1 X99.982 Y114.605 E0.01214
G1 X93.035 Y107.657 E0.30912
G1 X92.653 Y107.484 E0.01319
G1 X92.360 Y107.264 E0.01154
G1 X92.116 Y106.990 E0.01154
G1 X91.930 Y106.674 E0.01154
G1 X91.864 Y106.487 E0.00624
G1 X78.365 Y92.987 E0.60061
G1 X78.059 Y93.216 E0.01203
G1 X83.931 Y99.088 E0.26126
G1 X83.608 Y99.117 E0.01020
G1 X83.463 Y99.156 E0.00471
G1 X77.772 Y93.464 E0.25323
G1 X77.504 Y93.732 E0.01190
G1 X83.070 Y99.298 E0.24763
G1 X82.872 Y99.404 E0.00706
G1 X82.746 Y99.508 E0.00517
G1 X77.239 Y94.002 E0.24498
G1 X76.978 Y94.276 E0.01191
G1 X82.477 Y99.775 E0.24465
G1 X82.357 Y99.921 E0.00595
G1 X82.264 Y100.097 E0.00626
G1 X76.717 Y94.550 E0.24681
G1 X76.455 Y94.823 E0.01191
G1 X82.114 Y100.482 E0.25176
G1 X82.079 Y100.596 E0.00375
G1 X82.045 Y100.948 E0.01114
G1 X76.194 Y95.097 E0.26035
G1 X76.070 Y95.227 E0.00565
G1 X75.957 Y95.395 E0.00638
G1 X82.166 Y101.604 E0.27624
G1 X82.362 Y101.999 E0.01388
G1 X82.595 Y102.283 E0.01154
G1 X82.879 Y102.515 E0.01154
G1 X83.269 Y102.707 E0.01367
G1 X89.443 Y108.881 E0.27473
G1 X89.307 Y108.834 E0.00454
G1 X88.944 Y108.785 E0.01154
G1 X88.819 Y108.793 E0.00391
G1 X75.743 Y95.716 E0.58180
G1 X75.529 Y96.037 E0.01214
G1 X88.359 Y108.868 E0.57087
G1 X88.230 Y108.897 E0.00416
G1 X87.977 Y109.021 E0.00886
G1 X75.314 Y96.358 E0.56340
M73 P2 R45
M73 Q2 S46
G1 X75.100 Y96.678 E0.01214
G1 X87.660 Y109.239 E0.55884
G1 X87.399 Y109.512 E0.01191
G1 X74.886 Y96.999 E0.55674
G1 X74.671 Y97.320 E0.01214
G1 X83.104 Y105.753 E0.37520
G1 X82.584 Y105.767 E0.01638
G1 X74.457 Y97.641 E0.36158
G1 X74.390 Y97.741 E0.00381
G1 X74.282 Y98.001 E0.00884
G1 X82.166 Y105.884 E0.35076
G1 X82.019 Y105.942 E0.00496
G1 X81.818 Y106.072 E0.00753
G1 X74.125 Y98.379 E0.34225
G1 X73.969 Y98.758 E0.01288
G1 X81.528 Y106.317 E0.33633
G1 X81.447 Y106.395 E0.00355
G1 X81.293 Y106.617 E0.00849
G1 X73.812 Y99.136 E0.33285
G1 X73.655 Y99.514 E0.01288
G1 X81.116 Y106.975 E0.33196
G1 X81.013 Y107.408 E0.01397
G1 X73.499 Y99.893 E0.33435
G1 X73.342 Y100.271 E0.01288
G1 X81.046 Y107.976 E0.34280
G1 X81.072 Y108.119 E0.00457
G1 X81.207 Y108.460 E0.01154
G1 X81.405 Y108.768 E0.01154
G1 X81.660 Y109.032 E0.01154
G1 X81.961 Y109.241 E0.01154
G1 X82.297 Y109.388 E0.01154
G1 X82.503 Y109.432 E0.00662
G1 X92.699 Y119.628 E0.45364
G1 X93.077 Y119.471 E0.01288
G1 X83.069 Y109.463 E0.44528
G1 X83.383 Y109.407 E0.01004
G1 X83.501 Y109.360 E0.00399
G1 X93.456 Y119.315 E0.44290
G1 X93.834 Y119.158 E0.01288
G1 X83.861 Y109.185 E0.44373
G1 X84.033 Y109.074 E0.00644
G1 X84.161 Y108.950 E0.00561
G1 X94.212 Y119.001 E0.44720
G1 X94.591 Y118.844 E0.01288
G1 X84.407 Y108.661 E0.45311
G1 X84.506 Y108.518 E0.00546
G1 X84.595 Y108.313 E0.00702
G1 X87.014 Y110.733 E0.10763
G1 X87.005 Y110.585 E0.00466
G1 X87.052 Y110.236 E0.01108
G1 X84.714 Y107.897 E0.10405
G1 X84.736 Y107.457 E0.01388
G1 X84.720 Y107.369 E0.00280
G1 X87.321 Y109.969 E0.11569
G1 E-0.80000 F2100.000
G1 Z0.800 F10800.000
G1 X88.607 Y112.326
G1 Z0.200
G1 E0.80000 F2100.000
G1 F1200.000
G1 X94.969 Y118.688 E0.28307
G1 X95.229 Y118.580 E0.00884
G1 X95.329 Y118.513 E0.00381
G1 X89.287 Y112.471 E0.26883
G1 X89.525 Y112.408 E0.00775
G1 X89.683 Y112.331 E0.00551
G1 X95.650 Y118.299 E0.26550
G1 X95.971 Y118.084 E0.01214
G1 X90.013 Y112.127 E0.26506
G1 X90.147 Y112.025 E0.00527
G1 X90.288 Y111.866 E0.00669
G1 X96.292 Y117.870 E0.26713
G1 X96.612 Y117.656 E0.01214
G1 X90.507 Y111.550 E0.27165
G1 X90.574 Y111.434 E0.00423
G1 X90.664 Y111.173 E0.00869
G1 X96.933 Y117.441 E0.27890
G1 X97.254 Y117.227 E0.01214
G1 X90.743 Y110.716 E0.28969
G1 X90.721 Y110.358 E0.01129
G1 X90.650 Y110.088 E0.00878
G1 X97.575 Y117.013 E0.30809
G1 X97.739 Y116.903 E0.00620
G1 X97.869 Y116.772 E0.00582
G1 X83.924 Y102.827 E0.62045
G1 X84.284 Y102.791 E0.01136
G1 X84.390 Y102.758 E0.00351
G1 X98.137 Y116.505 E0.61161
G1 X98.404 Y116.237 E0.01190
G1 X84.775 Y102.608 E0.60639
G1 X84.957 Y102.510 E0.00650
G1 X85.097 Y102.395 E0.00570
G1 X98.672 Y115.970 E0.60397
G1 X98.939 Y115.702 E0.01190
G1 X85.364 Y102.126 E0.60402
G1 X85.472 Y101.993 E0.00541
G1 X85.574 Y101.802 E0.00682
G1 X99.207 Y115.435 E0.60656
G1 X99.475 Y115.167 E0.01190
G1 X85.721 Y101.414 E0.61191
G1 X85.750 Y101.318 E0.00315
G1 X85.784 Y100.942 E0.01189
G1 X99.862 Y115.020 E0.62635
G1 E-0.80000 F2100.000
G1 Z0.800 F10800.000
G1 X92.443 Y119.908
G1 Z0.200
G1 E0.80000 F2100.000
G1 F1200.000
G1 X73.201 Y100.665 E0.85614
G1 X73.098 Y101.097 E0.01397
G1 X91.853 Y119.852 E0.83445
M73 P3 R45
M73 Q2 S45
G1 X91.406 Y119.941 E0.01432
G1 X72.995 Y101.529 E0.81917
M73 Q3 S45
G1 X72.892 Y101.961 E0.01397
G1 X90.960 Y120.030 E0.80390
G1 X90.514 Y120.118 E0.01432
G1 X72.802 Y102.407 E0.78803
G1 X72.729 Y102.868 E0.01470
G1 X90.067 Y120.207 E0.77144
G1 X89.621 Y120.296 E0.01432
G1 X72.664 Y103.339 E0.75445
G1 X72.646 Y103.476 E0.00434
G1 X72.646 Y103.856 E0.01195
G1 X89.114 Y120.324 E0.73273
G1 X88.579 Y120.324 E0.01683
G1 X72.646 Y104.391 E0.70892
G1 X72.646 Y104.926 E0.01683
G1 X88.044 Y120.324 E0.68512
G1 X87.509 Y120.324 E0.01683
G1 X72.646 Y105.461 E0.66131
G1 X72.646 Y105.996 E0.01683
G1 X86.974 Y120.324 E0.63750
G1 X86.435 Y120.320 E0.01696
G1 X72.651 Y106.536 E0.61328
G1 X72.784 Y107.204 E0.02143
G1 X85.779 Y120.200 E0.57820
G1 X85.124 Y120.079 E0.02097
G1 X72.917 Y107.872 E0.54313
G1 X73.050 Y108.540 E0.02143
G1 X84.468 Y119.959 E0.50805
G1 X83.796 Y119.821 E0.02161
G1 X73.182 Y109.208 E0.47220
G1 X73.235 Y109.470 E0.00840
G1 X73.465 Y110.025 E0.01891
G1 X82.947 Y119.508 E0.42190
G1 X82.037 Y119.133 E0.03095
