; generated by PrusaSlicer 2.2.0+win64 on 2020-08-17 at 19:35:48 UTC

; 

; external perimeters extrusion width = 0.45mm
; perimeters extrusion width = 0.45mm
; infill extrusion width = 0.45mm
; solid infill extrusion width = 0.45mm
; top infill extrusion width = 0.40mm
; first layer extrusion width = 0.42mm

M73 P0 R34
M73 Q0 S34
M201 X1000 Y1000 Z1000 E5000 ; sets maximum accelerations, mm/sec^2
M203 X200 Y200 Z12 E120 ; sets maximum feedrates, mm/sec
M204 P1250 R1250 T1250 ; sets acceleration (P, T) and retract acceleration (R), mm/sec^2
M205 X8.00 Y8.00 Z0.40 E1.50 ; sets the jerk limits, mm/sec
M205 S0 T0 ; sets the minimum extruding and travel feed rate, mm/sec
M107
M862.3 P "MK3S" ; printer model check
M862.1 P0.4 ; nozzle diameter check
M115 U3.8.0 ; tell printer latest fw version
G90 ; use absolute coordinates
M83 ; extruder relative mode
M104 S215 ; set extruder temp
M140 S60 ; set bed temp
M190 S60 ; wait for bed temp
M109 S215 ; wait for extruder temp
G28 W ; home all without mesh bed level
G80 ; mesh bed leveling
G1 Y-3.0 F1000.0 ; go outside print area
G92 E0.0
G1 X60.0 E9.0 F1000.0 ; intro line
M73 Q0 S34
M73 P0 R34
G1 X100.0 E12.5 F1000.0 ; intro line
G92 E0.0
M221 S95
G21 ; set units to millimeters
G90 ; use absolute coordinates
M83 ; use relative distances for extrusion
M900 K0.06 ; Filament gcode LA 1.5
M900 K30 ; Filament gcode LA 1.0
;BEFORE_LAYER_CHANGE
G92 E0.0
;0.2


G1 E-0.80000 F2100.00000
G1 Z0.600 F10800.000
;AFTER_LAYER_CHANGE
;0.2
G1 X94.699 Y79.756
G1 Z0.200
G1 E0.80000 F2100.00000
M204 S1000
G1 F1200.000
G1 X95.490 Y79.614 E0.02520
G1 X154.493 Y79.614 E1.85000
G1 X155.388 Y79.790 E0.02860
G1 X156.148 Y80.288 E0.02849
G1 X156.666 Y81.035 E0.02849
G1 X156.866 Y81.921 E0.02849
G1 X156.866 Y128.052 E1.44640
G1 X156.801 Y128.565 E0.01621
G1 X156.628 Y129.048 E0.01609
G1 X156.355 Y129.483 E0.01609
G1 X155.996 Y129.849 E0.01609
G1 X155.297 Y130.246 E0.02520
G1 X154.510 Y130.387 E0.02508
G1 X95.499 Y130.387 E1.85024
G1 X94.978 Y130.327 E0.01645
G1 X94.486 Y130.155 E0.01633
G1 X94.044 Y129.881 E0.01633
G1 X93.672 Y129.516 E0.01633
G1 X93.277 Y128.825 E0.02496
G1 X93.134 Y128.038 E0.02508
G1 X93.133 Y81.975 E1.44425
G1 X93.194 Y81.458 E0.01633
G1 X93.365 Y80.966 E0.01633
G1 X93.638 Y80.527 E0.01621
G1 X94.001 Y80.154 E0.01633
G1 X94.647 Y79.786 E0.02332
G1 E-0.80000 F2100.00000
G1 Z0.800 F10800.000
G1 X96.298 Y82.777
G1 Z0.200
G1 E0.80000 F2100.00000
G1 F1200.000
G1 X97.869 Y82.761 E0.04927
G1 X97.794 Y83.919 E0.03638
G1 X97.790 Y87.836 E0.12283
G1 X102.365 Y87.836 E0.14346
G1 X102.361 Y83.919 E0.12283
G1 X102.286 Y82.758 E0.03647
G1 X103.505 Y82.778 E0.03821
G1 X153.702 Y82.778 E1.57391
G1 X153.702 Y88.208 E0.17026
G1 X96.298 Y88.208 E1.79989
G1 X96.298 Y82.837 E0.16841
G1 E-0.80000 F2100.00000
G1 Z0.800 F10800.000
G1 X98.250 Y82.709
G1 Z0.200
G1 E0.80000 F2100.00000
G1 F1200.000
G1 X101.905 Y82.709 E0.11461
G1 X101.984 Y83.931 E0.03842
G1 X101.988 Y87.459 E0.11062
G1 X98.167 Y87.459 E0.11979
G1 X98.171 Y83.931 E0.11062
G1 X98.246 Y82.768 E0.03653
G1 X98.252 Y82.309 F10800.000
G1 E-0.80000 F2100.00000
G1 Z0.800 F10800.000
G1 X95.920 Y82.400
G1 Z0.200
G1 E0.80000 F2100.00000
G1 F1200.000
G1 X97.514 Y82.397 E0.04996
G1 X98.023 Y82.378 E0.01598
G1 X98.519 Y82.333 E0.01561
G1 X101.501 Y82.331 E0.09350
G1 X102.502 Y82.391 E0.03144
G1 X103.507 Y82.401 E0.03150
G1 X154.080 Y82.401 E1.58568
G1 X154.080 Y88.585 E0.19390
G1 X95.920 Y88.585 E1.82354
G1 X95.920 Y82.460 E0.19203
G1 X96.320 Y82.414 F10800.000
G1 E-0.80000 F2100.00000
G1 Z0.800 F10800.000
G1 X97.700 Y83.618
G1 Z0.200
G1 E0.80000 F2100.00000
G1 F1200.000
G1 X97.134 Y83.051 E0.02604
G1 X96.586 Y83.057 E0.01779
G1 X97.512 Y83.982 E0.04252
G1 X97.511 Y84.534 E0.01795
G1 X96.580 Y83.603 E0.04277
G1 X96.580 Y84.156 E0.01797
G1 X97.510 Y85.086 E0.04275
G1 X97.510 Y85.638 E0.01795
G1 X96.580 Y84.709 E0.04272
G1 X96.580 Y85.262 E0.01797
G1 X97.509 Y86.190 E0.04269
G1 X97.508 Y86.743 E0.01795
G1 X96.580 Y85.815 E0.04266
G1 X96.580 Y86.367 E0.01797
G1 X97.508 Y87.295 E0.04263
G1 X97.507 Y87.847 E0.01795
G1 X96.580 Y86.920 E0.04260
G1 X96.580 Y87.473 E0.01797
G1 X97.202 Y88.095 E0.02858
G1 E-0.80000 F2100.00000
G1 Z0.800 F10800.000
G1 X102.478 Y87.326
G1 Z0.200
G1 E0.80000 F2100.00000
G1 F1200.000
G1 X103.077 Y87.925 E0.02675
G1 X103.614 Y87.925 E0.01696
G1 X102.647 Y86.958 E0.04317
G1 X102.647 Y86.421 E0.01698
G1 X104.151 Y87.925 E0.06718
G1 X104.688 Y87.925 E0.01696
G1 X102.646 Y85.883 E0.09119
G1 X102.645 Y85.345 E0.01698
G1 X105.225 Y87.925 E0.11520
G1 X105.762 Y87.925 E0.01696
G1 X102.645 Y84.808 E0.13921
G1 X102.644 Y84.270 E0.01698
G1 X106.299 Y87.925 E0.16322
G1 X106.836 Y87.925 E0.01696
G1 X102.632 Y83.720 E0.18776
G1 X102.595 Y83.146 E0.01816
G1 X107.373 Y87.925 E0.21339
G1 X107.910 Y87.925 E0.01696
G1 X103.036 Y83.051 E0.21767
G1 X103.573 Y83.051 E0.01696
G1 X108.447 Y87.925 E0.21766
G1 X108.985 Y87.925 E0.01696
G1 X104.110 Y83.051 E0.21766
G1 X104.647 Y83.051 E0.01696
G1 X109.522 Y87.925 E0.21766
G1 X110.059 Y87.925 E0.01696
G1 X105.185 Y83.051 E0.21765
G1 X105.722 Y83.051 E0.01696
G1 X110.596 Y87.925 E0.21765
G1 X111.133 Y87.925 E0.01696
G1 X106.259 Y83.051 E0.21764
G1 X106.796 Y83.051 E0.01696
G1 X111.670 Y87.925 E0.21764
G1 X112.207 Y87.925 E0.01696
G1 X107.333 Y83.052 E0.21763
G1 X107.870 Y83.052 E0.01696
G1 X112.744 Y87.925 E0.21763
G1 X113.281 Y87.925 E0.01696
G1 X108.407 Y83.052 E0.21762
G1 X108.945 Y83.052 E0.01696
G1 X113.818 Y87.925 E0.21762
G1 X114.355 Y87.925 E0.01696
G1 X109.482 Y83.052 E0.21761
G1 X110.019 Y83.052 E0.01696
G1 X114.892 Y87.925 E0.21761
G1 X115.429 Y87.925 E0.01696
G1 X110.556 Y83.052 E0.21760
G1 X111.093 Y83.052 E0.01696
G1 X115.966 Y87.925 E0.21760
G1 X116.503 Y87.925 E0.01696
G1 X111.630 Y83.052 E0.21759
G1 X112.168 Y83.052 E0.01696
G1 X117.040 Y87.925 E0.21759
G1 X117.577 Y87.925 E0.01696
G1 X112.705 Y83.053 E0.21758
G1 X113.242 Y83.053 E0.01696
G1 X118.114 Y87.925 E0.21758
G1 X118.651 Y87.925 E0.01696
G1 X113.779 Y83.053 E0.21758
G1 X114.316 Y83.053 E0.01696
G1 X119.188 Y87.925 E0.21757
G1 X119.725 Y87.925 E0.01696
G1 X114.853 Y83.053 E0.21757
G1 X115.390 Y83.053 E0.01696
G1 X120.262 Y87.925 E0.21756
G1 X120.799 Y87.925 E0.01696
G1 X115.928 Y83.053 E0.21756
G1 X116.465 Y83.053 E0.01696
G1 X121.337 Y87.925 E0.21755
G1 X121.874 Y87.925 E0.01696
G1 X117.002 Y83.053 E0.21755
G1 X117.539 Y83.054 E0.01696
G1 X122.411 Y87.925 E0.21754
G1 X122.948 Y87.925 E0.01696
G1 X118.076 Y83.054 E0.21754
G1 X118.613 Y83.054 E0.01696
G1 X123.485 Y87.925 E0.21753
G1 X124.022 Y87.925 E0.01696
G1 X119.151 Y83.054 E0.21753
G1 X119.688 Y83.054 E0.01696
G1 X124.559 Y87.925 E0.21752
G1 X125.096 Y87.925 E0.01696
G1 X120.225 Y83.054 E0.21752
G1 X120.762 Y83.054 E0.01696
G1 X125.633 Y87.925 E0.21751
G1 X126.170 Y87.925 E0.01696
G1 X121.299 Y83.054 E0.21751
G1 X121.836 Y83.054 E0.01696
G1 X126.707 Y87.925 E0.21750
G1 X127.244 Y87.925 E0.01696
G1 X122.373 Y83.054 E0.21750
G1 X122.911 Y83.055 E0.01696
G1 X127.781 Y87.925 E0.21749
G1 X128.318 Y87.925 E0.01696
G1 X123.448 Y83.055 E0.21749
G1 X123.985 Y83.055 E0.01696
G1 X128.855 Y87.925 E0.21749
G1 X129.392 Y87.925 E0.01696
G1 X124.522 Y83.055 E0.21748
G1 X125.059 Y83.055 E0.01696
G1 X129.929 Y87.925 E0.21748
G1 X130.466 Y87.925 E0.01696
G1 X125.596 Y83.055 E0.21747
G1 X126.133 Y83.055 E0.01696
G1 X131.003 Y87.925 E0.21747
G1 X131.540 Y87.925 E0.01696
G1 X126.671 Y83.055 E0.21746
G1 X127.208 Y83.055 E0.01696
G1 X132.077 Y87.925 E0.21746
G1 X132.614 Y87.925 E0.01696
G1 X127.745 Y83.056 E0.21745
G1 X128.282 Y83.056 E0.01696
G1 X133.152 Y87.925 E0.21745
G1 X133.689 Y87.925 E0.01696
G1 X128.819 Y83.056 E0.21744
G1 X129.356 Y83.056 E0.01696
G1 X134.226 Y87.925 E0.21744
G1 X134.763 Y87.925 E0.01696
G1 X129.894 Y83.056 E0.21743
G1 X130.431 Y83.056 E0.01696
G1 X135.300 Y87.925 E0.21743
G1 X135.837 Y87.925 E0.01696
G1 X130.968 Y83.056 E0.21742
G1 X131.505 Y83.056 E0.01696
G1 X136.374 Y87.925 E0.21742
G1 X136.911 Y87.925 E0.01696
G1 X132.042 Y83.056 E0.21741
G1 X132.579 Y83.056 E0.01696
G1 X137.448 Y87.925 E0.21741
G1 X137.985 Y87.925 E0.01696
G1 X133.116 Y83.057 E0.21741
G1 X133.654 Y83.057 E0.01696
G1 X138.522 Y87.925 E0.21740
G1 X139.059 Y87.925 E0.01696
G1 X134.191 Y83.057 E0.21740
G1 X134.728 Y83.057 E0.01696
G1 X139.596 Y87.925 E0.21739
G1 X140.133 Y87.925 E0.01696
G1 X135.265 Y83.057 E0.21739
G1 X135.802 Y83.057 E0.01696
G1 X140.670 Y87.925 E0.21738
G1 X141.207 Y87.925 E0.01696
G1 X136.339 Y83.057 E0.21738
G1 X136.876 Y83.057 E0.01696
G1 X141.744 Y87.925 E0.21737
G1 X142.281 Y87.925 E0.01696
G1 X137.414 Y83.057 E0.21737
G1 X137.951 Y83.058 E0.01696
G1 X142.818 Y87.925 E0.21736
G1 X143.355 Y87.925 E0.01696
G1 X138.488 Y83.058 E0.21736
G1 X139.025 Y83.058 E0.01696
G1 X143.892 Y87.925 E0.21735
G1 X144.429 Y87.925 E0.01696
G1 X139.562 Y83.058 E0.21735
G1 X140.099 Y83.058 E0.01696
M73 Q3 S33
G1 X144.966 Y87.925 E0.21734
M73 P3 R33
G1 X145.504 Y87.925 E0.01696
G1 X140.637 Y83.058 E0.21734
G1 X141.174 Y83.058 E0.01696
G1 X146.041 Y87.925 E0.21733
G1 X146.578 Y87.925 E0.01696
G1 X141.711 Y83.058 E0.21733
G1 X142.248 Y83.058 E0.01696
G1 X147.115 Y87.925 E0.21733
G1 X147.652 Y87.925 E0.01696
G1 X142.785 Y83.058 E0.21732
G1 X143.322 Y83.059 E0.01696
G1 X148.189 Y87.925 E0.21732
G1 X148.726 Y87.925 E0.01696
G1 X143.859 Y83.059 E0.21731
G1 X144.397 Y83.059 E0.01696
G1 X149.263 Y87.925 E0.21731
G1 X149.800 Y87.925 E0.01696
G1 X144.934 Y83.059 E0.21730
G1 X145.471 Y83.059 E0.01696
G1 X150.337 Y87.925 E0.21730
G1 X150.874 Y87.925 E0.01696
G1 X146.008 Y83.059 E0.21729
G1 X146.545 Y83.059 E0.01696
G1 X151.411 Y87.925 E0.21729
G1 X151.948 Y87.925 E0.01696
G1 X147.082 Y83.059 E0.21728
G1 X147.619 Y83.059 E0.01696
G1 X152.485 Y87.925 E0.21728
G1 X153.022 Y87.925 E0.01696
G1 X148.157 Y83.060 E0.21727
G1 X148.694 Y83.060 E0.01696
G1 X153.420 Y87.786 E0.21104
G1 X153.420 Y87.248 E0.01696
G1 X149.231 Y83.060 E0.18705
G1 X149.768 Y83.060 E0.01696
G1 X153.420 Y86.711 E0.16306
G1 X153.420 Y86.174 E0.01696
G1 X150.305 Y83.060 E0.13908
G1 X150.842 Y83.060 E0.01696
G1 X153.420 Y85.637 E0.11509
G1 X153.420 Y85.100 E0.01696
G1 X151.380 Y83.060 E0.09110
G1 X151.917 Y83.060 E0.01696
G1 X153.420 Y84.563 E0.06712
G1 X153.420 Y84.026 E0.01696
G1 X152.454 Y83.060 E0.04313
G1 X152.991 Y83.060 E0.01696
G1 X153.589 Y83.659 E0.02672
G1 E-0.80000 F2100.00000
G1 Z0.800 F10800.000
G1 X153.589 Y95.783
G1 Z0.200
G1 E0.80000 F2100.00000
G1 F1200.000
G1 X153.702 Y95.783 E0.00355
G1 X153.702 Y101.213 E0.17026
G1 X96.298 Y101.213 E1.79989
G1 X96.298 Y95.782 E0.17029
G1 X97.869 Y95.766 E0.04927
G1 X97.794 Y96.924 E0.03638
G1 X97.790 Y100.841 E0.12283
G1 X102.365 Y100.841 E0.14346
G1 X102.361 Y96.924 E0.12283
G1 X102.286 Y95.763 E0.03647
G1 X103.505 Y95.783 E0.03821
G1 X153.529 Y95.783 E1.56849
G1 E-0.80000 F2100.00000
G1 Z0.800 F10800.000
G1 X98.250 Y95.714
G1 Z0.200
G1 E0.80000 F2100.00000
G1 F1200.000
G1 X101.905 Y95.714 E0.11461
G1 X101.984 Y96.936 E0.03842
G1 X101.988 Y100.464 E0.11062
G1 X98.167 Y100.464 E0.11979
G1 X98.171 Y96.936 E0.11062
G1 X98.246 Y95.773 E0.03653
G1 X98.252 Y95.314 F10800.000
G1 E-0.80000 F2100.00000
G1 Z0.800 F10800.000
G1 X95.920 Y95.405
G1 Z0.200
G1 E0.80000 F2100.00000
G1 F1200.000
G1 X97.514 Y95.402 E0.04996
G1 X98.023 Y95.383 E0.01598
G1 X98.519 Y95.338 E0.01561
G1 X101.501 Y95.336 E0.09350
G1 X102.502 Y95.396 E0.03144
G1 X103.507 Y95.406 E0.03150
G1 X154.080 Y95.406 E1.58568
G1 X154.080 Y101.590 E0.19390
G1 X95.920 Y101.590 E1.82354
G1 X95.920 Y95.465 E0.19203
G1 X96.320 Y95.419 F10800.000
G1 E-0.80000 F2100.00000
G1 Z0.800 F10800.000
G1 X97.700 Y96.623
G1 Z0.200
G1 E0.80000 F2100.00000
G1 F1200.000
G1 X97.134 Y96.056 E0.02604
G1 X96.586 Y96.062 E0.01779
G1 X97.512 Y96.987 E0.04252
G1 X97.511 Y97.539 E0.01795
G1 X96.580 Y96.608 E0.04277
G1 X96.580 Y97.161 E0.01797
G1 X97.510 Y98.091 E0.04275
G1 X97.510 Y98.643 E0.01795
G1 X96.580 Y97.714 E0.04272
G1 X96.580 Y98.267 E0.01797
G1 X97.509 Y99.195 E0.04269
G1 X97.508 Y99.748 E0.01795
G1 X96.580 Y98.820 E0.04266
G1 X96.580 Y99.372 E0.01797
G1 X97.508 Y100.300 E0.04263
G1 X97.507 Y100.852 E0.01795
G1 X96.580 Y99.925 E0.04260
G1 X96.580 Y100.478 E0.01797
G1 X97.202 Y101.100 E0.02858
G1 E-0.80000 F2100.00000
G1 Z0.800 F10800.000
G1 X102.478 Y100.331
G1 Z0.200
G1 E0.80000 F2100.00000
G1 F1200.000
G1 X103.077 Y100.930 E0.02675
G1 X103.614 Y100.930 E0.01696
G1 X102.647 Y99.963 E0.04317
G1 X102.647 Y99.426 E0.01698
G1 X104.151 Y100.930 E0.06718
G1 X104.688 Y100.930 E0.01696
G1 X102.646 Y98.888 E0.09119
G1 X102.645 Y98.350 E0.01698
G1 X105.225 Y100.930 E0.11520
G1 X105.762 Y100.930 E0.01696
G1 X102.645 Y97.813 E0.13921
G1 X102.644 Y97.275 E0.01698
G1 X106.299 Y100.930 E0.16322
G1 X106.836 Y100.930 E0.01696
G1 X102.632 Y96.725 E0.18776
G1 X102.595 Y96.151 E0.01816
G1 X107.373 Y100.930 E0.21339
G1 X107.910 Y100.930 E0.01696
G1 X103.036 Y96.056 E0.21767
G1 X103.573 Y96.056 E0.01696
G1 X108.447 Y100.930 E0.21766
G1 X108.985 Y100.930 E0.01696
G1 X104.110 Y96.056 E0.21766
G1 X104.647 Y96.056 E0.01696
G1 X109.522 Y100.930 E0.21766
G1 X110.059 Y100.930 E0.01696
G1 X105.185 Y96.056 E0.21765
G1 X105.722 Y96.056 E0.01696
G1 X110.596 Y100.930 E0.21765
G1 X111.133 Y100.930 E0.01696
G1 X106.259 Y96.056 E0.21764
G1 X106.796 Y96.056 E0.01696
G1 X111.670 Y100.930 E0.21764
G1 X112.207 Y100.930 E0.01696
G1 X107.333 Y96.057 E0.21763
G1 X107.870 Y96.057 E0.01696
G1 X112.744 Y100.930 E0.21763
G1 X113.281 Y100.930 E0.01696
G1 X108.407 Y96.057 E0.21762
G1 X108.945 Y96.057 E0.01696
G1 X113.818 Y100.930 E0.21762
G1 X114.355 Y100.930 E0.01696
G1 X109.482 Y96.057 E0.21761
G1 X110.019 Y96.057 E0.01696
G1 X114.892 Y100.930 E0.21761
G1 X115.429 Y100.930 E0.01696
G1 X110.556 Y96.057 E0.21760
G1 X111.093 Y96.057 E0.01696
G1 X115.966 Y100.930 E0.21760
G1 X116.503 Y100.930 E0.01696
G1 X111.630 Y96.057 E0.21759
G1 X112.168 Y96.057 E0.01696
G1 X117.040 Y100.930 E0.21759
G1 X117.577 Y100.930 E0.01696
G1 X112.705 Y96.058 E0.21758
G1 X113.242 Y96.058 E0.01696
G1 X118.114 Y100.930 E0.21758
G1 X118.651 Y100.930 E0.01696
G1 X113.779 Y96.058 E0.21758
G1 X114.316 Y96.058 E0.01696
G1 X119.188 Y100.930 E0.21757
G1 X119.725 Y100.930 E0.01696
G1 X114.853 Y96.058 E0.21757
G1 X115.390 Y96.058 E0.01696
G1 X120.262 Y100.930 E0.21756
G1 X120.799 Y100.930 E0.01696
G1 X115.928 Y96.058 E0.21756
G1 X116.465 Y96.058 E0.01696
G1 X121.337 Y100.930 E0.21755
G1 X121.874 Y100.930 E0.01696
G1 X117.002 Y96.058 E0.21755
G1 X117.539 Y96.059 E0.01696
G1 X122.411 Y100.930 E0.21754
G1 X122.948 Y100.930 E0.01696
G1 X118.076 Y96.059 E0.21754
G1 X118.613 Y96.059 E0.01696
G1 X123.485 Y100.930 E0.21753
G1 X124.022 Y100.930 E0.01696
G1 X119.151 Y96.059 E0.21753
G1 X119.688 Y96.059 E0.01696
G1 X124.559 Y100.930 E0.21752
G1 X125.096 Y100.930 E0.01696
G1 X120.225 Y96.059 E0.21752
G1 X120.762 Y96.059 E0.01696
G1 X125.633 Y100.930 E0.21751
G1 X126.170 Y100.930 E0.01696
G1 X121.299 Y96.059 E0.21751
G1 X121.836 Y96.059 E0.01696
G1 X126.707 Y100.930 E0.21750
G1 X127.244 Y100.930 E0.01696
G1 X122.373 Y96.059 E0.21750
G1 X122.911 Y96.060 E0.01696
G1 X127.781 Y100.930 E0.21749
G1 X128.318 Y100.930 E0.01696
G1 X123.448 Y96.060 E0.21749
G1 X123.985 Y96.060 E0.01696
G1 X128.855 Y100.930 E0.21749
G1 X129.392 Y100.930 E0.01696
G1 X124.522 Y96.060 E0.21748
G1 X125.059 Y96.060 E0.01696
G1 X129.929 Y100.930 E0.21748
G1 X130.466 Y100.930 E0.01696
G1 X125.596 Y96.060 E0.21747
G1 X126.133 Y96.060 E0.01696
G1 X131.003 Y100.930 E0.21747
G1 X131.540 Y100.930 E0.01696
G1 X126.671 Y96.060 E0.21746
G1 X127.208 Y96.060 E0.01696
G1 X132.077 Y100.930 E0.21746
G1 X132.614 Y100.930 E0.01696
G1 X127.745 Y96.061 E0.21745
G1 X128.282 Y96.061 E0.01696
G1 X133.152 Y100.930 E0.21745
G1 X133.689 Y100.930 E0.01696
G1 X128.819 Y96.061 E0.21744
G1 X129.356 Y96.061 E0.01696
G1 X134.226 Y100.930 E0.21744
G1 X134.763 Y100.930 E0.01696
G1 X129.894 Y96.061 E0.21743
G1 X130.431 Y96.061 E0.01696
G1 X135.300 Y100.930 E0.21743
G1 X135.837 Y100.930 E0.01696
G1 X130.968 Y96.061 E0.21742
G1 X131.505 Y96.061 E0.01696
G1 X136.374 Y100.930 E0.21742
G1 X136.911 Y100.930 E0.01696
G1 X132.042 Y96.061 E0.21741
G1 X132.579 Y96.061 E0.01696
G1 X137.448 Y100.930 E0.21741
