; generated by PrusaSlicer 2.2.0+win64 on 2021-01-15 at 21:17:40 UTC

; 

; external perimeters extrusion width = 0.45mm
; perimeters extrusion width = 0.45mm
; infill extrusion width = 0.45mm
; solid infill extrusion width = 0.45mm
; top infill extrusion width = 0.40mm
; first layer extrusion width = 0.42mm

M73 P0 R517
M73 Q0 S527
M201 X1000 Y1000 Z1000 E5000 ; sets maximum accelerations, mm/sec^2
M203 X200 Y200 Z12 E120 ; sets maximum feedrates, mm/sec
M204 P1250 R1250 T1250 ; sets acceleration (P, T) and retract acceleration (R), mm/sec^2
M205 X8.00 Y8.00 Z0.40 E1.50 ; sets the jerk limits, mm/sec
M205 S0 T0 ; sets the minimum extruding and travel feed rate, mm/sec
M107
M862.3 P "MK3S" ; printer model check
M862.1 P0.4 ; nozzle diameter check
M115 U3.8.0 ; tell printer latest fw version
G90 ; use absolute coordinates
M83 ; extruder relative mode
M104 S215 ; set extruder temp
M140 S60 ; set bed temp
M190 S60 ; wait for bed temp
M109 S215 ; wait for extruder temp
G28 W ; home all without mesh bed level
G80 ; mesh bed leveling
G1 Y-3.0 F1000.0 ; go outside print area
G92 E0.0
G1 X60.0 E9.0 F1000.0 ; intro line
M73 Q0 S527
M73 P0 R517
G1 X100.0 E12.5 F1000.0 ; intro line
G92 E0.0
M221 S95
G21 ; set units to millimeters
G90 ; use absolute coordinates
M83 ; use relative distances for extrusion
M900 K0.05 ; Filament gcode LA 1.5
M900 K30 ; Filament gcode LA 1.0
;BEFORE_LAYER_CHANGE
G92 E0.0
;0.2


G1 E-0.80000 F2100.00000
G1 Z0.600 F10800.000
;AFTER_LAYER_CHANGE
;0.2
G1 X59.087 Y108.551
G1 Z0.200
G1 E0.80000 F2100.00000
M204 S1000
G1 F1200.000
G1 X119.913 Y108.551 E1.90715
G1 X119.913 Y163.376 E1.71903
G1 X59.087 Y163.376 E1.90715
G1 X59.087 Y108.611 E1.71714
G1 X58.710 Y108.174 F10800.000
G1 F1200.000
G1 X120.290 Y108.174 E1.93080
G1 X120.290 Y163.754 E1.74267
G1 X58.710 Y163.754 E1.93080
G1 X58.710 Y108.234 E1.74079
G1 X59.098 Y108.270 F10800.000
G1 E-0.80000 F2100.00000
G1 Z0.800 F10800.000
G1 X119.800 Y109.427
G1 Z0.200
G1 E0.80000 F2100.00000
G1 F1200.000
G1 X119.207 Y108.833 E0.02632
G1 X118.673 Y108.833 E0.01675
G1 X119.630 Y109.791 E0.04248
G1 X119.630 Y110.324 E0.01675
G1 X118.139 Y108.833 E0.06616
G1 X117.606 Y108.833 E0.01675
G1 X119.630 Y110.858 E0.08984
G1 X119.630 Y111.392 E0.01675
G1 X117.072 Y108.833 E0.11352
G1 X116.538 Y108.833 E0.01675
G1 X119.630 Y111.925 E0.13720
G1 X119.630 Y112.459 E0.01675
G1 X116.005 Y108.833 E0.16089
G1 X115.471 Y108.833 E0.01675
G1 X119.630 Y112.993 E0.18457
G1 X119.630 Y113.526 E0.01675
G1 X114.937 Y108.833 E0.20825
G1 X114.404 Y108.833 E0.01675
G1 X119.630 Y114.060 E0.23193
G1 X119.630 Y114.594 E0.01675
G1 X113.870 Y108.833 E0.25562
G1 X113.336 Y108.833 E0.01675
G1 X119.630 Y115.127 E0.27930
G1 X119.630 Y115.661 E0.01675
G1 X112.802 Y108.833 E0.30298
G1 X112.269 Y108.833 E0.01675
G1 X119.630 Y116.195 E0.32666
G1 X119.630 Y116.728 E0.01675
G1 X111.735 Y108.833 E0.35034
G1 X111.201 Y108.833 E0.01675
G1 X119.630 Y117.262 E0.37403
G1 X119.630 Y117.796 E0.01675
G1 X110.668 Y108.833 E0.39771
G1 X110.134 Y108.833 E0.01675
G1 X119.630 Y118.329 E0.42139
G1 X119.630 Y118.863 E0.01675
G1 X109.600 Y108.833 E0.44507
G1 X109.067 Y108.833 E0.01675
G1 X119.630 Y119.397 E0.46876
G1 X119.630 Y119.930 E0.01675
G1 X108.533 Y108.833 E0.49244
G1 X107.999 Y108.833 E0.01675
G1 X119.630 Y120.464 E0.51612
G1 X119.630 Y120.998 E0.01675
G1 X107.466 Y108.833 E0.53980
G1 X106.932 Y108.833 E0.01675
G1 X119.630 Y121.532 E0.56348
G1 X119.630 Y122.065 E0.01675
G1 X106.398 Y108.833 E0.58717
G1 X105.865 Y108.833 E0.01675
G1 X119.630 Y122.599 E0.61085
G1 X119.630 Y123.133 E0.01675
G1 X105.331 Y108.833 E0.63453
G1 X104.797 Y108.833 E0.01675
G1 X119.630 Y123.666 E0.65821
G1 X119.630 Y124.200 E0.01675
G1 X104.264 Y108.833 E0.68189
G1 X103.730 Y108.833 E0.01675
G1 X119.630 Y124.734 E0.70558
G1 X119.630 Y125.267 E0.01675
G1 X103.196 Y108.833 E0.72926
G1 X102.663 Y108.833 E0.01675
G1 X119.630 Y125.801 E0.75294
G1 X119.630 Y126.335 E0.01675
G1 X102.129 Y108.833 E0.77662
G1 X101.595 Y108.833 E0.01675
G1 X119.630 Y126.868 E0.80031
G1 X119.630 Y127.402 E0.01675
G1 X101.062 Y108.833 E0.82399
G1 X100.528 Y108.833 E0.01675
G1 X119.630 Y127.936 E0.84767
G1 X119.630 Y128.469 E0.01675
G1 X99.994 Y108.833 E0.87135
G1 X99.461 Y108.833 E0.01675
G1 X119.630 Y129.003 E0.89503
G1 X119.630 Y129.537 E0.01675
G1 X98.927 Y108.833 E0.91872
G1 X98.393 Y108.833 E0.01675
G1 X119.630 Y130.070 E0.94240
M73 Q0 S526
G1 X119.630 Y130.604 E0.01675
G1 X97.860 Y108.833 E0.96608
M73 P0 R516
G1 X97.326 Y108.833 E0.01675
G1 X119.630 Y131.138 E0.98976
G1 X119.630 Y131.671 E0.01675
G1 X96.792 Y108.833 E1.01345
G1 X96.258 Y108.833 E0.01675
G1 X119.630 Y132.205 E1.03713
G1 X119.630 Y132.739 E0.01675
G1 X95.725 Y108.833 E1.06081
G1 X95.191 Y108.833 E0.01675
G1 X119.630 Y133.272 E1.08449
G1 X119.630 Y133.806 E0.01675
G1 X94.657 Y108.833 E1.10817
G1 X94.124 Y108.833 E0.01675
G1 X119.630 Y134.340 E1.13186
G1 X119.630 Y134.873 E0.01675
G1 X93.590 Y108.833 E1.15554
G1 X93.056 Y108.833 E0.01675
G1 X119.630 Y135.407 E1.17922
G1 X119.630 Y135.941 E0.01675
G1 X92.523 Y108.833 E1.20290
G1 X91.989 Y108.833 E0.01675
G1 X119.630 Y136.474 E1.22659
G1 X119.630 Y137.008 E0.01675
G1 X91.455 Y108.833 E1.25027
G1 X90.922 Y108.833 E0.01675
G1 X119.630 Y137.542 E1.27395
G1 X119.630 Y138.076 E0.01675
G1 X90.388 Y108.833 E1.29763
G1 X89.854 Y108.833 E0.01675
G1 X119.630 Y138.609 E1.32131
G1 X119.630 Y139.143 E0.01675
G1 X89.321 Y108.833 E1.34500
G1 X88.787 Y108.833 E0.01675
G1 X119.630 Y139.677 E1.36868
G1 X119.630 Y140.210 E0.01675
G1 X88.253 Y108.833 E1.39236
G1 X87.720 Y108.833 E0.01675
G1 X119.630 Y140.744 E1.41604
G1 X119.630 Y141.278 E0.01675
G1 X87.186 Y108.833 E1.43972
G1 X86.652 Y108.833 E0.01675
G1 X119.630 Y141.811 E1.46341
G1 X119.630 Y142.345 E0.01675
G1 X86.119 Y108.833 E1.48709
G1 X85.585 Y108.833 E0.01675
G1 X119.630 Y142.879 E1.51077
G1 X119.630 Y143.412 E0.01675
G1 X85.051 Y108.833 E1.53445
G1 X84.518 Y108.833 E0.01675
G1 X119.630 Y143.946 E1.55814
G1 X119.630 Y144.480 E0.01675
G1 X83.984 Y108.833 E1.58182
G1 X83.450 Y108.833 E0.01675
G1 X119.630 Y145.013 E1.60550
G1 X119.630 Y145.547 E0.01675
G1 X82.917 Y108.833 E1.62918
M73 Q0 S525
G1 X82.383 Y108.833 E0.01675
G1 X119.630 Y146.081 E1.65286
M73 P0 R515
G1 X119.630 Y146.614 E0.01675
G1 X81.849 Y108.833 E1.67655
G1 X81.316 Y108.833 E0.01675
G1 X119.630 Y147.148 E1.70023
G1 X119.630 Y147.682 E0.01675
G1 X80.782 Y108.833 E1.72391
G1 X80.248 Y108.833 E0.01675
G1 X119.630 Y148.215 E1.74759
G1 X119.630 Y148.749 E0.01675
G1 X79.714 Y108.833 E1.77128
G1 X79.181 Y108.833 E0.01675
G1 X119.630 Y149.283 E1.79496
G1 X119.630 Y149.816 E0.01675
G1 X78.647 Y108.833 E1.81864
G1 X78.113 Y108.833 E0.01675
G1 X119.630 Y150.350 E1.84232
G1 X119.630 Y150.884 E0.01675
G1 X77.580 Y108.833 E1.86600
G1 X77.046 Y108.833 E0.01675
G1 X119.630 Y151.417 E1.88969
G1 X119.630 Y151.951 E0.01675
G1 X76.512 Y108.833 E1.91337
G1 X75.979 Y108.833 E0.01675
G1 X119.630 Y152.485 E1.93705
G1 X119.630 Y153.019 E0.01675
G1 X75.445 Y108.833 E1.96073
G1 X74.911 Y108.833 E0.01675
G1 X119.630 Y153.552 E1.98442
G1 X119.630 Y154.086 E0.01675
G1 X74.378 Y108.833 E2.00810
G1 X73.844 Y108.833 E0.01675
G1 X119.630 Y154.620 E2.03178
G1 X119.630 Y155.153 E0.01675
G1 X73.310 Y108.833 E2.05546
G1 X72.777 Y108.833 E0.01675
G1 X119.630 Y155.687 E2.07914
G1 X119.630 Y156.221 E0.01675
G1 X72.243 Y108.833 E2.10283
M73 Q0 S524
G1 X71.709 Y108.833 E0.01675
G1 X119.630 Y156.754 E2.12651
M73 P0 R514
G1 X119.630 Y157.288 E0.01675
G1 X71.176 Y108.833 E2.15019
G1 X70.642 Y108.833 E0.01675
G1 X119.630 Y157.822 E2.17387
G1 X119.630 Y158.355 E0.01675
G1 X70.108 Y108.833 E2.19755
G1 X69.575 Y108.833 E0.01675
G1 X119.630 Y158.889 E2.22124
G1 X119.630 Y159.423 E0.01675
G1 X69.041 Y108.833 E2.24492
G1 X68.507 Y108.833 E0.01675
G1 X119.630 Y159.956 E2.26860
G1 X119.630 Y160.490 E0.01675
G1 X67.974 Y108.833 E2.29228
G1 X67.440 Y108.833 E0.01675
G1 X119.630 Y161.024 E2.31597
G1 X119.630 Y161.557 E0.01675
G1 X66.906 Y108.833 E2.33965
G1 X66.373 Y108.833 E0.01675
G1 X119.630 Y162.091 E2.36333
G1 X119.630 Y162.625 E0.01675
G1 X65.839 Y108.833 E2.38701
G1 X65.305 Y108.833 E0.01675
G1 X119.565 Y163.094 E2.40782
G1 X119.032 Y163.094 E0.01675
G1 X64.771 Y108.833 E2.40782
G1 X64.238 Y108.833 E0.01675
G1 X118.498 Y163.094 E2.40782
G1 X117.964 Y163.094 E0.01675
G1 X63.704 Y108.833 E2.40782
G1 X63.170 Y108.833 E0.01675
G1 X117.431 Y163.094 E2.40782
M73 Q0 S523
G1 X116.897 Y163.094 E0.01675
G1 X62.637 Y108.833 E2.40782
M73 P0 R513
G1 X62.103 Y108.833 E0.01675
G1 X116.363 Y163.094 E2.40782
G1 X115.830 Y163.094 E0.01675
G1 X61.569 Y108.833 E2.40782
G1 X61.036 Y108.833 E0.01675
G1 X115.296 Y163.094 E2.40782
G1 X114.762 Y163.094 E0.01675
G1 X60.502 Y108.833 E2.40782
G1 X59.968 Y108.833 E0.01675
G1 X114.229 Y163.094 E2.40782
G1 X113.695 Y163.094 E0.01675
G1 X59.435 Y108.833 E2.40782
G1 X59.370 Y108.833 E0.00203
G1 X59.370 Y109.302 E0.01471
G1 X113.161 Y163.094 E2.38702
G1 X112.628 Y163.094 E0.01675
G1 X59.370 Y109.836 E2.36334
G1 X59.370 Y110.370 E0.01675
G1 X112.094 Y163.094 E2.33965
G1 X111.560 Y163.094 E0.01675
G1 X59.370 Y110.903 E2.31597
G1 X59.370 Y111.437 E0.01675
G1 X111.027 Y163.094 E2.29229
G1 X110.493 Y163.094 E0.01675
G1 X59.370 Y111.971 E2.26861
G1 X59.370 Y112.504 E0.01675
G1 X109.959 Y163.094 E2.24493
G1 X109.426 Y163.094 E0.01675
G1 X59.370 Y113.038 E2.22124
G1 X59.370 Y113.572 E0.01675
G1 X108.892 Y163.094 E2.19756
M73 Q0 S522
G1 X108.358 Y163.094 E0.01675
G1 X59.370 Y114.105 E2.17388
G1 X59.370 Y114.639 E0.01675
G1 X107.825 Y163.094 E2.15020
M73 P1 R512
G1 X107.291 Y163.094 E0.01675
G1 X59.370 Y115.173 E2.12651
G1 X59.370 Y115.706 E0.01675
G1 X106.757 Y163.094 E2.10283
G1 X106.223 Y163.094 E0.01675
G1 X59.370 Y116.240 E2.07915
G1 X59.370 Y116.774 E0.01675
G1 X105.690 Y163.094 E2.05547
G1 X105.156 Y163.094 E0.01675
G1 X59.370 Y117.307 E2.03179
G1 X59.370 Y117.841 E0.01675
G1 X104.622 Y163.094 E2.00810
G1 X104.089 Y163.094 E0.01675
G1 X59.370 Y118.375 E1.98442
G1 X59.370 Y118.908 E0.01675
G1 X103.555 Y163.094 E1.96074
G1 X103.021 Y163.094 E0.01675
G1 X59.370 Y119.442 E1.93706
G1 X59.370 Y119.976 E0.01675
G1 X102.488 Y163.094 E1.91337
G1 X101.954 Y163.094 E0.01675
G1 X59.370 Y120.510 E1.88969
G1 X59.370 Y121.043 E0.01675
G1 X101.420 Y163.094 E1.86601
G1 X100.887 Y163.094 E0.01675
G1 X59.370 Y121.577 E1.84233
G1 X59.370 Y122.111 E0.01675
G1 X100.353 Y163.094 E1.81865
G1 X99.819 Y163.094 E0.01675
G1 X59.370 Y122.644 E1.79496
G1 X59.370 Y123.178 E0.01675
G1 X99.286 Y163.094 E1.77128
G1 X98.752 Y163.094 E0.01675
G1 X59.370 Y123.712 E1.74760
M73 Q1 S521
G1 X59.370 Y124.245 E0.01675
G1 X98.218 Y163.094 E1.72392
G1 X97.685 Y163.094 E0.01675
G1 X59.370 Y124.779 E1.70024
G1 X59.370 Y125.313 E0.01675
G1 X97.151 Y163.094 E1.67655
M73 P1 R511
G1 X96.617 Y163.094 E0.01675
G1 X59.370 Y125.846 E1.65287
G1 X59.370 Y126.380 E0.01675
G1 X96.084 Y163.094 E1.62919
G1 X95.550 Y163.094 E0.01675
G1 X59.370 Y126.914 E1.60551
G1 X59.370 Y127.447 E0.01675
G1 X95.016 Y163.094 E1.58182
G1 X94.483 Y163.094 E0.01675
G1 X59.370 Y127.981 E1.55814
G1 X59.370 Y128.515 E0.01675
G1 X93.949 Y163.094 E1.53446
G1 X93.415 Y163.094 E0.01675
G1 X59.370 Y129.048 E1.51078
G1 X59.370 Y129.582 E0.01675
G1 X92.882 Y163.094 E1.48710
G1 X92.348 Y163.094 E0.01675
G1 X59.370 Y130.116 E1.46341
G1 X59.370 Y130.649 E0.01675
G1 X91.814 Y163.094 E1.43973
G1 X91.281 Y163.094 E0.01675
G1 X59.370 Y131.183 E1.41605
G1 X59.370 Y131.717 E0.01675
G1 X90.747 Y163.094 E1.39237
G1 X90.213 Y163.094 E0.01675
G1 X59.370 Y132.250 E1.36868
G1 X59.370 Y132.784 E0.01675
G1 X89.679 Y163.094 E1.34500
G1 X89.146 Y163.094 E0.01675
G1 X59.370 Y133.318 E1.32132
G1 X59.370 Y133.851 E0.01675
G1 X88.612 Y163.094 E1.29764
G1 X88.078 Y163.094 E0.01675
G1 X59.370 Y134.385 E1.27396
G1 X59.370 Y134.919 E0.01675
G1 X87.545 Y163.094 E1.25027
G1 X87.011 Y163.094 E0.01675
G1 X59.370 Y135.452 E1.22659
G1 X59.370 Y135.986 E0.01675
G1 X86.477 Y163.094 E1.20291
G1 X85.944 Y163.094 E0.01675
G1 X59.370 Y136.520 E1.17923
G1 X59.370 Y137.054 E0.01675
G1 X85.410 Y163.094 E1.15554
G1 X84.876 Y163.094 E0.01675
G1 X59.370 Y137.587 E1.13186
M73 Q1 S520
G1 X59.370 Y138.121 E0.01675
G1 X84.343 Y163.094 E1.10818
G1 X83.809 Y163.094 E0.01675
G1 X59.370 Y138.655 E1.08450
G1 X59.370 Y139.188 E0.01675
G1 X83.275 Y163.094 E1.06082
G1 X82.742 Y163.094 E0.01675
G1 X59.370 Y139.722 E1.03713
G1 X59.370 Y140.256 E0.01675
G1 X82.208 Y163.094 E1.01345
M73 P1 R510
G1 X81.674 Y163.094 E0.01675
G1 X59.370 Y140.789 E0.98977
G1 X59.370 Y141.323 E0.01675
G1 X81.141 Y163.094 E0.96609
G1 X80.607 Y163.094 E0.01675
G1 X59.370 Y141.857 E0.94241
G1 X59.370 Y142.390 E0.01675
G1 X80.073 Y163.094 E0.91872
G1 X79.540 Y163.094 E0.01675
G1 X59.370 Y142.924 E0.89504
G1 X59.370 Y143.458 E0.01675
G1 X79.006 Y163.094 E0.87136
G1 X78.472 Y163.094 E0.01675
G1 X59.370 Y143.991 E0.84768
G1 X59.370 Y144.525 E0.01675
G1 X77.939 Y163.094 E0.82399
G1 X77.405 Y163.094 E0.01675
G1 X59.370 Y145.059 E0.80031
G1 X59.370 Y145.592 E0.01675
G1 X76.871 Y163.094 E0.77663
G1 X76.338 Y163.094 E0.01675
G1 X59.370 Y146.126 E0.75295
G1 X59.370 Y146.660 E0.01675
G1 X75.804 Y163.094 E0.72927
G1 X75.270 Y163.094 E0.01675
G1 X59.370 Y147.193 E0.70558
G1 X59.370 Y147.727 E0.01675
G1 X74.737 Y163.094 E0.68190
G1 X74.203 Y163.094 E0.01675
G1 X59.370 Y148.261 E0.65822
G1 X59.370 Y148.794 E0.01675
G1 X73.669 Y163.094 E0.63454
G1 X73.135 Y163.094 E0.01675
G1 X59.370 Y149.328 E0.61085
G1 X59.370 Y149.862 E0.01675
G1 X72.602 Y163.094 E0.58717
G1 X72.068 Y163.094 E0.01675
G1 X59.370 Y150.395 E0.56349
G1 X59.370 Y150.929 E0.01675
G1 X71.534 Y163.094 E0.53981
G1 X71.001 Y163.094 E0.01675
G1 X59.370 Y151.463 E0.51613
G1 X59.370 Y151.996 E0.01675
G1 X70.467 Y163.094 E0.49244
G1 X69.933 Y163.094 E0.01675
G1 X59.370 Y152.530 E0.46876
G1 X59.370 Y153.064 E0.01675
G1 X69.400 Y163.094 E0.44508
G1 X68.866 Y163.094 E0.01675
G1 X59.370 Y153.598 E0.42140
G1 X59.370 Y154.131 E0.01675
G1 X68.332 Y163.094 E0.39771
G1 X67.799 Y163.094 E0.01675
G1 X59.370 Y154.665 E0.37403
G1 X59.370 Y155.199 E0.01675
G1 X67.265 Y163.094 E0.35035
G1 X66.731 Y163.094 E0.01675
G1 X59.370 Y155.732 E0.32667
G1 X59.370 Y156.266 E0.01675
G1 X66.198 Y163.094 E0.30299
G1 X65.664 Y163.094 E0.01675
G1 X59.370 Y156.800 E0.27930
G1 X59.370 Y157.333 E0.01675
G1 X65.130 Y163.094 E0.25562
G1 X64.597 Y163.094 E0.01675
G1 X59.370 Y157.867 E0.23194
G1 X59.370 Y158.401 E0.01675
G1 X64.063 Y163.094 E0.20826
G1 X63.529 Y163.094 E0.01675
G1 X59.370 Y158.934 E0.18458
G1 X59.370 Y159.468 E0.01675
G1 X62.996 Y163.094 E0.16089
G1 X62.462 Y163.094 E0.01675
G1 X59.370 Y160.002 E0.13721
G1 X59.370 Y160.535 E0.01675
G1 X61.928 Y163.094 E0.11353
G1 X61.395 Y163.094 E0.01675
G1 X59.370 Y161.069 E0.08985
G1 X59.370 Y161.603 E0.01675
G1 X60.861 Y163.094 E0.06616
G1 X60.327 Y163.094 E0.01675
G1 X59.370 Y162.136 E0.04248
G1 X59.370 Y162.670 E0.01675
G1 X59.963 Y163.263 E0.02633
G1 E-0.80000 F2100.00000
G1 Z0.800 F10800.000
G1 X59.087 Y101.376
G1 Z0.200
G1 E0.80000 F2100.00000
G1 F1200.000
G1 X59.087 Y46.551 E1.71903
G1 X119.913 Y46.551 E1.90715
G1 X119.913 Y101.376 E1.71903
G1 X59.147 Y101.376 E1.90527
G1 X58.710 Y101.754 F10800.000
G1 F1200.000
G1 X58.710 Y46.174 E1.74267
G1 X120.290 Y46.174 E1.93080
M73 Q1 S518
G1 X120.290 Y101.754 E1.74267
G1 X58.770 Y101.754 E1.92892
G1 X58.820 Y101.369 F10800.000
G1 E-0.80000 F2100.00000
G1 Z0.800 F10800.000
G1 X119.800 Y47.427
G1 Z0.200
G1 E0.80000 F2100.00000
M73 P1 R509
G1 F1200.000
G1 X119.207 Y46.833 E0.02632
G1 X118.673 Y46.833 E0.01675
G1 X119.630 Y47.791 E0.04248
G1 X119.630 Y48.324 E0.01675
G1 X118.139 Y46.833 E0.06616
G1 X117.606 Y46.833 E0.01675
G1 X119.630 Y48.858 E0.08984
G1 X119.630 Y49.392 E0.01675
G1 X117.072 Y46.833 E0.11352
G1 X116.538 Y46.833 E0.01675
G1 X119.630 Y49.925 E0.13720
G1 X119.630 Y50.459 E0.01675
G1 X116.005 Y46.833 E0.16089
G1 X115.471 Y46.833 E0.01675
G1 X119.630 Y50.993 E0.18457
G1 X119.630 Y51.526 E0.01675
G1 X114.937 Y46.833 E0.20825
G1 X114.404 Y46.833 E0.01675
G1 X119.630 Y52.060 E0.23193
G1 X119.630 Y52.594 E0.01675
G1 X113.870 Y46.833 E0.25562
G1 X113.336 Y46.833 E0.01675
G1 X119.630 Y53.127 E0.27930
G1 X119.630 Y53.661 E0.01675
