; generated by PrusaSlicer 2.2.0+win64 on 2021-01-15 at 21:16:19 UTC

; 

; external perimeters extrusion width = 0.45mm
; perimeters extrusion width = 0.45mm
; infill extrusion width = 0.45mm
; solid infill extrusion width = 0.45mm
; top infill extrusion width = 0.40mm
; first layer extrusion width = 0.42mm

M73 P0 R272
M73 Q0 S277
M201 X1000 Y1000 Z1000 E5000 ; sets maximum accelerations, mm/sec^2
M203 X200 Y200 Z12 E120 ; sets maximum feedrates, mm/sec
M204 P1250 R1250 T1250 ; sets acceleration (P, T) and retract acceleration (R), mm/sec^2
M205 X8.00 Y8.00 Z0.40 E1.50 ; sets the jerk limits, mm/sec
M205 S0 T0 ; sets the minimum extruding and travel feed rate, mm/sec
M107
M862.3 P "MK3S" ; printer model check
M862.1 P0.4 ; nozzle diameter check
M115 U3.8.0 ; tell printer latest fw version
G90 ; use absolute coordinates
M83 ; extruder relative mode
M104 S215 ; set extruder temp
M140 S60 ; set bed temp
M190 S60 ; wait for bed temp
M109 S215 ; wait for extruder temp
G28 W ; home all without mesh bed level
G80 ; mesh bed leveling
G1 Y-3.0 F1000.0 ; go outside print area
G92 E0.0
G1 X60.0 E9.0 F1000.0 ; intro line
M73 Q0 S276
M73 P0 R272
G1 X100.0 E12.5 F1000.0 ; intro line
G92 E0.0
M221 S95
G21 ; set units to millimeters
G90 ; use absolute coordinates
M83 ; use relative distances for extrusion
M900 K0.05 ; Filament gcode LA 1.5
M900 K30 ; Filament gcode LA 1.0
;BEFORE_LAYER_CHANGE
G92 E0.0
;0.2


G1 E-0.80000 F2100.00000
G1 Z0.600 F10800.000
;AFTER_LAYER_CHANGE
;0.2
G1 X165.499 Y113.412
G1 Z0.200
G1 E0.80000 F2100.00000
M204 S1000
G1 F1200.000
G1 X165.465 Y113.066 E0.01089
G1 X165.520 Y112.512 E0.01746
G1 X165.681 Y111.979 E0.01746
G1 X165.944 Y111.488 E0.01746
G1 X166.297 Y111.058 E0.01746
G1 X166.727 Y110.705 E0.01746
G1 X167.218 Y110.442 E0.01746
G1 X167.751 Y110.281 E0.01746
G1 X168.289 Y110.228 E0.01694
G1 X168.857 Y110.280 E0.01791
G1 X169.392 Y110.442 E0.01751
G1 X169.883 Y110.705 E0.01746
G1 X170.313 Y111.058 E0.01746
G1 X170.667 Y111.488 E0.01746
G1 X170.929 Y111.979 E0.01746
G1 X171.091 Y112.512 E0.01746
G1 X171.145 Y113.066 E0.01746
G1 X171.091 Y113.620 E0.01746
G1 X170.929 Y114.153 E0.01746
G1 X170.667 Y114.644 E0.01746
G1 X170.313 Y115.074 E0.01746
G1 X169.883 Y115.427 E0.01746
G1 X169.392 Y115.690 E0.01746
G1 X168.859 Y115.851 E0.01746
G1 X168.305 Y115.906 E0.01746
G1 X167.751 Y115.851 E0.01746
G1 X167.218 Y115.690 E0.01746
G1 X166.727 Y115.427 E0.01746
G1 X166.297 Y115.074 E0.01746
G1 X165.944 Y114.644 E0.01746
G1 X165.681 Y114.153 E0.01746
G1 X165.520 Y113.620 E0.01746
G1 X165.505 Y113.472 E0.00468
G1 E-0.80000 F2100.00000
G1 Z0.800 F10800.000
G1 X168.305 Y115.527
G1 Z0.200
G1 E0.80000 F2100.00000
G1 F1200.000
G1 X167.825 Y115.480 E0.01513
G1 X167.363 Y115.340 E0.01513
G1 X166.938 Y115.112 E0.01513
G1 X166.565 Y114.806 E0.01513
G1 X166.259 Y114.433 E0.01513
G1 X166.032 Y114.008 E0.01513
G1 X165.892 Y113.546 E0.01513
G1 X165.844 Y113.066 E0.01513
G1 X165.892 Y112.586 E0.01513
G1 X166.032 Y112.124 E0.01513
G1 X166.259 Y111.699 E0.01513
G1 X166.565 Y111.326 E0.01513
G1 X166.938 Y111.020 E0.01513
G1 X167.363 Y110.792 E0.01513
G1 X167.825 Y110.652 E0.01513
G1 X168.290 Y110.607 E0.01464
G1 X168.785 Y110.652 E0.01558
G1 X169.247 Y110.792 E0.01515
G1 X169.673 Y111.020 E0.01513
G1 X170.045 Y111.326 E0.01513
G1 X170.351 Y111.699 E0.01513
G1 X170.579 Y112.124 E0.01513
G1 X170.719 Y112.586 E0.01513
G1 X170.766 Y113.066 E0.01513
G1 X170.719 Y113.546 E0.01513
G1 X170.579 Y114.008 E0.01513
G1 X170.351 Y114.433 E0.01513
G1 X170.045 Y114.806 E0.01513
G1 X169.673 Y115.112 E0.01513
G1 X169.247 Y115.340 E0.01513
G1 X168.785 Y115.480 E0.01513
G1 X168.365 Y115.521 E0.01325
G1 X168.105 Y115.874 F10800.000
G1 E-0.80000 F2100.00000
G1 Z0.800 F10800.000
G1 X160.500 Y147.064
G1 Z0.200
G1 E0.80000 F2100.00000
G1 F1200.000
G1 X129.540 Y147.064 E0.97074
G1 X129.540 Y118.531 E0.89463
G1 X163.714 Y118.531 E1.07151
G1 X163.714 Y108.587 E0.31179
G1 X172.540 Y108.587 E0.27673
G1 X172.540 Y118.531 E0.31179
G1 X191.460 Y118.531 E0.59324
G1 X191.460 Y147.064 E0.89463
G1 X160.560 Y147.064 E0.96886
G1 X160.500 Y147.441 F10800.000
G1 F1200.000
G1 X129.163 Y147.441 E0.98256
G1 X129.163 Y118.154 E0.91828
G1 X163.337 Y118.154 E1.07151
G1 X163.337 Y108.210 E0.31179
G1 X172.917 Y108.210 E0.30037
G1 X172.917 Y118.154 E0.31179
G1 X191.837 Y118.154 E0.59324
G1 X191.837 Y147.441 E0.91828
G1 X160.560 Y147.441 E0.98068
G1 X160.220 Y147.155 F10800.000
G1 E-0.80000 F2100.00000
G1 Z0.800 F10800.000
G1 X130.419 Y146.951
G1 Z0.200
G1 E0.80000 F2100.00000
G1 F1200.000
G1 X129.822 Y146.354 E0.02661
G1 X129.822 Y145.818 E0.01690
G1 X130.786 Y146.781 E0.04295
G1 X131.322 Y146.781 E0.01690
G1 X129.822 Y145.282 E0.06685
G1 X129.822 Y144.746 E0.01690
G1 X131.858 Y146.781 E0.09076
G1 X132.394 Y146.781 E0.01690
G1 X129.822 Y144.210 E0.11466
G1 X129.822 Y143.673 E0.01690
G1 X132.930 Y146.781 E0.13857
G1 X133.467 Y146.781 E0.01690
G1 X129.822 Y143.137 E0.16247
G1 X129.822 Y142.601 E0.01690
G1 X134.003 Y146.781 E0.18637
G1 X134.539 Y146.781 E0.01690
G1 X129.822 Y142.065 E0.21028
G1 X129.822 Y141.529 E0.01690
G1 X135.075 Y146.781 E0.23418
G1 X135.611 Y146.781 E0.01690
G1 X129.822 Y140.993 E0.25809
G1 X129.822 Y140.456 E0.01690
G1 X136.147 Y146.781 E0.28199
G1 X136.684 Y146.781 E0.01690
G1 X129.822 Y139.920 E0.30589
G1 X129.822 Y139.384 E0.01690
G1 X137.220 Y146.781 E0.32980
G1 X137.756 Y146.781 E0.01690
G1 X129.822 Y138.848 E0.35370
G1 X129.822 Y138.312 E0.01690
G1 X138.292 Y146.781 E0.37761
G1 X138.828 Y146.781 E0.01690
G1 X129.822 Y137.775 E0.40151
G1 X129.822 Y137.239 E0.01690
G1 X139.365 Y146.781 E0.42541
G1 X139.901 Y146.781 E0.01690
G1 X129.822 Y136.703 E0.44932
G1 X129.822 Y136.167 E0.01690
G1 X140.437 Y146.781 E0.47322
G1 X140.973 Y146.781 E0.01690
G1 X129.822 Y135.631 E0.49713
G1 X129.822 Y135.095 E0.01690
G1 X141.509 Y146.781 E0.52103
G1 X142.045 Y146.781 E0.01690
G1 X129.822 Y134.558 E0.54493
G1 X129.822 Y134.022 E0.01690
G1 X142.582 Y146.781 E0.56884
G1 X143.118 Y146.781 E0.01690
G1 X129.822 Y133.486 E0.59274
G1 X129.822 Y132.950 E0.01690
G1 X143.654 Y146.781 E0.61665
G1 X144.190 Y146.781 E0.01690
G1 X129.822 Y132.414 E0.64055
G1 X129.822 Y131.878 E0.01690
G1 X144.726 Y146.781 E0.66445
G1 X145.262 Y146.781 E0.01690
G1 X129.822 Y131.341 E0.68836
G1 X129.822 Y130.805 E0.01690
G1 X145.799 Y146.781 E0.71226
G1 X146.335 Y146.781 E0.01690
G1 X129.822 Y130.269 E0.73617
G1 X129.822 Y129.733 E0.01690
G1 X146.871 Y146.781 E0.76007
G1 X147.407 Y146.781 E0.01690
G1 X129.822 Y129.197 E0.78397
G1 X129.822 Y128.661 E0.01690
G1 X147.943 Y146.781 E0.80788
G1 X148.479 Y146.781 E0.01690
G1 X129.822 Y128.124 E0.83178
G1 X129.822 Y127.588 E0.01690
G1 X149.016 Y146.781 E0.85569
G1 X149.552 Y146.781 E0.01690
G1 X129.822 Y127.052 E0.87959
G1 X129.822 Y126.516 E0.01690
G1 X150.088 Y146.781 E0.90349
G1 X150.624 Y146.781 E0.01690
G1 X129.822 Y125.980 E0.92740
G1 X129.822 Y125.444 E0.01690
G1 X151.160 Y146.781 E0.95130
G1 X151.696 Y146.781 E0.01690
G1 X129.822 Y124.907 E0.97521
M73 Q0 S275
M73 P0 R271
G1 X129.822 Y124.371 E0.01690
G1 X152.233 Y146.781 E0.99911
G1 X152.769 Y146.781 E0.01690
G1 X129.822 Y123.835 E1.02301
G1 X129.822 Y123.299 E0.01690
G1 X153.305 Y146.781 E1.04692
G1 X153.841 Y146.781 E0.01690
G1 X129.822 Y122.763 E1.07082
G1 X129.822 Y122.227 E0.01690
G1 X154.377 Y146.781 E1.09473
G1 X154.913 Y146.781 E0.01690
G1 X129.822 Y121.690 E1.11863
G1 X129.822 Y121.154 E0.01690
G1 X155.450 Y146.781 E1.14253
G1 X155.986 Y146.781 E0.01690
G1 X129.822 Y120.618 E1.16644
G1 X129.822 Y120.082 E0.01690
G1 X156.522 Y146.781 E1.19034
G1 X157.058 Y146.781 E0.01690
G1 X129.822 Y119.546 E1.21425
G1 X129.822 Y119.010 E0.01690
G1 X157.594 Y146.781 E1.23815
G1 X158.130 Y146.781 E0.01690
G1 X130.163 Y118.814 E1.24687
G1 X130.699 Y118.814 E0.01690
G1 X158.667 Y146.781 E1.24687
G1 X159.203 Y146.781 E0.01690
G1 X131.235 Y118.814 E1.24687
G1 X131.772 Y118.814 E0.01690
G1 X159.739 Y146.781 E1.24687
G1 X160.275 Y146.781 E0.01690
G1 X132.308 Y118.814 E1.24687
G1 X132.844 Y118.814 E0.01690
G1 X160.811 Y146.781 E1.24687
G1 X161.348 Y146.781 E0.01690
G1 X133.380 Y118.814 E1.24687
G1 X133.916 Y118.814 E0.01690
G1 X161.884 Y146.781 E1.24687
G1 X162.420 Y146.781 E0.01690
G1 X134.452 Y118.814 E1.24687
G1 X134.989 Y118.814 E0.01690
G1 X162.956 Y146.781 E1.24687
G1 X163.492 Y146.781 E0.01690
G1 X135.525 Y118.814 E1.24687
G1 X136.061 Y118.814 E0.01690
G1 X164.028 Y146.781 E1.24687
G1 X164.565 Y146.781 E0.01690
G1 X136.597 Y118.814 E1.24687
G1 X137.133 Y118.814 E0.01690
G1 X165.101 Y146.781 E1.24687
G1 X165.637 Y146.781 E0.01690
G1 X137.669 Y118.814 E1.24687
G1 X138.206 Y118.814 E0.01690
G1 X166.173 Y146.781 E1.24687
G1 X166.709 Y146.781 E0.01690
G1 X138.742 Y118.814 E1.24687
G1 X139.278 Y118.814 E0.01690
G1 X167.245 Y146.781 E1.24687
G1 X167.782 Y146.781 E0.01690
G1 X139.814 Y118.814 E1.24687
G1 X140.350 Y118.814 E0.01690
G1 X168.318 Y146.781 E1.24687
M73 Q0 S274
M73 P0 R270
G1 X168.854 Y146.781 E0.01690
G1 X140.886 Y118.814 E1.24687
G1 X141.423 Y118.814 E0.01690
G1 X169.390 Y146.781 E1.24687
G1 X169.926 Y146.781 E0.01690
G1 X141.959 Y118.814 E1.24687
G1 X142.495 Y118.814 E0.01690
G1 X170.462 Y146.781 E1.24687
G1 X170.999 Y146.781 E0.01690
G1 X143.031 Y118.814 E1.24687
G1 X143.567 Y118.814 E0.01690
G1 X171.535 Y146.781 E1.24687
G1 X172.071 Y146.781 E0.01690
G1 X144.103 Y118.814 E1.24687
G1 X144.640 Y118.814 E0.01690
G1 X172.607 Y146.781 E1.24687
G1 X173.143 Y146.781 E0.01690
G1 X145.176 Y118.814 E1.24687
G1 X145.712 Y118.814 E0.01690
G1 X173.679 Y146.781 E1.24687
G1 X174.216 Y146.781 E0.01690
G1 X146.248 Y118.814 E1.24687
G1 X146.784 Y118.814 E0.01690
G1 X174.752 Y146.781 E1.24687
G1 X175.288 Y146.781 E0.01690
G1 X147.321 Y118.814 E1.24687
G1 X147.857 Y118.814 E0.01690
G1 X175.824 Y146.781 E1.24687
G1 X176.360 Y146.781 E0.01690
G1 X148.393 Y118.814 E1.24687
G1 X148.929 Y118.814 E0.01690
G1 X176.896 Y146.781 E1.24687
G1 X177.433 Y146.781 E0.01690
G1 X149.465 Y118.814 E1.24687
G1 X150.001 Y118.814 E0.01690
G1 X177.969 Y146.781 E1.24687
G1 X178.505 Y146.781 E0.01690
G1 X150.538 Y118.814 E1.24687
G1 X151.074 Y118.814 E0.01690
G1 X179.041 Y146.781 E1.24687
G1 X179.577 Y146.781 E0.01690
G1 X151.610 Y118.814 E1.24687
G1 X152.146 Y118.814 E0.01690
G1 X180.113 Y146.781 E1.24687
G1 X180.650 Y146.781 E0.01690
G1 X152.682 Y118.814 E1.24687
G1 X153.218 Y118.814 E0.01690
G1 X181.186 Y146.781 E1.24687
G1 X181.722 Y146.781 E0.01690
G1 X153.755 Y118.814 E1.24687
G1 X154.291 Y118.814 E0.01690
G1 X182.258 Y146.781 E1.24687
G1 X182.794 Y146.781 E0.01690
G1 X154.827 Y118.814 E1.24687
G1 X155.363 Y118.814 E0.01690
G1 X183.331 Y146.781 E1.24687
G1 X183.867 Y146.781 E0.01690
G1 X155.899 Y118.814 E1.24687
G1 X156.435 Y118.814 E0.01690
G1 X184.403 Y146.781 E1.24687
M73 Q1 S273
M73 P1 R269
G1 X184.939 Y146.781 E0.01690
G1 X156.972 Y118.814 E1.24687
G1 X157.508 Y118.814 E0.01690
G1 X185.475 Y146.781 E1.24687
G1 X186.011 Y146.781 E0.01690
G1 X158.044 Y118.814 E1.24687
G1 X158.580 Y118.814 E0.01690
G1 X186.548 Y146.781 E1.24687
G1 X187.084 Y146.781 E0.01690
G1 X159.116 Y118.814 E1.24687
G1 X159.652 Y118.814 E0.01690
G1 X187.620 Y146.781 E1.24687
G1 X188.156 Y146.781 E0.01690
G1 X160.189 Y118.814 E1.24687
G1 X160.725 Y118.814 E0.01690
G1 X188.692 Y146.781 E1.24687
G1 X189.228 Y146.781 E0.01690
G1 X161.261 Y118.814 E1.24687
G1 X161.797 Y118.814 E0.01690
G1 X189.765 Y146.781 E1.24687
G1 X190.301 Y146.781 E0.01690
G1 X162.333 Y118.814 E1.24687
G1 X162.869 Y118.814 E0.01690
G1 X190.837 Y146.781 E1.24687
G1 X191.178 Y146.781 E0.01074
G1 X191.178 Y146.586 E0.00616
G1 X163.406 Y118.814 E1.23815
G1 X163.942 Y118.814 E0.01690
G1 X191.178 Y146.050 E1.21425
G1 X191.178 Y145.514 E0.01690
G1 X163.997 Y118.333 E1.21179
G1 X163.997 Y117.797 E0.01690
G1 X191.178 Y144.977 E1.21179
G1 X191.178 Y144.441 E0.01690
G1 X163.997 Y117.260 E1.21179
G1 X163.997 Y116.724 E0.01690
G1 X191.178 Y143.905 E1.21179
G1 X191.178 Y143.369 E0.01690
G1 X163.997 Y116.188 E1.21179
G1 X163.997 Y115.652 E0.01690
G1 X191.178 Y142.833 E1.21179
G1 X191.178 Y142.297 E0.01690
G1 X163.997 Y115.116 E1.21179
G1 X163.997 Y114.580 E0.01690
G1 X191.178 Y141.760 E1.21179
G1 X191.178 Y141.224 E0.01690
G1 X163.997 Y114.043 E1.21179
G1 X163.997 Y113.507 E0.01690
G1 X191.347 Y140.858 E1.21936
G1 E-0.80000 F2100.00000
G1 Z0.800 F10800.000
G1 X191.347 Y138.177
G1 Z0.200
G1 E0.80000 F2100.00000
G1 F1200.000
G1 X169.211 Y116.040 E0.98691
G1 X168.915 Y116.130 E0.00975
G1 X168.778 Y116.144 E0.00434
G1 X191.178 Y138.543 E0.99864
G1 X191.178 Y139.080 E0.01690
G1 X168.286 Y116.188 E1.02055
G1 X167.690 Y116.129 E0.01888
G1 X191.178 Y139.616 E1.04712
G1 X191.178 Y140.152 E0.01690
G1 X163.997 Y112.971 E1.21179
G1 X163.997 Y112.435 E0.01690
G1 X165.243 Y113.681 E0.05555
G1 X165.183 Y113.085 E0.01888
G1 X163.997 Y111.899 E0.05288
G1 X163.997 Y111.363 E0.01690
G1 X165.228 Y112.593 E0.05488
G1 X165.241 Y112.457 E0.00434
G1 X165.331 Y112.161 E0.00975
G1 X163.997 Y110.826 E0.05948
G1 X163.997 Y110.290 E0.01690
G1 X165.474 Y111.767 E0.06586
G1 X165.661 Y111.418 E0.01249
G1 X163.997 Y109.754 E0.07419
G1 X163.997 Y109.218 E0.01690
G1 X165.889 Y111.110 E0.08435
G1 X166.138 Y110.823 E0.01198
G1 X164.185 Y108.870 E0.08707
G1 X164.721 Y108.870 E0.01690
G1 X166.432 Y110.581 E0.07629
G1 X166.570 Y110.469 E0.00560
G1 X166.756 Y110.369 E0.00667
G1 X165.257 Y108.870 E0.06683
G1 X165.793 Y108.870 E0.01690
G1 X167.106 Y110.182 E0.05850
G1 X167.516 Y110.057 E0.01354
G1 X166.330 Y108.870 E0.05290
G1 X166.866 Y108.870 E0.01690
G1 X167.971 Y109.975 E0.04927
G1 X168.288 Y109.944 E0.01004
G1 X168.495 Y109.963 E0.00655
G1 X167.402 Y108.870 E0.04873
G1 X167.938 Y108.870 E0.01690
G1 X169.393 Y110.324 E0.06484
G1 E-0.80000 F2100.00000
G1 Z0.800 F10800.000
G1 X172.427 Y109.069
G1 Z0.200
G1 E0.80000 F2100.00000
G1 F1200.000
G1 X172.227 Y108.870 E0.00888
G1 X171.691 Y108.870 E0.01690
G1 X172.257 Y109.436 E0.02522
G1 X172.257 Y109.972 E0.01690
G1 X171.155 Y108.870 E0.04913
G1 X170.619 Y108.870 E0.01690
G1 X172.257 Y110.508 E0.07303
G1 X172.257 Y111.044 E0.01690
G1 X170.083 Y108.870 E0.09693
G1 X169.547 Y108.870 E0.01690
G1 X172.257 Y111.580 E0.12084
G1 X172.257 Y112.116 E0.01690
G1 X169.010 Y108.870 E0.14474
M73 Q1 S272
M73 P1 R268
G1 X168.474 Y108.870 E0.01690
G1 X172.427 Y112.822 E0.17621
G1 E-0.80000 F2100.00000
G1 Z0.800 F10800.000
G1 X171.047 Y111.979
G1 Z0.200
G1 E0.80000 F2100.00000
G1 F1200.000
G1 X172.257 Y113.189 E0.05395
G1 X172.257 Y113.725 E0.01690
G1 X171.411 Y112.879 E0.03773
G1 X171.429 Y113.066 E0.00593
G1 X171.396 Y113.400 E0.01059
G1 X172.257 Y114.261 E0.03837
G1 X172.257 Y114.797 E0.01690
G1 X171.315 Y113.855 E0.04201
G1 X171.189 Y114.266 E0.01354
G1 X172.257 Y115.333 E0.04760
G1 X172.257 Y115.870 E0.01690
G1 X171.003 Y114.615 E0.05593
G1 X170.903 Y114.802 E0.00667
G1 X170.790 Y114.939 E0.00560
G1 X172.257 Y116.406 E0.06540
G1 X172.257 Y116.942 E0.01690
G1 X170.549 Y115.233 E0.07617
G1 X170.262 Y115.483 E0.01198
G1 X172.257 Y117.478 E0.08897
G1 X172.257 Y118.014 E0.01690
G1 X169.953 Y115.711 E0.10271
G1 X169.604 Y115.897 E0.01249
G1 X191.178 Y137.471 E0.96182
G1 X191.178 Y136.935 E0.01690
G1 X173.057 Y118.814 E0.80788
G1 X173.593 Y118.814 E0.01690
G1 X191.178 Y136.399 E0.78398
G1 X191.178 Y135.863 E0.01690
G1 X174.129 Y118.814 E0.76007
G1 X174.665 Y118.814 E0.01690
G1 X191.178 Y135.326 E0.73617
G1 X191.178 Y134.790 E0.01690
G1 X175.201 Y118.814 E0.71226
G1 X175.738 Y118.814 E0.01690
G1 X191.178 Y134.254 E0.68836
G1 X191.178 Y133.718 E0.01690
G1 X176.274 Y118.814 E0.66446
G1 X176.810 Y118.814 E0.01690
G1 X191.178 Y133.182 E0.64055
G1 X191.178 Y132.646 E0.01690
G1 X177.346 Y118.814 E0.61665
G1 X177.882 Y118.814 E0.01690
G1 X191.178 Y132.109 E0.59274
G1 X191.178 Y131.573 E0.01690
G1 X178.418 Y118.814 E0.56884
G1 X178.955 Y118.814 E0.01690
G1 X191.178 Y131.037 E0.54494
G1 X191.178 Y130.501 E0.01690
G1 X179.491 Y118.814 E0.52103
G1 X180.027 Y118.814 E0.01690
G1 X191.178 Y129.965 E0.49713
G1 X191.178 Y129.428 E0.01690
G1 X180.563 Y118.814 E0.47322
G1 X181.099 Y118.814 E0.01690
G1 X191.178 Y128.892 E0.44932
G1 X191.178 Y128.356 E0.01690
G1 X181.635 Y118.814 E0.42542
G1 X182.172 Y118.814 E0.01690
