; generated by PrusaSlicer 2.2.0+win64 on 2022-01-20 at 23:08:05 UTC

; 

; external perimeters extrusion width = 0.45mm
; perimeters extrusion width = 0.45mm
; infill extrusion width = 0.45mm
; solid infill extrusion width = 0.45mm
; top infill extrusion width = 0.40mm
; first layer extrusion width = 0.42mm

M73 P0 R110
M73 Q0 S110
M201 X1000 Y1000 Z200 E5000 ; sets maximum accelerations, mm/sec^2
M203 X200 Y200 Z12 E120 ; sets maximum feedrates, mm/sec
M204 P1250 R1250 T1250 ; sets acceleration (P, T) and retract acceleration (R), mm/sec^2
M205 X8.00 Y8.00 Z0.40 E4.50 ; sets the jerk limits, mm/sec
M205 S0 T0 ; sets the minimum extruding and travel feed rate, mm/sec
M107
M862.3 P "MK3S" ; printer model check
M862.1 P0.4 ; nozzle diameter check
G90 ; use absolute coordinates
M83 ; extruder relative mode
M104 S225 ; set extruder temp
M140 S60 ; set bed temp
M190 S60 ; wait for bed temp
M109 S225 ; wait for extruder temp
G28 W ; home all without mesh bed level
G80 ; mesh bed leveling
G1 Y-3.0 F1000.0 ; go outside print area
G92 E0.0
G1 X60.0 E9.0 F1000.0 ; intro line
M73 Q0 S110
M73 P0 R110
G1 X100.0 E12.5 F1000.0 ; intro line
G92 E0.0
M221 S95

; Don't change E values below. Excessive value can damage the printer.
M907 E430 ; set extruder motor current
G21 ; set units to millimeters
G90 ; use absolute coordinates
M83 ; use relative distances for extrusion
M900 K0.05 ; Filament gcode LA 1.5
M900 K30 ; Filament gcode LA 1.0
;BEFORE_LAYER_CHANGE
G92 E0.0
;0.2


G1 E-0.80000 F2100.00000
G1 Z0.400 F10800.000
;AFTER_LAYER_CHANGE
;0.2
G1 X51.989 Y56.003
G1 Z0.200
G1 E0.80000 F2100.00000
M204 S1000
G1 F1200.000
G1 X52.444 Y55.060 E0.03282
G1 X52.917 Y54.505 E0.02288
G1 X53.597 Y54.011 E0.02633
G1 X54.355 Y53.707 E0.02563
G1 X55.172 Y53.593 E0.02586
G1 X121.008 Y53.593 E2.06422
G1 X194.828 Y53.689 E2.31459
G1 X195.658 Y53.805 E0.02628
G1 X196.438 Y54.126 E0.02646
G1 X197.123 Y54.638 E0.02681
G1 X197.629 Y55.261 E0.02515
G1 X198.022 Y56.137 E0.03012
G1 X198.152 Y57.051 E0.02894
G1 X198.141 Y145.128 E2.76159
G1 X198.063 Y145.670 E0.01716
G1 X197.860 Y146.275 E0.02003
G1 X197.552 Y146.822 E0.01967
G1 X197.175 Y147.275 E0.01848
G1 X188.492 Y155.366 E0.37212
G1 X187.976 Y155.756 E0.02029
G1 X187.079 Y156.147 E0.03066
G1 X186.184 Y156.264 E0.02831
G1 X149.291 Y156.292 E1.15677
G1 X63.665 Y156.163 E2.68472
G1 X63.035 Y156.081 E0.01994
G1 X62.456 Y155.885 E0.01916
G1 X61.589 Y155.343 E0.03207
G1 X52.912 Y147.266 E0.37170
G1 X52.420 Y146.686 E0.02383
G1 X51.973 Y145.707 E0.03374
G1 X51.847 Y144.820 E0.02809
G1 X51.847 Y56.970 E2.75448
G1 X51.981 Y56.063 E0.02875
; printing object L PLATE.stl id:3 copy 0
G1 F8640.000
G1 X52.444 Y55.060 E-0.25496
G1 X52.917 Y54.505 E-0.16850
G1 X53.597 Y54.011 E-0.19394
G1 X54.170 Y53.781 E-0.14261
G1 E-0.04000 F2100.00000
G1 Z0.600 F10800.000
G1 X174.772 Y117.030
G1 Z0.200
G1 E0.80000 F2100.00000
G1 F1200.000
G1 X175.146 Y116.305 E0.02558
G1 X175.650 Y115.664 E0.02558
G1 X176.266 Y115.130 E0.02558
G1 X176.973 Y114.722 E0.02558
G1 X177.744 Y114.455 E0.02558
G1 X178.551 Y114.339 E0.02558
G1 X179.366 Y114.378 E0.02558
G1 X180.159 Y114.570 E0.02558
G1 X180.901 Y114.909 E0.02558
G1 X181.565 Y115.382 E0.02558
G1 X182.128 Y115.973 E0.02558
G1 X182.569 Y116.659 E0.02558
G1 X182.872 Y117.416 E0.02558
G1 X183.027 Y118.217 E0.02558
G1 X183.027 Y119.033 E0.02558
G1 X182.872 Y119.834 E0.02558
G1 X182.569 Y120.591 E0.02558
G1 X182.128 Y121.277 E0.02558
G1 X181.565 Y121.868 E0.02558
G1 X180.901 Y122.341 E0.02558
G1 X180.159 Y122.680 E0.02558
G1 X179.366 Y122.872 E0.02558
G1 X178.551 Y122.911 E0.02558
G1 X177.744 Y122.795 E0.02558
G1 X176.973 Y122.528 E0.02558
G1 X176.266 Y122.120 E0.02558
G1 X175.650 Y121.586 E0.02558
G1 X175.146 Y120.945 E0.02558
G1 X174.772 Y120.220 E0.02558
G1 X174.542 Y119.437 E0.02558
G1 X174.465 Y118.625 E0.02558
G1 X174.542 Y117.813 E0.02558
G1 X174.755 Y117.088 E0.02369
G1 X175.117 Y117.194 F10800.000
G1 F1200.000
G1 X175.464 Y116.510 E0.02406
G1 X175.924 Y115.926 E0.02332
G1 X176.486 Y115.439 E0.02332
G1 X177.130 Y115.067 E0.02332
G1 X177.833 Y114.824 E0.02332
G1 X178.569 Y114.718 E0.02332
G1 X179.312 Y114.753 E0.02332
G1 X180.035 Y114.928 E0.02332
G1 X180.711 Y115.237 E0.02332
G1 X181.317 Y115.669 E0.02332
G1 X181.830 Y116.207 E0.02332
G1 X182.232 Y116.833 E0.02332
G1 X182.509 Y117.523 E0.02332
G1 X182.649 Y118.253 E0.02332
G1 X182.649 Y118.997 E0.02332
G1 X182.509 Y119.727 E0.02332
G1 X182.232 Y120.418 E0.02332
G1 X181.830 Y121.043 E0.02332
G1 X181.317 Y121.582 E0.02332
G1 X180.711 Y122.013 E0.02332
G1 X180.035 Y122.322 E0.02332
G1 X179.312 Y122.497 E0.02332
G1 X178.569 Y122.533 E0.02332
G1 X177.833 Y122.427 E0.02332
G1 X177.130 Y122.183 E0.02332
G1 X176.486 Y121.812 E0.02332
G1 X175.924 Y121.325 E0.02332
G1 X175.464 Y120.740 E0.02332
G1 X175.124 Y120.079 E0.02332
G1 X174.914 Y119.365 E0.02332
G1 X174.843 Y118.625 E0.02332
G1 X174.914 Y117.885 E0.02332
G1 X175.100 Y117.252 E0.02068
G1 X174.868 Y116.881 F10800.000
G1 F8640.000
G1 X175.464 Y116.510 E-0.19080
G1 X175.924 Y115.926 E-0.17172
G1 X176.486 Y115.439 E-0.17172
G1 X177.130 Y115.067 E-0.17172
G1 X177.351 Y114.990 E-0.05404
G1 E-0.04000 F2100.00000
G1 Z0.600 F10800.000
G1 X178.551 Y72.421
G1 Z0.200
G1 E0.80000 F2100.00000
G1 F1200.000
G1 X177.744 Y72.305 E0.02558
G1 X176.973 Y72.038 E0.02558
G1 X176.266 Y71.630 E0.02558
G1 X175.650 Y71.096 E0.02558
G1 X175.146 Y70.455 E0.02558
G1 X174.772 Y69.730 E0.02558
G1 X174.542 Y68.947 E0.02558
G1 X174.465 Y68.135 E0.02558
G1 X174.542 Y67.323 E0.02558
G1 X174.772 Y66.540 E0.02558
G1 X175.146 Y65.815 E0.02558
G1 X175.650 Y65.174 E0.02558
G1 X176.266 Y64.640 E0.02558
G1 X176.973 Y64.232 E0.02558
G1 X177.744 Y63.965 E0.02558
G1 X178.551 Y63.849 E0.02558
G1 X179.366 Y63.888 E0.02558
G1 X180.159 Y64.080 E0.02558
G1 X180.901 Y64.419 E0.02558
G1 X181.565 Y64.892 E0.02558
G1 X182.128 Y65.483 E0.02558
G1 X182.569 Y66.169 E0.02558
G1 X182.872 Y66.926 E0.02558
G1 X183.027 Y67.727 E0.02558
G1 X183.027 Y68.543 E0.02558
G1 X182.872 Y69.344 E0.02558
G1 X182.569 Y70.101 E0.02558
G1 X182.128 Y70.787 E0.02558
G1 X181.565 Y71.378 E0.02558
G1 X180.901 Y71.851 E0.02558
G1 X180.159 Y72.190 E0.02558
G1 X179.366 Y72.382 E0.02558
G1 X178.611 Y72.418 E0.02369
G1 X178.593 Y72.041 F10800.000
G1 F1200.000
G1 X177.833 Y71.937 E0.02406
G1 X177.130 Y71.693 E0.02332
G1 X176.486 Y71.322 E0.02332
G1 X175.924 Y70.835 E0.02332
G1 X175.464 Y70.250 E0.02332
G1 X175.124 Y69.589 E0.02332
G1 X174.914 Y68.875 E0.02332
G1 X174.843 Y68.135 E0.02332
G1 X174.914 Y67.395 E0.02332
G1 X175.124 Y66.681 E0.02332
G1 X175.464 Y66.020 E0.02332
G1 X175.924 Y65.436 E0.02332
G1 X176.486 Y64.949 E0.02332
G1 X177.130 Y64.577 E0.02332
G1 X177.833 Y64.334 E0.02332
G1 X178.569 Y64.228 E0.02332
G1 X179.312 Y64.263 E0.02332
G1 X180.035 Y64.438 E0.02332
G1 X180.711 Y64.747 E0.02332
G1 X181.317 Y65.179 E0.02332
G1 X181.830 Y65.717 E0.02332
G1 X182.232 Y66.343 E0.02332
G1 X182.509 Y67.033 E0.02332
G1 X182.649 Y67.763 E0.02332
G1 X182.649 Y68.507 E0.02332
G1 X182.509 Y69.237 E0.02332
G1 X182.232 Y69.928 E0.02332
G1 X181.830 Y70.553 E0.02332
G1 X181.317 Y71.092 E0.02332
G1 X180.711 Y71.523 E0.02332
G1 X180.035 Y71.832 E0.02332
G1 X179.312 Y72.007 E0.02332
G1 X178.653 Y72.039 E0.02068
G1 X178.378 Y72.379 F10800.000
G1 F8640.000
G1 X177.833 Y71.937 E-0.19080
G1 X177.130 Y71.693 E-0.17172
G1 X176.486 Y71.322 E-0.17172
G1 X175.924 Y70.835 E-0.17172
G1 X175.779 Y70.651 E-0.05404
G1 E-0.04000 F2100.00000
G1 Z0.600 F10800.000
G1 X165.707 Y56.962
G1 Z0.200
G1 E0.80000 F2100.00000
G1 F1200.000
G1 X165.782 Y56.887 E0.00335
G1 X165.937 Y56.852 E0.00497
G1 X194.724 Y56.852 E0.90259
G1 X194.878 Y56.887 E0.00497
G1 X194.921 Y56.919 E0.00169
G1 X194.974 Y57.012 E0.00335
G1 X194.988 Y57.117 E0.00332
G1 X194.988 Y144.860 E2.75111
G1 X194.967 Y144.983 E0.00394
G1 X194.891 Y145.083 E0.00394
G1 X186.381 Y153.008 E0.36460
G1 X186.247 Y153.088 E0.00490
G1 X186.142 Y153.085 E0.00330
G1 X186.011 Y152.999 E0.00490
G1 X166.759 Y133.250 E0.86476
G1 X168.228 Y133.242 E0.04607
G1 X168.640 Y133.188 E0.01300
G1 X169.072 Y133.009 E0.01468
G1 X169.444 Y132.724 E0.01468
G1 X169.729 Y132.352 E0.01468
G1 X169.908 Y131.919 E0.01468
G1 X169.962 Y131.507 E0.01305
G1 X169.962 Y123.184 E0.26097
G1 X169.908 Y122.771 E0.01305
G1 X169.729 Y122.338 E0.01468
G1 X169.444 Y121.967 E0.01468
G1 X169.072 Y121.682 E0.01468
G1 X168.640 Y121.502 E0.01468
G1 X168.227 Y121.448 E0.01305
G1 X165.937 Y121.448 E0.07180
G1 X165.832 Y121.434 E0.00332
G1 X165.740 Y121.381 E0.00335
G1 X165.707 Y121.338 E0.00169
G1 X165.672 Y121.184 E0.00497
G1 X165.672 Y57.117 E2.00877
G1 X165.685 Y57.018 E0.00312
G1 X165.592 Y56.557 F10800.000
G1 F1200.000
G1 X165.734 Y56.499 E0.00480
G1 X165.912 Y56.475 E0.00565
G1 X194.748 Y56.475 E0.90414
G1 X194.927 Y56.499 E0.00565
G1 X195.069 Y56.557 E0.00480
G1 X195.190 Y56.650 E0.00480
G1 X195.283 Y56.772 E0.00480
G1 X195.342 Y56.913 E0.00480
G1 X195.365 Y57.092 E0.00565
G1 X195.365 Y144.879 E2.75250
G1 X195.351 Y145.020 E0.00444
G1 X195.314 Y145.135 E0.00378
G1 X195.255 Y145.239 E0.00378
G1 X195.162 Y145.346 E0.00444
G1 X186.621 Y153.301 E0.36597
G1 X186.476 Y153.404 E0.00557
G1 X186.335 Y153.458 E0.00473
G1 X186.185 Y153.474 E0.00473
G1 X186.036 Y153.451 E0.00473
G1 X185.897 Y153.390 E0.00473
G1 X185.758 Y153.280 E0.00557
G1 X166.034 Y133.046 E0.88597
G1 X165.993 Y132.974 E0.00261
G1 X165.996 Y132.911 E0.00197
G1 X166.051 Y132.877 E0.00202
G1 X168.203 Y132.865 E0.06748
G1 X168.541 Y132.820 E0.01070
G1 X168.882 Y132.679 E0.01157
G1 X169.175 Y132.455 E0.01157
G1 X169.399 Y132.162 E0.01157
G1 X169.541 Y131.821 E0.01157
G1 X169.585 Y131.482 E0.01072
G1 X169.585 Y123.208 E0.25942
G1 X169.541 Y122.869 E0.01072
G1 X169.399 Y122.528 E0.01157
G1 X169.175 Y122.236 E0.01157
G1 X168.882 Y122.011 E0.01157
G1 X168.541 Y121.870 E0.01157
G1 X168.202 Y121.825 E0.01072
G1 X165.912 Y121.825 E0.07180
G1 X165.734 Y121.802 E0.00565
G1 X165.592 Y121.743 E0.00480
G1 X165.471 Y121.650 E0.00480
G1 X165.377 Y121.528 E0.00480
G1 X165.319 Y121.387 E0.00480
G1 X165.295 Y121.208 E0.00565
G1 X165.295 Y57.092 E2.01032
G1 X165.319 Y56.913 E0.00565
G1 X165.377 Y56.772 E0.00480
G1 X165.471 Y56.650 E0.00480
G1 X165.544 Y56.594 E0.00292
G1 X165.725 Y56.634 F10800.000
G1 F8640.000
G1 X165.734 Y56.499 E-0.04887
G1 X165.912 Y56.475 E-0.04161
G1 X168.812 Y56.475 E-0.66953
G1 E-0.04000 F2100.00000
G1 Z0.600 F10800.000
G1 X173.729 Y56.965
G1 Z0.200
G1 E0.80000 F2100.00000
M73 Q0 S109
G1 F1200.000
G1 X180.849 Y64.085 E0.31629
M73 P0 R109
G1 X180.252 Y63.812 E0.02062
G1 X179.974 Y63.745 E0.00896
G1 X173.365 Y57.135 E0.29366
G1 X172.830 Y57.135 E0.01679
G1 X179.297 Y63.602 E0.28730
G1 X178.736 Y63.575 E0.01764
G1 X172.296 Y57.135 E0.28611
G1 X171.762 Y57.135 E0.01679
G1 X178.236 Y63.609 E0.28762
G1 X177.769 Y63.676 E0.01483
G1 X171.227 Y57.135 E0.29061
G1 X170.693 Y57.135 E0.01679
G1 X177.358 Y63.800 E0.29610
G1 X176.961 Y63.937 E0.01320
G1 X170.159 Y57.135 E0.30220
G1 X169.624 Y57.135 E0.01679
G1 X176.607 Y64.117 E0.31020
G1 X176.268 Y64.313 E0.01229
G1 X169.090 Y57.135 E0.31889
G1 X168.556 Y57.135 E0.01679
G1 X175.956 Y64.535 E0.32877
G1 X175.670 Y64.783 E0.01190
G1 X168.022 Y57.135 E0.33979
G1 X167.487 Y57.135 E0.01679
G1 X175.394 Y65.042 E0.35129
G1 X175.159 Y65.341 E0.01195
G1 X166.953 Y57.135 E0.36458
G1 X166.419 Y57.135 E0.01679
G1 X174.924 Y65.640 E0.37787
G1 X174.738 Y65.989 E0.01241
G1 X165.955 Y57.206 E0.39021
G1 X165.955 Y57.740 E0.01679
G1 X174.556 Y66.341 E0.38213
G1 X174.508 Y66.435 E0.00330
G1 X174.419 Y66.738 E0.00994
G1 X165.955 Y58.274 E0.37603
G1 X165.955 Y58.809 E0.01679
G1 X174.298 Y67.151 E0.37065
G1 X174.263 Y67.269 E0.00386
G1 X174.230 Y67.618 E0.01100
G1 X165.955 Y59.343 E0.36763
G1 X165.955 Y59.877 E0.01679
G1 X174.183 Y68.106 E0.36556
G1 X174.234 Y68.690 E0.01843
G1 X165.955 Y60.412 E0.36779
G1 X165.955 Y60.946 E0.01679
G1 X174.368 Y69.359 E0.37378
G1 X174.508 Y69.835 E0.01559
G1 X174.719 Y70.244 E0.01444
G1 X165.955 Y61.480 E0.38935
G1 X165.955 Y62.015 E0.01679
G1 X194.705 Y90.765 E1.27731
G1 X194.705 Y90.231 E0.01679
G1 X176.657 Y72.182 E0.80184
G1 X176.855 Y72.296 E0.00717
G1 X177.544 Y72.535 E0.02292
G1 X194.705 Y89.696 E0.76243
G1 X194.705 Y89.162 E0.01679
G1 X178.200 Y72.656 E0.73332
G1 X178.538 Y72.705 E0.01073
G1 X178.771 Y72.694 E0.00735
G1 X194.705 Y88.628 E0.70791
G1 X194.705 Y88.093 E0.01679
G1 X179.281 Y72.669 E0.68526
G1 X179.406 Y72.663 E0.00393
G1 X179.731 Y72.585 E0.01049
G1 X194.705 Y87.559 E0.66528
G1 X194.705 Y87.025 E0.01679
G1 X180.161 Y72.480 E0.64618
G1 X180.252 Y72.458 E0.00293
G1 X180.541 Y72.326 E0.01000
G1 X194.705 Y86.490 E0.62929
G1 X194.705 Y85.956 E0.01679
G1 X180.908 Y72.159 E0.61299
G1 X181.043 Y72.097 E0.00466
G1 X181.240 Y71.956 E0.00761
G1 X194.705 Y85.422 E0.59824
G1 X194.705 Y84.887 E0.01679
G1 X181.552 Y71.734 E0.58437
G1 X181.751 Y71.592 E0.00767
G1 X181.846 Y71.493 E0.00430
G1 X194.705 Y84.353 E0.57133
G1 X194.705 Y83.819 E0.01679
G1 X182.106 Y71.220 E0.55974
G1 X182.364 Y70.943 E0.01188
G1 X194.705 Y83.285 E0.54830
G1 X194.705 Y82.750 E0.01679
G1 X182.573 Y70.618 E0.53901
G1 X182.782 Y70.293 E0.01215
G1 X194.705 Y82.216 E0.52972
G1 X194.705 Y81.682 E0.01679
G1 X182.945 Y69.922 E0.52247
G1 X183.098 Y69.540 E0.01291
G1 X194.705 Y81.147 E0.51568
G1 X194.705 Y80.613 E0.01679
G1 X183.205 Y69.112 E0.51095
G1 X183.291 Y68.664 E0.01433
G1 X194.705 Y80.079 E0.50711
G1 X194.705 Y79.544 E0.01679
G1 X183.309 Y68.148 E0.50630
G1 X183.309 Y67.700 E0.01408
G1 X183.289 Y67.593 E0.00342
G1 X194.705 Y79.010 E0.50722
G1 X194.705 Y78.476 E0.01679
G1 X183.161 Y66.932 E0.51288
G1 X183.145 Y66.846 E0.00273
G1 X182.834 Y66.070 E0.02626
G1 X194.705 Y77.942 E0.52742
G1 X194.705 Y77.407 E0.01679
G1 X174.433 Y57.135 E0.90065
G1 X174.968 Y57.135 E0.01679
G1 X194.705 Y76.873 E0.87691
G1 X194.705 Y76.339 E0.01679
G1 X175.502 Y57.135 E0.85317
G1 X176.036 Y57.135 E0.01679
G1 X194.705 Y75.804 E0.82943
G1 X194.705 Y75.270 E0.01679
G1 X176.570 Y57.135 E0.80570
G1 X177.105 Y57.135 E0.01679
G1 X194.705 Y74.736 E0.78196
G1 X194.705 Y74.201 E0.01679
G1 X177.639 Y57.135 E0.75822
G1 X178.173 Y57.135 E0.01679
G1 X194.705 Y73.667 E0.73448
G1 X194.705 Y73.133 E0.01679
G1 X178.708 Y57.135 E0.71074
G1 X179.242 Y57.135 E0.01679
G1 X194.705 Y72.598 E0.68701
G1 X194.705 Y72.064 E0.01679
G1 X179.776 Y57.135 E0.66327
G1 X180.311 Y57.135 E0.01679
G1 X194.705 Y71.530 E0.63953
G1 X194.705 Y70.996 E0.01679
G1 X180.845 Y57.135 E0.61579
G1 X181.379 Y57.135 E0.01679
G1 X194.705 Y70.461 E0.59205
G1 X194.705 Y69.927 E0.01679
G1 X181.913 Y57.135 E0.56832
G1 X182.448 Y57.135 E0.01679
G1 X194.705 Y69.393 E0.54458
G1 X194.705 Y68.858 E0.01679
G1 X182.982 Y57.135 E0.52084
G1 X183.516 Y57.135 E0.01679
G1 X194.705 Y68.324 E0.49710
M73 Q1 S108
G1 X194.705 Y67.790 E0.01679
G1 X184.051 Y57.135 E0.47336
M73 P1 R108
G1 X184.585 Y57.135 E0.01679
G1 X194.705 Y67.255 E0.44963
G1 X194.705 Y66.721 E0.01679
G1 X185.119 Y57.135 E0.42589
G1 X185.654 Y57.135 E0.01679
G1 X194.705 Y66.187 E0.40215
G1 X194.705 Y65.652 E0.01679
G1 X186.188 Y57.135 E0.37841
G1 X186.722 Y57.135 E0.01679
G1 X194.705 Y65.118 E0.35467
G1 X194.705 Y64.584 E0.01679
G1 X187.257 Y57.135 E0.33094
G1 X187.791 Y57.135 E0.01679
G1 X194.705 Y64.050 E0.30720
G1 X194.705 Y63.515 E0.01679
G1 X188.325 Y57.135 E0.28346
G1 X188.859 Y57.135 E0.01679
G1 X194.705 Y62.981 E0.25972
G1 X194.705 Y62.447 E0.01679
G1 X189.394 Y57.135 E0.23598
G1 X189.928 Y57.135 E0.01679
G1 X194.705 Y61.912 E0.21225
G1 X194.705 Y61.378 E0.01679
G1 X190.462 Y57.135 E0.18851
G1 X190.997 Y57.135 E0.01679
G1 X194.705 Y60.844 E0.16477
G1 X194.705 Y60.309 E0.01679
G1 X191.531 Y57.135 E0.14103
G1 X192.065 Y57.135 E0.01679
G1 X194.705 Y59.775 E0.11729
G1 X194.705 Y59.241 E0.01679
G1 X192.600 Y57.135 E0.09356
G1 X193.134 Y57.135 E0.01679
G1 X194.705 Y58.707 E0.06982
G1 X194.705 Y58.172 E0.01679
G1 X193.668 Y57.135 E0.04608
G1 X194.203 Y57.135 E0.01679
G1 X194.875 Y57.808 E0.02988
G1 F8640.000
G1 X194.203 Y57.135 E-0.21963
G1 X193.668 Y57.135 E-0.12337
G1 X194.705 Y58.172 E-0.33870
G1 X194.705 Y58.511 E-0.07829
G1 E-0.04000 F2100.00000
G1 Z0.600 F10800.000
G1 X194.875 Y91.469
G1 Z0.200
