; generated by PrusaSlicer 2.2.0+win64 on 2022-01-20 at 23:15:16 UTC

; 

; external perimeters extrusion width = 0.45mm
; perimeters extrusion width = 0.45mm
; infill extrusion width = 0.45mm
; solid infill extrusion width = 0.45mm
; top infill extrusion width = 0.40mm
; first layer extrusion width = 0.42mm

M73 P0 R119
M73 Q0 S119
M201 X1000 Y1000 Z200 E5000 ; sets maximum accelerations, mm/sec^2
M203 X200 Y200 Z12 E120 ; sets maximum feedrates, mm/sec
M204 P1250 R1250 T1250 ; sets acceleration (P, T) and retract acceleration (R), mm/sec^2
M205 X8.00 Y8.00 Z0.40 E4.50 ; sets the jerk limits, mm/sec
M205 S0 T0 ; sets the minimum extruding and travel feed rate, mm/sec
M107
M862.3 P "MK3S" ; printer model check
M862.1 P0.4 ; nozzle diameter check
G90 ; use absolute coordinates
M83 ; extruder relative mode
M104 S225 ; set extruder temp
M140 S60 ; set bed temp
M190 S60 ; wait for bed temp
M109 S225 ; wait for extruder temp
G28 W ; home all without mesh bed level
G80 ; mesh bed leveling
G1 Y-3.0 F1000.0 ; go outside print area
G92 E0.0
G1 X60.0 E9.0 F1000.0 ; intro line
M73 Q0 S119
M73 P0 R119
G1 X100.0 E12.5 F1000.0 ; intro line
G92 E0.0
M221 S95

; Don't change E values below. Excessive value can damage the printer.
M907 E430 ; set extruder motor current
G21 ; set units to millimeters
G90 ; use absolute coordinates
M83 ; use relative distances for extrusion
M900 K0.05 ; Filament gcode LA 1.5
M900 K30 ; Filament gcode LA 1.0
;BEFORE_LAYER_CHANGE
G92 E0.0
;0.2


G1 E-0.80000 F2100.00000
G1 Z0.400 F10800.000
;AFTER_LAYER_CHANGE
;0.2
G1 X77.403 Y79.710
G1 Z0.200
G1 E0.80000 F2100.00000
M204 S1000
G1 F1200.000
G1 X77.900 Y79.311 E0.02000
G1 X118.182 Y55.419 E1.46847
G1 X118.647 Y55.263 E0.01538
G1 X119.131 Y55.206 E0.01526
G1 X132.170 Y55.206 E0.40883
G1 X132.915 Y55.327 E0.02367
G1 X133.584 Y55.675 E0.02367
G1 X177.756 Y88.811 E1.73135
G1 X178.147 Y89.183 E0.01692
G1 X178.441 Y89.631 E0.01680
G1 X178.629 Y90.137 E0.01692
G1 X178.698 Y90.672 E0.01692
G1 X178.683 Y106.721 E0.50320
G1 X173.445 Y135.618 E0.92080
G1 X173.206 Y136.302 E0.02272
G1 X166.498 Y146.496 E0.38263
G1 X166.022 Y146.997 E0.02166
G1 X165.418 Y147.341 E0.02178
G1 X125.805 Y154.769 E1.26370
G1 X93.189 Y154.779 E1.02264
G1 X92.501 Y154.593 E0.02237
G1 X81.821 Y149.765 E0.36748
G1 X81.170 Y149.255 E0.02590
G1 X80.732 Y148.551 E0.02602
G1 X70.457 Y121.715 E0.90098
G1 X70.308 Y121.037 E0.02178
G1 X70.334 Y113.756 E0.22830
G1 X76.795 Y80.881 E1.05047
G1 X77.027 Y80.231 E0.02166
G1 X77.368 Y79.759 E0.01824
; printing object HVAC2.stl id:3 copy 0
G1 F8640.000
G1 X77.900 Y79.311 E-0.16071
G1 X80.132 Y77.987 E-0.59929
G1 E-0.04000 F2100.00000
G1 Z0.600 F10800.000
G1 X116.691 Y142.278
G1 Z0.200
G1 E0.80000 F2100.00000
G1 F1200.000
G1 X117.071 Y142.067 E0.01362
G1 X117.470 Y141.896 E0.01362
G1 X117.884 Y141.766 E0.01362
G1 X118.310 Y141.679 E0.01362
G1 X118.742 Y141.635 E0.01362
G1 X119.176 Y141.635 E0.01362
G1 X119.609 Y141.679 E0.01362
G1 X120.034 Y141.766 E0.01362
G1 X120.402 Y141.882 E0.01209
G1 X120.845 Y142.066 E0.01504
G1 X121.227 Y142.278 E0.01372
G1 X121.584 Y142.526 E0.01362
G1 X121.914 Y142.809 E0.01362
G1 X122.213 Y143.124 E0.01362
G1 X122.479 Y143.468 E0.01362
G1 X122.708 Y143.836 E0.01362
G1 X122.900 Y144.226 E0.01362
G1 X123.051 Y144.634 E0.01362
G1 X123.160 Y145.054 E0.01362
G1 X123.225 Y145.484 E0.01362
G1 X123.247 Y145.917 E0.01362
G1 X123.225 Y146.351 E0.01362
G1 X123.160 Y146.781 E0.01362
G1 X123.051 Y147.201 E0.01362
G1 X122.900 Y147.608 E0.01362
G1 X122.708 Y147.998 E0.01362
G1 X122.479 Y148.367 E0.01362
G1 X122.213 Y148.710 E0.01362
G1 X121.914 Y149.025 E0.01362
G1 X121.584 Y149.308 E0.01362
G1 X121.227 Y149.556 E0.01362
G1 X120.848 Y149.767 E0.01362
G1 X120.448 Y149.939 E0.01362
G1 X120.034 Y150.069 E0.01362
G1 X119.609 Y150.156 E0.01362
G1 X119.176 Y150.200 E0.01362
G1 X118.742 Y150.200 E0.01362
G1 X118.310 Y150.156 E0.01362
G1 X117.884 Y150.069 E0.01362
G1 X117.470 Y149.939 E0.01362
G1 X117.071 Y149.767 E0.01362
G1 X116.691 Y149.556 E0.01362
G1 X116.334 Y149.308 E0.01362
G1 X116.005 Y149.025 E0.01362
G1 X115.706 Y148.710 E0.01362
G1 X115.470 Y148.406 E0.01209
G1 X115.211 Y148.001 E0.01504
G1 X115.019 Y147.608 E0.01372
G1 X114.868 Y147.201 E0.01362
G1 X114.759 Y146.781 E0.01362
G1 X114.693 Y146.351 E0.01362
G1 X114.671 Y145.917 E0.01362
G1 X114.693 Y145.484 E0.01362
G1 X114.759 Y145.054 E0.01362
G1 X114.868 Y144.634 E0.01362
G1 X115.019 Y144.226 E0.01362
G1 X115.210 Y143.836 E0.01362
G1 X115.440 Y143.468 E0.01362
G1 X115.706 Y143.124 E0.01362
G1 X116.005 Y142.809 E0.01362
G1 X116.334 Y142.526 E0.01362
G1 X116.642 Y142.313 E0.01174
G1 X116.857 Y142.622 F10800.000
G1 F1200.000
G1 X117.237 Y142.406 E0.01370
G1 X117.601 Y142.250 E0.01242
G1 X117.979 Y142.132 E0.01242
G1 X118.367 Y142.052 E0.01242
G1 X118.761 Y142.012 E0.01242
G1 X119.157 Y142.012 E0.01242
G1 X119.551 Y142.052 E0.01242
G1 X119.939 Y142.132 E0.01242
G1 X120.273 Y142.236 E0.01095
G1 X120.680 Y142.406 E0.01384
G1 X121.028 Y142.599 E0.01246
G1 X121.353 Y142.825 E0.01242
G1 X121.653 Y143.083 E0.01242
G1 X121.926 Y143.370 E0.01242
G1 X122.169 Y143.683 E0.01242
G1 X122.378 Y144.020 E0.01242
G1 X122.553 Y144.375 E0.01242
G1 X122.690 Y144.747 E0.01242
G1 X122.790 Y145.130 E0.01242
G1 X122.850 Y145.522 E0.01242
G1 X122.870 Y145.917 E0.01242
G1 X122.850 Y146.313 E0.01242
G1 X122.790 Y146.705 E0.01242
G1 X122.690 Y147.088 E0.01242
G1 X122.553 Y147.459 E0.01242
G1 X122.378 Y147.815 E0.01242
G1 X122.169 Y148.151 E0.01242
G1 X121.926 Y148.465 E0.01242
G1 X121.653 Y148.752 E0.01242
G1 X121.353 Y149.010 E0.01242
G1 X121.028 Y149.236 E0.01242
G1 X120.681 Y149.428 E0.01242
G1 X120.317 Y149.584 E0.01242
G1 X119.939 Y149.703 E0.01242
G1 X119.551 Y149.783 E0.01242
G1 X119.157 Y149.823 E0.01242
G1 X118.761 Y149.823 E0.01242
G1 X118.367 Y149.783 E0.01242
G1 X117.979 Y149.703 E0.01242
G1 X117.601 Y149.584 E0.01242
G1 X117.237 Y149.428 E0.01242
G1 X116.891 Y149.236 E0.01242
G1 X116.566 Y149.010 E0.01242
G1 X116.265 Y148.752 E0.01242
G1 X115.992 Y148.465 E0.01242
G1 X115.778 Y148.188 E0.01095
G1 X115.541 Y147.816 E0.01384
G1 X115.366 Y147.459 E0.01246
G1 X115.228 Y147.088 E0.01242
G1 X115.129 Y146.705 E0.01242
G1 X115.069 Y146.313 E0.01242
G1 X115.049 Y145.917 E0.01242
G1 X115.069 Y145.522 E0.01242
G1 X115.129 Y145.130 E0.01242
G1 X115.228 Y144.747 E0.01242
G1 X115.366 Y144.375 E0.01242
G1 X115.540 Y144.020 E0.01242
G1 X115.750 Y143.683 E0.01242
G1 X115.992 Y143.370 E0.01242
G1 X116.265 Y143.083 E0.01242
G1 X116.566 Y142.825 E0.01242
G1 X116.808 Y142.656 E0.00926
G1 X116.841 Y142.222 F10800.000
G1 F8640.000
G1 X117.237 Y142.406 E-0.11466
G1 X117.601 Y142.250 E-0.09147
G1 X117.979 Y142.132 E-0.09147
G1 X118.367 Y142.052 E-0.09147
G1 X118.761 Y142.012 E-0.09147
G1 X119.157 Y142.012 E-0.09147
G1 X119.551 Y142.052 E-0.09147
G1 X119.939 Y142.132 E-0.09147
G1 X119.960 Y142.138 E-0.00506
G1 E-0.04000 F2100.00000
G1 Z0.600 F10800.000
G1 X124.672 Y144.954
G1 Z0.200
G1 E0.80000 F2100.00000
G1 F1200.000
G1 X135.192 Y144.954 E0.32985
G1 X135.192 Y146.880 E0.06038
G1 X124.672 Y146.880 E0.32985
G1 X124.672 Y151.630 E0.14893
G1 X113.246 Y151.630 E0.35825
G1 X113.246 Y140.204 E0.35825
G1 X124.672 Y140.204 E0.35825
G1 X124.672 Y144.894 E0.14705
G1 X125.049 Y144.577 F10800.000
G1 F1200.000
G1 X135.569 Y144.577 E0.32985
G1 X135.569 Y147.257 E0.08403
G1 X125.049 Y147.257 E0.32985
G1 X125.049 Y152.007 E0.14893
G1 X112.869 Y152.007 E0.38190
G1 X112.869 Y139.827 E0.38190
G1 X125.049 Y139.827 E0.38190
G1 X125.049 Y144.517 E0.14705
G1 X125.205 Y144.946 F10800.000
G1 F8640.000
G1 X128.341 Y144.536 E-0.76000
G1 E-0.04000 F2100.00000
G1 Z0.600 F10800.000
G1 X125.681 Y146.767
G1 Z0.200
G1 E0.80000 F2100.00000
G1 F1200.000
G1 X123.237 Y144.323 E0.11039
G1 X123.321 Y144.549 E0.00770
G1 X123.449 Y145.078 E0.01740
G1 X124.969 Y146.597 E0.06861
G1 X124.425 Y146.597 E0.01735
G1 X123.519 Y145.691 E0.04094
G1 X123.530 Y145.917 E0.00723
G1 X123.515 Y146.230 E0.00999
G1 X124.389 Y147.105 E0.03951
G1 X124.389 Y147.648 E0.01735
G1 X123.456 Y146.714 E0.04216
G1 X123.354 Y147.156 E0.01448
G1 X124.389 Y148.191 E0.04674
G1 X124.389 Y148.734 E0.01735
G1 X123.218 Y147.563 E0.05289
G1 X123.052 Y147.940 E0.01316
G1 X124.389 Y149.277 E0.06040
G1 X124.389 Y149.820 E0.01735
G1 X122.860 Y148.291 E0.06909
G1 X122.643 Y148.617 E0.01251
G1 X124.389 Y150.364 E0.07888
G1 X124.389 Y150.907 E0.01735
G1 X122.403 Y148.921 E0.08970
G1 X122.139 Y149.199 E0.01227
G1 X124.287 Y151.347 E0.09703
G1 X123.744 Y151.347 E0.01735
G1 X121.849 Y149.453 E0.08556
G1 X121.538 Y149.685 E0.01240
G1 X123.201 Y151.347 E0.07509
G1 X122.657 Y151.347 E0.01735
G1 X121.203 Y149.893 E0.06568
G1 X120.843 Y150.077 E0.01290
G1 X122.114 Y151.347 E0.05739
G1 X121.571 Y151.347 E0.01735
G1 X120.456 Y150.233 E0.05036
G1 X120.037 Y150.357 E0.01396
G1 X121.028 Y151.347 E0.04475
G1 X120.485 Y151.347 E0.01735
G1 X119.580 Y150.443 E0.04084
G1 X119.077 Y150.483 E0.01613
G1 X119.942 Y151.347 E0.03906
G1 X119.398 Y151.347 E0.01735
G1 X118.512 Y150.461 E0.04005
G1 X118.267 Y150.436 E0.00785
G1 X117.860 Y150.352 E0.01327
G1 X118.855 Y151.347 E0.04495
G1 X118.312 Y151.347 E0.01735
G1 X117.016 Y150.051 E0.05853
G1 X116.541 Y149.797 E0.01721
G1 X116.161 Y149.532 E0.01479
G1 X115.810 Y149.231 E0.01479
G1 X115.491 Y148.895 E0.01479
G1 X115.238 Y148.569 E0.01318
G1 X114.964 Y148.140 E0.01624
G1 X114.829 Y147.865 E0.00979
G1 X113.529 Y146.565 E0.05873
G1 X113.529 Y146.021 E0.01735
G1 X114.529 Y147.021 E0.04517
G1 X114.482 Y146.838 E0.00607
G1 X114.410 Y146.359 E0.01544
G1 X113.529 Y145.478 E0.03980
G1 X113.529 Y144.935 E0.01735
G1 X114.394 Y145.800 E0.03906
G1 X114.435 Y145.298 E0.01608
G1 X113.529 Y144.392 E0.04093
G1 X113.529 Y143.849 E0.01735
G1 X114.522 Y144.841 E0.04484
G1 X114.645 Y144.421 E0.01398
G1 X113.529 Y143.306 E0.05039
G1 X113.529 Y142.762 E0.01735
G1 X114.799 Y144.032 E0.05735
G1 X114.980 Y143.670 E0.01293
G1 X113.529 Y142.219 E0.06554
G1 X113.529 Y141.676 E0.01735
G1 X115.189 Y143.336 E0.07496
G1 X115.423 Y143.027 E0.01238
G1 X113.529 Y141.133 E0.08555
G1 X113.529 Y140.590 E0.01735
G1 X115.680 Y142.741 E0.09715
G1 X115.959 Y142.476 E0.01227
G1 X113.970 Y140.487 E0.08983
G1 X114.513 Y140.487 E0.01735
G1 X116.260 Y142.234 E0.07889
G1 X116.583 Y142.015 E0.01249
G1 X115.056 Y140.487 E0.06898
G1 X115.599 Y140.487 E0.01735
G1 X116.933 Y141.821 E0.06022
G1 X117.312 Y141.656 E0.01319
G1 X116.142 Y140.487 E0.05280
G1 X116.686 Y140.487 E0.01735
G1 X117.720 Y141.521 E0.04671
G1 X118.162 Y141.420 E0.01448
G1 X117.229 Y140.487 E0.04215
G1 X117.772 Y140.487 E0.01735
G1 X118.645 Y141.360 E0.03943
G1 X119.180 Y141.352 E0.01708
G1 X118.315 Y140.487 E0.03906
G1 X118.858 Y140.487 E0.01735
G1 X119.800 Y141.429 E0.04255
G1 X120.105 Y141.492 E0.00993
G1 X120.552 Y141.638 E0.01501
G1 X119.232 Y140.318 E0.05962
G1 F8640.000
G1 X120.552 Y141.638 E-0.43109
G1 X120.105 Y141.492 E-0.10853
G1 X119.800 Y141.429 E-0.07178
G1 X119.345 Y140.974 E-0.14860
G1 E-0.04000 F2100.00000
G1 Z0.600 F10800.000
G1 X124.120 Y140.318
G1 Z0.200
G1 E0.80000 F2100.00000
G1 F1200.000
G1 X124.389 Y140.587 E0.01215
G1 X124.389 Y141.130 E0.01735
G1 X123.747 Y140.487 E0.02902
G1 X123.204 Y140.487 E0.01735
G1 X124.389 Y141.673 E0.05355
G1 X124.389 Y142.216 E0.01735
G1 X122.660 Y140.487 E0.07808
G1 X122.117 Y140.487 E0.01735
G1 X124.389 Y142.759 E0.10262
G1 X124.389 Y143.302 E0.01735
G1 X121.574 Y140.487 E0.12715
G1 X121.031 Y140.487 E0.01735
G1 X124.389 Y143.846 E0.15168
G1 X124.389 Y144.389 E0.01735
G1 X120.488 Y140.487 E0.17621
G1 X119.945 Y140.487 E0.01735
G1 X126.055 Y146.597 E0.27597
G1 X126.598 Y146.597 E0.01735
G1 X125.238 Y145.237 E0.06143
G1 X125.781 Y145.237 E0.01735
G1 X127.141 Y146.597 E0.06143
G1 X127.684 Y146.597 E0.01735
G1 X126.324 Y145.237 E0.06143
G1 X126.867 Y145.237 E0.01735
G1 X128.227 Y146.597 E0.06143
G1 X128.771 Y146.597 E0.01735
G1 X127.410 Y145.237 E0.06143
G1 X127.954 Y145.237 E0.01735
G1 X129.314 Y146.597 E0.06143
G1 X129.857 Y146.597 E0.01735
G1 X128.497 Y145.237 E0.06143
G1 X129.040 Y145.237 E0.01735
G1 X130.400 Y146.597 E0.06143
G1 X130.943 Y146.597 E0.01735
G1 X129.583 Y145.237 E0.06143
G1 X130.126 Y145.237 E0.01735
G1 X131.486 Y146.597 E0.06143
G1 X132.030 Y146.597 E0.01735
G1 X130.669 Y145.237 E0.06143
G1 X131.213 Y145.237 E0.01735
G1 X132.573 Y146.597 E0.06143
G1 X133.116 Y146.597 E0.01735
G1 X131.756 Y145.237 E0.06143
G1 X132.299 Y145.237 E0.01735
G1 X133.659 Y146.597 E0.06143
G1 X134.202 Y146.597 E0.01735
G1 X132.842 Y145.237 E0.06143
G1 X133.385 Y145.237 E0.01735
G1 X134.745 Y146.597 E0.06143
G1 X134.909 Y146.597 E0.00523
G1 X134.909 Y146.218 E0.01211
G1 X133.928 Y145.237 E0.04430
G1 X134.472 Y145.237 E0.01735
G1 X135.079 Y145.845 E0.02743
G1 F8640.000
G1 X134.472 Y145.237 E-0.19835
G1 X133.928 Y145.237 E-0.12542
G1 X134.909 Y146.218 E-0.32031
G1 X134.909 Y146.597 E-0.08759
G1 X134.787 Y146.597 E-0.02833
G1 E-0.04000 F2100.00000
G1 Z0.600 F10800.000
G1 X117.939 Y151.517
G1 Z0.200
G1 E0.80000 F2100.00000
G1 F1200.000
G1 X113.529 Y147.108 E0.19915
G1 X113.529 Y147.651 E0.01735
G1 X117.226 Y151.347 E0.16696
G1 X116.683 Y151.347 E0.01735
G1 X113.529 Y148.194 E0.14242
G1 X113.529 Y148.737 E0.01735
G1 X116.139 Y151.347 E0.11789
G1 X115.596 Y151.347 E0.01735
G1 X113.529 Y149.280 E0.09336
G1 X113.529 Y149.824 E0.01735
G1 X115.053 Y151.347 E0.06883
G1 X114.510 Y151.347 E0.01735
G1 X113.529 Y150.367 E0.04430
G1 X113.529 Y150.910 E0.01735
G1 X114.136 Y151.517 E0.02743
; stop printing object HVAC2.stl id:3 copy 0
; printing object HVAC5.stl id:0 copy 0
G1 F8640.000
G1 X113.529 Y150.910 E-0.19832
G1 X113.529 Y150.367 E-0.12542
G1 X114.510 Y151.347 E-0.32028
G1 X115.012 Y151.347 E-0.11598
G1 E-0.04000 F2100.00000
G1 Z0.600 F10800.000
G1 X103.900 Y147.608
G1 Z0.200
G1 E0.80000 F2100.00000
G1 F1200.000
G1 X103.708 Y147.998 E0.01362
G1 X103.479 Y148.367 E0.01362
G1 X103.213 Y148.710 E0.01362
G1 X102.914 Y149.025 E0.01362
G1 X102.584 Y149.308 E0.01362
G1 X102.227 Y149.556 E0.01362
G1 X101.848 Y149.767 E0.01362
G1 X101.448 Y149.939 E0.01362
G1 X101.034 Y150.069 E0.01362
G1 X100.609 Y150.156 E0.01362
G1 X100.176 Y150.200 E0.01362
G1 X99.742 Y150.200 E0.01362
G1 X99.310 Y150.156 E0.01362
G1 X98.884 Y150.069 E0.01362
G1 X98.470 Y149.939 E0.01362
G1 X98.071 Y149.767 E0.01362
G1 X97.691 Y149.556 E0.01362
G1 X97.334 Y149.308 E0.01362
G1 X97.005 Y149.025 E0.01362
G1 X96.706 Y148.710 E0.01362
G1 X96.440 Y148.367 E0.01362
G1 X96.210 Y147.998 E0.01362
G1 X96.019 Y147.608 E0.01362
G1 X95.868 Y147.201 E0.01362
G1 X95.759 Y146.781 E0.01362
G1 X95.693 Y146.351 E0.01362
G1 X95.671 Y145.917 E0.01362
G1 X95.693 Y145.484 E0.01362
G1 X95.759 Y145.054 E0.01362
G1 X95.868 Y144.634 E0.01362
G1 X96.019 Y144.226 E0.01362
G1 X96.210 Y143.836 E0.01362
G1 X96.440 Y143.468 E0.01362
G1 X96.706 Y143.124 E0.01362
G1 X97.005 Y142.809 E0.01362
G1 X97.334 Y142.526 E0.01362
G1 X97.691 Y142.278 E0.01362
G1 X98.071 Y142.067 E0.01362
G1 X98.470 Y141.896 E0.01362
G1 X98.884 Y141.766 E0.01362
G1 X99.310 Y141.679 E0.01362
G1 X99.742 Y141.635 E0.01362
G1 X100.176 Y141.635 E0.01362
G1 X100.609 Y141.679 E0.01362
G1 X101.034 Y141.766 E0.01362
G1 X101.448 Y141.896 E0.01362
G1 X101.848 Y142.067 E0.01362
G1 X102.227 Y142.278 E0.01362
G1 X102.584 Y142.526 E0.01362
G1 X102.914 Y142.809 E0.01362
G1 X103.213 Y143.124 E0.01362
G1 X103.479 Y143.468 E0.01362
G1 X103.708 Y143.836 E0.01362
G1 X103.900 Y144.226 E0.01362
G1 X104.051 Y144.634 E0.01362
G1 X104.160 Y145.054 E0.01362
G1 X104.225 Y145.484 E0.01362
G1 X104.247 Y145.917 E0.01362
G1 X104.225 Y146.351 E0.01362
G1 X104.160 Y146.781 E0.01362
G1 X104.051 Y147.201 E0.01362
G1 X103.921 Y147.552 E0.01174
G1 X103.567 Y147.421 F10800.000
G1 F1200.000
G1 X103.378 Y147.815 E0.01370
G1 X103.169 Y148.151 E0.01242
G1 X102.926 Y148.465 E0.01242
G1 X102.653 Y148.752 E0.01242
G1 X102.353 Y149.010 E0.01242
G1 X102.028 Y149.236 E0.01242
G1 X101.681 Y149.428 E0.01242
G1 X101.317 Y149.584 E0.01242
G1 X100.939 Y149.703 E0.01242
G1 X100.551 Y149.783 E0.01242
G1 X100.157 Y149.823 E0.01242
G1 X99.761 Y149.823 E0.01242
G1 X99.367 Y149.783 E0.01242
G1 X98.979 Y149.703 E0.01242
G1 X98.601 Y149.584 E0.01242
G1 X98.237 Y149.428 E0.01242
