; generated by PrusaSlicer 2.5.2+win64 on 2023-05-17 at 23:28:55 UTC


;
;
; 

; external perimeters extrusion width = 0.45mm
; perimeters extrusion width = 0.45mm
; infill extrusion width = 0.45mm
; solid infill extrusion width = 0.45mm
; top infill extrusion width = 0.40mm
; support material extrusion width = 0.35mm
; first layer extrusion width = 0.42mm

M73 P0 R42
M73 Q0 S42
M201 X1000 Y1000 Z200 E5000 ; sets maximum accelerations, mm/sec^2
M203 X200 Y200 Z12 E120 ; sets maximum feedrates, mm / sec
M204 P1250 R1250 T1250 ; sets acceleration (P, T) and retract acceleration (R), mm/sec^2
M205 X8.00 Y8.00 Z0.40 E4.50 ; sets the jerk limits, mm/sec
M205 S0 T0 ; sets the minimum extruding and travel feed rate, mm/sec
M107
;TYPE:Custom
M862.3 P "MK3S" ; printer model check
M862.1 P0.4 ; nozzle diameter check
M115 U3.12.2 ; tell printer latest fw version
G90 ; use absolute coordinates
M83 ; extruder relative mode
M104 S215 ; set extruder temp
M140 S60 ; set bed temp
M190 S60 ; wait for bed temp
M109 S215 ; wait for extruder temp
G28 W ; home all without mesh bed level
G80 ; mesh bed leveling

G1 Z0.2 F720
G1 Y-3 F1000 ; go outside print area
G92 E0
G1 X60 E9 F1000 ; intro line
G1 X100 E12.5 F1000 ; intro line

G92 E0
M221 S95

; Don't change E values below. Excessive value can damage the printer.
M907 E430 ; set extruder motor current
G21 ; set units to millimeters
G90 ; use absolute coordinates
M83 ; use relative distances for extrusion
M900 K0.05 ; Filament gcode LA 1.5
M900 K30 ; Filament gcode LA 1.0
M107
;LAYER_CHANGE
;Z:0.2
;HEIGHT:0.2
;BEFORE_LAYER_CHANGE
G92 E0.0
;0.2


M73 P0 R41
G1 E-.8 F2100
G1 Z.4 F720
;AFTER_LAYER_CHANGE
;0.2
G1 X103.07 Y73.613 F10800
G1 Z.2 F720
G1 E.8 F2100
M204 S800
;TYPE:Skirt/Brim
;WIDTH:0.42
G1 F1200
G1 X104.115 Y72.737 E.04278
G1 X105.055 Y72.543 E.03008
G1 X144.945 Y72.543 E1.25072
G1 X146.252 Y72.935 E.04278
G1 X147.128 Y73.98 E.04278
G1 X147.322 Y74.92 E.03008
G1 X147.322 Y135.08 E1.88627
G1 X146.93 Y136.387 E.04278
G1 X145.885 Y137.263 E.04278
G1 X144.945 Y137.457 E.03008
G1 X105.055 Y137.457 E1.25072
G1 X103.748 Y137.065 E.04278
G1 X102.872 Y136.02 E.04278
G1 X102.678 Y135.08 E.03008
G1 X102.678 Y74.92 E1.88627
G1 X103.052 Y73.67 E.0409
M204 S1000
; printing object Bottom.stl id:0 copy 0
;WIPE_START
M73 Q0 S41
G1 F8640
G1 X104.115 Y72.737 E-.32671
G1 X105.055 Y72.543 E-.22155
G1 X105.972 Y72.543 E-.21174
;WIPE_END
G1 E-.04 F2100
G1 Z.6 F720
G1 X131.003 Y92.932 F10800
G1 Z.2 F720
G1 E.8 F2100
M204 S800
;TYPE:External perimeter
;WIDTH:0.406307
G1 F1200
G1 X130.865 Y92.807 E.00563
G1 X130.783 Y92.583 E.00722
;WIDTH:0.415208
G1 X130.653 Y91.99 E.01878
G1 X130.75 Y92.087 E.00423
;WIDTH:0.40825
G1 X130.928 Y92.163 E.00588
;WIDTH:0.398846
G1 X131.032 Y92.248 E.00398
;WIDTH:0.406307
G1 X131.13 Y92.476 E.0075
G1 X131.15 Y92.718 E.00732
G1 X131.09 Y92.746 E.00199
G1 X131.029 Y92.878 E.0044
M204 S1000
G1 X130.938 Y92.757 F10800
;WIPE_START
G1 F8640
G1 X130.865 Y92.807 E-.04116
G1 X130.783 Y92.583 E-.05515
G1 X130.653 Y91.99 E-.14007
G1 X130.75 Y92.087 E-.03155
G1 X130.928 Y92.163 E-.04471
G1 X131.032 Y92.248 E-.03108
G1 X131.13 Y92.476 E-.05733
G1 X131.15 Y92.718 E-.05592
G1 X131.09 Y92.746 E-.01517
G1 X131.029 Y92.878 E-.03365
;WIPE_END
G1 E-.29421 F2100
G1 Z.6 F720
G1 X128.083 Y93.269 F10800
G1 Z.2 F720
G1 E.8 F2100
M204 S800
;WIDTH:0.38292
G1 F1200
G1 X128.006 Y93.232 E.00242
M204 S1000
;WIPE_START
G1 F8640
G1 X128.083 Y93.269 E-.0198
;WIPE_END
G1 E-.7802 F2100
G1 Z.6 F720
G1 X134.143 Y101.336 F10800
G1 Z.2 F720
G1 E.8 F2100
M204 S800
;TYPE:Perimeter
;WIDTH:0.419999
G1 F1200
G1 X132.939 Y101.317 E.03774
G1 X133.005 Y102.339 E.03211
G1 X132.827 Y103.283 E.03011
G1 X132.752 Y103.442 E.00551
G1 X133.003 Y103.853 E.01509
G1 X133.033 Y104.252 E.01256
G1 X132.924 Y104.769 E.01654
G1 X132.806 Y105.008 E.00838
G1 X132.698 Y105.168 E.00605
G1 X132.811 Y105.359 E.00697
G1 X132.97 Y105.881 E.01709
G1 X133.033 Y106.382 E.01585
G1 X133.044 Y107.448 E.03342
G1 X132.978 Y107.713 E.00858
G1 X132.764 Y107.855 E.00803
G1 X132.978 Y107.996 E.00803
G1 X133.044 Y108.264 E.00866
G1 X133.039 Y109.319 E.03308
G1 X132.981 Y110.034 E.02248
G1 X132.893 Y110.52 E.01548
G1 X132.7 Y110.654 E.00739
G1 X132.893 Y110.789 E.00739
G1 X132.962 Y111.172 E.01221
G1 X133.023 Y111.888 E.02253
G1 X132.973 Y112.388 E.01574
G1 X132.807 Y112.915 E.01735
G1 X132.638 Y113.05 E.00678
G1 X132.933 Y113.478 E.0163
G1 X133.022 Y113.687 E.0071
G1 X133.124 Y114.186 E.016
G1 X133.103 Y114.715 E.01659
G1 X132.97 Y115.215 E.01621
G1 X132.756 Y115.595 E.01367
G1 X132.447 Y115.969 E.01522
G1 X132.574 Y115.982 E.004
G1 X132.888 Y116.159 E.0113
G1 X133.021 Y116.416 E.00909
G1 X133.031 Y117.529 E.0349
G1 X132.965 Y118.032 E.01589
G1 X132.807 Y118.507 E.0157
G1 X132.638 Y118.641 E.00676
G1 X132.933 Y119.069 E.01629
G1 X133.022 Y119.277 E.0071
G1 X133.124 Y119.777 E.016
G1 X133.103 Y120.306 E.01659
G1 X132.973 Y120.801 E.01605
G1 X132.691 Y121.269 E.01713
G1 X132.445 Y121.557 E.01188
G1 X131.903 Y121.857 E.01941
G1 X131.794 Y121.889 E.00355
G1 X132.284 Y122.237 E.01884
G1 X132.656 Y122.744 E.01972
G1 X132.923 Y123.273 E.01857
G1 X133.091 Y123.95 E.02187
G1 X133.141 Y124.542 E.01861
G1 X133.082 Y125.425 E.02777
G1 X132.81 Y126.332 E.0297
G1 X132.723 Y126.501 E.00593
G1 X132.328 Y127.026 E.0206
G1 X132.16 Y127.179 E.00714
G1 X132.448 Y127.168 E.00903
G1 X132.824 Y127.291 E.01239
G1 X132.95 Y127.432 E.00593
G1 X133.035 Y127.692 E.00857
G1 X132.998 Y128.849 E.03631
G1 X132.826 Y129.648 E.02561
G1 X132.754 Y129.807 E.00548
G1 X133.038 Y130.251 E.01651
G1 X133.065 Y131 E.02351
G1 X133.023 Y131.219 E.00699
G1 X132.759 Y131.871 E.02204
G1 X132.66 Y132.031 E.0059
G1 X132.485 Y132.165 E.00693
G1 X132.235 Y132.224 E.00805
G1 X132.01 Y132.177 E.00721
G1 X130.429 Y131.491 E.05404
G1 X130.182 Y131.283 E.01012
G1 X130.094 Y130.89 E.01264
G1 X130.205 Y130.516 E.01222
G1 X129.865 Y130.427 E.011
G1 X129.682 Y130.412 E.00575
G1 X127.687 Y130.409 E.06255
G1 X127.502 Y130.378 E.00588
G1 X127.346 Y130.294 E.00558
G1 X127.164 Y130.056 E.00938
G1 X127.123 Y129.838 E.00696
G1 X127.144 Y127.74 E.06577
G1 X127.231 Y127.445 E.00965
G1 X127.351 Y127.309 E.0057
G1 X127.647 Y127.184 E.01007
G1 X127.959 Y127.205 E.00979
G1 X127.662 Y126.901 E.01332
G1 X127.361 Y126.436 E.01737
G1 X127.106 Y125.63 E.02651
G1 X127.039 Y125.106 E.01656
G1 X127.035 Y124.273 E.02612
G1 X127.098 Y123.742 E.01675
G1 X127.313 Y123.021 E.02361
G1 X127.396 Y122.851 E.00593
G1 X127.77 Y122.334 E.01999
G1 X128.008 Y122.118 E.0101
G1 X127.67 Y122.129 E.0106
G1 X127.309 Y121.979 E.01225
G1 X127.156 Y121.739 E.00895
G1 X127.126 Y120.693 E.03281
G1 X127.123 Y119.452 E.03889
G1 X127.205 Y119.157 E.0096
G1 X127.387 Y119.044 E.00671
G1 X127.205 Y118.931 E.00671
G1 X127.123 Y118.646 E.00932
G1 X127.128 Y117.67 E.03061
G1 X127.158 Y117.127 E.01706
G1 X127.232 Y116.557 E.01802
G1 X127.297 Y116.357 E.00659
G1 X127.457 Y116.253 E.00597
G1 X127.297 Y116.149 E.00597
G1 X127.222 Y115.859 E.00941
G1 X127.131 Y114.978 E.02777
G1 X127.123 Y113.863 E.03493
G1 X127.196 Y113.582 E.00912
G1 X127.416 Y113.454 E.00797
G1 X127.196 Y113.325 E.00797
G1 X127.123 Y113.044 E.00911
G1 X127.128 Y111.989 E.03308
G1 X127.212 Y111.051 E.02954
G1 X127.273 Y110.789 E.00844
G1 X127.486 Y110.654 E.00789
G1 X127.273 Y110.52 E.00789
G1 X127.22 Y110.325 E.00632
G1 X127.143 Y109.418 E.02854
G1 X127.195 Y108.907 E.01612
G1 X127.359 Y108.389 E.01702
G1 X127.526 Y108.255 E.00672
G1 X127.231 Y107.825 E.01633
G1 X127.143 Y107.617 E.00709
G1 X127.035 Y107.061 E.01776
G1 X127.069 Y106.564 E.01562
G1 X127.196 Y106.092 E.01532
G1 X127.404 Y105.718 E.01344
G1 X127.68 Y105.369 E.01395
G1 X128.104 Y105.086 E.01596
G1 X128.654 Y104.857 E.01869
G1 X128.904 Y104.828 E.0079
;WIDTH:0.463087
G1 X129.031 Y104.792 E.00461
;WIDTH:0.506174
G1 X129.158 Y104.756 E.00508
;WIDTH:0.549262
G1 X129.285 Y104.72 E.00555
;WIDTH:0.592349
G1 X129.412 Y104.684 E.00602
G1 X130.194 Y104.708 E.03577
;WIDTH:0.588464
G1 X130.12 Y104.439 E.01265
G1 X130.164 Y104.229 E.00973
G1 X129.87 Y104.15 E.01379
;WIDTH:0.599216
G1 X129.26 Y104.14 E.02822
G1 X129.161 Y104.117 E.00473
;WIDTH:0.554412
G1 X129.061 Y104.094 E.00435
;WIDTH:0.509608
G1 X128.961 Y104.072 E.00397
;WIDTH:0.464804
G1 X128.861 Y104.049 E.00359
;WIDTH:0.419999
G1 X127.688 Y104.048 E.0368
G1 X127.452 Y103.996 E.00758
G1 X127.228 Y103.81 E.00912
G1 X127.125 Y103.528 E.00941
G1 X127.127 Y102.42 E.03474
G1 X127.209 Y101.402 E.03204
G1 X127.257 Y101.216 E.00603
G1 X127.481 Y101.071 E.00836
G1 X127.258 Y100.926 E.00836
G1 X127.191 Y100.485 E.01399
G1 X127.142 Y99.816 E.02102
G1 X127.195 Y99.309 E.01598
G1 X127.359 Y98.792 E.01702
G1 X127.456 Y98.621 E.00616
G1 X127.203 Y98.194 E.01555
G1 X127.06 Y97.659 E.01735
G1 X127.132 Y96.883 E.02446
G1 X127.186 Y96.697 E.00608
G1 X127.499 Y96.133 E.02023
G1 X127.591 Y96.045 E.00399
G1 X127.483 Y96.047 E.00339
G1 X127.317 Y95.942 E.00617
G1 X127.151 Y95.669 E.01002
G1 X127.132 Y95.368 E.00947
G1 X127.132 Y94.016 E.04239
G1 X127.19 Y93.507 E.01606
G1 X127.235 Y93.318 E.00608
G1 X127.356 Y93.136 E.00686
G1 X127.143 Y92.669 E.0161
G1 X127.076 Y92.378 E.00936
G1 X127.027 Y91.816 E.01766
G1 X127.109 Y91.012 E.02534
G1 X127.293 Y90.531 E.01617
G1 X127.557 Y90.124 E.0152
G1 X127.921 Y89.82 E.01487
G1 X128.244 Y89.667 E.01122
G1 X127.937 Y89.474 E.01138
G1 X127.534 Y88.971 E.0202
G1 X127.282 Y88.49 E.01703
G1 X127.187 Y88.256 E.00791
G1 X127.075 Y87.729 E.0169
G1 X127.026 Y87.124 E.01904
G1 X127.06 Y86.557 E.01782
G1 X127.166 Y86.013 E.01737
G1 X127.394 Y85.516 E.01714
G1 X127.7 Y85.124 E.01559
G1 X127.391 Y85.025 E.0102
G1 X127.276 Y84.778 E.00856
G1 X127.13 Y83.698 E.03415
G1 X127.123 Y82.308 E.04358
G1 X127.167 Y82.086 E.00708
G1 X127.222 Y81.986 E.0036
G1 X127.421 Y81.807 E.00839
G1 X128.401 Y81.279 E.03492
G1 X127.693 Y81.279 E.02223
G1 X127.421 Y81.212 E.00878
G1 X127.222 Y81.033 E.00839
G1 X127.128 Y80.784 E.00833
G1 X127.123 Y78.409 E.07448
G1 X127.145 Y78.251 E.00502
G1 X127.236 Y78.07 E.00635
G1 X127.422 Y77.91 E.0077
G1 X127.688 Y77.843 E.0086
G1 X134.131 Y77.843 E.20201
G1 X134.398 Y77.91 E.0086
M73 P1 R41
M73 Q1 S41
G1 X134.584 Y78.069 E.00769
G1 X134.674 Y78.25 E.00634
G1 X134.697 Y78.409 E.00502
G1 X134.697 Y81.722 E.10389
G1 X134.67 Y82.431 E.02223
G1 X134.53 Y83.207 E.02474
G1 X134.233 Y83.838 E.02187
G1 X134.025 Y84.079 E.00997
G1 X133.624 Y84.441 E.01693
G1 X133.049 Y84.708 E.01989
G1 X132.622 Y84.799 E.01369
G1 X132.316 Y84.795 E.00958
G1 X132.633 Y85.214 E.01648
G1 X132.927 Y85.778 E.01992
G1 X133.088 Y86.432 E.02113
G1 X133.141 Y87.033 E.01892
G1 X133.096 Y87.701 E.02098
G1 X132.953 Y88.356 E.02103
G1 X132.673 Y88.912 E.01952
G1 X132.374 Y89.316 E.01576
G1 X132.159 Y89.567 E.01035
G1 X131.788 Y89.804 E.01382
G1 X132.237 Y90.053 E.01612
G1 X132.626 Y90.45 E.01743
G1 X132.869 Y90.891 E.01577
G1 X133.05 Y91.512 E.0203
G1 X133.135 Y92.314 E.0253
G1 X133.125 Y93.19 E.02746
G1 X133.057 Y93.817 E.01978
G1 X132.89 Y94.427 E.01981
G1 X132.556 Y94.977 E.02017
G1 X132.153 Y95.32 E.0166
G1 X131.852 Y95.457 E.01038
G1 X132.339 Y95.75 E.0178
G1 X132.685 Y96.147 E.01653
G1 X132.943 Y96.581 E.01582
G1 X133.086 Y97.091 E.01659
G1 X133.122 Y97.749 E.02068
G1 X133.015 Y98.202 E.01459
G1 X133.522 Y98.115 E.01612
G1 X134.105 Y98.09 E.0183
G1 X134.384 Y98.152 E.00894
G1 X134.588 Y98.329 E.00849
G1 X134.685 Y98.565 E.00801
G1 X134.697 Y100.777 E.06935
G1 X134.635 Y101.035 E.00832
G1 X134.467 Y101.232 E.0081
G1 X134.203 Y101.336 E.00893
M204 S1000
G1 X134.127 Y100.965 F10800
M204 S800
;TYPE:External perimeter
G1 F1200
G1 X132.905 Y100.94 E.03834
G1 X132.399 Y100.887 E.01594
;WIDTH:0.417172
G1 X132.39 Y100.887 E.0003
;WIDTH:0.420011
G1 X127.773 Y100.882 E.14475
G1 X127.59 Y100.735 E.00738
G1 X127.518 Y99.788 E.02977
G1 X127.578 Y99.32 E.0148
G1 X127.755 Y98.848 E.01582
G1 X127.884 Y98.786 E.0045
G1 X128.043 Y98.778 E.00499
G1 X127.81 Y98.488 E.01165
G1 X127.566 Y98.092 E.01458
G1 X127.434 Y97.605 E.01582
G1 X127.507 Y96.924 E.02148
G1 X127.722 Y96.457 E.01612
;WIDTH:0.436735
G1 X128.236 Y95.936 E.02396
G1 X128.743 Y95.721 E.01805
;WIDTH:0.430949
G1 X129.241 Y95.622 E.01637
;WIDTH:0.423208
G1 X130.116 Y95.565 E.02773
;WIDTH:0.448684
G1 X131.273 Y95.631 E.03909
G1 X131.756 Y95.832 E.01766
;WIDTH:0.419999
G1 X132.078 Y96.023 E.01175
G1 X132.364 Y96.345 E.0135
G1 X132.6 Y96.743 E.01451
G1 X132.718 Y97.186 E.01438
G1 X132.745 Y97.767 E.01823
G1 X132.597 Y98.273 E.01654
G1 X132.516 Y98.377 E.00413
G1 X132.362 Y98.486 E.00592
G1 X132.264 Y98.663 E.00633
G1 X132.657 Y98.66 E.01231
G1 X133.454 Y98.498 E.02551
G1 X134.119 Y98.467 E.02085
G1 X134.264 Y98.526 E.00491
G1 X134.315 Y98.655 E.00435
G1 X134.32 Y100.777 E.06653
G1 X134.249 Y100.924 E.00512
G1 X134.184 Y100.946 E.00215
M204 S1000
G1 X134.017 Y101.35 F10800
;WIPE_START
G1 F8640
G1 X132.905 Y100.94 E-.29542
G1 X132.399 Y100.887 E-.11737
G1 X132.39 Y100.887 E-.0022
G1 X130.895 Y100.885 E-.34501
;WIPE_END
G1 E-.04 F2100
G1 Z.6 F720
G1 X127.626 Y95.698 F10800
G1 Z.2 F720
G1 E.8 F2100
M204 S800
G1 F1200
G1 X127.515 Y95.572 E.00526
G1 X127.509 Y94.016 E.0488
G1 X127.569 Y93.516 E.01579
G1 X127.718 Y93.292 E.00844
G1 X127.918 Y93.213 E.00674
G1 X127.743 Y93.057 E.00735
G1 X127.508 Y92.575 E.01681
G1 X127.452 Y92.345 E.00745
G1 X127.402 Y91.783 E.01766
G1 X127.484 Y91.056 E.02294
G1 X127.682 Y90.611 E.01528
G1 X127.904 Y90.303 E.01191
G1 X128.185 Y90.1 E.01088
G1 X128.527 Y89.976 E.01141
G1 X128.819 Y89.966 E.00915
G1 X129.329 Y90.036 E.01615
;WIDTH:0.394307
G1 X129.583 Y90.074 E.00749
;WIDTH:0.419999
G1 X130.061 Y90.326 E.01693
G1 X130.271 Y90.623 E.01141
G1 X130.481 Y91.181 E.01869
;WIDTH:0.421742
G1 X130.637 Y91.9 E.02319
G1 X130.712 Y91.196 E.0223
;WIDTH:0.419999
G1 X130.76 Y90.551 E.02029
G1 X130.814 Y90.149 E.01274
;WIDTH:0.418883
G1 X130.982 Y90.065 E.00586
;WIDTH:0.419999
G1 X131.464 Y90.104 E.01518
G1 X131.784 Y90.22 E.01067
G1 X132.1 Y90.421 E.01175
G1 X132.334 Y90.692 E.01122
G1 X132.552 Y91.109 E.01477
G1 X132.686 Y91.609 E.01622
G1 X132.76 Y92.35 E.02336
G1 X132.748 Y93.184 E.02615
G1 X132.682 Y93.775 E.01862
G1 X132.53 Y94.316 E.01763
G1 X132.241 Y94.77 E.01686
G1 X131.836 Y95.071 E.01583
;WIDTH:0.442591
G1 X131.349 Y95.216 E.01687
G1 X130.618 Y95.205 E.02431
;WIDTH:0.41831
G1 X130.105 Y95.197 E.01601
;WIDTH:0.423525
G1 X129.348 Y95.23 E.02398
;WIDTH:0.42672
G1 X128.703 Y95.337 E.02085
;WIDTH:0.447023
G1 X128.441 Y95.399 E.00906
G1 X127.778 Y95.697 E.02441
;WIDTH:0.42441
G1 X127.686 Y95.698 E.00293
M204 S1000
;WIPE_START
G1 F8640
G1 X127.515 Y95.572 E-.04891
G1 X127.509 Y94.016 E-.35941
G1 X127.569 Y93.516 E-.11627
G1 X127.718 Y93.292 E-.06217
G1 X127.918 Y93.213 E-.04966
G1 X127.743 Y93.057 E-.05416
G1 X127.611 Y92.787 E-.06942
;WIPE_END
G1 E-.04 F2100
G1 Z.6 F720
G1 X131.885 Y89.307 F10800
G1 Z.2 F720
G1 E.8 F2100
M204 S800
;WIDTH:0.419999
G1 F1200
G1 X131.41 Y89.573 E.01707
G1 X130.832 Y89.72 E.01869
G1 X130.392 Y89.808 E.01406
G1 X130.062 Y89.822 E.01037
;WIDTH:0.41876
G1 X129.571 Y89.72 E.01568
;WIDTH:0.419999
G1 X128.906 Y89.555 E.02147
G1 X128.641 Y89.462 E.00879
G1 X128.189 Y89.193 E.0165
G1 X127.831 Y88.739 E.01814
G1 X127.571 Y88.223 E.01812
G1 X127.444 Y87.651 E.01837
G1 X127.402 Y87.096 E.01745
G1 X127.436 Y86.583 E.01612
G1 X127.535 Y86.088 E.01582
G1 X127.69 Y85.748 E.01171
;WIDTH:0.431338
G1 X128.113 Y85.2 E.02237
G1 X128.661 Y84.828 E.02138
;WIDTH:0.429413
G1 X129.048 Y84.592 E.01456
;WIDTH:0.443248
G1 X129.525 Y84.424 E.01685
;WIDTH:0.473706
G1 X130.002 Y84.255 E.01813
G1 X130.283 Y84.275 E.01008
;WIDTH:0.446853
G1 X130.563 Y84.296 E.00945
;WIDTH:0.456099
G1 X130.879 Y84.354 E.01102
G1 X131.524 Y84.669 E.02466
;WIDTH:0.434034
G1 X131.962 Y84.968 E.01724
;WIDTH:0.419999
G1 X132.332 Y85.442 E.01884
G1 X132.59 Y85.947 E.01779
G1 X132.72 Y86.512 E.01819
G1 X132.765 Y87.079 E.01783
G1 X132.72 Y87.672 E.01863
G1 X132.585 Y88.272 E.01928
G1 X132.342 Y88.731 E.01628
G1 X131.922 Y89.26 E.02119
M204 S1000
G1 X131.941 Y89.703 F10800
;WIPE_START
G1 F8640
G1 X131.41 Y89.573 E-.13861
G1 X130.832 Y89.72 E-.13765
G1 X130.392 Y89.808 E-.10358
G1 X130.062 Y89.822 E-.07639
G1 X129.571 Y89.72 E-.11583
G1 X128.906 Y89.555 E-.15809
