; generated by PrusaSlicer 2.2.0+win64 on 2020-08-21 at 19:11:40 UTC

; 

; external perimeters extrusion width = 0.45mm
; perimeters extrusion width = 0.45mm
; infill extrusion width = 0.45mm
; solid infill extrusion width = 0.45mm
; top infill extrusion width = 0.40mm
; support material extrusion width = 0.35mm
; first layer extrusion width = 0.42mm

M73 P0 R40
M73 Q0 S40
M201 X1000 Y1000 Z1000 E5000 ; sets maximum accelerations, mm/sec^2
M203 X200 Y200 Z12 E120 ; sets maximum feedrates, mm/sec
M204 P1250 R1250 T1250 ; sets acceleration (P, T) and retract acceleration (R), mm/sec^2
M205 X8.00 Y8.00 Z0.40 E1.50 ; sets the jerk limits, mm/sec
M205 S0 T0 ; sets the minimum extruding and travel feed rate, mm/sec
M107
M862.3 P "MK3S" ; printer model check
M862.1 P0.4 ; nozzle diameter check
M115 U3.8.0 ; tell printer latest fw version
G90 ; use absolute coordinates
M83 ; extruder relative mode
M104 S215 ; set extruder temp
M140 S60 ; set bed temp
M190 S60 ; wait for bed temp
M109 S215 ; wait for extruder temp
G28 W ; home all without mesh bed level
G80 ; mesh bed leveling
G1 Y-3.0 F1000.0 ; go outside print area
G92 E0.0
G1 X60.0 E9.0 F1000.0 ; intro line
M73 Q0 S40
M73 P0 R39
G1 X100.0 E12.5 F1000.0 ; intro line
G92 E0.0
M221 S95
G21 ; set units to millimeters
G90 ; use absolute coordinates
M83 ; use relative distances for extrusion
M900 K0.06 ; Filament gcode LA 1.5
M900 K30 ; Filament gcode LA 1.0
;BEFORE_LAYER_CHANGE
G92 E0.0
;0.2


G1 E-0.80000 F2100.00000
G1 Z0.600 F10800.000
;AFTER_LAYER_CHANGE
;0.2
G1 X121.802 Y108.561
G1 Z0.200
G1 E0.80000 F2100.00000
M204 S1000
G1 F1200.000
G1 X116.371 Y113.992 E0.24082
G1 X116.904 Y114.525 E0.02365
G1 X121.627 Y109.802 E0.20941
G1 X121.625 Y110.146 E0.01077
G1 X121.975 Y110.461 E0.01477
G1 X122.042 Y110.454 E0.00210
G1 X117.437 Y115.058 E0.20417
G1 X117.537 Y115.158 E0.00442
G1 X115.905 Y116.789 E0.07234
G1 X116.339 Y117.223 E0.01923
G1 X119.825 Y113.737 E0.15457
G1 X120.358 Y114.270 E0.02365
G1 X116.872 Y117.756 E0.15457
G1 X117.406 Y118.289 E0.02365
G1 X120.892 Y114.803 E0.15457
G1 X121.246 Y115.158 E0.01572
G1 X119.615 Y116.789 E0.07234
G1 X119.794 Y116.968 E0.00793
G1 X117.939 Y118.823 E0.08224
G1 X118.472 Y119.356 E0.02365
G1 X120.327 Y117.501 E0.08224
G1 X120.860 Y118.035 E0.02365
G1 X119.005 Y119.889 E0.08224
G1 X119.539 Y120.422 E0.02365
G1 X121.393 Y118.568 E0.08224
G1 X121.927 Y119.101 E0.02365
G1 X120.072 Y120.956 E0.08224
G1 X120.605 Y121.489 E0.02365
G1 X122.460 Y119.634 E0.08224
G1 X122.993 Y120.168 E0.02365
G1 X121.139 Y122.022 E0.08224
G1 X121.672 Y122.556 E0.02365
G1 X123.526 Y120.701 E0.08224
G1 X124.060 Y121.234 E0.02365
G1 X122.205 Y123.089 E0.08224
G1 X122.738 Y123.622 E0.02365
G1 X124.593 Y121.767 E0.08224
G1 X125.126 Y122.301 E0.02365
G1 X123.272 Y124.155 E0.08224
G1 X123.805 Y124.689 E0.02365
G1 X125.660 Y122.834 E0.08224
G1 X126.193 Y123.367 E0.02365
G1 X124.338 Y125.222 E0.08224
G1 X124.871 Y125.755 E0.02365
G1 X132.327 Y118.299 E0.33060
G1 X132.860 Y118.833 E0.02365
G1 X125.405 Y126.288 E0.33060
G1 X125.938 Y126.822 E0.02365
G1 X133.394 Y119.366 E0.33060
G1 X133.927 Y119.899 E0.02365
G1 X126.351 Y127.475 E0.33592
G1 E-0.80000 F2100.00000
G1 Z0.800 F10800.000
G1 X126.419 Y123.305
G1 Z0.200
G1 E0.80000 F2100.00000
G1 F1200.000
G1 X129.780 Y119.945 E0.12135
G1 X129.421 Y119.586 E0.01295
G1 X126.158 Y122.849 E0.11782
G1 X125.800 Y122.490 E0.01295
G1 X129.063 Y119.228 E0.11782
G1 X128.704 Y118.869 E0.01295
G1 X125.441 Y122.132 E0.11782
G1 X125.083 Y121.773 E0.01295
G1 X126.185 Y120.671 E0.03981
G1 X125.211 Y120.928 E0.02573
G1 X124.626 Y121.513 E0.02111
G1 X125.754 Y120.606 F10800.000
G1 F1200.000
G1 X127.025 Y119.336 E0.05634
G1 X126.802 Y118.492 E0.02736
G1 X124.544 Y120.750 E0.10014
G1 X124.276 Y120.821 E0.00869
G1 X124.029 Y120.678 E0.00893
G1 X123.929 Y120.298 E0.01231
G1 X126.579 Y117.648 E0.11751
G1 X126.357 Y116.804 E0.02736
G1 X123.707 Y119.454 E0.11751
G1 X123.484 Y118.610 E0.02736
G1 X126.134 Y115.960 E0.11751
G1 X125.911 Y115.116 E0.02736
G1 X123.261 Y117.766 E0.11751
G1 X123.039 Y116.922 E0.02736
G1 X125.689 Y114.272 E0.11751
G1 X125.466 Y113.429 E0.02736
G1 X122.816 Y116.079 E0.11751
G1 X122.593 Y115.235 E0.02736
G1 X125.304 Y112.524 E0.12021
G1 X125.307 Y111.726 E0.02500
G1 X125.705 Y112.123 E0.01761
G1 X127.559 Y110.269 E0.08224
G1 X128.093 Y110.802 E0.02365
G1 X126.238 Y112.657 E0.08224
G1 X126.771 Y113.190 E0.02365
G1 X128.626 Y111.335 E0.08224
G1 X129.159 Y111.869 E0.02365
G1 X127.304 Y113.723 E0.08224
G1 X127.838 Y114.257 E0.02365
G1 X129.692 Y112.402 E0.08224
G1 X130.226 Y112.935 E0.02365
G1 X128.371 Y114.790 E0.08224
G1 X128.739 Y115.158 E0.01632
G1 X127.108 Y116.789 E0.07234
G1 X127.273 Y116.954 E0.00733
G1 X130.759 Y113.468 E0.15457
G1 X131.292 Y114.002 E0.02365
G1 X127.806 Y117.488 E0.15457
G1 X128.339 Y118.021 E0.02365
G1 X131.825 Y114.535 E0.15457
G1 X132.359 Y115.068 E0.02365
G1 X128.873 Y118.554 E0.15457
G1 X129.406 Y119.087 E0.02365
G1 X131.261 Y117.233 E0.08224
G1 X131.794 Y117.766 E0.02365
G1 X129.819 Y119.741 E0.08756
G1 E-0.80000 F2100.00000
G1 Z0.800 F10800.000
G1 X127.295 Y119.561
G1 Z0.200
G1 E0.80000 F2100.00000
G1 F1200.000
G1 X128.345 Y118.511 E0.03793
G1 X127.987 Y118.152 E0.01295
G1 X127.258 Y118.881 E0.02630
G1 X127.109 Y118.313 E0.01498
G1 X127.628 Y117.793 E0.01876
G1 X127.270 Y117.435 E0.01295
G1 X126.959 Y117.746 E0.01122
G1 X126.809 Y117.178 E0.01498
G1 X127.009 Y116.979 E0.00721
G1 X126.546 Y116.724 F10800.000
G1 F1200.000
G1 X128.184 Y115.086 E0.05913
G1 X127.825 Y114.728 E0.01295
G1 X126.510 Y116.043 E0.04751
G1 X126.360 Y115.476 E0.01498
G1 X127.467 Y114.369 E0.03996
G1 X127.108 Y114.011 E0.01295
G1 X126.210 Y114.909 E0.03242
G1 X126.061 Y114.341 E0.01498
G1 X126.750 Y113.652 E0.02488
G1 X126.391 Y113.294 E0.01295
G1 X125.911 Y113.774 E0.01734
G1 X125.761 Y113.206 E0.01498
G1 X126.033 Y112.935 E0.00980
G1 X125.674 Y112.577 E0.01295
G1 X125.507 Y112.743 E0.00601
G1 X125.525 Y109.104 F10800.000
G1 F1200.000
G1 X126.079 Y108.549 E0.02459
G1 E-0.80000 F2100.00000
G1 Z0.800 F10800.000
G1 X121.825 Y111.736
G1 Z0.200
G1 E0.80000 F2100.00000
G1 F1200.000
G1 X123.239 Y110.323 E0.06268
G1 X124.437 Y110.192 E0.03777
G1 X121.821 Y112.808 E0.11599
G1 X122.009 Y113.686 F10800.000
G1 F1200.000
G1 X126.493 Y109.202 E0.19881
G1 X127.026 Y109.736 E0.02365
G1 X122.232 Y114.530 E0.21258
G1 E-0.80000 F2100.00000
G1 Z0.800 F10800.000
G1 X120.162 Y113.786
G1 Z0.200
G1 E0.80000 F2100.00000
G1 F1200.000
G1 X121.651 Y112.297 E0.05375
G1 X121.647 Y113.018 E0.01839
G1 X120.619 Y114.046 E0.03716
G1 X120.977 Y114.405 E0.01295
G1 X121.803 Y113.579 E0.02982
G1 X121.953 Y114.147 E0.01498
G1 X121.336 Y114.764 E0.02228
G1 X121.694 Y115.122 E0.01295
G1 X122.102 Y114.714 E0.01473
G1 X122.252 Y115.282 E0.01498
G1 X120.421 Y117.112 E0.06610
G1 X120.780 Y117.471 E0.01295
G1 X122.402 Y115.849 E0.05856
G1 X122.551 Y116.416 E0.01498
G1 X121.139 Y117.829 E0.05102
G1 X121.497 Y118.188 E0.01295
G1 X122.701 Y116.984 E0.04348
G1 X122.851 Y117.551 E0.01498
G1 X121.856 Y118.546 E0.03594
G1 X122.214 Y118.905 E0.01295
G1 X123.001 Y118.119 E0.02839
G1 X123.150 Y118.686 E0.01498
G1 X122.573 Y119.263 E0.02085
G1 X122.931 Y119.622 E0.01295
G1 X123.300 Y119.253 E0.01331
G1 X123.450 Y119.821 E0.01498
G1 X123.192 Y120.078 E0.00930
G1 E-0.80000 F2100.00000
G1 Z0.800 F10800.000
G1 X122.742 Y109.257
G1 Z0.200
G1 E0.80000 F2100.00000
G1 F1200.000
G1 X122.837 Y87.646 E0.67762
G1 X124.663 Y87.653 E0.05728
G1 X124.582 Y109.056 E0.67109
G1 X122.802 Y109.251 E0.05614
G1 X122.363 Y109.678 F10800.000
G1 F1200.000
G1 X122.461 Y87.268 E0.70268
G1 X125.042 Y87.277 E0.08092
G1 X124.957 Y109.413 E0.69405
G1 X124.794 Y109.412 E0.00513
G1 X122.423 Y109.672 E0.07479
G1 X122.552 Y109.326 F10800.000
G1 E-0.80000 F2100.00000
G1 Z0.800 F10800.000
G1 X124.547 Y88.532
G1 Z0.200
G1 E0.80000 F2100.00000
G1 F1200.000
G1 X123.948 Y87.933 E0.02681
G1 X123.408 Y87.931 E0.01709
G1 X124.376 Y88.899 E0.04332
G1 X124.374 Y89.435 E0.01696
G1 X123.117 Y88.179 E0.05623
G1 X123.115 Y88.714 E0.01695
G1 X124.372 Y89.971 E0.05624
G1 X124.370 Y90.507 E0.01696
G1 X123.112 Y89.250 E0.05625
G1 X123.110 Y89.786 E0.01695
G1 X124.368 Y91.043 E0.05627
G1 X124.366 Y91.579 E0.01696
G1 X123.108 Y90.321 E0.05628
G1 X123.105 Y90.857 E0.01695
G1 X124.364 Y92.115 E0.05629
G1 X124.362 Y92.651 E0.01696
G1 X123.103 Y91.393 E0.05631
G1 X123.101 Y91.929 E0.01695
G1 X124.359 Y93.187 E0.05632
G1 X124.357 Y93.724 E0.01696
G1 X123.098 Y92.464 E0.05633
G1 X123.096 Y93.000 E0.01695
G1 X124.355 Y94.260 E0.05635
G1 X124.353 Y94.796 E0.01696
G1 X123.094 Y93.536 E0.05636
G1 X123.091 Y94.072 E0.01695
G1 X124.351 Y95.332 E0.05637
G1 X124.349 Y95.868 E0.01696
G1 X123.089 Y94.607 E0.05639
G1 X123.087 Y95.143 E0.01695
G1 X124.347 Y96.404 E0.05640
G1 X124.345 Y96.940 E0.01696
G1 X123.084 Y95.679 E0.05641
G1 X123.082 Y96.215 E0.01695
G1 X124.343 Y97.476 E0.05643
G1 X124.341 Y98.012 E0.01696
G1 X123.080 Y96.750 E0.05644
G1 X123.077 Y97.286 E0.01695
G1 X124.339 Y98.548 E0.05645
G1 X124.337 Y99.084 E0.01696
G1 X123.075 Y97.822 E0.05647
G1 X123.073 Y98.357 E0.01695
G1 X124.335 Y99.620 E0.05648
G1 X124.333 Y100.156 E0.01696
G1 X123.070 Y98.893 E0.05649
G1 X123.068 Y99.429 E0.01695
G1 X124.331 Y100.692 E0.05651
G1 X124.329 Y101.228 E0.01696
G1 X123.065 Y99.965 E0.05652
G1 X123.063 Y100.500 E0.01695
G1 X124.327 Y101.764 E0.05653
G1 X124.325 Y102.300 E0.01696
G1 X123.061 Y101.036 E0.05655
G1 X123.058 Y101.572 E0.01695
G1 X124.323 Y102.836 E0.05656
G1 X124.321 Y103.372 E0.01696
G1 X123.056 Y102.108 E0.05657
G1 X123.054 Y102.643 E0.01695
G1 X124.319 Y103.908 E0.05659
G1 X124.316 Y104.444 E0.01696
G1 X123.051 Y103.179 E0.05660
G1 X123.049 Y103.715 E0.01695
G1 X124.314 Y104.980 E0.05661
G1 X124.312 Y105.516 E0.01696
G1 X123.047 Y104.251 E0.05663
G1 X123.044 Y104.786 E0.01695
G1 X124.310 Y106.052 E0.05664
G1 X124.308 Y106.588 E0.01696
G1 X123.042 Y105.322 E0.05665
G1 X123.040 Y105.858 E0.01695
G1 X124.306 Y107.124 E0.05667
G1 X124.304 Y107.660 E0.01696
G1 X123.037 Y106.393 E0.05668
G1 X123.035 Y106.929 E0.01695
G1 X124.302 Y108.196 E0.05669
G1 X124.300 Y108.732 E0.01696
G1 X123.033 Y107.465 E0.05671
G1 X123.030 Y108.001 E0.01695
G1 X123.878 Y108.849 E0.03794
G1 X123.393 Y108.902 E0.01544
G1 X122.859 Y108.367 E0.02391
M106 S255
;BEFORE_LAYER_CHANGE
G92 E0.0
;0.3


G1 E-0.80000 F2100.00000
G1 Z0.800 F10800.000
;AFTER_LAYER_CHANGE
;0.3
M104 S210 ; set temperature
G1 X125.507 Y112.743
G1 Z0.300
G1 E0.80000 F2100.00000
G1 F900
G1 X125.674 Y112.577 E0.00322
G1 X126.033 Y112.935 E0.00693
G1 X125.761 Y113.206 E0.00524
G1 X125.911 Y113.774 E0.00802
G1 X126.391 Y113.294 E0.00928
G1 X126.750 Y113.652 E0.00693
G1 X126.061 Y114.341 E0.01331
G1 X126.210 Y114.909 E0.00802
G1 X127.108 Y114.011 E0.01734
G1 X127.467 Y114.369 E0.00693
G1 X126.360 Y115.476 E0.02138
G1 X126.510 Y116.043 E0.00802
G1 X127.825 Y114.728 E0.02541
G1 X128.184 Y115.086 E0.00693
G1 X126.546 Y116.724 E0.03163
G1 X127.009 Y116.979 F10800.000
G1 F900
G1 X126.809 Y117.178 E0.00386
G1 X126.959 Y117.746 E0.00802
G1 X127.270 Y117.435 E0.00600
G1 X127.628 Y117.794 E0.00693
G1 X127.109 Y118.313 E0.01004
G1 X127.258 Y118.881 E0.00802
G1 X127.987 Y118.152 E0.01407
G1 X128.345 Y118.511 E0.00693
G1 X127.295 Y119.561 E0.02029
G1 E-0.80000 F2100.00000
G1 Z0.900 F10800.000
G1 X126.419 Y123.305
G1 Z0.300
G1 E0.80000 F2100.00000
G1 F900
G1 X129.780 Y119.945 E0.06491
G1 X129.421 Y119.586 E0.00693
G1 X126.158 Y122.849 E0.06303
G1 X125.800 Y122.490 E0.00693
G1 X129.063 Y119.228 E0.06303
G1 X128.704 Y118.869 E0.00693
G1 X125.441 Y122.132 E0.06303
G1 X125.083 Y121.773 E0.00693
G1 X126.185 Y120.671 E0.02130
G1 X125.211 Y120.928 E0.01376
G1 X124.626 Y121.512 E0.01129
G1 E-0.80000 F2100.00000
G1 Z0.900 F10800.000
G1 X123.192 Y120.078
G1 Z0.300
G1 E0.80000 F2100.00000
G1 F900
G1 X123.450 Y119.821 E0.00497
G1 X123.300 Y119.253 E0.00802
G1 X122.931 Y119.622 E0.00712
G1 X122.573 Y119.263 E0.00693
G1 X123.150 Y118.686 E0.01115
G1 X123.001 Y118.119 E0.00802
G1 X122.214 Y118.905 E0.01519
G1 X121.856 Y118.546 E0.00693
G1 X122.851 Y117.551 E0.01922
G1 X122.701 Y116.984 E0.00802
G1 X121.497 Y118.188 E0.02326
G1 X121.139 Y117.829 E0.00693
G1 X122.551 Y116.416 E0.02729
G1 X122.402 Y115.849 E0.00802
G1 X120.780 Y117.471 E0.03133
G1 X120.421 Y117.112 E0.00693
G1 X122.252 Y115.282 E0.03536
G1 X122.102 Y114.714 E0.00802
G1 X121.694 Y115.122 E0.00788
G1 X121.336 Y114.764 E0.00693
G1 X121.953 Y114.147 E0.01192
G1 X121.803 Y113.579 E0.00802
G1 X120.977 Y114.405 E0.01595
G1 X120.619 Y114.046 E0.00693
G1 X121.647 Y113.018 E0.01988
G1 X121.651 Y112.297 E0.00984
G1 X120.162 Y113.786 E0.02875
;BEFORE_LAYER_CHANGE
G92 E0.0
;0.4


G1 E-0.80000 F2100.00000
G1 Z0.900 F10800.000
;AFTER_LAYER_CHANGE
;0.4
G1 X122.881 Y87.691
G1 Z0.400
G1 E0.80000 F2100.00000
M204 S800
G1 F900
G1 X124.618 Y87.698 E0.05879
G1 X124.534 Y109.853 E0.74994
G1 F1800.000
G1 X124.525 Y112.148 E0.11387
G1 X122.774 Y112.339 E0.08744
G1 X122.784 Y110.045 E0.11388
G1 F900
G1 X122.881 Y87.751 E0.75461
M204 S1000
G1 X122.476 Y87.283 F10800.000
M204 S800
G1 F900
G1 X125.027 Y87.292 E0.08634
G1 X124.941 Y109.823 E0.76264
G1 F1800.000
G1 X124.931 Y112.513 E0.13350
G1 X122.364 Y112.793 E0.12812
G1 X122.376 Y110.089 E0.13421
G1 F900
G1 X122.476 Y87.343 E0.76995
M204 S1000
G1 E-0.80000 F2100.00000
G1 Z1.000 F10800.000
G1 X123.830 Y87.817
G1 Z0.400
G1 E0.80000 F2100.00000
M204 S1250
G1 F900
G1 X123.183 Y88.463 E0.03119
G1 X123.181 Y89.046 E0.01989
G1 X124.225 Y88.002 E0.05040
G1 X124.312 Y88.002 E0.00295
G1 X124.310 Y88.497 E0.01690
G1 X123.178 Y89.629 E0.05461
G1 X123.176 Y90.212 E0.01989
G1 X124.308 Y89.080 E0.05463
G1 X124.305 Y89.662 E0.01988
G1 X123.173 Y90.795 E0.05464
G1 X123.171 Y91.378 E0.01989
G1 X124.303 Y90.245 E0.05466
G1 X124.301 Y90.828 E0.01988
G1 X123.168 Y91.961 E0.05467
G1 X123.165 Y92.543 E0.01989
G1 X124.299 Y91.410 E0.05469
G1 X124.297 Y91.993 E0.01988
G1 X123.163 Y93.126 E0.05470
G1 X123.160 Y93.709 E0.01989
G1 X124.294 Y92.575 E0.05472
G1 X124.292 Y93.158 E0.01988
G1 X123.158 Y94.292 E0.05473
G1 X123.155 Y94.875 E0.01989
G1 X124.290 Y93.740 E0.05475
G1 X124.288 Y94.323 E0.01988
G1 X123.153 Y95.458 E0.05477
G1 X123.150 Y96.041 E0.01989
G1 X124.285 Y94.906 E0.05478
G1 X124.283 Y95.488 E0.01988
G1 X123.148 Y96.624 E0.05480
G1 X123.145 Y97.207 E0.01989
G1 X124.281 Y96.071 E0.05481
G1 X124.279 Y96.653 E0.01988
G1 X123.143 Y97.790 E0.05483
G1 X123.140 Y98.372 E0.01989
G1 X124.277 Y97.236 E0.05484
G1 X124.274 Y97.818 E0.01988
G1 X123.137 Y98.955 E0.05486
G1 X123.135 Y99.538 E0.01989
G1 X124.272 Y98.401 E0.05488
G1 X124.270 Y98.984 E0.01988
G1 X123.132 Y100.121 E0.05489
G1 X123.130 Y100.704 E0.01989
G1 X124.268 Y99.566 E0.05491
G1 X124.265 Y100.149 E0.01988
G1 X123.127 Y101.287 E0.05492
G1 X123.125 Y101.870 E0.01989
G1 X124.263 Y100.731 E0.05494
G1 X124.261 Y101.314 E0.01988
G1 X123.122 Y102.453 E0.05495
G1 X123.120 Y103.036 E0.01989
G1 X124.259 Y101.896 E0.05497
G1 X124.256 Y102.479 E0.01988
G1 X123.117 Y103.619 E0.05499
G1 X123.114 Y104.201 E0.01989
G1 X124.254 Y103.062 E0.05500
G1 X124.252 Y103.644 E0.01988
G1 X123.112 Y104.784 E0.05502
G1 X123.109 Y105.367 E0.01989
G1 X124.250 Y104.227 E0.05503
G1 X124.248 Y104.809 E0.01988
G1 X123.107 Y105.950 E0.05505
G1 X123.104 Y106.533 E0.01989
G1 X124.245 Y105.392 E0.05506
G1 X124.243 Y105.974 E0.01988
G1 X123.490 Y106.728 E0.03636
M204 S1000
G1 E-0.80000 F2100.00000
G1 Z1.000 F10800.000
G1 X124.419 Y107.342
G1 Z0.400
G1 E0.80000 F2100.00000
G1 F1800.000
G1 X123.117 Y107.342 E0.07328
G1 X123.115 Y107.807 E0.02617
G1 X124.220 Y107.807 E0.06216
G1 X124.218 Y108.272 E0.02617
G1 X123.113 Y108.272 E0.06217
G1 X123.111 Y108.737 E0.02617
G1 X124.216 Y108.737 E0.06219
G1 X124.214 Y109.202 E0.02617
G1 X123.109 Y109.202 E0.06220
G1 X123.107 Y109.667 E0.02617
G1 X124.213 Y109.667 E0.06222
G1 X124.211 Y110.133 E0.02617
G1 X123.105 Y110.133 E0.06223
G1 X123.103 Y110.598 E0.02617
G1 X124.209 Y110.598 E0.06224
G1 X124.207 Y111.063 E0.02617
G1 X123.101 Y111.063 E0.06226
G1 X123.099 Y111.528 E0.02617
G1 X124.403 Y111.528 E0.07341
;BEFORE_LAYER_CHANGE
G92 E0.0
;0.6


G1 E-0.80000 F2100.00000
G1 Z1.000 F10800.000
