; generated by PrusaSlicer 2.4.2+win64 on 2022-08-19 at 21:54:03 UTC

; 

; external perimeters extrusion width = 0.45mm
; perimeters extrusion width = 0.45mm
; infill extrusion width = 0.45mm
; solid infill extrusion width = 0.45mm
; top infill extrusion width = 0.40mm
; support material extrusion width = 0.35mm
; first layer extrusion width = 0.42mm

M73 P0 R26
M73 Q0 S26
M201 X1000 Y1000 Z200 E5000 ; sets maximum accelerations, mm/sec^2
M203 X200 Y200 Z12 E120 ; sets maximum feedrates, mm / sec
M204 P1250 R1250 T1250 ; sets acceleration (P, T) and retract acceleration (R), mm/sec^2
M205 X8.00 Y8.00 Z0.40 E4.50 ; sets the jerk limits, mm/sec
M205 S0 T0 ; sets the minimum extruding and travel feed rate, mm/sec
M107
;TYPE:Custom
M862.3 P "MK3S" ; printer model check
M862.1 P0.4 ; nozzle diameter check
M115 U3.10.1 ; tell printer latest fw version
G90 ; use absolute coordinates
M83 ; extruder relative mode
M104 S215 ; set extruder temp
M140 S60 ; set bed temp
M190 S60 ; wait for bed temp
M109 S215 ; wait for extruder temp
G28 W ; home all without mesh bed level
G80 ; mesh bed leveling
G1 Z0.2 F720
G1 Y-3 F1000 ; go outside print area
G92 E0
G1 X60 E9 F1000 ; intro line
G1 X100 E12.5 F1000 ; intro line
G92 E0
M221 S95

; Don't change E values below. Excessive value can damage the printer.

G21 ; set units to millimeters
G90 ; use absolute coordinates
M83 ; use relative distances for extrusion
M900 K0.05 ; Filament gcode LA 1.5
M900 K30 ; Filament gcode LA 1.0
M107
;LAYER_CHANGE
;Z:0.2
;HEIGHT:0.2
;BEFORE_LAYER_CHANGE
G92 E0.0
;0.2


G1 E-.8 F2100
G1 Z.4 F720
;AFTER_LAYER_CHANGE
;0.2
G1 X104.629 Y86.47 F10800
G1 Z.2 F720
G1 E.8 F2100
M204 S800
;TYPE:Skirt/Brim
;WIDTH:0.42
G1 F600
G1 X105.472 Y85.529 E.03962
G1 X106.415 Y84.673 E.03993
G1 X107.329 Y84.005 E.03548
G1 X108.415 Y83.361 E.0396
G1 X109.565 Y82.842 E.03956
G1 X110.724 Y82.453 E.03833
G1 X111.878 Y82.197 E.03707
G1 X113.851 Y82.026 E.06208
G1 X136.147 Y82.026 E.69906
G1 X137.926 Y82.164 E.05596
G1 X139.934 Y82.656 E.06484
G1 X141.767 Y83.458 E.06271
G1 X143.407 Y84.531 E.06144
G1 X144.907 Y85.926 E.06423
G1 X146.104 Y87.495 E.06188
G1 X146.978 Y89.129 E.05811
G1 X147.619 Y90.999 E.06197
G1 X147.874 Y92.327 E.04241
G1 X147.972 Y93.654 E.04171
G1 X147.962 Y116.696 E.72246
G1 X147.791 Y118.193 E.04725
M73 P0 R25
G1 X147.426 Y119.684 E.04813
G1 X146.834 Y121.19 E.05072
G1 X146.104 Y122.504 E.04714
G1 X145.329 Y123.583 E.04165
G1 X144.334 Y124.663 E.04605
G1 X143.326 Y125.531 E.04171
G1 X142.208 Y126.29 E.04237
M73 Q1 S26
G1 X141.112 Y126.87 E.03887
G1 X139.838 Y127.377 E.04299
M73 P1 R25
G1 X138.46 Y127.739 E.04467
G1 X137.203 Y127.927 E.03988
G1 X113.126 Y127.952 E.7549
G1 X111.611 Y127.753 E.04792
M73 Q1 S25
G1 X110.166 Y127.378 E.04681
G1 X108.81 Y126.834 E.0458
G1 X107.496 Y126.104 E.04714
G1 X106.417 Y125.329 E.04165
G1 X105.337 Y124.334 E.04605
G1 X104.469 Y123.326 E.04171
G1 X103.71 Y122.208 E.04237
G1 X103.13 Y121.112 E.03887
G1 X102.623 Y119.838 E.04299
G1 X102.261 Y118.461 E.04464
G1 X102.073 Y117.203 E.03991
G1 X102.048 Y93.125 E.75493
G1 X102.246 Y91.612 E.04785
G1 X102.621 Y90.168 E.04678
G1 X103.164 Y88.814 E.04575
G1 X103.894 Y87.499 E.04715
G1 X104.594 Y86.518 E.03777
M204 S1000
G1 X104.9 Y86.742 F10800
M204 S800
G1 F600
G1 X105.788 Y85.746 E.04183
G1 X106.701 Y84.927 E.03846
G1 X107.702 Y84.211 E.0386
G1 X108.726 Y83.626 E.03697
G1 X109.949 Y83.098 E.04178
G1 X110.918 Y82.791 E.03188
G1 X112.133 Y82.536 E.0389
G1 X113.855 Y82.403 E.05415
G1 X136.143 Y82.403 E.69883
G1 X137.863 Y82.536 E.05411
G1 X139.809 Y83.012 E.06279
G1 X141.589 Y83.79 E.06093
G1 X143.173 Y84.827 E.05933
G1 X144.627 Y86.178 E.06224
G1 X145.788 Y87.702 E.06007
G1 X146.631 Y89.277 E.05602
G1 X147.272 Y91.168 E.06259
G1 X147.513 Y92.475 E.04169
G1 X147.595 Y93.657 E.03716
G1 X147.585 Y116.676 E.72173
G1 X147.42 Y118.123 E.04567
G1 X147.02 Y119.716 E.05152
G1 X146.418 Y121.187 E.04983
G1 X145.68 Y122.465 E.04626
M73 Q2 S25
G1 X144.809 Y123.617 E.04529
G1 X143.879 Y124.574 E.04183
M73 P2 R25
G1 X142.958 Y125.335 E.03745
G1 X141.861 Y126.057 E.0412
G1 X140.785 Y126.604 E.03784
G1 X139.572 Y127.066 E.04069
G1 X138.383 Y127.37 E.03847
G1 X137.106 Y127.557 E.04048
G1 X113.146 Y127.576 E.75124
G1 X111.681 Y127.383 E.04633
G1 X110.282 Y127.019 E.04533
G1 X108.815 Y126.418 E.0497
G1 X107.535 Y125.68 E.04633
G1 X106.383 Y124.809 E.04527
G1 X105.428 Y123.881 E.04178
G1 X104.665 Y122.958 E.03752
G1 X103.944 Y121.863 E.04113
G1 X103.396 Y120.785 E.03791
G1 X102.934 Y119.572 E.04069
G1 X102.617 Y118.319 E.04053
G1 X102.443 Y117.106 E.03843
G1 X102.424 Y93.145 E.75128
G1 X102.617 Y91.682 E.04627
G1 X103.011 Y90.194 E.04825
G1 X103.581 Y88.816 E.04677
G1 X104.319 Y87.538 E.04626
G1 X104.865 Y86.79 E.02902
M204 S1000
; printing object Light Focuser.stl id:0 copy 3
;WIPE_START
G1 F8640
G1 X105.788 Y85.746 E-.32184
G1 X106.701 Y84.927 E-.28321
G1 X107.247 Y84.537 E-.15495
;WIPE_END
G1 E-.04 F2100
G1 Z.6 F720
G1 X130.475 Y112.734 F10800
G1 Z.2 F720
G1 E.8 F2100
M204 S800
;TYPE:Perimeter
G1 F540
G1 X130.475 Y115.994 E.10222
G1 X130.776 Y116.892 E.02968
G1 X131.224 Y117.832 E.03265
G1 X132.486 Y118.691 E.04789
G1 X139.734 Y118.691 E.22725
G1 X140.997 Y117.832 E.04789
G1 X141.444 Y116.892 E.03265
G1 X141.745 Y115.994 E.02968
G1 X141.745 Y112.734 E.10222
G1 X142.051 Y113.306 E.02033
G1 X142.294 Y113.893 E.01991
G1 X142.484 Y114.519 E.02052
G1 X142.607 Y115.141 E.01991
G1 X142.672 Y115.793 E.02052
G1 X142.672 Y116.428 E.01991
G1 X142.607 Y117.079 E.02052
G1 X142.484 Y117.702 E.0199
G1 X142.294 Y118.328 E.02052
G1 X142.051 Y118.914 E.0199
G1 X141.742 Y119.492 E.02052
G1 X141.389 Y120.019 E.0199
G1 X140.974 Y120.525 E.02052
G1 X140.525 Y120.974 E.01991
G1 X140.019 Y121.389 E.02052
G1 X139.492 Y121.742 E.01991
G1 X138.914 Y122.051 E.02052
G1 X138.328 Y122.294 E.01991
G1 X137.702 Y122.484 E.02052
G1 X137.079 Y122.607 E.01991
G1 X136.428 Y122.672 E.02052
G1 X135.793 Y122.672 E.01991
G1 X135.141 Y122.607 E.02052
G1 X134.519 Y122.484 E.01991
G1 X133.893 Y122.294 E.02052
G1 X133.306 Y122.051 E.01991
G1 X132.729 Y121.742 E.02052
G1 X132.201 Y121.389 E.0199
G1 X131.695 Y120.974 E.02052
G1 X131.246 Y120.525 E.0199
G1 X130.831 Y120.019 E.02052
G1 X130.478 Y119.492 E.01991
G1 X130.17 Y118.914 E.02052
G1 X129.927 Y118.328 E.01991
G1 X129.737 Y117.702 E.02052
G1 X129.613 Y117.079 E.01991
G1 X129.549 Y116.428 E.02052
G1 X129.549 Y115.793 E.01991
G1 X129.613 Y115.141 E.02052
G1 X129.737 Y114.519 E.01991
G1 X129.927 Y113.892 E.02052
G1 X130.17 Y113.306 E.01991
G1 X130.447 Y112.787 E.01845
M204 S1000
G1 X130.852 Y112.353 F10800
M204 S800
G1 F300
G1 X131.655 Y111.47 E.0374
G1 X132.542 Y110.737 E.0361
G1 X139.678 Y110.737 E.22374
G1 X140.565 Y111.47 E.0361
M73 P3 R25
M73 Q3 S25
G1 X141.368 Y112.353 E.0374
G1 X141.368 Y115.933 E.11225
G1 X141.094 Y116.75 E.02703
G1 X140.7 Y117.578 E.02873
G1 X139.618 Y118.314 E.04104
G1 X132.602 Y118.314 E.21997
G1 X131.52 Y117.578 E.04104
G1 X131.127 Y116.75 E.02873
G1 X130.852 Y115.933 E.02703
G1 X130.852 Y112.413 E.11037
M204 S1000
G1 X131.23 Y112.498 F10800
M204 S800
G1 F300
G1 X131.916 Y111.744 E.03198
G1 X132.678 Y111.114 E.031
G1 X139.542 Y111.114 E.21523
G1 X140.305 Y111.744 E.031
G1 X140.991 Y112.498 E.03198
G1 X140.991 Y115.871 E.10575
G1 X140.744 Y116.609 E.02439
G1 X140.403 Y117.323 E.02482
G1 X139.502 Y117.937 E.0342
G1 X132.719 Y117.937 E.21268
G1 X131.817 Y117.323 E.0342
G1 X131.477 Y116.609 E.02482
G1 X131.23 Y115.871 E.02439
G1 X131.23 Y112.558 E.10387
M204 S1000
G1 X131.607 Y112.644 F10800
M204 S800
;TYPE:External perimeter
G1 F300
G1 X132.177 Y112.017 E.02657
G1 X132.814 Y111.491 E.02591
G1 X139.407 Y111.491 E.20672
G1 X140.044 Y112.017 E.02591
G1 X140.614 Y112.644 E.02657
G1 X140.614 Y115.81 E.09925
G1 X140.393 Y116.467 E.02174
G1 X140.107 Y117.069 E.0209
G1 X139.386 Y117.56 E.02736
G1 X132.835 Y117.56 E.20539
G1 X132.114 Y117.069 E.02736
G1 X131.827 Y116.467 E.0209
G1 X131.607 Y115.81 E.02174
M73 Q4 S25
G1 X131.607 Y112.704 E.09737
M204 S1000
G1 X131.389 Y112.308 F10800
;WIPE_START
M73 P4 R25
G1 F8640
G1 X132.177 Y112.017 E-.20614
G1 X132.814 Y111.491 E-.1908
G1 X134.386 Y111.491 E-.36306
;WIPE_END
G1 E-.04 F2100
G1 Z.6 F720
G1 X132.951 Y110.359 F10800
G1 Z.2 F720
G1 E.8 F2100
M204 S800
;TYPE:Perimeter
G1 F300
G1 X133.306 Y110.17 E.01262
G1 X133.892 Y109.927 E.0199
G1 X134.519 Y109.737 E.02052
G1 X135.15 Y109.611 E.02017
G1 X135.643 Y109.556 E.01555
G1 X136.268 Y109.544 E.01962
G1 X136.932 Y109.592 E.02088
G1 X137.708 Y109.739 E.02475
G1 X138.328 Y109.927 E.02032
G1 X138.914 Y110.17 E.0199
G1 X139.269 Y110.359 E.01262
G1 X133.011 Y110.359 E.19623
M204 S1000
;WIPE_START
G1 F8640
G1 X133.306 Y110.17 E-.08101
G1 X133.892 Y109.927 E-.14659
G1 X134.519 Y109.737 E-.15112
G1 X135.15 Y109.611 E-.14856
G1 X135.643 Y109.556 E-.11448
G1 X136.155 Y109.546 E-.11823
;WIPE_END
G1 E-.04 F2100
G1 Z.6 F720
G1 X130.528 Y111.976 F10800
G1 Z.2 F720
G1 E.8 F2100
M204 S800
G1 F540
G1 X130.966 Y111.441 E.02168
G1 X131.441 Y110.966 E.02107
G1 X131.976 Y110.528 E.02168
G1 X132.535 Y110.154 E.02107
G1 X133.145 Y109.828 E.02168
G1 X133.765 Y109.571 E.02107
G1 X134.427 Y109.371 E.02168
G1 X135.092 Y109.238 E.02126
G1 X135.618 Y109.18 E.01659
G1 X136.278 Y109.167 E.0207
G1 X136.981 Y109.218 E.0221
G1 X137.798 Y109.372 E.02606
G1 X138.455 Y109.571 E.02154
G1 X139.076 Y109.828 E.02107
G1 X139.686 Y110.154 E.02168
G1 X140.244 Y110.528 E.02107
G1 X140.779 Y110.966 E.02168
G1 X141.254 Y111.441 E.02107
G1 X141.693 Y111.976 E.02168
G1 X142.066 Y112.535 E.02107
G1 X142.392 Y113.145 E.02168
G1 X142.649 Y113.765 E.02107
G1 X142.85 Y114.427 E.02168
G1 X142.981 Y115.086 E.02107
G1 X143.049 Y115.774 E.02168
G1 X143.049 Y116.446 E.02107
G1 X142.981 Y117.134 E.02168
G1 X142.85 Y117.793 E.02106
G1 X142.649 Y118.455 E.02168
G1 X142.392 Y119.076 E.02107
G1 X142.066 Y119.686 E.02168
G1 X141.693 Y120.244 E.02107
G1 X141.254 Y120.779 E.02168
G1 X140.779 Y121.254 E.02107
G1 X140.244 Y121.693 E.02168
G1 X139.686 Y122.066 E.02107
G1 X139.076 Y122.392 E.02168
G1 X138.455 Y122.649 E.02107
G1 X137.793 Y122.85 E.02168
G1 X137.134 Y122.981 E.02107
G1 X136.446 Y123.049 E.02168
G1 X135.774 Y123.049 E.02107
G1 X135.086 Y122.981 E.02168
G1 X134.427 Y122.85 E.02107
G1 X133.765 Y122.649 E.02168
G1 X133.145 Y122.392 E.02107
G1 X132.535 Y122.066 E.02168
G1 X131.976 Y121.693 E.02107
G1 X131.441 Y121.254 E.02168
G1 X130.966 Y120.779 E.02107
G1 X130.528 Y120.244 E.02168
G1 X130.154 Y119.686 E.02107
G1 X129.828 Y119.076 E.02168
G1 X129.571 Y118.455 E.02107
G1 X129.371 Y117.793 E.02168
G1 X129.239 Y117.134 E.02107
G1 X129.172 Y116.446 E.02168
G1 X129.172 Y115.774 E.02107
G1 X129.239 Y115.086 E.02168
G1 X129.371 Y114.427 E.02107
G1 X129.571 Y113.765 E.02168
G1 X129.828 Y113.145 E.02107
G1 X130.154 Y112.535 E.02168
G1 X130.494 Y112.026 E.01919
M204 S1000
G1 X130.224 Y111.751 F10800
M204 S800
G1 F540
G1 X130.687 Y111.188 E.02284
G1 X131.188 Y110.687 E.02223
G1 X131.751 Y110.224 E.02284
G1 X132.341 Y109.831 E.02223
G1 X132.983 Y109.487 E.02285
G1 X133.638 Y109.216 E.02223
G1 X134.335 Y109.004 E.02284
G1 X135.034 Y108.865 E.02235
G1 X135.593 Y108.803 E.01764
G1 X136.288 Y108.789 E.02178
G1 X137.03 Y108.843 E.02332
G1 X137.888 Y109.005 E.02738
G1 X138.582 Y109.216 E.02275
G1 X139.237 Y109.487 E.02223
G1 X139.88 Y109.831 E.02284
G1 X140.469 Y110.224 E.02223
G1 X141.032 Y110.687 E.02284
G1 X141.534 Y111.188 E.02223
G1 X141.996 Y111.751 E.02284
G1 X142.39 Y112.341 E.02223
G1 X142.733 Y112.983 E.02285
M73 P4 R24
G1 X143.005 Y113.638 E.02223
G1 X143.216 Y114.335 E.02284
G1 X143.354 Y115.031 E.02223
G1 X143.426 Y115.756 E.02284
G1 X143.426 Y116.465 E.02223
G1 X143.354 Y117.19 E.02284
G1 X143.216 Y117.885 E.02223
G1 X143.005 Y118.582 E.02285
G1 X142.733 Y119.237 E.02223
G1 X142.39 Y119.88 E.02284
G1 X141.996 Y120.469 E.02223
G1 X141.534 Y121.032 E.02284
G1 X141.032 Y121.534 E.02223
G1 X140.469 Y121.996 E.02284
G1 X139.88 Y122.39 E.02223
G1 X139.237 Y122.733 E.02284
G1 X138.582 Y123.005 E.02223
G1 X137.885 Y123.216 E.02284
G1 X137.19 Y123.354 E.02223
G1 X136.465 Y123.426 E.02284
G1 X135.756 Y123.426 E.02223
G1 X135.031 Y123.354 E.02284
G1 X134.335 Y123.216 E.02223
G1 X133.638 Y123.005 E.02284
G1 X132.983 Y122.733 E.02223
G1 X132.341 Y122.39 E.02285
G1 X131.751 Y121.996 E.02223
G1 X131.188 Y121.534 E.02285
G1 X130.687 Y121.032 E.02223
G1 X130.224 Y120.469 E.02284
G1 X129.831 Y119.88 E.02223
G1 X129.487 Y119.237 E.02284
G1 X129.216 Y118.582 E.02223
G1 X129.004 Y117.885 E.02284
G1 X128.866 Y117.19 E.02223
G1 X128.795 Y116.465 E.02284
G1 X128.795 Y115.756 E.02223
G1 X128.866 Y115.031 E.02284
M73 Q4 S24
G1 X129.004 Y114.335 E.02223
G1 X129.216 Y113.638 E.02284
G1 X129.487 Y112.983 E.02223
G1 X129.831 Y112.341 E.02284
G1 X130.191 Y111.801 E.02035
M204 S1000
G1 X129.921 Y111.526 F10800
M204 S800
;TYPE:External perimeter
G1 F300
G1 X130.407 Y110.934 E.02401
G1 X130.934 Y110.407 E.02339
G1 X131.526 Y109.921 E.02401
G1 X132.146 Y109.507 E.02339
G1 X132.822 Y109.146 E.02401
G1 X133.511 Y108.86 E.02339
G1 X134.244 Y108.638 E.02401
G1 X134.977 Y108.492 E.02343
G1 X135.569 Y108.426 E.01868
G1 X136.298 Y108.412 E.02286
G1 X137.079 Y108.469 E.02454
G1 X137.978 Y108.638 E.02869
M73 Q5 S24
G1 X138.709 Y108.86 E.02397
M73 P5 R24
G1 X139.399 Y109.146 E.02339
G1 X140.074 Y109.507 E.02401
G1 X140.694 Y109.921 E.02339
G1 X141.286 Y110.407 E.02401
G1 X141.813 Y110.934 E.02339
G1 X142.299 Y111.526 E.02401
G1 X142.714 Y112.146 E.02339
G1 X143.075 Y112.822 E.02401
G1 X143.36 Y113.511 E.02339
G1 X143.582 Y114.244 E.024
G1 X143.728 Y114.975 E.02339
G1 X143.803 Y115.737 E.02401
G1 X143.803 Y116.483 E.02339
G1 X143.728 Y117.245 E.02401
G1 X143.582 Y117.977 E.02339
G1 X143.36 Y118.709 E.02401
G1 X143.075 Y119.399 E.02339
G1 X142.714 Y120.074 E.02401
G1 X142.299 Y120.694 E.02339
G1 X141.813 Y121.286 E.02401
G1 X141.286 Y121.813 E.02339
G1 X140.694 Y122.299 E.024
G1 X140.074 Y122.714 E.02339
G1 X139.399 Y123.075 E.02401
G1 X138.709 Y123.36 E.02339
G1 X137.977 Y123.582 E.024
G1 X137.245 Y123.728 E.02339
G1 X136.483 Y123.803 E.024
G1 X135.737 Y123.803 E.02339
G1 X134.975 Y123.728 E.024
G1 X134.244 Y123.582 E.02339
G1 X133.511 Y123.36 E.024
G1 X132.822 Y123.075 E.02339
G1 X132.146 Y122.714 E.02401
G1 X131.526 Y122.299 E.02339
G1 X130.934 Y121.813 E.02401
G1 X130.407 Y121.286 E.02339
G1 X129.921 Y120.694 E.024
G1 X129.507 Y120.074 E.02339
G1 X129.146 Y119.399 E.02401
G1 X128.86 Y118.709 E.02339
G1 X128.638 Y117.977 E.02401
G1 X128.493 Y117.245 E.02339
G1 X128.418 Y116.483 E.02401
G1 X128.418 Y115.737 E.02339
G1 X128.493 Y114.975 E.024
G1 X128.638 Y114.244 E.02339
G1 X128.86 Y113.511 E.024
G1 X129.146 Y112.822 E.02339
G1 X129.507 Y112.147 E.024
G1 X129.888 Y111.576 E.02151
M204 S1000
G1 X130.319 Y111.572 F10800
;WIPE_START
G1 F8640
G1 X130.407 Y110.934 E-.19058
G1 X130.934 Y110.407 E-.17225
G1 X131.526 Y109.921 E-.17679
G1 X132.146 Y109.507 E-.17225
G1 X132.33 Y109.408 E-.04813
;WIPE_END
G1 E-.04 F2100
G1 Z.6 F720
G1 X130.629 Y112.248 F10800
G1 Z.2 F720
G1 E.8 F2100
M204 S800
;TYPE:Gap fill
;WIDTH:0.160355
G1 F480
G1 X130.726 Y112.124 E.00154
M204 S1000
M204 S800
;WIDTH:0.194161
G1 X131.162 Y111.619 E.00838
M204 S1000
M204 S800
;WIDTH:0.194161
G1 X131.476 Y111.29 E.00572
M204 S1000
M204 S800
;WIDTH:0.172781
G1 X131.483 Y111.283 E.0001
M204 S1000
M204 S800
;WIDTH:0.190002
G1 X131.618 Y111.161 E.00223
M204 S1000
M204 S800
;WIDTH:0.190003
G1 X132.132 Y110.737 E.00814
M204 S1000
M204 S800
;WIDTH:0.187682
G1 X132.441 Y110.507 E.00464
M204 S1000
M204 S800
;WIDTH:0.157928
G1 X132.754 Y110.351 E.00335
M204 S1000
;WIPE_START
G1 F8640
G1 X132.441 Y110.507 E-.08091
;WIPE_END
G1 E-.71909 F2100
G1 Z.6 F720
G1 X133.898 Y110.151 F10800
G1 Z.2 F720
G1 E.8 F2100
M204 S800
;WIDTH:0.111344
G1 F480
G1 X133.968 Y110.137 E.00041
M204 S1000
M204 S800
;WIDTH:0.157923
G1 X134.125 Y110.113 E.00152
M204 S1000
M204 S800
;WIDTH:0.204502
G1 X134.282 Y110.09 E.00213
M204 S1000
M204 S800
;WIDTH:0.251081
G1 X134.439 Y110.067 E.00275
M204 S1000
M204 S800
;WIDTH:0.29766
G1 X134.596 Y110.044 E.00336
M204 S1000
M204 S800
;WIDTH:0.325776
G1 X134.816 Y110.022 E.0052
M204 S1000
M204 S800
;WIDTH:0.353892
