; generated by PrusaSlicer 2.5.2+win64 on 2023-06-06 at 19:01:12 UTC

; 

; external perimeters extrusion width = 0.45mm
; perimeters extrusion width = 0.45mm
; infill extrusion width = 0.45mm
; solid infill extrusion width = 0.45mm
; top infill extrusion width = 0.40mm
; support material extrusion width = 0.35mm
; first layer extrusion width = 0.42mm

; external perimeters extrusion width = 0.45mm
; perimeters extrusion width = 0.45mm
; infill extrusion width = 0.45mm
; solid infill extrusion width = 0.45mm
; top infill extrusion width = 0.40mm
; support material extrusion width = 0.35mm
; first layer extrusion width = 0.42mm

; external perimeters extrusion width = 0.45mm
; perimeters extrusion width = 0.45mm
; infill extrusion width = 0.45mm
; solid infill extrusion width = 0.45mm
; top infill extrusion width = 0.40mm
; support material extrusion width = 0.35mm
; first layer extrusion width = 0.42mm

; external perimeters extrusion width = 0.45mm
; perimeters extrusion width = 0.45mm
; infill extrusion width = 0.45mm
; solid infill extrusion width = 0.45mm
; top infill extrusion width = 0.40mm
; support material extrusion width = 0.35mm
; first layer extrusion width = 0.42mm

; external perimeters extrusion width = 0.45mm
; perimeters extrusion width = 0.45mm
; infill extrusion width = 0.45mm
; solid infill extrusion width = 0.45mm
; top infill extrusion width = 0.40mm
; support material extrusion width = 0.35mm
; first layer extrusion width = 0.42mm

; external perimeters extrusion width = 0.45mm
; perimeters extrusion width = 0.45mm
; infill extrusion width = 0.45mm
; solid infill extrusion width = 0.45mm
; top infill extrusion width = 0.40mm
; support material extrusion width = 0.35mm
; first layer extrusion width = 0.42mm

; external perimeters extrusion width = 0.45mm
; perimeters extrusion width = 0.45mm
; infill extrusion width = 0.45mm
; solid infill extrusion width = 0.45mm
; top infill extrusion width = 0.40mm
; support material extrusion width = 0.35mm
; first layer extrusion width = 0.42mm

; external perimeters extrusion width = 0.45mm
; perimeters extrusion width = 0.45mm
; infill extrusion width = 0.45mm
; solid infill extrusion width = 0.45mm
; top infill extrusion width = 0.40mm
; support material extrusion width = 0.35mm
; first layer extrusion width = 0.42mm

; external perimeters extrusion width = 0.45mm
; perimeters extrusion width = 0.45mm
; infill extrusion width = 0.45mm
; solid infill extrusion width = 0.45mm
; top infill extrusion width = 0.40mm
; support material extrusion width = 0.35mm
; first layer extrusion width = 0.42mm

; external perimeters extrusion width = 0.45mm
; perimeters extrusion width = 0.45mm
; infill extrusion width = 0.45mm
; solid infill extrusion width = 0.45mm
; top infill extrusion width = 0.40mm
; support material extrusion width = 0.35mm
; first layer extrusion width = 0.42mm

M73 P0 R23
M73 C18
M73 Q0 S23
M73 D18
M107
;TYPE:Custom
M862.3 P "MK3S" ; printer model check
M862.1 P0.4 ; nozzle diameter check
G90 ; use absolute coordinates
M83 ; extruder relative mode
M104 S215 ; set extruder temp
M140 S60 ; set bed temp
M190 S60 ; wait for bed temp
M109 S215 ; wait for extruder temp
G28 W ; home all without mesh bed level
G80 ; mesh bed leveling
G1 Y-3.0 F1000.0 ; go outside print area
G92 E0.0
G1 X60.0 E9.0 F1000.0 ; intro line
G1 X100.0 E12.5 F1000.0 ; intro line
G92 E0.0
M221 S95

; Don't change E values below. Excessive value can damage the printer.
M907 E430 ; set extruder motor current
G21 ; set units to millimeters
G90 ; use absolute coordinates
M83 ; use relative distances for extrusion
M900 K0.05 ; Filament gcode LA 1.5
M900 K30 ; Filament gcode LA 1.0
M107
;LAYER_CHANGE
;Z:0.2
;HEIGHT:0.2
;BEFORE_LAYER_CHANGE
G92 E0.0
;0.2


G1 E-.8 F2100
G1 Z.4 F720
;AFTER_LAYER_CHANGE
;0.2
; printing object SideAccent.stl id:7 copy 0
G1 X157.301 Y107.513 F10800
G1 Z.2 F720
G1 E.8 F2100
M204 S800
;TYPE:Support material
;WIDTH:0.42
G1 F1200
G1 X156.614 Y107.546 E.02154
G1 X156.626 Y108.065 E.01629
G1 X153.082 Y108.312 E.1114
G1 X153.045 Y108.353 E.00172
G1 X152.679 Y108.298 E.01159
G1 X152.181 Y108.298 E.01562
G1 X151.86 Y108.618 E.01422
G1 X151.845 Y123.529 E.46752
G1 X151.117 Y123.528 E.02282
G1 X150.795 Y124.043 E.01904
G1 X153.278 Y129.135 E.17761
G1 X146.8 Y129.135 E.20311
G1 X146.8 Y104.791 E.76327
G1 X157.301 Y104.791 E.32925
M73 P0 R22
G1 X157.301 Y107.457 E.08358
M204 S1000
G1 X156.664 Y107.374 F10800
M204 S800
G1 F1200
G1 X156.664 Y105.13 E.07033
G1 X156.245 Y105.13 E.01314
G1 X156.245 Y107.752 E.08219
G1 X155.826 Y107.781 E.01317
G1 X155.826 Y105.13 E.08311
G1 X155.407 Y105.13 E.01314
G1 X155.407 Y107.81 E.08402
G1 X154.988 Y107.839 E.01317
G1 X154.988 Y105.13 E.08494
G1 X154.569 Y105.13 E.01314
G1 X154.569 Y107.869 E.08585
G1 X154.15 Y107.898 E.01317
G1 X154.15 Y105.13 E.08677
G1 X153.731 Y105.13 E.01314
G1 X153.731 Y107.927 E.08768
G1 X153.313 Y107.956 E.01317
G1 X153.313 Y105.13 E.0886
G1 X152.894 Y105.13 E.01314
G1 X152.894 Y107.985 E.08951
G1 X152.693 Y107.959 E.00636
M73 Q0 S22
G1 X152.475 Y107.959 E.00683
G1 X152.475 Y105.13 E.08867
G1 X152.056 Y105.13 E.01314
G1 X152.056 Y107.958 E.08866
G1 X151.637 Y108.361 E.01823
G1 X151.637 Y105.13 E.1013
G1 X151.218 Y105.13 E.01314
G1 X151.218 Y123.189 E.56621
G1 X150.929 Y123.189 E.00905
M73 P1 R22
M73 Q1 S22
G1 X150.799 Y123.397 E.0077
G1 X150.799 Y105.13 E.57273
G1 X150.38 Y105.13 E.01314
G1 X150.38 Y128.795 E.74199
G1 X150.799 Y128.795 E.01314
G1 X150.799 Y124.825 E.12447
G1 X151.218 Y125.685 E.02997
G1 X151.218 Y128.795 E.09753
G1 X151.637 Y128.795 E.01314
G1 X151.637 Y126.544 E.07059
G1 X152.056 Y127.403 E.02997
G1 X152.056 Y128.795 E.04365
G1 X152.475 Y128.795 E.01314
G1 X152.475 Y127.875 E.02885
M204 S1000
G1 X149.961 Y128.965 F10800
M204 S800
G1 F1200
G1 X149.961 Y105.13 E.74731
G1 X149.542 Y105.13 E.01314
G1 X149.542 Y128.795 E.74199
G1 X149.123 Y128.795 E.01314
G1 X149.123 Y105.13 E.74199
G1 X148.704 Y105.13 E.01314
G1 X148.704 Y128.795 E.74199
G1 X148.285 Y128.795 E.01314
G1 X148.285 Y105.13 E.74199
G1 X147.866 Y105.13 E.01314
G1 X147.866 Y128.795 E.74199
G1 X147.447 Y128.795 E.01314
M73 C17
G1 X147.447 Y104.961 E.74731
M204 S1000
;WIPE_START
G1 F8640
M73 D17
G1 X147.447 Y108.252 E-.76
;WIPE_END
G1 E-.04 F2100
G1 Z.6 F720
G1 X152.836 Y124.789 F10800
G1 Z.2 F720
G1 E.8 F2100
M204 S800
;TYPE:Perimeter
;WIDTH:0.419999
G1 F1200
G1 X153.135 Y124.516 E.01271
G1 X153.178 Y124.299 E.00692
G1 X153.193 Y109.729 E.45685
G1 X153.471 Y109.771 E.00882
G1 X153.827 Y109.709 E.01131
G1 X153.895 Y109.594 E.00419
G1 X156.868 Y109.386 E.09345
G1 X157.595 Y109.316 E.02289
G1 X157.828 Y109.161 E.00877
G1 X157.96 Y108.818 E.01152
G1 X158.646 Y108.786 E.02154
G1 X161.093 Y108.788 E.07672
G1 X161.121 Y141.705 E1.03209
M73 Q2 S22
G1 X161.137 Y142.289 E.0183
M73 P2 R22
G1 X160.953 Y141.832 E.01544
G1 X153.196 Y125.925 E.5549
G1 X152.624 Y124.862 E.03783
G1 X152.792 Y124.829 E.00536
M204 S1000
G1 X152.669 Y124.479 F10800
M204 S800
;TYPE:External perimeter
G1 F1200
G1 X152.787 Y124.371 E.005
G1 X152.801 Y124.299 E.00231
G1 X152.817 Y109.29 E.4706
G1 X153.528 Y109.398 E.02256
G1 X153.646 Y109.377 E.00377
G1 X153.736 Y109.227 E.0055
G1 X157.421 Y108.97 E.11582
G1 X157.524 Y108.93 E.00347
G1 X157.596 Y108.782 E.00516
G1 X157.597 Y108.458 E.01016
G1 X158.637 Y108.409 E.03266
G1 X161.469 Y108.412 E.0888
G1 X161.501 Y141.827 E1.04772
;WIDTH:0.468861
G1 X161.494 Y142.308 E.01704
;WIDTH:0.517722
G1 X161.488 Y142.789 E.01899
G1 X161.543 Y143.136 E.01385
;WIDTH:0.502665
G1 X161.498 Y143.4 E.01025
G1 X161.323 Y143.811 E.0171
G1 X161.143 Y143.441 E.01576
;WIDTH:0.511167
G1 X161.041 Y142.951 E.01947
G1 X160.976 Y142.808 E.0061
;WIDTH:0.489451
G1 X160.795 Y142.403 E.01649
;WIDTH:0.454725
G1 X160.614 Y141.998 E.01521
;WIDTH:0.419999
G1 X152.862 Y126.099 E.55458
G1 X152.407 Y125.227 E.03085
G1 X152.158 Y124.832 E.01462
G1 X152.023 Y124.485 E.01167
G1 X152.609 Y124.479 E.01839
M204 S1000
G1 X152.819 Y124.534 F10800
;WIPE_START
G1 F8640
G1 X152.787 Y124.371 E-.04807
G1 X152.801 Y124.299 E-.01699
G1 X152.804 Y121.289 E-.69494
;WIPE_END
G1 E-.04 F2100
G1 Z.6 F720
G1 X160.152 Y108.957 F10800
G1 Z.2 F720
G1 E.8 F2100
M204 S800
;TYPE:Solid infill
;WIDTH:0.423701
G1 F1200
G1 X160.754 Y109.559 E.02695
G1 X160.754 Y110.098 E.01706
G1 X159.783 Y109.126 E.0435
G1 X159.244 Y109.126 E.01707
G1 X160.755 Y110.637 E.06766
G1 X160.755 Y111.176 E.01706
G1 X158.705 Y109.125 E.09181
G1 X158.188 Y109.147 E.01636
G1 X160.756 Y111.715 E.11495
G1 X160.756 Y112.254 E.01706
G1 X157.982 Y109.48 E.1242
G1 X157.71 Y109.637 E.00997
G1 X157.619 Y109.655 E.00291
G1 X160.757 Y112.792 E.14047
G1 X160.757 Y113.331 E.01706
G1 X157.134 Y109.708 E.16224
G1 X156.63 Y109.743 E.01598
G1 X160.758 Y113.87 E.18481
G1 X160.758 Y114.409 E.01706
G1 X156.127 Y109.778 E.20737
G1 X155.623 Y109.813 E.01598
G1 X160.758 Y114.948 E.22993
G1 X160.759 Y115.487 E.01706
G1 X155.12 Y109.848 E.25249
G1 X154.617 Y109.883 E.01598
G1 X160.759 Y116.026 E.27506
G1 X160.76 Y116.565 E.01706
G1 X154.113 Y109.919 E.29762
G1 X154.064 Y109.922 E.00157
G1 X154.011 Y110.011 E.00327
G1 X153.718 Y110.062 E.00941
G1 X160.76 Y117.104 E.31533
G1 X160.761 Y117.643 E.01706
G1 X153.532 Y110.414 E.32368
G1 X153.531 Y110.952 E.01703
G1 X160.761 Y118.182 E.32373
G1 X160.762 Y118.721 E.01706
G1 X153.531 Y111.49 E.32377
G1 X153.53 Y112.028 E.01703
G1 X160.762 Y119.26 E.32382
G1 X160.763 Y119.799 E.01706
M73 P3 R22
M73 Q3 S22
G1 X153.53 Y112.566 E.32387
G1 X153.529 Y113.104 E.01703
G1 X160.763 Y120.338 E.32391
G1 X160.764 Y120.877 E.01706
G1 X153.529 Y113.642 E.32396
G1 X153.528 Y114.18 E.01703
G1 X160.764 Y121.416 E.324
G1 X160.764 Y121.955 E.01706
G1 X153.528 Y114.718 E.32405
G1 X153.527 Y115.256 E.01703
G1 X160.765 Y122.494 E.32409
G1 X160.765 Y123.033 E.01706
G1 X153.526 Y115.794 E.32414
G1 X153.526 Y116.332 E.01703
G1 X160.766 Y123.572 E.32418
G1 X160.766 Y124.111 E.01706
G1 X153.525 Y116.87 E.32423
G1 X153.525 Y117.408 E.01703
G1 X160.767 Y124.65 E.32427
G1 X160.767 Y125.189 E.01706
G1 X153.524 Y117.946 E.32432
G1 X153.524 Y118.484 E.01703
G1 X160.768 Y125.728 E.32436
G1 X160.768 Y126.267 E.01706
G1 X153.523 Y119.022 E.32441
G1 X153.523 Y119.56 E.01703
G1 X160.769 Y126.806 E.32445
G1 X160.769 Y127.345 E.01706
G1 X153.522 Y120.098 E.3245
G1 X153.522 Y120.636 E.01703
G1 X160.77 Y127.884 E.32454
G1 X160.77 Y128.423 E.01706
G1 X153.521 Y121.174 E.32459
G1 X153.52 Y121.711 E.01703
G1 X160.77 Y128.961 E.32463
G1 X160.771 Y129.5 E.01706
G1 X153.52 Y122.249 E.32468
G1 X153.519 Y122.787 E.01703
G1 X160.771 Y130.039 E.32472
G1 X160.772 Y130.578 E.01706
G1 X153.519 Y123.325 E.32477
G1 X153.518 Y123.863 E.01703
G1 X160.772 Y131.117 E.32481
G1 X160.773 Y131.656 E.01706
G1 X153.512 Y124.395 E.32512
G1 X153.444 Y124.667 E.00885
G1 X153.344 Y124.766 E.00448
G1 X160.773 Y132.195 E.33266
G1 X160.774 Y132.734 E.01706
G1 X153.159 Y125.12 E.34094
G1 X153.716 Y126.215 E.03888
M73 P4 R22
M73 Q4 S22
G1 X160.774 Y133.273 E.31605
G1 X160.775 Y133.812 E.01706
G1 X154.228 Y127.266 E.29313
G1 X154.74 Y128.317 E.03702
G1 X160.775 Y134.351 E.27021
G1 X160.775 Y134.89 E.01706
G1 X155.253 Y129.367 E.24729
G1 X155.765 Y130.418 E.03702
G1 X160.776 Y135.429 E.22437
G1 X160.776 Y135.968 E.01706
G1 X156.277 Y131.469 E.20145
G1 X156.79 Y132.52 E.03702
G1 X160.777 Y136.507 E.17853
G1 X160.777 Y137.046 E.01706
G1 X157.302 Y133.571 E.15561
G1 X157.814 Y134.622 E.03702
G1 X160.778 Y137.585 E.13269
G1 X160.778 Y138.124 E.01706
G1 X158.327 Y135.672 E.10977
G1 X158.839 Y136.723 E.03702
G1 X160.779 Y138.663 E.08685
G1 X160.779 Y139.202 E.01706
G1 X159.351 Y137.774 E.06393
G1 X159.864 Y138.825 E.03702
G1 X160.78 Y139.741 E.04101
G1 X160.78 Y140.28 E.01706
G1 X160.008 Y139.507 E.03458
M204 S1000
; stop printing object SideAccent.stl id:7 copy 0
; printing object SideAccent.stl id:5 copy 0
;WIPE_START
G1 F8640
G1 X160.78 Y140.28 E-.25219
G1 X160.78 Y139.741 E-.12445
G1 X159.864 Y138.825 E-.29905
G1 X159.704 Y138.497 E-.0843
;WIPE_END
G1 E-.04 F2100
G1 Z.6 F720
G1 X140.827 Y107.513 F10800
G1 Z.2 F720
G1 E.8 F2100
M204 S800
;TYPE:Support material
;WIDTH:0.42
G1 F1200
G1 X140.141 Y107.546 E.02154
G1 X140.153 Y108.065 E.01629
G1 X136.609 Y108.312 E.1114
G1 X136.571 Y108.353 E.00172
G1 X136.206 Y108.298 E.01159
G1 X135.707 Y108.298 E.01562
G1 X135.386 Y108.618 E.01422
G1 X135.371 Y123.529 E.46752
G1 X134.643 Y123.528 E.02282
G1 X134.321 Y124.043 E.01904
G1 X136.804 Y129.135 E.17761
G1 X130.326 Y129.135 E.20311
G1 X130.326 Y104.791 E.76327
G1 X140.827 Y104.791 E.32925
G1 X140.827 Y107.457 E.08358
M204 S1000
G1 X140.191 Y107.374 F10800
M204 S800
G1 F1200
G1 X140.191 Y105.13 E.07033
G1 X139.772 Y105.13 E.01314
G1 X139.772 Y107.752 E.08219
G1 X139.353 Y107.781 E.01317
G1 X139.353 Y105.13 E.08311
G1 X138.934 Y105.13 E.01314
G1 X138.934 Y107.81 E.08402
G1 X138.515 Y107.839 E.01317
G1 X138.515 Y105.13 E.08494
G1 X138.096 Y105.13 E.01314
G1 X138.096 Y107.869 E.08585
G1 X137.677 Y107.898 E.01317
G1 X137.677 Y105.13 E.08677
G1 X137.258 Y105.13 E.01314
G1 X137.258 Y107.927 E.08768
G1 X136.839 Y107.956 E.01317
G1 X136.839 Y105.13 E.0886
G1 X136.42 Y105.13 E.01314
G1 X136.42 Y107.985 E.08951
G1 X136.219 Y107.959 E.00636
G1 X136.001 Y107.959 E.00683
G1 X136.001 Y105.13 E.08867
G1 X135.582 Y105.13 E.01314
G1 X135.582 Y107.958 E.08866
G1 X135.163 Y108.361 E.01823
G1 X135.163 Y105.13 E.1013
G1 X134.744 Y105.13 E.01314
G1 X134.744 Y123.189 E.56621
G1 X134.455 Y123.189 E.00905
G1 X134.325 Y123.397 E.0077
G1 X134.325 Y105.13 E.57273
G1 X133.906 Y105.13 E.01314
G1 X133.906 Y128.795 E.74199
G1 X134.325 Y128.795 E.01314
M73 P5 R21
M73 Q5 S22
G1 X134.325 Y124.825 E.12447
G1 X134.744 Y125.685 E.02997
G1 X134.744 Y128.795 E.09753
G1 X135.163 Y128.795 E.01314
G1 X135.163 Y126.544 E.07059
G1 X135.582 Y127.403 E.02997
G1 X135.582 Y128.795 E.04365
G1 X136.001 Y128.795 E.01314
G1 X136.001 Y127.875 E.02885
M204 S1000
G1 X133.487 Y128.965 F10800
M204 S800
G1 F1200
G1 X133.487 Y105.13 E.74731
G1 X133.068 Y105.13 E.01314
G1 X133.068 Y128.795 E.74199
G1 X132.649 Y128.795 E.01314
M73 Q5 S21
G1 X132.649 Y105.13 E.74199
G1 X132.23 Y105.13 E.01314
G1 X132.23 Y128.795 E.74199
G1 X131.811 Y128.795 E.01314
G1 X131.811 Y105.13 E.74199
G1 X131.392 Y105.13 E.01314
G1 X131.392 Y128.795 E.74199
G1 X130.973 Y128.795 E.01314
G1 X130.973 Y104.961 E.74731
M204 S1000
;WIPE_START
G1 F8640
G1 X130.973 Y108.252 E-.76
;WIPE_END
G1 E-.04 F2100
G1 Z.6 F720
G1 X136.362 Y124.789 F10800
G1 Z.2 F720
G1 E.8 F2100
M204 S800
;TYPE:Perimeter
;WIDTH:0.419999
G1 F1200
G1 X136.662 Y124.516 E.01271
G1 X136.705 Y124.299 E.00692
G1 X136.72 Y109.729 E.45685
G1 X136.998 Y109.771 E.00882
G1 X137.353 Y109.709 E.01131
G1 X137.422 Y109.594 E.00419
G1 X140.395 Y109.386 E.09345
G1 X141.121 Y109.316 E.02289
G1 X141.354 Y109.161 E.00877
G1 X141.486 Y108.818 E.01152
G1 X142.172 Y108.786 E.02154
G1 X144.619 Y108.788 E.07672
G1 X144.647 Y141.705 E1.03209
G1 X144.664 Y142.289 E.0183
G1 X144.479 Y141.832 E.01544
G1 X136.723 Y125.925 E.5549
G1 X136.15 Y124.862 E.03783
M73 P6 R21
M73 Q6 S21
G1 X136.318 Y124.829 E.00536
M204 S1000
G1 X136.196 Y124.479 F10800
M204 S800
;TYPE:External perimeter
G1 F1200
G1 X136.313 Y124.371 E.005
G1 X136.328 Y124.299 E.00231
G1 X136.343 Y109.29 E.4706
G1 X137.054 Y109.398 E.02256
M73 C16
G1 X137.173 Y109.377 E.00377
G1 X137.263 Y109.227 E.0055
G1 X140.948 Y108.97 E.11582
G1 X141.051 Y108.93 E.00347
G1 X141.123 Y108.782 E.00516
G1 X141.123 Y108.458 E.01016
G1 X142.164 Y108.409 E.03266
G1 X144.996 Y108.412 E.0888
G1 X145.028 Y141.827 E1.04772
;WIDTH:0.468861
G1 X145.021 Y142.308 E.01704
;WIDTH:0.517722
M73 D16
G1 X145.014 Y142.789 E.01899
G1 X145.069 Y143.136 E.01385
;WIDTH:0.502665
G1 X145.025 Y143.4 E.01025
G1 X144.85 Y143.811 E.0171
G1 X144.669 Y143.441 E.01576
;WIDTH:0.511167
G1 X144.568 Y142.951 E.01947
G1 X144.503 Y142.808 E.0061
;WIDTH:0.489451
G1 X144.321 Y142.403 E.01649
;WIDTH:0.454725
G1 X144.14 Y141.998 E.01521
;WIDTH:0.419999
G1 X136.389 Y126.099 E.55458
G1 X135.934 Y125.227 E.03085
G1 X135.685 Y124.832 E.01462
G1 X135.549 Y124.485 E.01167
G1 X136.136 Y124.479 E.01839
M204 S1000
