; generated by PrusaSlicer 2.5.2+win64 on 2023-06-06 at 16:04:02 UTC

; 

; external perimeters extrusion width = 0.45mm
; perimeters extrusion width = 0.45mm
; infill extrusion width = 0.45mm
; solid infill extrusion width = 0.45mm
; top infill extrusion width = 0.40mm
; first layer extrusion width = 0.42mm

; external perimeters extrusion width = 0.45mm
; perimeters extrusion width = 0.45mm
; infill extrusion width = 0.45mm
; solid infill extrusion width = 0.45mm
; top infill extrusion width = 0.40mm
; first layer extrusion width = 0.42mm

M73 P0 R98
M73 C64
M73 Q0 S98
M73 D64
M107
;TYPE:Custom
M862.3 P "MK3S" ; printer model check
M862.1 P0.4 ; nozzle diameter check
G90 ; use absolute coordinates
M83 ; extruder relative mode
M104 S215 ; set extruder temp
M140 S60 ; set bed temp
M190 S60 ; wait for bed temp
M109 S215 ; wait for extruder temp
G28 W ; home all without mesh bed level
G80 ; mesh bed leveling
G1 Y-3.0 F1000.0 ; go outside print area
G92 E0.0
G1 X60.0 E9.0 F1000.0 ; intro line
G1 X100.0 E12.5 F1000.0 ; intro line
G92 E0.0
M221 S95

; Don't change E values below. Excessive value can damage the printer.
M907 E430 ; set extruder motor current
G21 ; set units to millimeters
G90 ; use absolute coordinates
M83 ; use relative distances for extrusion
M900 K0.05 ; Filament gcode LA 1.5
M900 K30 ; Filament gcode LA 1.0
M107
;LAYER_CHANGE
;Z:0.2
;HEIGHT:0.2
;BEFORE_LAYER_CHANGE
G92 E0.0
;0.2


G1 E-.8 F2100
M73 P0 R97
G1 Z.4 F720
;AFTER_LAYER_CHANGE
;0.2
; printing object Front.stl id:0 copy 0
G1 X142.177 Y106.307 F10800
G1 Z.2 F720
G1 E.8 F2100
M204 S800
;TYPE:Perimeter
;WIDTH:0.419999
G1 F1200
G1 X142.174 Y114.603 E.26013
G1 X142.114 Y114.858 E.0082
G1 X141.936 Y115.064 E.00854
G1 X140.679 Y115.612 E.043
G1 X140.457 Y115.656 E.00708
G1 X137.313 Y115.653 E.09858
G1 X137.094 Y115.608 E.00702
G1 X135.944 Y115.118 E.0392
G1 X135.728 Y114.955 E.00848
G1 X135.608 Y114.691 E.00908
G1 X135.609 Y106.321 E.26244
G1 X135.68 Y106.047 E.00887
G1 X135.868 Y105.846 E.00864
G1 X136.077 Y105.765 E.00704
G1 X136.175 Y105.756 E.00308
G1 X141.618 Y105.762 E.17066
G1 X141.832 Y105.804 E.00684
G1 X142.065 Y105.982 E.0092
G1 X142.177 Y106.247 E.00902
M204 S1000
G1 X141.806 Y106.327 F10800
M204 S800
;TYPE:External perimeter
G1 F1200
G1 X141.797 Y114.603 E.25947
G1 X141.732 Y114.746 E.00492
G1 X140.532 Y115.264 E.041
G1 X139.155 Y115.278 E.04318
G1 X137.315 Y115.276 E.05768
G1 X136.092 Y114.771 E.04149
G1 X135.987 Y114.657 E.00484
G1 X135.978 Y114.083 E.01802
G1 X135.986 Y106.322 E.24334
G1 X136.046 Y106.184 E.00472
G1 X136.174 Y106.133 E.00432
G1 X141.617 Y106.139 E.17066
G1 X141.766 Y106.212 E.00521
G1 X141.786 Y106.271 E.00194
M204 S1000
G1 X142.192 Y106.431 F10800
;WIPE_START
G1 F8640
G1 X141.791 Y109.562 E-.76
;WIPE_END
G1 E-.04 F2100
G1 Z.6 F720
G1 X154.631 Y114.662 F10800
G1 Z.2 F720
G1 E.8 F2100
M204 S800
;TYPE:Perimeter
G1 F1200
G1 X151.166 Y114.663 E.10863
G1 X150.889 Y114.591 E.00896
G1 X150.732 Y114.459 E.00644
G1 X150.622 Y114.252 E.00736
G1 X150.601 Y114.097 E.0049
G1 X150.608 Y107.336 E.21198
G1 X150.673 Y107.072 E.00854
G1 X150.859 Y106.867 E.00867
G1 X151.088 Y106.778 E.00772
G1 X151.174 Y106.771 E.00269
G1 X154.614 Y106.775 E.10787
G1 X154.874 Y106.838 E.00838
G1 X155.059 Y106.991 E.00754
G1 X155.174 Y107.263 E.00925
G1 X155.179 Y107.341 E.00245
G1 X155.172 Y114.102 E.21198
G1 X155.109 Y114.362 E.00839
G1 X154.926 Y114.568 E.00864
G1 X154.69 Y114.658 E.00793
M204 S1000
G1 X154.607 Y114.29 F10800
M204 S800
;TYPE:External perimeter
G1 F1200
G1 X151.166 Y114.286 E.10787
G1 X151.022 Y114.218 E.00501
G1 X150.978 Y114.097 E.00403
G1 X150.985 Y107.337 E.21198
G1 X151.048 Y107.196 E.00484
G1 X151.173 Y107.148 E.0042
G1 X154.614 Y107.152 E.10787
G1 X154.762 Y107.224 E.00517
G1 X154.802 Y107.34 E.00386
G1 X154.795 Y114.101 E.21198
G1 X154.73 Y114.244 E.00493
G1 X154.663 Y114.269 E.00223
M204 S1000
G1 X154.503 Y114.676 F10800
;WIPE_START
G1 F8640
G1 X151.372 Y114.285 E-.76
;WIPE_END
G1 E-.04 F2100
G1 Z.6 F720
G1 X168.622 Y112.465 F10800
G1 Z.2 F720
G1 E.8 F2100
M204 S800
;WIDTH:0.65722
G1 F1200
G1 X168.622 Y112.423 E.00213
;WIDTH:0.61435
G1 X168.622 Y112.382 E.00198
;WIDTH:0.57148
G1 X168.622 Y112.34 E.00183
;WIDTH:0.52861
G1 X168.622 Y112.298 E.00168
;WIDTH:0.48574
G1 X168.622 Y112.257 E.00153
;WIDTH:0.44287
G1 X168.622 Y112.215 E.00139
;WIDTH:0.40003
G1 X168.633 Y101.068 E.33099
M204 S1000
;WIPE_START
G1 F8640
M73 C63
G1 X168.63 Y104.36 E-.76
;WIPE_END
G1 E-.04 F2100
G1 Z.6 F720
G1 X175.788 Y101.075 F10800
G1 Z.2 F720
G1 E.8 F2100
M204 S800
G1 F1200
G1 X175.777 Y112.222 E.33099
;WIDTH:0.442871
G1 X175.777 Y112.264 E.00139
;WIDTH:0.485741
G1 X175.777 Y112.305 E.00153
;WIDTH:0.528611
G1 X175.777 Y112.347 E.00168
;WIDTH:0.571482
G1 X175.777 Y112.389 E.00183
;WIDTH:0.614352
G1 X175.777 Y112.43 E.00198
;WIDTH:0.657222
G1 X175.777 Y112.472 E.00213
M204 S1000
;WIPE_START
G1 F8640
G1 X175.777 Y112.43 E-.00962
G1 X175.777 Y112.389 E-.00962
G1 X175.777 Y112.347 E-.00962
G1 X175.777 Y112.305 E-.00962
G1 X175.777 Y112.264 E-.00962
G1 X175.777 Y112.222 E-.00962
G1 X175.78 Y109.181 E-.70229
;WIPE_END
G1 E-.04 F2100
G1 Z.6 F720
G1 X178.897 Y112.504 F10800
G1 Z.2 F720
G1 E.8 F2100
M204 S800
;WIDTH:0.602128
G1 F1200
G1 X178.872 Y112.504 E.00117
;WIDTH:0.600004
G1 X175.955 Y112.501 E.13508
;WIDTH:0.628613
G1 X175.866 Y112.486 E.0044
;WIDTH:0.657222
G1 X175.777 Y112.472 E.00462
G1 X175.688 Y112.486 E.00462
;WIDTH:0.628611
G1 X175.598 Y112.5 E.0044
;WIDTH:0.600002
G1 X172.681 Y112.498 E.13514
;WIDTH:0.602128
G1 X172.657 Y112.498 E.00111
M204 S1000
G1 X171.742 Y112.497 F10800
M204 S800
;WIDTH:0.602126
G1 F1200
G1 X171.717 Y112.497 E.00117
;WIDTH:0.600004
G1 X168.8 Y112.494 E.13508
;WIDTH:0.628612
G1 X168.711 Y112.479 E.0044
;WIDTH:0.65722
G1 X168.622 Y112.465 E.00462
G1 X168.533 Y112.479 E.00462
;WIDTH:0.62861
G1 X168.443 Y112.493 E.0044
;WIDTH:0.600002
G1 X165.527 Y112.49 E.13507
;WIDTH:0.602128
G1 X165.504 Y112.49 E.0011
M204 S1000
;WIPE_START
G1 F8640
G1 X165.527 Y112.49 E-.00546
G1 X168.443 Y112.493 E-.67331
G1 X168.533 Y112.479 E-.02088
G1 X168.622 Y112.465 E-.02088
G1 X168.711 Y112.479 E-.02088
G1 X168.791 Y112.492 E-.0186
;WIPE_END
G1 E-.04 F2100
G1 Z.6 F720
G1 X182.932 Y112.479 F10800
G1 Z.2 F720
G1 E.8 F2100
M204 S800
;WIDTH:0.65722
G1 F1200
G1 X182.843 Y112.493 E.00462
;WIDTH:0.628611
G1 X182.753 Y112.508 E.0044
;WIDTH:0.600002
G1 X179.836 Y112.505 E.13514
;WIDTH:0.602128
G1 X179.812 Y112.505 E.00111
M204 S1000
;WIPE_START
G1 F8640
G1 X179.836 Y112.505 E-.00549
G1 X182.753 Y112.508 E-.67363
G1 X182.843 Y112.493 E-.02088
G1 X182.932 Y112.479 E-.02088
;WIPE_END
G1 E-.07912 F2100
G1 Z.6 F720
G1 X182.943 Y101.083 F10800
G1 Z.2 F720
G1 E.8 F2100
M204 S800
;WIDTH:0.400026
G1 F1200
G1 X182.932 Y112.229 E.33099
;WIDTH:0.442867
G1 X182.932 Y112.271 E.00139
;WIDTH:0.485738
G1 X182.932 Y112.313 E.00153
;WIDTH:0.528608
G1 X182.932 Y112.354 E.00168
;WIDTH:0.571479
G1 X182.932 Y112.396 E.00183
;WIDTH:0.61435
G1 X182.932 Y112.438 E.00198
;WIDTH:0.65722
G1 X182.932 Y112.479 E.00213
G1 X183.021 Y112.494 E.00462
;WIDTH:0.628612
G1 X183.11 Y112.508 E.0044
;WIDTH:0.600008
G1 X186.033 Y112.511 E.13538
;WIDTH:0.634471
G1 X186.104 Y112.511 E.00348
;WIDTH:0.668934
G1 X186.175 Y112.511 E.00369
M204 S1000
;WIPE_START
G1 F8640
G1 X186.104 Y112.511 E-.01636
G1 X186.033 Y112.511 E-.01636
G1 X183.11 Y112.508 E-.67485
G1 X183.021 Y112.494 E-.02088
G1 X182.932 Y112.479 E-.02088
G1 X182.932 Y112.438 E-.00962
G1 X182.932 Y112.433 E-.00107
;WIPE_END
G1 E-.04 F2100
G1 Z.6 F720
G1 X186.271 Y101.087 F10800
G1 Z.2 F720
G1 E.8 F2100
M204 S800
;WIDTH:0.499824
G1 F1200
G1 X186.26 Y112.233 E.42342
;WIDTH:0.542102
G1 X186.238 Y112.302 E.00301
;WIDTH:0.584379
G1 X186.217 Y112.372 E.00327
;WIDTH:0.626657
G1 X186.196 Y112.441 E.00353
;WIDTH:0.668934
G1 X186.175 Y112.511 E.00378
G1 X186.196 Y112.586 E.00408
;WIDTH:0.626377
G1 X186.217 Y112.661 E.0038
;WIDTH:0.583819
G1 X186.238 Y112.737 E.00352
;WIDTH:0.541262
G1 X186.259 Y112.812 E.00324
;WIDTH:0.529618
G1 X186.244 Y113.127 E.01275
;WIDTH:0.560532
G1 X186.228 Y113.441 E.01356
;WIDTH:0.563194
G1 X186.227 Y113.461 E.00085
M204 S1000
;WIPE_START
G1 F8640
G1 X186.228 Y113.441 E-.00453
G1 X186.244 Y113.127 E-.07273
G1 X186.259 Y112.812 E-.07273
G1 X186.238 Y112.737 E-.01808
G1 X186.217 Y112.661 E-.01808
G1 X186.196 Y112.586 E-.01808
G1 X186.175 Y112.511 E-.01808
G1 X186.196 Y112.441 E-.01677
G1 X186.217 Y112.372 E-.01677
G1 X186.238 Y112.302 E-.01677
G1 X186.26 Y112.233 E-.01677
G1 X186.262 Y110.195 E-.47059
;WIPE_END
G1 E-.04 F2100
G1 Z.6 F720
G1 X182.927 Y100.541 F10800
G1 Z.2 F720
G1 E.8 F2100
M204 S800
;TYPE:Perimeter
;WIDTH:0.419999
G1 F1200
G1 X182.353 Y100.479 E.01811
G1 X181.816 Y100.368 E.01721
G1 X180.776 Y100.321 E.03264
G1 X179.694 Y100.415 E.03404
G1 X179.507 Y100.465 E.00608
G1 X179.366 Y100.684 E.00816
G1 X179.226 Y100.464 E.00816
G1 X179.053 Y100.416 E.00564
G1 X178.397 Y100.343 E.02068
G1 X176.882 Y100.324 E.04752
G1 X176.313 Y100.396 E.01799
G1 X175.772 Y100.533 E.01748
G1 X175.198 Y100.472 E.01811
G1 X174.661 Y100.36 E.01721
G1 X173.621 Y100.314 E.03264
G1 X172.539 Y100.408 E.03404
G1 X172.352 Y100.457 E.00608
G1 X172.211 Y100.676 E.00816
G1 X172.071 Y100.457 E.00816
G1 X171.898 Y100.409 E.00564
G1 X171.242 Y100.336 E.02068
G1 X169.727 Y100.316 E.04752
G1 X169.158 Y100.389 E.01799
G1 X168.617 Y100.526 E.01748
G1 X168.043 Y100.464 E.01811
G1 X167.53 Y100.355 E.01646
G1 X166.999 Y100.308 E.0167
G1 X165.338 Y100.297 E.05209
G1 X165.071 Y100.363 E.00863
G1 X164.883 Y100.522 E.00772
G1 X164.792 Y100.704 E.00637
G1 X164.769 Y100.863 E.00503
G1 X164.763 Y110.777 E.31086
G1 X164.869 Y111.878 E.03469
G1 X165.04 Y112.491 E.01995
G1 X164.86 Y113.03 E.0178
G1 X164.865 Y113.567 E.01684
G1 X165.073 Y114.317 E.02442
G1 X165.438 Y114.982 E.0238
G1 X165.926 Y115.562 E.02375
G1 X166.518 Y116.034 E.02375
G1 X167.191 Y116.382 E.02375
G1 X167.918 Y116.592 E.02375
G1 X168.673 Y116.656 E.02375
G1 X169.426 Y116.572 E.02375
G1 X170.147 Y116.343 E.02375
G1 X170.811 Y115.977 E.02375
G1 X171.39 Y115.488 E.02376
G1 X171.865 Y114.891 E.02393
G1 X172.198 Y114.226 E.02332
G1 X172.231 Y114.318 E.00306
G1 X172.593 Y114.989 E.02393
G1 X173.081 Y115.569 E.02376
G1 X173.673 Y116.041 E.02375
G1 X174.346 Y116.389 E.02375
G1 X174.965 Y116.578 E.02028
G1 X175.828 Y116.664 E.0272
G1 X176.581 Y116.579 E.02375
G1 X177.302 Y116.35 E.02375
G1 X177.966 Y115.984 E.02375
G1 X178.545 Y115.495 E.02376
G1 X179.02 Y114.898 E.02393
G1 X179.353 Y114.234 E.02331
G1 X179.386 Y114.325 E.00306
G1 X179.748 Y114.996 E.02392
G1 X180.236 Y115.576 E.02376
G1 X180.828 Y116.048 E.02375
G1 X181.501 Y116.397 E.02375
G1 X182.228 Y116.607 E.02375
G1 X182.983 Y116.671 E.02375
G1 X183.736 Y116.587 E.02375
G1 X184.355 Y116.399 E.02028
G1 X184.835 Y116.155 E.01687
G1 X185.238 Y115.89 E.01514
G1 X185.731 Y115.436 E.02104
G1 X185.742 Y115.622 E.00587
G1 X185.723 Y116.216 E.01862
G1 X185.794 Y116.431 E.00711
G1 X186.145 Y117.033 E.02184
G1 X184.34 Y118.133 E.06626
G1 X181.931 Y119.728 E.0906
G1 X179.582 Y121.412 E.0906
G1 X177.298 Y123.182 E.0906
G1 X175.082 Y125.036 E.0906
G1 X172.936 Y126.971 E.0906
G1 X170.864 Y128.986 E.0906
G1 X168.872 Y131.073 E.09048
G1 X166.953 Y133.239 E.09073
G1 X165.81 Y134.631 E.05648
G1 X165.81 Y134.383 E.00778
G1 X165.592 Y133.936 E.0156
G1 X165.245 Y133.816 E.0115
G1 X164.642 Y133.816 E.01889
G1 X164.454 Y133.848 E.00598
G1 X164.216 Y134.008 E.009
G1 X138.839 Y163.088 E1.21014
G1 X122.789 Y144.623 E.76709
G1 X122.82 Y114.342 E.94944
M73 D63
G1 X123.168 Y114.635 E.01429
G1 X126.608 Y114.639 E.10786
G1 X126.697 Y114.632 E.00278
G1 X126.937 Y114.534 E.00812
G1 X127.122 Y114.31 E.00912
G1 X127.175 Y114.074 E.0076
G1 X127.182 Y107.313 E.21198
G1 X127.17 Y107.196 E.00369
G1 X127.044 Y106.942 E.00887
G1 X126.848 Y106.796 E.00765
G1 X126.617 Y106.747 E.00743
G1 X123.176 Y106.743 E.10787
G1 X122.827 Y107.092 E.01548
G1 X122.834 Y100.436 E.20869
G1 X122.811 Y100.278 E.00502
G1 X122.721 Y100.097 E.00634
G1 X122.535 Y99.937 E.00769
G1 X122.269 Y99.87 E.0086
G1 X116.926 Y99.864 E.16752
G1 X116.606 Y99.963 E.01048
G1 X116.419 Y100.177 E.00891
G1 X116.359 Y100.43 E.00813
G1 X116.324 Y136.313 E1.1251
G1 X116.358 Y137.275 E.03017
G1 X116.103 Y136.94 E.01317
G1 X113.75 Y134.223 E.11272
G1 X113.786 Y98.163 E1.13064
G1 X185.739 Y98.235 E2.25605
G1 X185.744 Y99.414 E.03697
G1 X185.791 Y99.956 E.01706
G1 X185.903 Y100.489 E.01707
G1 X185.322 Y100.39 E.01847
G1 X184.661 Y100.342 E.0208
G1 X184.037 Y100.331 E.01955
G1 X183.468 Y100.403 E.018
G1 X182.986 Y100.526 E.0156
M204 S1000
G1 X182.943 Y101.083 F10800
M204 S800
;TYPE:External perimeter
G1 F1200
G1 X182.819 Y100.902 E.00688
G1 X182.296 Y100.852 E.01648
G1 X181.797 Y100.744 E.016
G1 X180.808 Y100.697 E.03103
G1 X179.701 Y100.795 E.03486
G1 X179.554 Y100.978 E.00736
;WIDTH:0.420341
G1 X179.545 Y110.756 E.30686
;WIDTH:0.421171
G1 X179.544 Y110.798 E.00131
;WIDTH:0.451587
G1 X179.564 Y111.793 E.03382
;WIDTH:0.477466
G1 X179.625 Y112.097 E.01119
;WIDTH:0.503345
G1 X179.686 Y112.4 E.01185
;WIDTH:0.552737
G1 X179.749 Y112.453 E.00348
;WIDTH:0.602128
G1 X179.812 Y112.505 E.00381
G1 X179.749 Y112.557 E.00381
;WIDTH:0.552737
G1 X179.686 Y112.609 E.00348
;WIDTH:0.503345
G1 X179.626 Y112.839 E.00907
;WIDTH:0.475442
G1 X179.567 Y113.068 E.00852
;WIDTH:0.447538
G1 X179.557 Y113.477 E.01377
;WIDTH:0.438455
G1 X179.721 Y114.151 E.02282
;WIDTH:0.419999
G1 X180.04 Y114.758 E.02149
G1 X180.476 Y115.285 E.02144
G1 X181.006 Y115.716 E.02144
G1 X181.611 Y116.036 E.02144
G1 X182.266 Y116.231 E.02144
G1 X182.946 Y116.296 E.02144
G1 X183.627 Y116.226 E.02144
G1 X184.246 Y116.038 E.02028
G1 X184.657 Y115.823 E.01455
G1 X184.993 Y115.603 E.01259
G1 X185.413 Y115.234 E.01753
;WIDTH:0.447748
G1 X185.791 Y114.65 E.02341
G1 X185.958 Y114.045 E.02114
;WIDTH:0.441092
G1 X186.025 Y113.899 E.00532
;WIDTH:0.481793
G1 X186.092 Y113.753 E.00586
;WIDTH:0.522494
G1 X186.16 Y113.607 E.00641
;WIDTH:0.563194
G1 X186.227 Y113.461 E.00695
G1 X186.234 Y113.496 E.00154
;WIDTH:0.548938
G1 X186.258 Y113.706 E.00891
;WIDTH:0.499423
G1 X186.281 Y113.916 E.00804
;WIDTH:0.449907
G1 X186.305 Y114.127 E.00716
;WIDTH:0.44157
G1 X186.17 Y114.848 E.02431
G1 X186.127 Y115.458 E.02029
;WIDTH:0.419999
G1 X186.097 Y116.142 E.02147
G1 X186.121 Y116.244 E.00329
G1 X186.657 Y117.163 E.03334
G1 X184.548 Y118.448 E.07742
G1 X182.15 Y120.034 E.09016
G1 X179.813 Y121.71 E.09016
G1 X177.54 Y123.471 E.09016
G1 X175.334 Y125.316 E.09016
M73 Q0 S97
G1 X173.199 Y127.242 E.09016
G1 X171.137 Y129.246 E.09016
G1 X169.153 Y131.324 E.09008
G1 X167.244 Y133.478 E.09024
G1 X165.777 Y135.265 E.07249
G1 X165.432 Y134.749 E.01944
G1 X165.433 Y134.382 E.0115
G1 X165.36 Y134.233 E.0052
G1 X165.244 Y134.193 E.00383
G1 X164.642 Y134.193 E.01889
G1 X164.5 Y134.257 E.00488
G1 X138.838 Y163.662 E1.22369
G1 X122.412 Y144.763 E.78509
G1 X122.442 Y114.984 E.93373
;WIDTH:0.460136
G1 X122.462 Y114.526 E.01588
;WIDTH:0.500274
G1 X122.483 Y114.069 E.01741
G1 X122.49 Y107.308 E.25711
G1 X122.47 Y106.851 E.01741
;WIDTH:0.460137
G1 X122.451 Y106.393 E.01588
;WIDTH:0.419999
G1 X122.456 Y100.436 E.1868
G1 X122.419 Y100.323 E.00374
G1 X122.268 Y100.247 E.00529
G1 X116.925 Y100.242 E.16752
G1 X116.819 Y100.274 E.00349
G1 X116.736 Y100.43 E.00552
G1 X116.701 Y136.313 E1.1251
G1 X116.739 Y137.337 E.03212
G1 X116.897 Y138.3 E.03059
G1 X116.898 Y138.724 E.01331
G1 X116.624 Y138.402 E.01328
G1 X116.121 Y137.587 E.03001
G1 X115.818 Y137.187 E.01572
G1 X113.372 Y134.363 E.11714
G1 X113.409 Y97.786 E1.14688
G1 X186.115 Y97.858 E2.27963
G1 X186.121 Y99.283 E.04466
G1 X186.152 Y99.758 E.01494
G1 X186.27 Y100.396 E.02034
;WIDTH:0.46028
G1 X186.291 Y100.894 E.01729
;WIDTH:0.499824
G1 X186.271 Y101.087 E.0074
G1 X186.187 Y100.937 E.00652
;WIDTH:0.46028
G1 X186.074 Y100.901 E.00412
;WIDTH:0.419999
G1 X185.258 Y100.761 E.02595
G1 X184.65 Y100.719 E.01911
G1 X184.08 Y100.706 E.01789
G1 X183.568 Y100.767 E.01615
G1 X183.071 Y100.904 E.01617
G1 X182.978 Y101.034 E.005
M204 S1000
G1 X182.936 Y100.863 F10800
;WIPE_START
G1 F8640
G1 X182.819 Y100.902 E-.04779
G1 X182.296 Y100.852 E-.12136
G1 X181.797 Y100.744 E-.11784
