; generated by PrusaSlicer 2.5.2+win64 on 2023-06-06 at 16:02:37 UTC

; 

; external perimeters extrusion width = 0.45mm
; perimeters extrusion width = 0.45mm
; infill extrusion width = 0.45mm
; solid infill extrusion width = 0.45mm
; top infill extrusion width = 0.40mm
; first layer extrusion width = 0.42mm

M73 P0 R49
M73 C32
M73 Q0 S49
M73 D32
M107
;TYPE:Custom
M862.3 P "MK3S" ; printer model check
M862.1 P0.4 ; nozzle diameter check
G90 ; use absolute coordinates
M83 ; extruder relative mode
M104 S215 ; set extruder temp
M140 S60 ; set bed temp
M190 S60 ; wait for bed temp
M109 S215 ; wait for extruder temp
G28 W ; home all without mesh bed level
G80 ; mesh bed leveling
G1 Y-3.0 F1000.0 ; go outside print area
G92 E0.0
G1 X60.0 E9.0 F1000.0 ; intro line
G1 X100.0 E12.5 F1000.0 ; intro line
G92 E0.0
M221 S95

; Don't change E values below. Excessive value can damage the printer.
M907 E430 ; set extruder motor current
G21 ; set units to millimeters
G90 ; use absolute coordinates
M83 ; use relative distances for extrusion
M900 K0.05 ; Filament gcode LA 1.5
M900 K30 ; Filament gcode LA 1.0
M107
;LAYER_CHANGE
;Z:0.2
;HEIGHT:0.2
;BEFORE_LAYER_CHANGE
G92 E0.0
;0.2


M73 P0 R48
G1 E-.8 F2100
G1 Z.4 F720
;AFTER_LAYER_CHANGE
;0.2
; printing object Front.stl id:0 copy 0
G1 X117.089 Y80.476 F10800
G1 Z.2 F720
G1 E.8 F2100
M204 S800
;TYPE:Perimeter
;WIDTH:0.419999
G1 F1200
G1 X117.087 Y88.773 E.26013
G1 X117.026 Y89.027 E.0082
G1 X116.848 Y89.233 E.00854
G1 X115.591 Y89.781 E.043
G1 X115.369 Y89.826 E.00708
G1 X112.225 Y89.823 E.09858
G1 X112.006 Y89.777 E.00702
M73 C31
G1 X110.856 Y89.287 E.0392
G1 X110.64 Y89.124 E.00848
G1 X110.52 Y88.861 E.00908
G1 X110.521 Y80.491 E.26244
G1 X110.592 Y80.217 E.00887
G1 X110.78 Y80.016 E.00864
G1 X110.989 Y79.934 E.00704
G1 X111.087 Y79.925 E.00308
G1 X116.53 Y79.931 E.17066
G1 X116.744 Y79.973 E.00684
G1 X116.977 Y80.151 E.0092
G1 X117.089 Y80.416 E.00902
M204 S1000
G1 X116.718 Y80.497 F10800
M204 S800
;TYPE:External perimeter
G1 F1200
G1 X116.709 Y88.772 E.25947
G1 X116.644 Y88.915 E.00492
G1 X115.444 Y89.434 E.041
G1 X114.067 Y89.447 E.04318
G1 X112.227 Y89.445 E.05768
G1 X111.004 Y88.94 E.04149
G1 X110.899 Y88.827 E.00484
G1 X110.89 Y88.252 E.01802
G1 X110.898 Y80.491 E.24334
G1 X110.958 Y80.353 E.00472
G1 X111.086 Y80.303 E.00432
G1 X116.529 Y80.308 E.17066
G1 X116.679 Y80.381 E.00521
G1 X116.698 Y80.44 E.00194
M204 S1000
G1 X117.104 Y80.601 F10800
;WIPE_START
G1 F8640
G1 X116.703 Y83.731 E-.76
;WIPE_END
G1 E-.04 F2100
G1 Z.6 F720
G1 X129.543 Y88.832 F10800
G1 Z.2 F720
G1 E.8 F2100
M204 S800
;TYPE:Perimeter
G1 F1200
G1 X126.078 Y88.833 E.10863
G1 X125.801 Y88.76 E.00896
G1 X125.644 Y88.629 E.00644
G1 X125.534 Y88.421 E.00736
G1 X125.513 Y88.266 E.0049
G1 X125.52 Y81.506 E.21198
G1 X125.586 Y81.241 E.00854
G1 X125.771 Y81.036 E.00867
G1 X126 Y80.947 E.00772
G1 X126.086 Y80.941 E.00269
G1 X129.526 Y80.944 E.10787
G1 X129.786 Y81.007 E.00838
G1 X129.971 Y81.161 E.00754
G1 X130.086 Y81.432 E.00925
G1 X130.091 Y81.51 E.00245
G1 X130.085 Y88.271 E.21198
G1 X130.021 Y88.531 E.00839
G1 X129.838 Y88.737 E.00864
G1 X129.602 Y88.827 E.00793
M204 S1000
G1 X129.519 Y88.459 F10800
M204 S800
;TYPE:External perimeter
G1 F1200
G1 X126.078 Y88.455 E.10787
G1 X125.934 Y88.387 E.00501
G1 X125.89 Y88.267 E.00403
G1 X125.897 Y81.506 E.21198
G1 X125.96 Y81.365 E.00484
G1 X126.085 Y81.318 E.0042
G1 X129.526 Y81.321 E.10787
G1 X129.674 Y81.393 E.00517
G1 X129.714 Y81.51 E.00386
G1 X129.707 Y88.271 E.21198
G1 X129.642 Y88.413 E.00493
G1 X129.575 Y88.438 E.00223
M204 S1000
G1 X129.415 Y88.845 F10800
;WIPE_START
G1 F8640
G1 X126.284 Y88.454 E-.76
;WIPE_END
G1 E-.04 F2100
M73 D31
G1 Z.6 F720
G1 X143.534 Y86.634 F10800
G1 Z.2 F720
G1 E.8 F2100
M204 S800
;WIDTH:0.65722
G1 F1200
G1 X143.534 Y86.593 E.00213
;WIDTH:0.61435
G1 X143.534 Y86.551 E.00198
;WIDTH:0.57148
G1 X143.534 Y86.509 E.00183
;WIDTH:0.52861
G1 X143.534 Y86.468 E.00168
;WIDTH:0.48574
G1 X143.534 Y86.426 E.00153
;WIDTH:0.44287
G1 X143.534 Y86.384 E.00139
;WIDTH:0.40003
G1 X143.545 Y75.238 E.33099
M204 S1000
;WIPE_START
G1 F8640
G1 X143.542 Y78.529 E-.76
;WIPE_END
G1 E-.04 F2100
M73 Q0 S48
G1 Z.6 F720
G1 X150.7 Y75.245 F10800
G1 Z.2 F720
G1 E.8 F2100
M204 S800
G1 F1200
G1 X150.689 Y86.391 E.33099
;WIDTH:0.442871
G1 X150.689 Y86.433 E.00139
;WIDTH:0.485741
G1 X150.689 Y86.475 E.00153
;WIDTH:0.528611
G1 X150.689 Y86.516 E.00168
;WIDTH:0.571482
G1 X150.689 Y86.558 E.00183
;WIDTH:0.614352
G1 X150.689 Y86.6 E.00198
;WIDTH:0.657222
G1 X150.689 Y86.641 E.00213
M204 S1000
;WIPE_START
G1 F8640
G1 X150.689 Y86.6 E-.00962
G1 X150.689 Y86.558 E-.00962
G1 X150.689 Y86.516 E-.00962
G1 X150.689 Y86.475 E-.00962
G1 X150.689 Y86.433 E-.00962
G1 X150.689 Y86.391 E-.00962
G1 X150.692 Y83.35 E-.70229
;WIPE_END
G1 E-.04 F2100
G1 Z.6 F720
G1 X153.809 Y86.673 F10800
G1 Z.2 F720
G1 E.8 F2100
M204 S800
;WIDTH:0.602128
G1 F1200
G1 X153.784 Y86.673 E.00117
;WIDTH:0.600004
G1 X150.867 Y86.67 E.13508
;WIDTH:0.628613
G1 X150.778 Y86.656 E.0044
;WIDTH:0.657222
G1 X150.689 Y86.641 E.00462
G1 X150.6 Y86.656 E.00462
;WIDTH:0.628611
G1 X150.51 Y86.67 E.0044
;WIDTH:0.600002
G1 X147.593 Y86.667 E.13514
;WIDTH:0.602128
G1 X147.569 Y86.667 E.00111
M204 S1000
G1 X146.654 Y86.666 F10800
M204 S800
;WIDTH:0.602126
G1 F1200
G1 X146.629 Y86.666 E.00117
;WIDTH:0.600004
G1 X143.712 Y86.663 E.13508
;WIDTH:0.628612
G1 X143.623 Y86.649 E.0044
;WIDTH:0.65722
G1 X143.534 Y86.634 E.00462
G1 X143.445 Y86.648 E.00462
;WIDTH:0.62861
G1 X143.355 Y86.663 E.0044
;WIDTH:0.600002
G1 X140.439 Y86.66 E.13507
;WIDTH:0.602128
G1 X140.416 Y86.66 E.0011
M204 S1000
;WIPE_START
G1 F8640
G1 X140.439 Y86.66 E-.00546
G1 X143.355 Y86.663 E-.67331
G1 X143.445 Y86.648 E-.02088
G1 X143.534 Y86.634 E-.02088
G1 X143.623 Y86.649 E-.02088
G1 X143.703 Y86.661 E-.0186
;WIPE_END
G1 E-.04 F2100
G1 Z.6 F720
G1 X157.844 Y86.649 F10800
G1 Z.2 F720
G1 E.8 F2100
M204 S800
;WIDTH:0.65722
G1 F1200
G1 X157.755 Y86.663 E.00462
;WIDTH:0.628611
G1 X157.665 Y86.677 E.0044
;WIDTH:0.600002
G1 X154.748 Y86.674 E.13514
;WIDTH:0.602128
G1 X154.724 Y86.674 E.00111
M204 S1000
;WIPE_START
G1 F8640
G1 X154.748 Y86.674 E-.00549
G1 X157.665 Y86.677 E-.67363
G1 X157.755 Y86.663 E-.02088
G1 X157.844 Y86.649 E-.02088
;WIPE_END
G1 E-.07912 F2100
G1 Z.6 F720
G1 X157.855 Y75.252 F10800
G1 Z.2 F720
G1 E.8 F2100
M204 S800
;WIDTH:0.400026
G1 F1200
G1 X157.844 Y86.399 E.33099
;WIDTH:0.442867
G1 X157.844 Y86.44 E.00139
;WIDTH:0.485738
G1 X157.844 Y86.482 E.00153
;WIDTH:0.528608
G1 X157.844 Y86.524 E.00168
;WIDTH:0.571479
G1 X157.844 Y86.565 E.00183
;WIDTH:0.61435
G1 X157.844 Y86.607 E.00198
;WIDTH:0.65722
G1 X157.844 Y86.649 E.00213
G1 X157.933 Y86.663 E.00462
;WIDTH:0.628612
G1 X158.022 Y86.677 E.0044
;WIDTH:0.600008
G1 X160.945 Y86.68 E.13538
;WIDTH:0.634471
G1 X161.016 Y86.68 E.00348
;WIDTH:0.668934
G1 X161.087 Y86.68 E.00369
M204 S1000
;WIPE_START
G1 F8640
G1 X161.016 Y86.68 E-.01636
G1 X160.945 Y86.68 E-.01636
G1 X158.022 Y86.677 E-.67485
G1 X157.933 Y86.663 E-.02088
G1 X157.844 Y86.649 E-.02088
G1 X157.844 Y86.607 E-.00962
G1 X157.844 Y86.602 E-.00107
;WIPE_END
G1 E-.04 F2100
G1 Z.6 F720
G1 X161.183 Y75.257 F10800
G1 Z.2 F720
G1 E.8 F2100
M204 S800
;WIDTH:0.499824
G1 F1200
G1 X161.172 Y86.402 E.42342
;WIDTH:0.542102
G1 X161.15 Y86.471 E.00301
;WIDTH:0.584379
G1 X161.129 Y86.541 E.00327
;WIDTH:0.626657
G1 X161.108 Y86.61 E.00353
;WIDTH:0.668934
G1 X161.087 Y86.68 E.00378
G1 X161.108 Y86.755 E.00408
;WIDTH:0.626377
G1 X161.129 Y86.831 E.0038
;WIDTH:0.583819
G1 X161.15 Y86.906 E.00352
;WIDTH:0.541262
G1 X161.172 Y86.981 E.00324
;WIDTH:0.529618
G1 X161.156 Y87.296 E.01275
;WIDTH:0.560532
G1 X161.14 Y87.611 E.01356
;WIDTH:0.563194
G1 X161.139 Y87.63 E.00085
M204 S1000
;WIPE_START
G1 F8640
G1 X161.14 Y87.611 E-.00453
G1 X161.156 Y87.296 E-.07273
G1 X161.172 Y86.981 E-.07273
G1 X161.15 Y86.906 E-.01808
G1 X161.129 Y86.831 E-.01808
G1 X161.108 Y86.755 E-.01808
G1 X161.087 Y86.68 E-.01808
G1 X161.108 Y86.61 E-.01677
G1 X161.129 Y86.541 E-.01677
G1 X161.15 Y86.471 E-.01677
G1 X161.172 Y86.402 E-.01677
G1 X161.174 Y84.364 E-.47059
;WIPE_END
G1 E-.04 F2100
G1 Z.6 F720
G1 X157.839 Y74.71 F10800
G1 Z.2 F720
G1 E.8 F2100
M204 S800
;TYPE:Perimeter
;WIDTH:0.419999
G1 F1200
G1 X157.265 Y74.648 E.01811
G1 X156.728 Y74.537 E.01721
G1 X155.688 Y74.49 E.03264
G1 X154.606 Y74.584 E.03404
G1 X154.419 Y74.634 E.00608
G1 X154.278 Y74.853 E.00816
G1 X154.138 Y74.634 E.00816
G1 X153.965 Y74.585 E.00564
G1 X153.309 Y74.513 E.02068
G1 X151.794 Y74.493 E.04752
G1 X151.225 Y74.565 E.01799
G1 X150.684 Y74.703 E.01748
G1 X150.11 Y74.641 E.01811
G1 X149.573 Y74.53 E.01721
G1 X148.533 Y74.483 E.03264
G1 X147.451 Y74.577 E.03404
G1 X147.264 Y74.627 E.00608
G1 X147.123 Y74.846 E.00816
G1 X146.983 Y74.626 E.00816
G1 X146.81 Y74.578 E.00564
G1 X146.154 Y74.506 E.02068
G1 X144.639 Y74.486 E.04752
G1 X144.07 Y74.558 E.01799
G1 X143.529 Y74.696 E.01748
G1 X142.955 Y74.634 E.01811
G1 X142.442 Y74.524 E.01646
G1 X141.911 Y74.477 E.0167
G1 X140.25 Y74.467 E.05209
G1 X139.983 Y74.532 E.00863
G1 X139.795 Y74.692 E.00772
G1 X139.704 Y74.873 E.00637
G1 X139.681 Y75.032 E.00503
G1 X139.675 Y84.946 E.31086
G1 X139.781 Y86.048 E.03469
G1 X139.952 Y86.66 E.01995
G1 X139.772 Y87.199 E.0178
G1 X139.777 Y87.736 E.01684
G1 X139.985 Y88.487 E.02442
G1 X140.35 Y89.152 E.0238
G1 X140.838 Y89.731 E.02375
G1 X141.43 Y90.203 E.02375
G1 X142.103 Y90.551 E.02375
G1 X142.831 Y90.762 E.02375
G1 X143.585 Y90.826 E.02375
G1 X144.338 Y90.741 E.02375
G1 X145.06 Y90.512 E.02375
G1 X145.723 Y90.146 E.02375
G1 X146.302 Y89.658 E.02376
G1 X146.777 Y89.06 E.02393
G1 X147.11 Y88.395 E.02332
G1 X147.143 Y88.487 E.00306
G1 X147.505 Y89.158 E.02393
G1 X147.993 Y89.738 E.02376
G1 X148.585 Y90.211 E.02375
G1 X149.258 Y90.559 E.02375
G1 X149.877 Y90.747 E.02028
G1 X150.74 Y90.833 E.0272
G1 X151.493 Y90.749 E.02375
G1 X152.215 Y90.519 E.02375
G1 X152.878 Y90.153 E.02375
G1 X153.457 Y89.665 E.02376
G1 X153.932 Y89.067 E.02393
G1 X154.265 Y88.403 E.02331
G1 X154.298 Y88.494 E.00306
G1 X154.66 Y89.166 E.02392
G1 X155.148 Y89.745 E.02376
G1 X155.74 Y90.218 E.02375
G1 X156.413 Y90.566 E.02375
G1 X157.141 Y90.776 E.02375
G1 X157.895 Y90.84 E.02375
G1 X158.648 Y90.756 E.02375
G1 X159.267 Y90.569 E.02028
G1 X159.747 Y90.325 E.01687
G1 X160.15 Y90.059 E.01514
G1 X160.644 Y89.605 E.02104
G1 X160.654 Y89.792 E.00587
G1 X160.635 Y90.385 E.01862
G1 X160.706 Y90.601 E.00711
G1 X161.057 Y91.202 E.02184
G1 X159.252 Y92.302 E.06626
G1 X156.843 Y93.897 E.0906
G1 X154.494 Y95.581 E.0906
G1 X152.21 Y97.351 E.0906
G1 X149.994 Y99.205 E.0906
G1 X147.848 Y101.141 E.0906
G1 X145.776 Y103.155 E.0906
G1 X143.784 Y105.242 E.09048
G1 X141.865 Y107.408 E.09073
G1 X140.722 Y108.8 E.05648
G1 X140.722 Y108.552 E.00778
G1 X140.504 Y108.105 E.0156
G1 X140.157 Y107.986 E.0115
G1 X139.554 Y107.985 E.01889
G1 X139.366 Y108.017 E.00598
G1 X139.129 Y108.178 E.009
G1 X113.751 Y137.257 E1.21014
G1 X97.701 Y118.792 E.76709
G1 X97.732 Y88.511 E.94944
G1 X98.08 Y88.804 E.01429
G1 X101.521 Y88.808 E.10786
G1 X101.609 Y88.801 E.00278
G1 X101.849 Y88.703 E.00812
G1 X102.034 Y88.48 E.00912
G1 X102.087 Y88.243 E.0076
G1 X102.094 Y81.482 E.21198
M73 Q1 S48
G1 X102.082 Y81.365 E.00369
M73 P1 R48
G1 X101.956 Y81.111 E.00887
G1 X101.76 Y80.966 E.00765
G1 X101.529 Y80.916 E.00743
G1 X98.088 Y80.912 E.10787
G1 X97.739 Y81.261 E.01548
G1 X97.746 Y74.605 E.20869
G1 X97.723 Y74.447 E.00502
G1 X97.633 Y74.266 E.00634
G1 X97.447 Y74.106 E.00769
G1 X97.181 Y74.039 E.0086
G1 X91.838 Y74.034 E.16752
G1 X91.518 Y74.132 E.01048
G1 X91.331 Y74.346 E.00891
G1 X91.271 Y74.599 E.00813
G1 X91.236 Y110.482 E1.1251
G1 X91.27 Y111.444 E.03017
G1 X91.016 Y111.11 E.01317
G1 X88.662 Y108.392 E.11272
G1 X88.698 Y72.332 E1.13064
G1 X160.651 Y72.404 E2.25605
G1 X160.656 Y73.584 E.03697
G1 X160.703 Y74.126 E.01706
G1 X160.815 Y74.659 E.01707
G1 X160.234 Y74.559 E.01847
G1 X159.573 Y74.512 E.0208
G1 X158.949 Y74.5 E.01955
G1 X158.38 Y74.572 E.018
G1 X157.898 Y74.695 E.0156
M204 S1000
G1 X157.855 Y75.252 F10800
M204 S800
;TYPE:External perimeter
G1 F1200
G1 X157.731 Y75.071 E.00688
G1 X157.208 Y75.022 E.01648
G1 X156.709 Y74.914 E.016
G1 X155.72 Y74.866 E.03103
G1 X154.613 Y74.964 E.03486
G1 X154.466 Y75.148 E.00736
;WIDTH:0.420341
G1 X154.457 Y84.926 E.30686
;WIDTH:0.421171
G1 X154.456 Y84.967 E.00131
;WIDTH:0.451587
G1 X154.476 Y85.962 E.03382
;WIDTH:0.477466
G1 X154.537 Y86.266 E.01119
;WIDTH:0.503345
G1 X154.598 Y86.57 E.01185
;WIDTH:0.552737
G1 X154.661 Y86.622 E.00348
;WIDTH:0.602128
G1 X154.724 Y86.674 E.00381
G1 X154.661 Y86.726 E.00381
;WIDTH:0.552737
G1 X154.598 Y86.779 E.00348
;WIDTH:0.503345
G1 X154.538 Y87.008 E.00907
;WIDTH:0.475442
G1 X154.479 Y87.237 E.00852
;WIDTH:0.447538
G1 X154.469 Y87.646 E.01377
;WIDTH:0.438455
G1 X154.633 Y88.321 E.02282
;WIDTH:0.419999
G1 X154.952 Y88.927 E.02149
G1 X155.388 Y89.454 E.02144
G1 X155.918 Y89.885 E.02144
G1 X156.523 Y90.205 E.02144
G1 X157.178 Y90.401 E.02144
G1 X157.859 Y90.465 E.02144
G1 X158.539 Y90.395 E.02144
G1 X159.158 Y90.208 E.02028
G1 X159.569 Y89.992 E.01455
G1 X159.905 Y89.773 E.01259
G1 X160.325 Y89.403 E.01753
;WIDTH:0.447748
G1 X160.703 Y88.819 E.02341
G1 X160.87 Y88.214 E.02114
;WIDTH:0.441092
G1 X160.937 Y88.068 E.00532
;WIDTH:0.481793
G1 X161.004 Y87.922 E.00586
;WIDTH:0.522494
G1 X161.072 Y87.776 E.00641
;WIDTH:0.563194
G1 X161.139 Y87.63 E.00695
G1 X161.146 Y87.665 E.00154
;WIDTH:0.548938
G1 X161.17 Y87.875 E.00891
;WIDTH:0.499423
G1 X161.193 Y88.086 E.00804
;WIDTH:0.449907
G1 X161.217 Y88.296 E.00716
;WIDTH:0.44157
G1 X161.082 Y89.017 E.02431
G1 X161.039 Y89.627 E.02029
;WIDTH:0.419999
G1 X161.009 Y90.311 E.02147
G1 X161.033 Y90.413 E.00329
G1 X161.569 Y91.332 E.03334
G1 X159.46 Y92.617 E.07742
G1 X157.062 Y94.204 E.09016
G1 X154.725 Y95.879 E.09016
G1 X152.452 Y97.64 E.09016
G1 X150.246 Y99.485 E.09016
G1 X148.111 Y101.411 E.09016
G1 X146.049 Y103.415 E.09016
G1 X144.065 Y105.493 E.09008
G1 X142.156 Y107.647 E.09024
G1 X140.689 Y109.434 E.07249
G1 X140.344 Y108.918 E.01944
G1 X140.345 Y108.552 E.0115
G1 X140.272 Y108.403 E.0052
G1 X140.156 Y108.363 E.00383
G1 X139.554 Y108.362 E.01889
G1 X139.412 Y108.426 E.00488
G1 X113.75 Y137.831 E1.22369
G1 X97.324 Y118.933 E.78509
G1 X97.354 Y89.153 E.93373
;WIDTH:0.460136
G1 X97.374 Y88.695 E.01588
;WIDTH:0.500274
G1 X97.395 Y88.238 E.01741
G1 X97.402 Y81.477 E.25711
G1 X97.382 Y81.02 E.01741
;WIDTH:0.460137
G1 X97.363 Y80.563 E.01588
;WIDTH:0.419999
G1 X97.369 Y74.605 E.1868
G1 X97.331 Y74.492 E.00374
G1 X97.18 Y74.416 E.00529
G1 X91.837 Y74.411 E.16752
G1 X91.731 Y74.444 E.00349
G1 X91.649 Y74.599 E.00552
G1 X91.613 Y110.483 E1.1251
G1 X91.651 Y111.506 E.03212
G1 X91.809 Y112.469 E.03059
G1 X91.81 Y112.894 E.01331
G1 X91.536 Y112.571 E.01328
G1 X91.033 Y111.756 E.03001
G1 X90.731 Y111.357 E.01572
G1 X88.285 Y108.533 E.11714
G1 X88.321 Y71.955 E1.14688
G1 X161.027 Y72.028 E2.27963
G1 X161.033 Y73.452 E.04466
G1 X161.064 Y73.927 E.01494
G1 X161.182 Y74.565 E.02034
;WIDTH:0.46028
G1 X161.203 Y75.063 E.01729
;WIDTH:0.499824
G1 X161.183 Y75.257 E.0074
G1 X161.099 Y75.107 E.00652
;WIDTH:0.46028
G1 X160.986 Y75.071 E.00412
;WIDTH:0.419999
G1 X160.171 Y74.931 E.02595
G1 X159.563 Y74.889 E.01911
G1 X158.992 Y74.875 E.01789
G1 X158.48 Y74.936 E.01615
G1 X157.983 Y75.074 E.01617
G1 X157.89 Y75.203 E.005
M204 S1000
G1 X157.848 Y75.033 F10800
;WIPE_START
G1 F8640
G1 X157.731 Y75.071 E-.04779
G1 X157.208 Y75.022 E-.12136
G1 X156.709 Y74.914 E-.11784
G1 X155.72 Y74.866 E-.22855
G1 X154.666 Y74.959 E-.24447
;WIPE_END
G1 E-.04 F2100
G1 Z.6 F720
G1 X153.922 Y74.96 F10800
G1 Z.2 F720
G1 E.8 F2100
M204 S800
G1 F1200
G1 X153.98 Y74.976 E.00188
G1 X154.089 Y75.147 E.00637
;WIDTH:0.420341
G1 X154.079 Y84.925 E.30686
;WIDTH:0.453301
G1 X154.061 Y85.899 E.03325
G1 X153.972 Y86.421 E.01805
;WIDTH:0.461659
G1 X153.954 Y86.495 E.00266
;WIDTH:0.503319
G1 X153.935 Y86.569 E.00292
;WIDTH:0.552724
G1 X153.872 Y86.621 E.00348
;WIDTH:0.602128
G1 X153.809 Y86.673 E.00381
G1 X153.872 Y86.726 E.00381
;WIDTH:0.552724
G1 X153.935 Y86.778 E.00348
;WIDTH:0.503319
G1 X154.061 Y87.272 E.0195
;WIDTH:0.453698
