; generated by PrusaSlicer 2.2.0+win64 on 2021-12-02 at 23:20:21 UTC

; 

; external perimeters extrusion width = 0.45mm
; perimeters extrusion width = 0.45mm
; infill extrusion width = 0.45mm
; solid infill extrusion width = 0.45mm
; top infill extrusion width = 0.40mm
; first layer extrusion width = 0.42mm

M73 P0 R18
M73 Q0 S19
M201 X1000 Y1000 Z200 E5000 ; sets maximum accelerations, mm/sec^2
M203 X200 Y200 Z12 E120 ; sets maximum feedrates, mm/sec
M204 P1250 R1250 T1250 ; sets acceleration (P, T) and retract acceleration (R), mm/sec^2
M205 X8.00 Y8.00 Z0.40 E4.50 ; sets the jerk limits, mm/sec
M205 S0 T0 ; sets the minimum extruding and travel feed rate, mm/sec
M107
M862.3 P "MK3S" ; printer model check
M862.1 P0.4 ; nozzle diameter check
G90 ; use absolute coordinates
M83 ; extruder relative mode
M104 S215 ; set extruder temp
M140 S60 ; set bed temp
M190 S60 ; wait for bed temp
M109 S215 ; wait for extruder temp
G28 W ; home all without mesh bed level
G80 ; mesh bed leveling
G1 Y-3.0 F1000.0 ; go outside print area
G92 E0.0
G1 X60.0 E9.0 F1000.0 ; intro line
M73 Q0 S19
M73 P0 R18
G1 X100.0 E12.5 F1000.0 ; intro line
G92 E0.0
M221 S95

; Don't change E values below. Excessive value can damage the printer.

M907 E538 ; set extruder motor current
G21 ; set units to millimeters
G90 ; use absolute coordinates
M83 ; use relative distances for extrusion
M900 K0.05 ; Filament gcode LA 1.5
M900 K30 ; Filament gcode LA 1.0
;BEFORE_LAYER_CHANGE
G92 E0.0
;0.2


G1 E-0.80000 F2100.00000
G1 Z0.400 F10800.000
;AFTER_LAYER_CHANGE
;0.2
G1 X98.157 Y79.404
G1 Z0.200
G1 E0.80000 F2100.00000
M204 S1000
G1 F1200.000
G1 X99.366 Y78.187 E0.05380
G1 X100.198 Y77.574 E0.03240
G1 X101.097 Y77.064 E0.03240
G1 X102.698 Y76.456 E0.05368
G1 X104.355 Y76.171 E0.05273
G1 X144.889 Y76.147 E1.27091
G1 X146.501 Y76.276 E0.05070
G1 X148.087 Y76.706 E0.05154
G1 X149.567 Y77.422 E0.05154
G1 X150.858 Y78.371 E0.05023
G1 X152.014 Y79.609 E0.05309
G1 X152.868 Y80.959 E0.05012
G1 X153.482 Y82.489 E0.05166
G1 X153.752 Y83.708 E0.03917
G1 X153.845 Y84.799 E0.03433
G1 X153.843 Y125.297 E1.26976
G1 X153.652 Y126.845 E0.04893
G1 X153.311 Y128.028 E0.03860
G1 X152.639 Y129.461 E0.04964
G1 X151.721 Y130.751 E0.04964
G1 X150.479 Y131.947 E0.05404
G1 X149.029 Y132.877 E0.05402
G1 X148.087 Y133.294 E0.03230
G1 X147.088 Y133.601 E0.03276
G1 X145.336 Y133.847 E0.05546
G1 X104.815 Y133.851 E1.27052
G1 X103.244 Y133.674 E0.04956
G1 X101.728 Y133.218 E0.04964
G1 X100.620 Y132.683 E0.03860
G1 X99.339 Y131.791 E0.04893
G1 X98.114 Y130.542 E0.05487
G1 X97.510 Y129.693 E0.03264
G1 X96.993 Y128.742 E0.03395
G1 X96.418 Y127.109 E0.05428
G1 X96.229 Y126.090 E0.03252
G1 X96.161 Y125.047 E0.03276
G1 X96.175 Y84.500 E1.27131
G1 X96.328 Y83.298 E0.03800
G1 X96.769 Y81.781 E0.04952
G1 X97.272 Y80.713 E0.03703
G1 X98.123 Y79.454 E0.04766
; printing object Arrow.stl id:0 copy 8
G1 F8640.000
G1 X99.366 Y78.187 E-0.40983
G1 X100.198 Y77.574 E-0.23862
G1 X100.618 Y77.335 E-0.11155
G1 E-0.04000 F2100.00000
G1 Z0.600 F10800.000
G1 X141.053 Y120.871
G1 Z0.200
G1 E0.80000 F2100.00000
G1 F1200.000
G1 X141.602 Y120.409 E0.02250
G1 X141.885 Y120.213 E0.01080
G1 X142.198 Y120.024 E0.01146
G1 X142.835 Y119.717 E0.02216
G1 X143.150 Y119.599 E0.01055
G1 X143.842 Y119.411 E0.02250
G1 X144.552 Y119.311 E0.02247
G1 X144.908 Y119.296 E0.01118
G1 X145.605 Y119.329 E0.02188
G1 X146.303 Y119.450 E0.02222
G1 X146.989 Y119.659 E0.02250
G1 X147.309 Y119.789 E0.01082
G1 X147.620 Y119.940 E0.01082
G1 X148.233 Y120.311 E0.02250
G1 X148.796 Y120.756 E0.02250
G1 X149.045 Y120.994 E0.01080
G1 X149.293 Y121.263 E0.01146
G1 X149.716 Y121.818 E0.02188
G1 X150.078 Y122.437 E0.02248
G1 X150.227 Y122.760 E0.01118
G1 X150.461 Y123.418 E0.02188
G1 X150.616 Y124.119 E0.02250
G1 X150.658 Y124.452 E0.01054
G1 X150.680 Y125.178 E0.02278
G1 X150.659 Y125.514 E0.01054
G1 X150.547 Y126.232 E0.02278
G1 X150.464 Y126.557 E0.01054
G1 X150.220 Y127.242 E0.02278
G1 X150.079 Y127.547 E0.01054
G1 X149.712 Y128.174 E0.02278
G1 X149.516 Y128.447 E0.01054
G1 X149.039 Y128.996 E0.02278
G1 X148.796 Y129.228 E0.01054
G1 X148.233 Y129.673 E0.02250
G1 X147.627 Y130.039 E0.02221
G1 X146.972 Y130.332 E0.02250
G1 X146.654 Y130.440 E0.01054
G1 X145.947 Y130.608 E0.02278
G1 X145.614 Y130.655 E0.01054
G1 X144.888 Y130.688 E0.02278
G1 X144.553 Y130.673 E0.01054
G1 X143.842 Y130.573 E0.02250
G1 X143.150 Y130.385 E0.02250
G1 X142.835 Y130.267 E0.01054
G1 X142.189 Y129.955 E0.02250
G1 X141.587 Y129.564 E0.02250
G1 X141.323 Y129.356 E0.01054
G1 X140.804 Y128.861 E0.02250
G1 X140.351 Y128.305 E0.02250
G1 X140.164 Y128.026 E0.01054
G1 X139.817 Y127.387 E0.02278
G1 X139.684 Y127.078 E0.01054
G1 X139.462 Y126.386 E0.02278
G1 X139.389 Y126.058 E0.01054
G1 X139.299 Y125.337 E0.02278
G1 X139.289 Y124.993 E0.01080
G1 X139.301 Y124.628 E0.01146
G1 X139.389 Y123.926 E0.02216
G1 X139.462 Y123.598 E0.01055
G1 X139.684 Y122.906 E0.02278
G1 X139.817 Y122.597 E0.01054
G1 X140.159 Y121.967 E0.02250
G1 X140.572 Y121.391 E0.02221
G1 X141.012 Y120.915 E0.02033
G1 X140.735 Y120.659 F10800.000
G1 F1200.000
G1 X141.372 Y120.109 E0.02638
G1 X141.680 Y119.896 E0.01173
G1 X142.019 Y119.692 E0.01239
G1 X142.686 Y119.370 E0.02325
G1 X143.034 Y119.239 E0.01164
G1 X143.766 Y119.041 E0.02378
G1 X144.517 Y118.935 E0.02377
G1 X144.909 Y118.918 E0.01229
G1 X145.646 Y118.953 E0.02315
G1 X146.390 Y119.082 E0.02368
G1 X147.116 Y119.303 E0.02378
G1 X147.463 Y119.445 E0.01174
G1 X147.800 Y119.608 E0.01174
G1 X148.449 Y120.001 E0.02378
G1 X149.044 Y120.471 E0.02378
G1 X149.315 Y120.730 E0.01173
G1 X149.582 Y121.021 E0.01239
G1 X150.030 Y121.607 E0.02315
G1 X150.413 Y122.262 E0.02378
G1 X150.577 Y122.618 E0.01229
G1 X150.824 Y123.314 E0.02315
G1 X150.988 Y124.054 E0.02379
G1 X151.034 Y124.423 E0.01164
G1 X151.058 Y125.184 E0.02389
G1 X151.035 Y125.555 E0.01164
G1 X150.917 Y126.307 E0.02389
G1 X150.825 Y126.667 E0.01164
G1 X150.570 Y127.385 E0.02389
G1 X150.413 Y127.722 E0.01164
G1 X150.029 Y128.379 E0.02389
G1 X149.812 Y128.681 E0.01164
G1 X149.313 Y129.256 E0.02389
G1 X149.044 Y129.513 E0.01164
G1 X148.449 Y129.983 E0.02378
G1 X147.803 Y130.374 E0.02368
G1 X147.110 Y130.683 E0.02378
G1 X146.758 Y130.802 E0.01164
G1 X146.017 Y130.979 E0.02389
G1 X145.649 Y131.030 E0.01164
G1 X144.888 Y131.066 E0.02389
G1 X144.517 Y131.049 E0.01164
G1 X143.766 Y130.943 E0.02378
G1 X143.034 Y130.745 E0.02378
G1 X142.686 Y130.615 E0.01164
G1 X142.004 Y130.284 E0.02378
G1 X141.367 Y129.871 E0.02378
G1 X141.076 Y129.641 E0.01164
G1 X140.527 Y129.117 E0.02378
G1 X140.048 Y128.529 E0.02378
G1 X139.841 Y128.221 E0.01164
G1 X139.477 Y127.552 E0.02389
G1 X139.331 Y127.210 E0.01164
G1 X139.098 Y126.485 E0.02389
G1 X139.017 Y126.122 E0.01164
G1 X138.923 Y125.366 E0.02389
G1 X138.911 Y124.992 E0.01173
G1 X138.925 Y124.597 E0.01239
G1 X139.017 Y123.862 E0.02325
G1 X139.098 Y123.499 E0.01164
G1 X139.331 Y122.774 E0.02389
G1 X139.477 Y122.432 E0.01164
G1 X139.839 Y121.766 E0.02378
G1 X140.279 Y121.152 E0.02368
G1 X140.695 Y120.703 E0.01918
G1 X141.120 Y120.768 F10800.000
G1 F8640.000
G1 X141.372 Y120.109 E-0.20807
G1 X141.680 Y119.896 E-0.08642
G1 X142.019 Y119.692 E-0.09123
G1 X142.686 Y119.370 E-0.17122
G1 X143.034 Y119.239 E-0.08576
G1 X143.524 Y119.107 E-0.11730
G1 E-0.04000 F2100.00000
G1 Z0.600 F10800.000
G1 X141.127 Y125.226
G1 Z0.200
G1 E0.80000 F2100.00000
G1 F1200.000
G1 X141.129 Y124.744 E0.01545
G1 X141.192 Y124.238 E0.01638
G1 X141.398 Y123.547 E0.02318
G1 X141.711 Y122.939 E0.02194
G1 X141.991 Y122.549 E0.01544
G1 X142.317 Y122.196 E0.01544
G1 X142.690 Y121.882 E0.01566
G1 X143.095 Y121.621 E0.01545
G1 X143.710 Y121.341 E0.02171
G1 X144.210 Y121.205 E0.01665
G1 X144.719 Y121.134 E0.01652
G1 X145.405 Y121.149 E0.02203
G1 X145.880 Y121.231 E0.01547
G1 X146.348 Y121.374 E0.01573
G1 X146.770 Y121.563 E0.01485
G1 X147.189 Y121.816 E0.01573
G1 X147.572 Y122.118 E0.01566
G1 X147.909 Y122.462 E0.01545
G1 X148.195 Y122.837 E0.01517
G1 X148.455 Y123.283 E0.01656
G1 X148.701 Y123.923 E0.02203
G1 X148.833 Y124.594 E0.02197
G1 X148.840 Y125.315 E0.02315
G1 X148.714 Y126.025 E0.02315
G1 X148.457 Y126.698 E0.02315
G1 X148.080 Y127.313 E0.02315
G1 X147.596 Y127.847 E0.02315
G1 X147.189 Y128.168 E0.01665
G1 X146.778 Y128.417 E0.01544
G1 X146.148 Y128.681 E0.02194
G1 X145.444 Y128.833 E0.02315
G1 X144.723 Y128.851 E0.02315
G1 X144.210 Y128.779 E0.01665
G1 X143.710 Y128.643 E0.01665
G1 X143.088 Y128.359 E0.02194
G1 X142.524 Y127.975 E0.02194
G1 X142.149 Y127.617 E0.01665
G1 X141.821 Y127.215 E0.01665
G1 X141.464 Y126.589 E0.02315
G1 X141.228 Y125.908 E0.02315
G1 X141.135 Y125.285 E0.02023
G1 X141.521 Y125.262 F10800.000
G1 F1200.000
G1 X141.602 Y125.807 E0.01771
G1 X141.812 Y126.421 E0.02084
G1 X142.132 Y126.985 E0.02084
G1 X142.433 Y127.354 E0.01529
G1 X142.777 Y127.683 E0.01529
G1 X143.278 Y128.022 E0.01943
G1 X143.828 Y128.275 E0.01943
G1 X144.288 Y128.399 E0.01529
G1 X144.759 Y128.466 E0.01529
G1 X145.408 Y128.448 E0.02084
G1 X146.042 Y128.309 E0.02084
G1 X146.599 Y128.074 E0.01943
G1 X146.969 Y127.850 E0.01389
G1 X147.342 Y127.555 E0.01529
G1 X147.777 Y127.073 E0.02084
G1 X148.115 Y126.519 E0.02084
G1 X148.344 Y125.912 E0.02084
G1 X148.456 Y125.273 E0.02084
G1 X148.448 Y124.624 E0.02084
G1 X148.329 Y124.030 E0.01947
G1 X148.112 Y123.461 E0.01953
G1 X147.874 Y123.053 E0.01519
G1 X147.616 Y122.715 E0.01364
G1 X147.313 Y122.406 E0.01390
G1 X146.969 Y122.134 E0.01409
G1 X146.591 Y121.905 E0.01418
G1 X146.213 Y121.737 E0.01331
G1 X145.790 Y121.608 E0.01418
G1 X145.363 Y121.534 E0.01393
G1 X144.755 Y121.519 E0.01953
G1 X144.288 Y121.585 E0.01515
G1 X143.828 Y121.709 E0.01529
G1 X143.284 Y121.958 E0.01922
G1 X142.920 Y122.193 E0.01390
G1 X142.585 Y122.476 E0.01409
G1 X142.291 Y122.793 E0.01389
G1 X142.039 Y123.145 E0.01389
G1 X141.761 Y123.682 E0.01943
G1 X141.573 Y124.304 E0.02087
G1 X141.515 Y124.769 E0.01504
G1 X141.514 Y125.202 E0.01390
G1 X141.900 Y125.178 F10800.000
G1 F1200.000
G1 X141.901 Y124.794 E0.01235
G1 X141.954 Y124.370 E0.01371
G1 X142.123 Y123.817 E0.01857
G1 X142.367 Y123.350 E0.01693
G1 X142.591 Y123.038 E0.01234
G1 X142.852 Y122.756 E0.01235
G1 X143.150 Y122.504 E0.01253
G1 X143.473 Y122.296 E0.01235
G1 X143.946 Y122.077 E0.01674
G1 X144.365 Y121.964 E0.01394
G1 X144.790 Y121.904 E0.01378
G1 X145.321 Y121.919 E0.01704
G1 X145.701 Y121.984 E0.01239
G1 X146.077 Y122.099 E0.01264
G1 X146.412 Y122.248 E0.01176
G1 X146.748 Y122.452 E0.01264
G1 X147.054 Y122.694 E0.01253
G1 X147.323 Y122.969 E0.01235
G1 X147.552 Y123.268 E0.01211
G1 X147.770 Y123.640 E0.01382
G1 X147.957 Y124.137 E0.01704
G1 X148.062 Y124.654 E0.01697
G1 X148.072 Y125.231 E0.01852
G1 X147.974 Y125.799 E0.01852
G1 X147.772 Y126.340 E0.01852
G1 X147.474 Y126.833 E0.01852
G1 X147.089 Y127.263 E0.01852
G1 X146.748 Y127.532 E0.01394
G1 X146.419 Y127.731 E0.01235
G1 X145.935 Y127.938 E0.01693
G1 X145.372 Y128.063 E0.01852
G1 X144.795 Y128.081 E0.01852
G1 X144.365 Y128.020 E0.01394
G1 X143.946 Y127.907 E0.01394
G1 X143.468 Y127.685 E0.01693
G1 X143.031 Y127.391 E0.01693
G1 X142.717 Y127.091 E0.01394
G1 X142.442 Y126.755 E0.01394
G1 X142.160 Y126.252 E0.01852
G1 X141.975 Y125.706 E0.01852
G1 X141.907 Y125.238 E0.01519
G1 X142.286 Y125.155 F10800.000
G1 F1200.000
G1 X142.287 Y124.819 E0.01080
G1 X142.335 Y124.436 E0.01237
G1 X142.485 Y123.953 E0.01626
G1 X142.695 Y123.556 E0.01442
G1 X142.891 Y123.283 E0.01080
G1 X143.119 Y123.036 E0.01080
G1 X143.380 Y122.816 E0.01097
G1 X143.663 Y122.633 E0.01080
G1 X144.065 Y122.445 E0.01425
G1 X144.443 Y122.343 E0.01259
G1 X144.826 Y122.289 E0.01241
G1 X145.278 Y122.303 E0.01455
G1 X145.611 Y122.361 E0.01085
G1 X145.942 Y122.462 E0.01109
G1 X146.232 Y122.591 E0.01022
G1 X146.528 Y122.770 E0.01109
G1 X146.796 Y122.982 E0.01097
G1 X147.031 Y123.222 E0.01080
G1 X147.231 Y123.484 E0.01058
G1 X147.427 Y123.819 E0.01246
G1 X147.585 Y124.243 E0.01455
G1 X147.677 Y124.684 E0.01447
G1 X147.687 Y125.189 E0.01621
G1 X147.604 Y125.687 E0.01621
G1 X147.429 Y126.160 E0.01621
G1 X147.170 Y126.593 E0.01621
G1 X146.835 Y126.971 E0.01621
G1 X146.528 Y127.214 E0.01259
G1 X146.240 Y127.388 E0.01080
G1 X145.828 Y127.566 E0.01442
G1 X145.336 Y127.678 E0.01621
G1 X144.831 Y127.696 E0.01621
G1 X144.443 Y127.641 E0.01259
G1 X144.065 Y127.539 E0.01259
G1 X143.658 Y127.348 E0.01442
G1 X143.285 Y127.099 E0.01442
G1 X143.001 Y126.828 E0.01259
G1 X142.753 Y126.525 E0.01259
G1 X142.508 Y126.084 E0.01621
G1 X142.348 Y125.605 E0.01621
G1 X142.294 Y125.214 E0.01267
G1 X142.680 Y125.191 F10800.000
G1 F1200.000
G1 X142.721 Y125.504 E0.01014
G1 X142.856 Y125.915 E0.01390
G1 X143.064 Y126.295 E0.01390
G1 X143.285 Y126.566 E0.01124
G1 X143.538 Y126.807 E0.01124
G1 X143.848 Y127.011 E0.01191
G1 X144.183 Y127.171 E0.01191
G1 X144.521 Y127.262 E0.01124
G1 X144.867 Y127.311 E0.01124
G1 X145.300 Y127.293 E0.01390
G1 X145.721 Y127.195 E0.01390
G1 X146.061 Y127.045 E0.01191
G1 X146.307 Y126.896 E0.00925
G1 X146.582 Y126.679 E0.01124
G1 X146.867 Y126.354 E0.01390
G1 X147.087 Y125.981 E0.01390
G1 X147.234 Y125.574 E0.01390
G1 X147.303 Y125.147 E0.01390
G1 X147.291 Y124.714 E0.01390
G1 X147.213 Y124.350 E0.01197
G1 X147.084 Y123.998 E0.01206
G1 X146.910 Y123.699 E0.01109
G1 X146.738 Y123.475 E0.00905
G1 X146.537 Y123.270 E0.00925
G1 X146.307 Y123.088 E0.00941
G1 X146.053 Y122.934 E0.00955
G1 X145.806 Y122.824 E0.00867
G1 X145.522 Y122.737 E0.00955
G1 X145.236 Y122.688 E0.00931
G1 X144.861 Y122.674 E0.01206
G1 X144.521 Y122.722 E0.01104
G1 X144.183 Y122.813 E0.01124
G1 X143.852 Y122.971 E0.01177
G1 X143.610 Y123.127 E0.00925
G1 X143.386 Y123.316 E0.00941
G1 X143.190 Y123.527 E0.00925
G1 X143.023 Y123.761 E0.00925
G1 X142.847 Y124.088 E0.01191
G1 X142.716 Y124.502 E0.01395
G1 X142.673 Y124.843 E0.01104
G1 X142.673 Y125.131 E0.00925
G1 X143.066 Y125.167 F10800.000
G1 F1200.000
G1 X143.097 Y125.410 E0.00786
G1 X143.207 Y125.753 E0.01158
G1 X143.379 Y126.070 E0.01158
G1 X143.569 Y126.303 E0.00965
G1 X143.786 Y126.510 E0.00965
G1 X144.038 Y126.674 E0.00965
G1 X144.309 Y126.805 E0.00964
G1 X144.598 Y126.883 E0.00964
G1 X144.896 Y126.925 E0.00965
G1 X145.256 Y126.908 E0.01158
G1 X145.607 Y126.825 E0.01158
G1 X145.881 Y126.702 E0.00965
G1 X146.086 Y126.578 E0.00771
G1 X146.322 Y126.392 E0.00964
G1 X146.559 Y126.120 E0.01158
G1 X146.740 Y125.808 E0.01158
G1 X146.861 Y125.469 E0.01158
G1 X146.917 Y125.112 E0.01158
G1 X146.906 Y124.752 E0.01158
G1 X146.841 Y124.457 E0.00970
G1 X146.742 Y124.178 E0.00951
G1 X146.588 Y123.915 E0.00979
G1 X146.446 Y123.729 E0.00752
G1 X146.278 Y123.558 E0.00770
G1 X146.086 Y123.406 E0.00785
G1 X145.873 Y123.277 E0.00800
G1 X145.671 Y123.187 E0.00712
G1 X145.432 Y123.114 E0.00800
G1 X145.194 Y123.073 E0.00777
G1 X144.898 Y123.059 E0.00951
G1 X144.598 Y123.101 E0.00973
G1 X144.308 Y123.180 E0.00968
G1 X144.042 Y123.308 E0.00949
G1 X143.840 Y123.438 E0.00770
G1 X143.653 Y123.596 E0.00785
G1 X143.490 Y123.772 E0.00771
G1 X143.350 Y123.967 E0.00771
G1 X143.207 Y124.231 E0.00965
G1 X143.096 Y124.575 E0.01161
G1 X143.060 Y124.868 E0.00949
G1 X143.059 Y125.108 E0.00770
G1 X143.445 Y125.084 F10800.000
G1 F1200.000
G1 X143.446 Y124.893 E0.00615
G1 X143.475 Y124.659 E0.00757
G1 X143.564 Y124.383 E0.00929
G1 X143.678 Y124.172 E0.00771
G1 X143.790 Y124.016 E0.00616
G1 X144.070 Y123.749 E0.01243
G1 X144.231 Y123.646 E0.00615
G1 X144.443 Y123.543 E0.00757
G1 X144.676 Y123.480 E0.00775
G1 X144.916 Y123.446 E0.00779
G1 X145.152 Y123.457 E0.00757
G1 X145.535 Y123.549 E0.01266
G1 X145.866 Y123.724 E0.01201
G1 X146.019 Y123.845 E0.00629
G1 X146.267 Y124.130 E0.01212
G1 X146.390 Y124.341 E0.00785
G1 X146.469 Y124.564 E0.00757
G1 X146.521 Y124.800 E0.00778
G1 X146.530 Y125.088 E0.00926
G1 X146.485 Y125.373 E0.00926
G1 X146.389 Y125.645 E0.00926
G1 X146.243 Y125.894 E0.00926
G1 X146.054 Y126.111 E0.00926
G1 X145.866 Y126.260 E0.00771
G1 X145.702 Y126.359 E0.00616
G1 X145.482 Y126.457 E0.00771
G1 X145.202 Y126.524 E0.00926
G1 X144.914 Y126.537 E0.00926
G1 X144.676 Y126.504 E0.00771
G1 X144.444 Y126.441 E0.00771
G1 X144.228 Y126.337 E0.00771
G1 X144.027 Y126.206 E0.00771
G1 X143.853 Y126.040 E0.00771
G1 X143.701 Y125.854 E0.00771
