; generated by PrusaSlicer 2.2.0+win64 on 2020-10-06 at 18:08:50 UTC

; 

; external perimeters extrusion width = 0.45mm
; perimeters extrusion width = 0.45mm
; infill extrusion width = 0.45mm
; solid infill extrusion width = 0.45mm
; top infill extrusion width = 0.40mm
; first layer extrusion width = 0.42mm

M73 P0 R52
M73 Q0 S52
M201 X1000 Y1000 Z1000 E5000 ; sets maximum accelerations, mm/sec^2
M203 X200 Y200 Z12 E120 ; sets maximum feedrates, mm/sec
M204 P1250 R1250 T1250 ; sets acceleration (P, T) and retract acceleration (R), mm/sec^2
M205 X8.00 Y8.00 Z0.40 E1.50 ; sets the jerk limits, mm/sec
M205 S0 T0 ; sets the minimum extruding and travel feed rate, mm/sec
M107
M862.3 P "MK3S" ; printer model check
M862.1 P0.4 ; nozzle diameter check
M115 U3.8.0 ; tell printer latest fw version
G90 ; use absolute coordinates
M83 ; extruder relative mode
M104 S215 ; set extruder temp
M140 S60 ; set bed temp
M190 S60 ; wait for bed temp
M109 S215 ; wait for extruder temp
G28 W ; home all without mesh bed level
G80 ; mesh bed leveling
G1 Y-3.0 F1000.0 ; go outside print area
G92 E0.0
G1 X60.0 E9.0 F1000.0 ; intro line
M73 Q0 S52
M73 P0 R52
G1 X100.0 E12.5 F1000.0 ; intro line
G92 E0.0
M221 S95
G21 ; set units to millimeters
G90 ; use absolute coordinates
M83 ; use relative distances for extrusion
M900 K0.06 ; Filament gcode LA 1.5
M900 K30 ; Filament gcode LA 1.0
;BEFORE_LAYER_CHANGE
G92 E0.0
;0.2


G1 E-0.80000 F2100.00000
G1 Z0.600 F10800.000
;AFTER_LAYER_CHANGE
;0.2
G1 X112.641 Y118.967
G1 Z0.200
G1 E0.80000 F2100.00000
M204 S1000
G1 F1200.000
G1 X112.089 Y119.022 E0.01739
G1 X111.537 Y118.967 E0.01739
G1 X110.828 Y118.752 E0.02323
G1 X110.289 Y118.464 E0.01917
G1 X109.824 Y118.082 E0.01886
G1 X109.443 Y117.618 E0.01885
G1 X109.135 Y117.043 E0.02044
G1 X108.927 Y116.357 E0.02247
G1 X108.874 Y115.815 E0.01705
G1 X108.927 Y115.274 E0.01706
G1 X109.131 Y114.601 E0.02206
G1 X109.443 Y114.018 E0.02072
G1 X109.825 Y113.553 E0.01886
G1 X110.290 Y113.171 E0.01886
G1 X110.864 Y112.864 E0.02043
G1 X111.543 Y112.658 E0.02224
G1 X112.073 Y112.606 E0.01669
G1 X112.633 Y112.658 E0.01764
G1 X113.314 Y112.864 E0.02230
G1 X113.888 Y113.171 E0.02043
G1 X114.353 Y113.553 E0.01886
G1 X114.735 Y114.018 E0.01886
G1 X115.047 Y114.601 E0.02072
G1 X115.251 Y115.274 E0.02206
G1 X115.304 Y115.815 E0.01706
G1 X115.251 Y116.357 E0.01705
G1 X115.043 Y117.043 E0.02247
G1 X114.735 Y117.618 E0.02044
G1 X114.354 Y118.082 E0.01885
G1 X113.889 Y118.464 E0.01886
G1 X113.350 Y118.752 E0.01917
G1 X112.698 Y118.950 E0.02135
G1 X112.089 Y118.643 F10800.000
G1 F1200.000
G1 X111.611 Y118.596 E0.01506
G1 X110.973 Y118.402 E0.02091
G1 X110.499 Y118.149 E0.01684
G1 X110.092 Y117.814 E0.01653
G1 X109.758 Y117.407 E0.01653
G1 X109.485 Y116.898 E0.01811
G1 X109.299 Y116.283 E0.02014
G1 X109.253 Y115.815 E0.01473
G1 X109.299 Y115.348 E0.01473
G1 X109.482 Y114.746 E0.01973
G1 X109.758 Y114.229 E0.01839
G1 X110.093 Y113.821 E0.01653
G1 X110.500 Y113.486 E0.01653
G1 X111.009 Y113.214 E0.01810
G1 X111.617 Y113.030 E0.01991
G1 X112.074 Y112.985 E0.01440
G1 X112.560 Y113.030 E0.01531
G1 X113.169 Y113.214 E0.01993
G1 X113.678 Y113.486 E0.01810
G1 X114.086 Y113.821 E0.01653
G1 X114.420 Y114.229 E0.01653
G1 X114.697 Y114.746 E0.01839
G1 X114.879 Y115.348 E0.01973
G1 X114.925 Y115.815 E0.01473
G1 X114.879 Y116.283 E0.01473
G1 X114.693 Y116.898 E0.02014
G1 X114.420 Y117.407 E0.01811
G1 X114.086 Y117.814 E0.01653
G1 X113.679 Y118.149 E0.01653
G1 X113.205 Y118.402 E0.01684
G1 X112.567 Y118.596 E0.02091
G1 X112.149 Y118.637 E0.01318
G1 X111.891 Y118.990 F10800.000
G1 E-0.80000 F2100.00000
G1 Z0.800 F10800.000
G1 X101.711 Y118.525
G1 Z0.200
G1 E0.80000 F2100.00000
G1 F1200.000
G1 X101.157 Y118.579 E0.01746
G1 X100.603 Y118.525 E0.01746
G1 X100.070 Y118.363 E0.01746
G1 X99.579 Y118.100 E0.01746
G1 X99.148 Y117.747 E0.01746
G1 X98.795 Y117.317 E0.01746
G1 X98.533 Y116.826 E0.01746
G1 X98.371 Y116.293 E0.01746
G1 X98.317 Y115.739 E0.01746
G1 X98.371 Y115.185 E0.01746
G1 X98.533 Y114.652 E0.01746
G1 X98.795 Y114.161 E0.01746
G1 X99.148 Y113.731 E0.01746
G1 X99.579 Y113.378 E0.01746
G1 X100.070 Y113.115 E0.01746
G1 X100.603 Y112.954 E0.01746
G1 X101.132 Y112.902 E0.01668
G1 X101.708 Y112.953 E0.01813
G1 X102.243 Y113.115 E0.01754
G1 X102.734 Y113.378 E0.01746
G1 X103.165 Y113.731 E0.01746
G1 X103.518 Y114.161 E0.01746
G1 X103.780 Y114.652 E0.01746
G1 X103.942 Y115.185 E0.01746
G1 X103.996 Y115.739 E0.01746
G1 X103.942 Y116.293 E0.01746
G1 X103.780 Y116.826 E0.01746
G1 X103.518 Y117.317 E0.01746
G1 X103.165 Y117.747 E0.01746
G1 X102.734 Y118.100 E0.01746
G1 X102.243 Y118.363 E0.01746
G1 X101.768 Y118.507 E0.01557
G1 X101.637 Y118.153 F10800.000
G1 F1200.000
G1 X101.157 Y118.200 E0.01513
G1 X100.676 Y118.153 E0.01513
G1 X100.215 Y118.013 E0.01513
G1 X99.789 Y117.785 E0.01513
G1 X99.416 Y117.479 E0.01513
G1 X99.110 Y117.106 E0.01513
G1 X98.883 Y116.681 E0.01513
G1 X98.743 Y116.219 E0.01513
G1 X98.696 Y115.739 E0.01513
G1 X98.743 Y115.259 E0.01513
G1 X98.883 Y114.797 E0.01513
G1 X99.110 Y114.372 E0.01513
G1 X99.416 Y113.999 E0.01513
G1 X99.789 Y113.693 E0.01513
G1 X100.215 Y113.465 E0.01513
G1 X100.676 Y113.325 E0.01513
G1 X101.134 Y113.280 E0.01441
G1 X101.636 Y113.325 E0.01580
G1 X102.098 Y113.465 E0.01516
G1 X102.524 Y113.693 E0.01513
G1 X102.897 Y113.999 E0.01513
G1 X103.203 Y114.372 E0.01513
G1 X103.430 Y114.797 E0.01513
G1 X103.570 Y115.259 E0.01513
G1 X103.618 Y115.739 E0.01513
G1 X103.570 Y116.219 E0.01513
G1 X103.430 Y116.681 E0.01513
G1 X103.203 Y117.106 E0.01513
G1 X102.897 Y117.479 E0.01513
G1 X102.524 Y117.785 E0.01513
G1 X102.098 Y118.013 E0.01513
G1 X101.694 Y118.135 E0.01325
G1 X101.508 Y118.532 F10800.000
G1 E-0.80000 F2100.00000
G1 Z0.800 F10800.000
G1 X125.010 Y120.230
G1 Z0.200
G1 E0.80000 F2100.00000
G1 F1200.000
G1 X70.647 Y120.230 E1.70453
G1 X69.411 Y120.034 E0.03923
G1 X68.338 Y119.487 E0.03777
G1 X67.486 Y118.636 E0.03777
G1 X66.939 Y117.563 E0.03777
G1 X66.744 Y116.327 E0.03923
G1 X66.744 Y115.305 E0.03205
G1 X66.939 Y114.069 E0.03923
G1 X67.486 Y112.996 E0.03777
G1 X68.338 Y112.144 E0.03777
G1 X69.411 Y111.597 E0.03777
G1 X70.647 Y111.401 E0.03923
G1 X180.658 Y111.401 E3.44932
G1 X180.658 Y120.230 E0.27682
G1 X125.070 Y120.230 E1.74292
G1 X125.010 Y120.607 F10800.000
G1 F1200.000
G1 X70.617 Y120.607 E1.70546
G1 X69.293 Y120.397 E0.04204
G1 X68.113 Y119.796 E0.04151
G1 X67.177 Y118.860 E0.04151
G1 X66.576 Y117.681 E0.04151
G1 X66.367 Y116.356 E0.04204
G1 X66.367 Y115.275 E0.03391
G1 X66.576 Y113.951 E0.04204
G1 X67.177 Y112.771 E0.04151
G1 X68.113 Y111.835 E0.04151
G1 X69.293 Y111.234 E0.04151
G1 X70.617 Y111.024 E0.04204
G1 X181.035 Y111.024 E3.46208
G1 X181.035 Y120.607 E0.30046
G1 X125.070 Y120.607 E1.75474
G1 X124.791 Y120.273 F10800.000
G1 E-0.80000 F2100.00000
G1 Z0.800 F10800.000
G1 X120.604 Y120.117
G1 Z0.200
G1 E0.80000 F2100.00000
G1 F1200.000
G1 X115.453 Y114.966 E0.22857
G1 X115.530 Y115.219 E0.00827
G1 X115.569 Y115.616 E0.01252
G1 X119.900 Y119.947 E0.19222
G1 X119.366 Y119.947 E0.01675
G1 X115.557 Y116.137 E0.16907
G1 X115.530 Y116.412 E0.00867
G1 X115.476 Y116.590 E0.00583
G1 X118.833 Y119.947 E0.14898
G1 X118.299 Y119.947 E0.01675
G1 X115.351 Y117.000 E0.13081
G1 X115.305 Y117.151 E0.00498
G1 X115.188 Y117.370 E0.00779
G1 X117.765 Y119.947 E0.11436
G1 X117.232 Y119.947 E0.01675
G1 X115.002 Y117.718 E0.09893
G1 X114.771 Y118.020 E0.01195
G1 X116.698 Y119.947 E0.08552
G1 X116.164 Y119.947 E0.01675
G1 X114.525 Y118.308 E0.07275
G1 X114.232 Y118.549 E0.01190
G1 X115.630 Y119.947 E0.06207
G1 X115.097 Y119.947 E0.01675
G1 X113.918 Y118.769 E0.05229
G1 X113.571 Y118.955 E0.01238
G1 X114.563 Y119.947 E0.04404
G1 X114.029 Y119.947 E0.01675
G1 X113.181 Y119.099 E0.03765
G1 X112.771 Y119.223 E0.01343
G1 X113.496 Y119.947 E0.03214
G1 X112.962 Y119.947 E0.01675
G1 X112.300 Y119.285 E0.02939
G1 X112.089 Y119.306 E0.00664
G1 X111.754 Y119.273 E0.01058
G1 X112.428 Y119.947 E0.02994
G1 X111.895 Y119.947 E0.01675
G1 X110.813 Y118.866 E0.04800
G1 E-0.80000 F2100.00000
G1 Z0.800 F10800.000
G1 X111.531 Y120.117
G1 Z0.200
G1 E0.80000 F2100.00000
G1 F1200.000
G1 X103.098 Y111.684 E0.37423
G1 X102.564 Y111.684 E0.01675
G1 X110.827 Y119.947 E0.36670
G1 X110.293 Y119.947 E0.01675
G1 X102.030 Y111.684 E0.36670
G1 X101.497 Y111.684 E0.01675
G1 X109.760 Y119.947 E0.36670
G1 X109.226 Y119.947 E0.01675
G1 X104.139 Y114.860 E0.22576
G1 X104.221 Y115.130 E0.00884
G1 X104.258 Y115.513 E0.01210
G1 X108.692 Y119.947 E0.19677
G1 X108.159 Y119.947 E0.01675
G1 X104.251 Y116.040 E0.17341
G1 X104.221 Y116.349 E0.00974
G1 X104.175 Y116.498 E0.00489
G1 X107.625 Y119.947 E0.15308
G1 X107.091 Y119.947 E0.01675
G1 X104.051 Y116.907 E0.13491
G1 X103.869 Y117.259 E0.01243
G1 X106.557 Y119.947 E0.11929
G1 X106.024 Y119.947 E0.01675
G1 X103.663 Y117.586 E0.10478
G1 X103.422 Y117.879 E0.01190
G1 X105.490 Y119.947 E0.09177
G1 X104.956 Y119.947 E0.01675
G1 X103.141 Y118.132 E0.08055
G1 X102.840 Y118.365 E0.01194
G1 X104.423 Y119.947 E0.07023
G1 X103.889 Y119.947 E0.01675
G1 X102.492 Y118.551 E0.06198
G1 X102.352 Y118.625 E0.00499
G1 X102.108 Y118.700 E0.00802
G1 X103.355 Y119.947 E0.05537
G1 X102.821 Y119.947 E0.01675
G1 X101.685 Y118.811 E0.05042
G1 X101.200 Y118.859 E0.01532
G1 X102.288 Y119.947 E0.04829
G1 X101.754 Y119.947 E0.01675
G1 X100.617 Y118.810 E0.05047
G1 X99.961 Y118.625 E0.02138
G1 X99.827 Y118.554 E0.00478
G1 X101.220 Y119.947 E0.06184
G1 X100.687 Y119.947 E0.01675
G1 X92.424 Y111.684 E0.36670
G1 X92.957 Y111.684 E0.01675
G1 X98.342 Y117.069 E0.23897
G1 X98.270 Y116.935 E0.00478
G1 X98.086 Y116.279 E0.02138
G1 X93.491 Y111.684 E0.20390
G1 X94.025 Y111.684 E0.01675
G1 X98.037 Y115.696 E0.17805
G1 X98.085 Y115.210 E0.01532
G1 X94.558 Y111.684 E0.15649
G1 X95.092 Y111.684 E0.01675
G1 X98.196 Y114.788 E0.13775
G1 X98.270 Y114.544 E0.00802
G1 X98.345 Y114.404 E0.00499
G1 X95.626 Y111.684 E0.12068
G1 X96.160 Y111.684 E0.01675
G1 X98.531 Y114.056 E0.10525
G1 X98.763 Y113.754 E0.01194
G1 X96.693 Y111.684 E0.09187
G1 X97.227 Y111.684 E0.01675
G1 X99.016 Y113.474 E0.07941
G1 X99.309 Y113.233 E0.01190
G1 X97.761 Y111.684 E0.06874
G1 X98.294 Y111.684 E0.01675
G1 X99.637 Y113.026 E0.05956
G1 X99.988 Y112.845 E0.01243
G1 X98.828 Y111.684 E0.05150
G1 X99.362 Y111.684 E0.01675
G1 X100.398 Y112.720 E0.04598
G1 X100.547 Y112.675 E0.00489
G1 X100.856 Y112.645 E0.00974
G1 X99.895 Y111.684 E0.04263
G1 X100.429 Y111.684 E0.01675
G1 X101.385 Y112.640 E0.04243
G1 X101.762 Y112.674 E0.01187
G1 X102.036 Y112.757 E0.00897
G1 X100.793 Y111.514 E0.05514
G1 E-0.80000 F2100.00000
G1 Z0.800 F10800.000
G1 X100.323 Y120.117
G1 Z0.200
G1 E0.80000 F2100.00000
G1 F1200.000
G1 X91.890 Y111.684 E0.37423
G1 X91.356 Y111.684 E0.01675
G1 X99.619 Y119.947 E0.36670
G1 X99.086 Y119.947 E0.01675
G1 X90.822 Y111.684 E0.36670
G1 X90.289 Y111.684 E0.01675
G1 X98.552 Y119.947 E0.36670
G1 X98.018 Y119.947 E0.01675
G1 X89.755 Y111.684 E0.36670
G1 X89.221 Y111.684 E0.01675
G1 X97.484 Y119.947 E0.36670
G1 X96.951 Y119.947 E0.01675
G1 X88.688 Y111.684 E0.36670
G1 X88.154 Y111.684 E0.01675
G1 X96.417 Y119.947 E0.36670
G1 X95.883 Y119.947 E0.01675
G1 X87.620 Y111.684 E0.36670
G1 X87.086 Y111.684 E0.01675
G1 X95.350 Y119.947 E0.36670
G1 X94.816 Y119.947 E0.01675
G1 X86.553 Y111.684 E0.36670
G1 X86.019 Y111.684 E0.01675
G1 X94.282 Y119.947 E0.36670
G1 X93.748 Y119.947 E0.01675
G1 X85.485 Y111.684 E0.36670
G1 X84.952 Y111.684 E0.01675
G1 X93.215 Y119.947 E0.36670
G1 X92.681 Y119.947 E0.01675
G1 X84.418 Y111.684 E0.36670
G1 X83.884 Y111.684 E0.01675
G1 X92.147 Y119.947 E0.36670
G1 X91.614 Y119.947 E0.01675
G1 X83.350 Y111.684 E0.36670
G1 X82.817 Y111.684 E0.01675
G1 X91.080 Y119.947 E0.36670
G1 X90.546 Y119.947 E0.01675
G1 X82.283 Y111.684 E0.36670
G1 X81.749 Y111.684 E0.01675
G1 X90.012 Y119.947 E0.36670
G1 X89.479 Y119.947 E0.01675
G1 X81.216 Y111.684 E0.36670
G1 X80.682 Y111.684 E0.01675
G1 X88.945 Y119.947 E0.36670
M73 Q2 S51
G1 X88.411 Y119.947 E0.01675
G1 X80.148 Y111.684 E0.36670
M73 P2 R51
G1 X79.615 Y111.684 E0.01675
G1 X87.878 Y119.947 E0.36670
G1 X87.344 Y119.947 E0.01675
G1 X79.081 Y111.684 E0.36670
G1 X78.547 Y111.684 E0.01675
G1 X86.810 Y119.947 E0.36670
G1 X86.277 Y119.947 E0.01675
G1 X78.013 Y111.684 E0.36670
G1 X77.480 Y111.684 E0.01675
G1 X85.743 Y119.947 E0.36670
G1 X85.209 Y119.947 E0.01675
G1 X76.946 Y111.684 E0.36670
G1 X76.412 Y111.684 E0.01675
G1 X84.675 Y119.947 E0.36670
G1 X84.142 Y119.947 E0.01675
G1 X75.879 Y111.684 E0.36670
G1 X75.345 Y111.684 E0.01675
G1 X83.608 Y119.947 E0.36670
G1 X83.074 Y119.947 E0.01675
G1 X74.811 Y111.684 E0.36670
G1 X74.277 Y111.684 E0.01675
G1 X82.541 Y119.947 E0.36670
G1 X82.007 Y119.947 E0.01675
G1 X73.744 Y111.684 E0.36670
G1 X73.210 Y111.684 E0.01675
G1 X81.473 Y119.947 E0.36670
G1 X80.939 Y119.947 E0.01675
G1 X72.676 Y111.684 E0.36670
G1 X72.143 Y111.684 E0.01675
G1 X80.406 Y119.947 E0.36670
G1 X79.872 Y119.947 E0.01675
G1 X71.609 Y111.684 E0.36670
G1 X71.075 Y111.684 E0.01675
G1 X79.338 Y119.947 E0.36670
G1 X78.805 Y119.947 E0.01675
G1 X70.559 Y111.702 E0.36593
G1 X70.098 Y111.775 E0.01464
G1 X78.271 Y119.947 E0.36269
G1 X77.737 Y119.947 E0.01675
G1 X69.637 Y111.848 E0.35945
G1 X69.500 Y111.869 E0.00438
G1 X69.252 Y111.996 E0.00872
G1 X77.203 Y119.947 E0.35288
G1 X76.670 Y119.947 E0.01675
G1 X68.898 Y112.176 E0.34488
G1 X68.545 Y112.356 E0.01245
G1 X76.136 Y119.947 E0.33689
G1 X75.602 Y119.947 E0.01675
G1 X68.268 Y112.613 E0.32547
G1 X68.002 Y112.880 E0.01184
G1 X75.069 Y119.947 E0.31362
G1 X74.535 Y119.947 E0.01675
G1 X67.735 Y113.147 E0.30178
G1 X67.549 Y113.495 E0.01238
G1 X74.001 Y119.947 E0.28633
G1 X73.468 Y119.947 E0.01675
G1 X67.369 Y113.849 E0.27064
G1 X67.212 Y114.157 E0.01087
G1 X67.202 Y114.216 E0.00186
G1 X72.934 Y119.947 E0.25435
G1 X72.400 Y119.947 E0.01675
G1 X67.129 Y114.677 E0.23390
G1 X67.056 Y115.137 E0.01464
G1 X71.866 Y119.947 E0.21346
G1 X71.333 Y119.947 E0.01675
G1 X67.026 Y115.641 E0.19110
G1 X67.026 Y116.175 E0.01675
G1 X70.799 Y119.947 E0.16742
G1 X70.669 Y119.947 E0.00407
G1 X70.189 Y119.871 E0.01525
G1 X67.102 Y116.784 E0.13699
G1 X67.203 Y117.419 E0.02015
G1 X69.555 Y119.771 E0.10439
G1 X69.500 Y119.762 E0.00176
G1 X68.507 Y119.256 E0.03497
G1 X67.329 Y118.079 E0.05225
G1 E-0.80000 F2100.00000
G1 Z0.800 F10800.000
G1 X109.029 Y117.082
G1 Z0.200
G1 E0.80000 F2100.00000
G1 F1200.000
G1 X103.631 Y111.684 E0.23953
G1 X104.165 Y111.684 E0.01675
G1 X108.622 Y116.141 E0.19778
G1 X108.590 Y115.815 E0.01026
G1 X108.611 Y115.597 E0.00690
G1 X104.699 Y111.684 E0.17363
G1 X105.233 Y111.684 E0.01675
G1 X108.676 Y115.128 E0.15282
G1 X108.800 Y114.718 E0.01343
G1 X105.766 Y111.684 E0.13465
G1 X106.300 Y111.684 E0.01675
G1 X108.952 Y114.336 E0.11770
G1 X109.138 Y113.989 E0.01238
G1 X106.834 Y111.684 E0.10227
G1 X107.367 Y111.684 E0.01675
G1 X109.359 Y113.675 E0.08836
G1 X109.599 Y113.382 E0.01190
G1 X107.901 Y111.684 E0.07535
G1 X108.435 Y111.684 E0.01675
G1 X109.887 Y113.136 E0.06444
G1 X110.189 Y112.905 E0.01195
G1 X108.969 Y111.684 E0.05416
G1 X109.502 Y111.684 E0.01675
G1 X110.537 Y112.719 E0.04591
G1 X110.756 Y112.602 E0.00779
G1 X110.907 Y112.556 E0.00498
G1 X110.036 Y111.684 E0.03868
G1 X110.570 Y111.684 E0.01675
G1 X111.317 Y112.431 E0.03316
G1 X111.488 Y112.380 E0.00560
G1 X111.771 Y112.352 E0.00893
G1 X111.103 Y111.684 E0.02963
G1 X111.637 Y111.684 E0.01675
G1 X112.296 Y112.343 E0.02923
G1 X112.688 Y112.379 E0.01236
G1 X112.943 Y112.456 E0.00836
G1 X112.171 Y111.684 E0.03426
G1 X112.704 Y111.684 E0.01675
G1 X120.968 Y119.947 E0.36670
G1 X121.501 Y119.947 E0.01675
G1 X113.238 Y111.684 E0.36670
G1 X113.772 Y111.684 E0.01675
G1 X122.035 Y119.947 E0.36670
G1 X122.569 Y119.947 E0.01675
G1 X114.306 Y111.684 E0.36670
G1 X114.839 Y111.684 E0.01675
G1 X123.102 Y119.947 E0.36670
G1 X123.636 Y119.947 E0.01675
G1 X115.373 Y111.684 E0.36670
G1 X115.907 Y111.684 E0.01675
G1 X124.170 Y119.947 E0.36670
G1 X124.704 Y119.947 E0.01675
G1 X116.440 Y111.684 E0.36670
G1 X116.974 Y111.684 E0.01675
G1 X125.237 Y119.947 E0.36670
G1 X125.771 Y119.947 E0.01675
G1 X117.508 Y111.684 E0.36670
G1 X118.042 Y111.684 E0.01675
G1 X126.305 Y119.947 E0.36670
