; generated by PrusaSlicer 2.2.0+win64 on 2020-10-06 at 18:10:16 UTC

; 

; external perimeters extrusion width = 0.45mm
; perimeters extrusion width = 0.45mm
; infill extrusion width = 0.45mm
; solid infill extrusion width = 0.45mm
; top infill extrusion width = 0.40mm
; first layer extrusion width = 0.42mm

M73 P0 R183
M73 Q0 S185
M201 X1000 Y1000 Z1000 E5000 ; sets maximum accelerations, mm/sec^2
M203 X200 Y200 Z12 E120 ; sets maximum feedrates, mm/sec
M204 P1250 R1250 T1250 ; sets acceleration (P, T) and retract acceleration (R), mm/sec^2
M205 X8.00 Y8.00 Z0.40 E1.50 ; sets the jerk limits, mm/sec
M205 S0 T0 ; sets the minimum extruding and travel feed rate, mm/sec
M107
M862.3 P "MK3S" ; printer model check
M862.1 P0.4 ; nozzle diameter check
M115 U3.8.0 ; tell printer latest fw version
G90 ; use absolute coordinates
M83 ; extruder relative mode
M104 S215 ; set extruder temp
M140 S60 ; set bed temp
M190 S60 ; wait for bed temp
M109 S215 ; wait for extruder temp
G28 W ; home all without mesh bed level
G80 ; mesh bed leveling
G1 Y-3.0 F1000.0 ; go outside print area
G92 E0.0
G1 X60.0 E9.0 F1000.0 ; intro line
M73 Q0 S185
M73 P0 R183
G1 X100.0 E12.5 F1000.0 ; intro line
G92 E0.0
M221 S95
G21 ; set units to millimeters
G90 ; use absolute coordinates
M83 ; use relative distances for extrusion
M900 K0.06 ; Filament gcode LA 1.5
M900 K30 ; Filament gcode LA 1.0
;BEFORE_LAYER_CHANGE
G92 E0.0
;0.2


G1 E-0.80000 F2100.00000
G1 Z0.600 F10800.000
;AFTER_LAYER_CHANGE
;0.2
G1 X111.826 Y181.955
G1 Z0.200
G1 E0.80000 F2100.00000
M204 S1000
G1 F1200.000
G1 X111.521 Y182.526 E0.02033
G1 X111.141 Y182.989 E0.01876
G1 X110.679 Y183.368 E0.01876
G1 X110.142 Y183.655 E0.01907
G1 X109.437 Y183.869 E0.02311
G1 X108.888 Y183.923 E0.01730
G1 X108.339 Y183.869 E0.01730
G1 X107.634 Y183.655 E0.02311
G1 X107.098 Y183.368 E0.01907
G1 X106.635 Y182.989 E0.01876
G1 X106.256 Y182.526 E0.01876
G1 X105.950 Y181.955 E0.02033
G1 X105.743 Y181.272 E0.02235
G1 X105.690 Y180.734 E0.01697
G1 X105.743 Y180.195 E0.01697
G1 X105.946 Y179.526 E0.02194
G1 X106.256 Y178.946 E0.02061
G1 X106.636 Y178.484 E0.01876
G1 X107.099 Y178.104 E0.01876
G1 X107.670 Y177.798 E0.02032
G1 X108.345 Y177.594 E0.02212
G1 X108.872 Y177.542 E0.01660
G1 X109.430 Y177.593 E0.01755
G1 X110.106 Y177.798 E0.02218
G1 X110.678 Y178.104 E0.02032
G1 X111.141 Y178.484 E0.01876
G1 X111.520 Y178.946 E0.01876
G1 X111.830 Y179.526 E0.02061
G1 X112.033 Y180.195 E0.02194
G1 X112.086 Y180.734 E0.01697
G1 X112.033 Y181.272 E0.01697
G1 X111.844 Y181.897 E0.02047
G1 E-0.80000 F2100.00000
G1 Z0.800 F10800.000
G1 X108.888 Y183.544
G1 Z0.200
G1 E0.80000 F2100.00000
G1 F1200.000
G1 X108.413 Y183.497 E0.01497
G1 X107.779 Y183.305 E0.02078
G1 X107.308 Y183.053 E0.01674
G1 X106.903 Y182.721 E0.01643
G1 X106.571 Y182.316 E0.01643
G1 X106.300 Y181.810 E0.01800
G1 X106.115 Y181.199 E0.02002
G1 X106.069 Y180.734 E0.01464
G1 X106.115 Y180.269 E0.01464
G1 X106.297 Y179.671 E0.01961
G1 X106.571 Y179.157 E0.01828
G1 X106.904 Y178.751 E0.01643
G1 X107.309 Y178.419 E0.01643
G1 X107.815 Y178.149 E0.01799
G1 X108.419 Y177.965 E0.01979
G1 X108.873 Y177.921 E0.01431
G1 X109.357 Y177.965 E0.01522
G1 X109.961 Y178.149 E0.01981
G1 X110.467 Y178.419 E0.01799
G1 X110.873 Y178.751 E0.01643
G1 X111.205 Y179.157 E0.01643
G1 X111.480 Y179.671 E0.01828
G1 X111.662 Y180.269 E0.01961
G1 X111.707 Y180.734 E0.01464
G1 X111.662 Y181.199 E0.01464
G1 X111.476 Y181.810 E0.02002
G1 X111.206 Y182.316 E0.01800
G1 X110.873 Y182.721 E0.01643
G1 X110.468 Y183.053 E0.01643
G1 X109.997 Y183.305 E0.01674
G1 X109.363 Y183.497 E0.02078
G1 X108.948 Y183.538 E0.01309
G1 X108.690 Y183.891 F10800.000
G1 E-0.80000 F2100.00000
G1 Z0.800 F10800.000
G1 X98.510 Y183.419
G1 Z0.200
G1 E0.80000 F2100.00000
G1 F1200.000
G1 X97.956 Y183.473 E0.01746
G1 X97.402 Y183.419 E0.01746
G1 X96.869 Y183.257 E0.01746
G1 X96.378 Y182.995 E0.01746
G1 X95.948 Y182.642 E0.01746
G1 X95.594 Y182.211 E0.01746
G1 X95.332 Y181.720 E0.01746
G1 X95.170 Y181.187 E0.01746
G1 X95.116 Y180.633 E0.01746
G1 X95.170 Y180.079 E0.01746
G1 X95.332 Y179.547 E0.01746
G1 X95.594 Y179.056 E0.01746
G1 X95.948 Y178.625 E0.01746
G1 X96.378 Y178.272 E0.01746
G1 X96.869 Y178.010 E0.01746
G1 X97.402 Y177.848 E0.01746
G1 X97.931 Y177.796 E0.01668
G1 X98.507 Y177.847 E0.01813
G1 X99.043 Y178.010 E0.01754
G1 X99.534 Y178.272 E0.01746
G1 X99.964 Y178.625 E0.01746
G1 X100.317 Y179.056 E0.01746
G1 X100.580 Y179.547 E0.01746
G1 X100.741 Y180.079 E0.01746
G1 X100.796 Y180.633 E0.01746
G1 X100.741 Y181.187 E0.01746
G1 X100.580 Y181.720 E0.01746
G1 X100.317 Y182.211 E0.01746
G1 X99.964 Y182.642 E0.01746
G1 X99.534 Y182.995 E0.01746
G1 X99.043 Y183.257 E0.01746
G1 X98.567 Y183.401 E0.01557
G1 X98.436 Y183.047 F10800.000
G1 F1200.000
G1 X97.956 Y183.094 E0.01513
G1 X97.476 Y183.047 E0.01513
G1 X97.014 Y182.907 E0.01513
G1 X96.588 Y182.680 E0.01513
G1 X96.216 Y182.374 E0.01513
G1 X95.909 Y182.001 E0.01513
G1 X95.682 Y181.575 E0.01513
G1 X95.542 Y181.114 E0.01513
G1 X95.495 Y180.633 E0.01513
G1 X95.542 Y180.153 E0.01513
G1 X95.682 Y179.692 E0.01513
G1 X95.910 Y179.266 E0.01513
G1 X96.216 Y178.893 E0.01513
G1 X96.588 Y178.587 E0.01513
G1 X97.014 Y178.360 E0.01513
G1 X97.476 Y178.220 E0.01513
G1 X97.933 Y178.175 E0.01441
G1 X98.435 Y178.219 E0.01580
G1 X98.898 Y178.360 E0.01516
G1 X99.323 Y178.587 E0.01513
G1 X99.696 Y178.893 E0.01513
G1 X100.002 Y179.266 E0.01513
G1 X100.229 Y179.692 E0.01513
G1 X100.369 Y180.153 E0.01513
G1 X100.417 Y180.633 E0.01513
G1 X100.369 Y181.114 E0.01513
G1 X100.229 Y181.575 E0.01513
G1 X100.002 Y182.001 E0.01513
G1 X99.696 Y182.374 E0.01513
G1 X99.323 Y182.680 E0.01513
G1 X98.898 Y182.907 E0.01513
G1 X98.493 Y183.030 E0.01325
G1 X98.307 Y183.426 F10800.000
G1 E-0.80000 F2100.00000
G1 Z0.800 F10800.000
G1 X125.010 Y185.124
G1 Z0.200
G1 E0.80000 F2100.00000
G1 F1200.000
G1 X67.446 Y185.124 E1.80488
G1 X66.210 Y184.929 E0.03923
G1 X65.137 Y184.382 E0.03777
G1 X64.285 Y183.530 E0.03777
G1 X63.739 Y182.457 E0.03777
G1 X63.543 Y181.221 E0.03923
G1 X63.543 Y180.199 E0.03205
G1 X63.739 Y178.963 E0.03923
G1 X64.285 Y177.890 E0.03777
G1 X65.137 Y177.038 E0.03777
G1 X66.210 Y176.491 E0.03777
G1 X67.446 Y176.296 E0.03923
G1 X183.857 Y176.296 E3.64999
G1 X183.857 Y185.124 E0.27682
G1 X125.070 Y185.124 E1.84322
G1 X125.010 Y185.501 F10800.000
G1 F1200.000
G1 X67.416 Y185.501 E1.80581
G1 X66.092 Y185.292 E0.04204
G1 X64.913 Y184.691 E0.04151
G1 X63.977 Y183.754 E0.04151
G1 X63.375 Y182.575 E0.04151
G1 X63.166 Y181.251 E0.04204
G1 X63.166 Y180.169 E0.03391
G1 X63.375 Y178.845 E0.04204
G1 X63.977 Y177.665 E0.04151
G1 X64.913 Y176.729 E0.04151
G1 X66.092 Y176.128 E0.04151
G1 X67.416 Y175.918 E0.04204
G1 X184.234 Y175.918 E3.66274
G1 X184.234 Y185.501 E0.30046
G1 X125.070 Y185.501 E1.85505
G1 X124.792 Y185.166 F10800.000
G1 E-0.80000 F2100.00000
G1 Z0.800 F10800.000
G1 X117.401 Y185.011
G1 Z0.200
G1 E0.80000 F2100.00000
G1 F1200.000
G1 X112.217 Y179.827 E0.23005
G1 X112.312 Y180.140 E0.01026
G1 X112.346 Y180.490 E0.01104
G1 X116.698 Y184.841 E0.19309
G1 X116.164 Y184.841 E0.01675
G1 X112.342 Y181.020 E0.16959
G1 X112.312 Y181.328 E0.00972
G1 X112.266 Y181.478 E0.00491
G1 X115.630 Y184.841 E0.14927
G1 X115.097 Y184.841 E0.01675
G1 X112.142 Y181.887 E0.13110
G1 X112.089 Y182.063 E0.00578
G1 X111.983 Y182.261 E0.00705
G1 X114.563 Y184.841 E0.11449
G1 X114.029 Y184.841 E0.01675
G1 X111.797 Y182.609 E0.09906
G1 X111.757 Y182.684 E0.00267
G1 X111.568 Y182.914 E0.00933
G1 X113.495 Y184.841 E0.08553
G1 X112.962 Y184.841 E0.01675
G1 X111.324 Y183.204 E0.07266
G1 X111.031 Y183.445 E0.01190
G1 X112.428 Y184.841 E0.06198
G1 X111.894 Y184.841 E0.01675
G1 X110.720 Y183.667 E0.05212
G1 X110.372 Y183.853 E0.01237
G1 X111.361 Y184.841 E0.04387
G1 X110.827 Y184.841 E0.01675
G1 X109.984 Y183.998 E0.03741
G1 X109.575 Y184.123 E0.01343
G1 X110.293 Y184.841 E0.03190
G1 X109.760 Y184.841 E0.01675
G1 X109.104 Y184.186 E0.02910
G1 X108.888 Y184.207 E0.00680
G1 X108.559 Y184.175 E0.01038
G1 X109.226 Y184.841 E0.02959
G1 X108.692 Y184.841 E0.01675
G1 X107.620 Y183.769 E0.04761
G1 E-0.80000 F2100.00000
G1 Z0.800 F10800.000
G1 X108.328 Y185.011
G1 Z0.200
G1 E0.80000 F2100.00000
G1 F1200.000
G1 X99.895 Y176.578 E0.37422
G1 X99.362 Y176.578 E0.01675
G1 X107.625 Y184.841 E0.36669
G1 X107.091 Y184.841 E0.01675
G1 X98.828 Y176.578 E0.36669
G1 X98.294 Y176.578 E0.01675
G1 X106.558 Y184.841 E0.36669
G1 X106.024 Y184.841 E0.01675
G1 X100.939 Y179.756 E0.22566
G1 X101.020 Y180.024 E0.00878
G1 X101.058 Y180.409 E0.01214
G1 X105.490 Y184.841 E0.19669
G1 X104.956 Y184.841 E0.01675
G1 X101.050 Y180.935 E0.17335
G1 X101.020 Y181.243 E0.00970
G1 X100.974 Y181.393 E0.00492
G1 X104.423 Y184.841 E0.15303
G1 X103.889 Y184.841 E0.01675
G1 X100.850 Y181.802 E0.13486
G1 X100.668 Y182.154 E0.01243
G1 X103.355 Y184.841 E0.11925
G1 X102.822 Y184.841 E0.01675
G1 X100.461 Y182.481 E0.10474
G1 X100.221 Y182.774 E0.01190
G1 X102.288 Y184.841 E0.09174
G1 X101.754 Y184.841 E0.01675
G1 X99.940 Y183.027 E0.08052
G1 X99.638 Y183.259 E0.01194
G1 X101.221 Y184.841 E0.07021
G1 X100.687 Y184.841 E0.01675
G1 X99.291 Y183.445 E0.06196
G1 X99.151 Y183.520 E0.00496
G1 X98.906 Y183.594 E0.00805
G1 X100.153 Y184.841 E0.05535
G1 X99.620 Y184.841 E0.01675
G1 X98.484 Y183.705 E0.05041
G1 X97.998 Y183.753 E0.01532
G1 X99.086 Y184.841 E0.04829
G1 X98.552 Y184.841 E0.01675
G1 X97.415 Y183.704 E0.05047
G1 X96.760 Y183.520 E0.02134
G1 X96.624 Y183.447 E0.00486
G1 X98.019 Y184.841 E0.06189
G1 X97.485 Y184.841 E0.01675
G1 X89.222 Y176.578 E0.36669
G1 X89.755 Y176.578 E0.01675
G1 X95.142 Y181.965 E0.23906
G1 X95.069 Y181.829 E0.00486
G1 X94.885 Y181.174 E0.02134
G1 X90.289 Y176.578 E0.20395
G1 X90.823 Y176.578 E0.01675
G1 X94.836 Y180.591 E0.17808
G1 X94.884 Y180.106 E0.01532
G1 X91.356 Y176.578 E0.15652
G1 X91.890 Y176.578 E0.01675
G1 X94.995 Y179.683 E0.13778
G1 X95.069 Y179.438 E0.00805
G1 X95.144 Y179.298 E0.00496
G1 X92.424 Y176.578 E0.12071
G1 X92.958 Y176.578 E0.01675
G1 X95.330 Y178.951 E0.10528
G1 X95.562 Y178.649 E0.01194
G1 X93.491 Y176.578 E0.09190
G1 X94.025 Y176.578 E0.01675
G1 X95.815 Y178.368 E0.07943
G1 X96.108 Y178.128 E0.01190
G1 X94.559 Y176.578 E0.06876
G1 X95.092 Y176.578 E0.01675
G1 X96.435 Y177.921 E0.05958
G1 X96.787 Y177.739 E0.01243
G1 X95.626 Y176.578 E0.05151
G1 X96.160 Y176.578 E0.01675
G1 X97.196 Y177.615 E0.04600
G1 X97.346 Y177.569 E0.00492
G1 X97.654 Y177.539 E0.00970
G1 X96.693 Y176.578 E0.04263
G1 X97.227 Y176.578 E0.01675
G1 X98.183 Y177.534 E0.04243
G1 X98.561 Y177.568 E0.01192
G1 X98.833 Y177.651 E0.00890
G1 X97.591 Y176.409 E0.05511
G1 E-0.80000 F2100.00000
G1 Z0.800 F10800.000
G1 X97.121 Y185.011
G1 Z0.200
G1 E0.80000 F2100.00000
G1 F1200.000
G1 X88.688 Y176.578 E0.37422
G1 X88.154 Y176.578 E0.01675
G1 X96.417 Y184.841 E0.36669
G1 X95.884 Y184.841 E0.01675
G1 X87.621 Y176.578 E0.36669
G1 X87.087 Y176.578 E0.01675
G1 X95.350 Y184.841 E0.36669
G1 X94.816 Y184.841 E0.01675
G1 X86.553 Y176.578 E0.36669
G1 X86.020 Y176.578 E0.01675
G1 X94.283 Y184.841 E0.36669
G1 X93.749 Y184.841 E0.01675
G1 X85.486 Y176.578 E0.36669
G1 X84.952 Y176.578 E0.01675
G1 X93.215 Y184.841 E0.36669
G1 X92.682 Y184.841 E0.01675
G1 X84.419 Y176.578 E0.36669
G1 X83.885 Y176.578 E0.01675
G1 X92.148 Y184.841 E0.36669
G1 X91.614 Y184.841 E0.01675
G1 X83.351 Y176.578 E0.36669
G1 X82.817 Y176.578 E0.01675
G1 X91.081 Y184.841 E0.36669
G1 X90.547 Y184.841 E0.01675
G1 X82.284 Y176.578 E0.36669
G1 X81.750 Y176.578 E0.01675
G1 X90.013 Y184.841 E0.36669
G1 X89.479 Y184.841 E0.01675
G1 X81.216 Y176.578 E0.36669
G1 X80.683 Y176.578 E0.01675
G1 X88.946 Y184.841 E0.36669
G1 X88.412 Y184.841 E0.01675
G1 X80.149 Y176.578 E0.36669
G1 X79.615 Y176.578 E0.01675
G1 X87.878 Y184.841 E0.36669
M73 Q0 S184
G1 X87.345 Y184.841 E0.01675
G1 X79.082 Y176.578 E0.36669
M73 P0 R182
G1 X78.548 Y176.578 E0.01675
G1 X86.811 Y184.841 E0.36669
G1 X86.277 Y184.841 E0.01675
G1 X78.014 Y176.578 E0.36669
G1 X77.481 Y176.578 E0.01675
G1 X85.744 Y184.841 E0.36669
G1 X85.210 Y184.841 E0.01675
G1 X76.947 Y176.578 E0.36669
G1 X76.413 Y176.578 E0.01675
G1 X84.676 Y184.841 E0.36669
G1 X84.143 Y184.841 E0.01675
G1 X75.879 Y176.578 E0.36669
G1 X75.346 Y176.578 E0.01675
G1 X83.609 Y184.841 E0.36669
G1 X83.075 Y184.841 E0.01675
G1 X74.812 Y176.578 E0.36669
G1 X74.278 Y176.578 E0.01675
G1 X82.542 Y184.841 E0.36669
G1 X82.008 Y184.841 E0.01675
G1 X73.745 Y176.578 E0.36669
G1 X73.211 Y176.578 E0.01675
G1 X81.474 Y184.841 E0.36669
G1 X80.940 Y184.841 E0.01675
G1 X72.677 Y176.578 E0.36669
G1 X72.144 Y176.578 E0.01675
G1 X80.407 Y184.841 E0.36669
G1 X79.873 Y184.841 E0.01675
G1 X71.610 Y176.578 E0.36669
G1 X71.076 Y176.578 E0.01675
G1 X79.339 Y184.841 E0.36669
G1 X78.806 Y184.841 E0.01675
G1 X70.543 Y176.578 E0.36669
G1 X70.009 Y176.578 E0.01675
G1 X78.272 Y184.841 E0.36669
G1 X77.738 Y184.841 E0.01675
G1 X69.475 Y176.578 E0.36669
G1 X68.942 Y176.578 E0.01675
G1 X77.205 Y184.841 E0.36669
G1 X76.671 Y184.841 E0.01675
G1 X68.408 Y176.578 E0.36669
G1 X67.874 Y176.578 E0.01675
G1 X76.137 Y184.841 E0.36669
G1 X75.604 Y184.841 E0.01675
G1 X67.358 Y176.596 E0.36591
G1 X66.897 Y176.669 E0.01464
G1 X75.070 Y184.841 E0.36267
G1 X74.536 Y184.841 E0.01675
G1 X66.437 Y176.742 E0.35943
G1 X66.299 Y176.764 E0.00438
G1 X66.051 Y176.890 E0.00873
G1 X74.003 Y184.841 E0.35286
G1 X73.469 Y184.841 E0.01675
G1 X65.697 Y177.070 E0.34487
G1 X65.344 Y177.250 E0.01245
G1 X72.935 Y184.841 E0.33687
G1 X72.401 Y184.841 E0.01675
G1 X65.068 Y177.508 E0.32545
G1 X64.801 Y177.774 E0.01184
G1 X71.868 Y184.841 E0.31361
G1 X71.334 Y184.841 E0.01675
G1 X64.534 Y178.041 E0.30177
G1 X64.348 Y178.389 E0.01238
G1 X70.800 Y184.841 E0.28632
G1 X70.267 Y184.841 E0.01675
G1 X64.168 Y178.743 E0.27063
G1 X64.011 Y179.052 E0.01087
G1 X64.002 Y179.110 E0.00186
G1 X69.733 Y184.841 E0.25434
G1 X69.199 Y184.841 E0.01675
G1 X63.929 Y179.571 E0.23389
G1 X63.856 Y180.032 E0.01464
G1 X68.666 Y184.841 E0.21345
G1 X68.132 Y184.841 E0.01675
G1 X63.826 Y180.535 E0.19110
G1 X63.826 Y181.069 E0.01675
G1 X67.598 Y184.841 E0.16741
G1 X67.468 Y184.841 E0.00407
G1 X66.989 Y184.765 E0.01525
G1 X63.902 Y181.679 E0.13699
G1 X64.002 Y182.313 E0.02015
G1 X66.354 Y184.665 E0.10439
G1 X66.299 Y184.656 E0.00177
G1 X65.306 Y184.150 E0.03496
G1 X64.128 Y182.973 E0.05227
G1 E-0.80000 F2100.00000
G1 Z0.800 F10800.000
G1 X105.844 Y181.993
G1 Z0.200
G1 E0.80000 F2100.00000
G1 F1200.000
G1 X100.429 Y176.578 E0.24028
G1 X100.963 Y176.578 E0.01675
G1 X105.438 Y181.053 E0.19857
G1 X105.406 Y180.734 E0.01006
G1 X105.428 Y180.510 E0.00706
G1 X101.497 Y176.578 E0.17447
G1 X102.030 Y176.578 E0.01675
G1 X105.494 Y180.042 E0.15372
G1 X105.618 Y179.633 E0.01343
G1 X102.564 Y176.578 E0.13555
G1 X103.098 Y176.578 E0.01675
G1 X105.772 Y179.253 E0.11867
G1 X105.958 Y178.905 E0.01237
G1 X103.631 Y176.578 E0.10324
G1 X104.165 Y176.578 E0.01675
G1 X106.180 Y178.593 E0.08942
G1 X106.421 Y178.300 E0.01190
G1 X104.699 Y176.578 E0.07641
G1 X105.232 Y176.578 E0.01675
G1 X106.711 Y178.057 E0.06560
G1 X106.941 Y177.868 E0.00934
G1 X107.015 Y177.828 E0.00266
G1 X105.766 Y176.578 E0.05544
G1 X106.300 Y176.578 E0.01675
G1 X107.363 Y177.642 E0.04719
G1 X107.561 Y177.536 E0.00705
G1 X107.738 Y177.482 E0.00578
G1 X106.833 Y176.578 E0.04012
G1 X107.367 Y176.578 E0.01675
G1 X108.147 Y177.358 E0.03461
G1 X108.290 Y177.315 E0.00468
G1 X108.606 Y177.284 E0.00998
G1 X107.901 Y176.578 E0.03130
G1 X108.435 Y176.578 E0.01675
G1 X109.138 Y177.282 E0.03124
G1 X109.484 Y177.314 E0.01089
G1 X109.800 Y177.410 E0.01035
G1 X108.968 Y176.578 E0.03690
G1 X109.502 Y176.578 E0.01675
G1 X117.765 Y184.841 E0.36669
G1 X118.299 Y184.841 E0.01675
G1 X110.036 Y176.578 E0.36669
G1 X110.569 Y176.578 E0.01675
G1 X118.832 Y184.841 E0.36669
G1 X119.366 Y184.841 E0.01675
G1 X111.103 Y176.578 E0.36669
G1 X111.637 Y176.578 E0.01675
G1 X119.900 Y184.841 E0.36669
G1 X120.433 Y184.841 E0.01675
G1 X112.170 Y176.578 E0.36669
G1 X112.704 Y176.578 E0.01675
G1 X120.967 Y184.841 E0.36669
G1 X121.501 Y184.841 E0.01675
G1 X113.238 Y176.578 E0.36669
G1 X113.771 Y176.578 E0.01675
G1 X122.035 Y184.841 E0.36669
G1 X122.568 Y184.841 E0.01675
