; G-Code generated by Simplify3D(R) Version 4.0.0
; Oct 5, 2017 at 4:15:41 PM
; Settings Summary
;   processName,Process1
;   applyToModels,SithLong,SithLong(2),SithLong(3),SithLong(4),SithLong(5),SithLong(6),SithLong(7),SithLong(8)
;   profileName,Prusa Research Original Prusa i3 MK2 (modified)
;   profileVersion,2017-10-04 16:11:36
;   baseProfile,
;   printMaterial,PLA
;   printQuality,Fast
;   printExtruders,
;   extruderName,Primary Extruder
;   extruderToolheadNumber,0
;   extruderDiameter,0.4
;   extruderAutoWidth,0
;   extruderWidth,0.4
;   extrusionMultiplier,1
;   extruderUseRetract,1
;   extruderRetractionDistance,1.5
;   extruderExtraRestartDistance,0
;   extruderRetractionZLift,0
;   extruderRetractionSpeed,1800
;   extruderUseCoasting,1
;   extruderCoastingDistance,0.2
;   extruderUseWipe,1
;   extruderWipeDistance,2
;   primaryExtruder,0
;   layerHeight,0.3
;   topSolidLayers,3
;   bottomSolidLayers,3
;   perimeterOutlines,2
;   printPerimetersInsideOut,0
;   startPointOption,2
;   startPointOriginX,250
;   startPointOriginY,210
;   sequentialIslands,0
;   spiralVaseMode,0
;   firstLayerHeightPercentage,90
;   firstLayerWidthPercentage,150
;   firstLayerUnderspeed,0.5
;   useRaft,0
;   raftExtruder,0
;   raftTopLayers,2
;   raftBaseLayers,1
;   raftOffset,2
;   raftSeparationDistance,0.14
;   raftTopInfill,100
;   aboveRaftSpeedMultiplier,0.3
;   useSkirt,0
;   skirtExtruder,0
;   skirtLayers,1
;   skirtOutlines,1
;   skirtOffset,4
;   usePrimePillar,0
;   primePillarExtruder,999
;   primePillarWidth,12
;   primePillarLocation,7
;   primePillarSpeedMultiplier,1
;   useOozeShield,0
;   oozeShieldExtruder,999
;   oozeShieldOffset,2
;   oozeShieldOutlines,1
;   oozeShieldSidewallShape,1
;   oozeShieldSidewallAngle,30
;   oozeShieldSpeedMultiplier,1
;   infillExtruder,0
;   internalInfillPattern,Rectilinear
;   externalInfillPattern,Rectilinear
;   infillPercentage,15
;   outlineOverlapPercentage,30
;   infillExtrusionWidthPercentage,125
;   minInfillLength,1
;   infillLayerInterval,1
;   internalInfillAngles,45,-45
;   overlapInternalInfillAngles,0
;   externalInfillAngles,45,-45
;   generateSupport,0
;   supportExtruder,0
;   supportInfillPercentage,25
;   supportExtraInflation,0.3
;   supportBaseLayers,0
;   denseSupportExtruder,0
;   denseSupportLayers,0
;   denseSupportInfillPercentage,70
;   supportLayerInterval,1
;   supportHorizontalPartOffset,0.2
;   supportUpperSeparationLayers,1
;   supportLowerSeparationLayers,1
;   supportType,0
;   supportGridSpacing,4
;   maxOverhangAngle,45
;   supportAngles,0
;   temperatureName,Primary Extruder,Heated Bed
;   temperatureNumber,0,0
;   temperatureSetpointCount,1,1
;   temperatureSetpointLayers,1,1
;   temperatureSetpointTemperatures,220,55
;   temperatureStabilizeAtStartup,1,1
;   temperatureHeatedBed,0,1
;   temperatureRelayBetweenLayers,1,1
;   temperatureRelayBetweenLoops,0,0
;   fanLayers,1,2
;   fanSpeeds,0,100
;   blipFanToFullPower,0
;   adjustSpeedForCooling,1
;   minSpeedLayerTime,15
;   minCoolingSpeedSlowdown,40
;   increaseFanForCooling,1
;   minFanLayerTime,45
;   maxCoolingFanSpeed,100
;   increaseFanForBridging,1
;   bridgingFanSpeed,100
;   use5D,1
;   relativeEdistances,0
;   allowEaxisZeroing,1
;   independentExtruderAxes,0
;   includeM10123,0
;   stickySupport,1
;   applyToolheadOffsets,0
;   gcodeXoffset,0
;   gcodeYoffset,0
;   gcodeZoffset,0
;   overrideMachineDefinition,1
;   machineTypeOverride,0
;   strokeXoverride,250
;   strokeYoverride,210
;   strokeZoverride,200
;   originOffsetXoverride,0
;   originOffsetYoverride,0
;   originOffsetZoverride,0
;   homeXdirOverride,-1
;   homeYdirOverride,-1
;   homeZdirOverride,-1
;   flipXoverride,1
;   flipYoverride,-1
;   flipZoverride,1
;   toolheadOffsets,0,0|0,0|0,0|0,0|0,0|0,0
;   overrideFirmwareConfiguration,1
;   firmwareTypeOverride,RepRap (Marlin/Repetier/Sprinter)
;   GPXconfigOverride,r2
;   baudRateOverride,250000
;   overridePrinterModels,1
;   printerModelsOverride
;   startingGcode,M115 U3.0.7 ; use the latest firmware version,G28 W ; home all axes without mesh bed leveling,G80 ; run mesh bed leveling routine,G1 Y-3.0 F1000.0 ; prepare to prime,G92 E0 ; reset extrusion distance,G1 X60.0 E9.0  F1000.0 ; priming,G1 X100.0 E12.5  F1000.0 ; priming
;   layerChangeGcode,
;   retractionGcode,
;   toolChangeGcode,
;   endingGcode,M106 S0 ; turn off cooling fan,M104 S0 ; turn off extruder,M140 S0 ; turn off bed,G1 X0 Y200 ; part removal,M84 ; disable motors
;   exportFileFormat,gcode
;   celebration,0
;   celebrationSong,Random Song
;   postProcessing,
;   defaultSpeed,2400
;   outlineUnderspeed,0.8
;   solidInfillUnderspeed,0.8
;   supportUnderspeed,0.8
;   rapidXYspeed,4800
;   rapidZspeed,1002
;   minBridgingArea,50
;   bridgingExtraInflation,0
;   bridgingExtrusionMultiplier,1
;   bridgingSpeedMultiplier,1
;   useFixedBridgingAngle,0
;   fixedBridgingAngle,0
;   applyBridgingToPerimeters,0
;   filamentDiameters,1.75|1.75|1.75|1.75|1.75|1.75
;   filamentPricesPerKg,46|46|46|46|46|46
;   filamentDensities,1.25|1.25|1.25|1.25|1.25|1.25
;   useMinPrintHeight,0
;   minPrintHeight,10.34
;   useMaxPrintHeight,0
;   maxPrintHeight,0
;   useDiaphragm,0
;   diaphragmLayerInterval,20
;   robustSlicing,1
;   mergeAllIntoSolid,0
;   onlyRetractWhenCrossingOutline,1
;   retractBetweenLayers,0
;   useRetractionMinTravel,1
;   retractionMinTravel,3
;   retractWhileWiping,1
;   onlyWipeOutlines,1
;   avoidCrossingOutline,1
;   maxMovementDetourFactor,3
;   toolChangeRetractionDistance,12
;   toolChangeExtraRestartDistance,-0.5
;   toolChangeRetractionSpeed,600
;   externalThinWallType,1
;   internalThinWallType,1
;   thinWallAllowedOverlapPercentage,25
;   singleExtrusionMinLength,1
;   singleExtrusionMinPrintingWidthPercentage,50
;   singleExtrusionMaxPrintingWidthPercentage,200
;   singleExtrusionEndpointExtension,0.2
;   horizontalSizeCompensation,0
G90
M82
M106 S0
M140 S55
M190 S55
M104 S220 T0
M109 S220 T0
M115 U3.0.7 ; use the latest firmware version
G28 W ; home all axes without mesh bed leveling
G80 ; run mesh bed leveling routine
G1 Y-3.0 F1000.0 ; prepare to prime
G92 E0 ; reset extrusion distance
G1 X60.0 E9.0  F1000.0 ; priming
G1 X100.0 E12.5  F1000.0 ; priming
G92 E0
G1 E-1.5000 F1800
G1 Z0.270 F1002
; process Process1
; layer 1, Z = 0.270
M105
M105
T0
; tool H0.300 W0.600
; outer perimeter
G1 X63.452 Y30.953 F4800
G1 E0.0000 F540
G92 E0
G1 X64.040 Y29.799 E0.0969 F960
G1 X64.956 Y28.883 E0.1939
G1 X66.110 Y28.295 E0.2908
G1 X67.413 Y28.089 E0.3896
G1 X184.134 Y28.089 E9.1244
G1 X184.134 Y37.492 E9.8281
G1 X67.413 Y37.492 E18.5629
G1 X66.110 Y37.285 E18.6616
G1 X64.956 Y36.697 E18.7586
G1 X64.040 Y35.781 E18.8555
G1 X63.452 Y34.627 E18.9525
G1 X63.245 Y33.324 E19.0512
G1 X63.245 Y32.256 E19.1311
G1 X63.421 Y31.151 E19.2148
G1 X63.452 Y30.953 F960
G1 X64.040 Y29.799 F2400
G1 X64.538 Y29.301 F2400
; inner perimeter
G1 X65.313 Y29.375 F4800
G92 E0
G1 X66.298 Y28.873 E0.0827 F1080
G1 X67.460 Y28.689 E0.1708
G1 X183.534 Y28.689 E8.8572
G1 X183.534 Y36.892 E9.4711
G1 X67.460 Y36.892 E18.1575
G1 X66.298 Y36.707 E18.2456
G1 X65.313 Y36.206 E18.3283
G1 X64.531 Y35.424 E18.4110
G1 X64.030 Y34.439 E18.4937
G1 X63.845 Y33.276 E18.5818
G1 X63.845 Y32.304 E18.6546
G1 X64.030 Y31.141 E18.7427
G1 X64.531 Y30.156 E18.8254
G1 X65.172 Y29.516 E18.8932
G1 X65.313 Y29.375 F1080
; outer perimeter
G1 X95.443 Y32.216 F4800
G92 E0
G1 X95.394 Y32.714 E0.0374 F960
G1 X95.443 Y33.211 E0.0749
G1 X95.588 Y33.690 E0.1123
G1 X95.824 Y34.131 E0.1497
G1 X96.141 Y34.518 E0.1872
G1 X96.528 Y34.835 E0.2246
G1 X96.969 Y35.071 E0.2620
G1 X97.448 Y35.216 E0.2994
G1 X97.945 Y35.265 E0.3369
G1 X98.443 Y35.216 E0.3743
G1 X98.922 Y35.071 E0.4117
G1 X99.363 Y34.835 E0.4492
G1 X99.750 Y34.518 E0.4866
G1 X100.067 Y34.131 E0.5240
G1 X100.303 Y33.690 E0.5615
G1 X100.448 Y33.211 E0.5989
G1 X100.497 Y32.714 E0.6363
G1 X100.448 Y32.216 E0.6738
G1 X100.303 Y31.737 E0.7112
G1 X100.067 Y31.296 E0.7486
G1 X99.750 Y30.909 E0.7860
G1 X99.363 Y30.592 E0.8235
G1 X98.922 Y30.356 E0.8609
G1 X98.443 Y30.211 E0.8983
G1 X97.945 Y30.162 E0.9358
G1 X97.448 Y30.211 E0.9732
G1 X96.969 Y30.356 E1.0106
G1 X96.528 Y30.592 E1.0481
G1 X96.141 Y30.909 E1.0855
G1 X95.824 Y31.296 E1.1229
G1 X95.588 Y31.737 E1.1603
G1 X95.501 Y32.024 E1.1828
G1 X95.443 Y32.216 F960
G1 X95.394 Y32.714 F2400
G1 X95.443 Y33.211 F2400
G1 X95.588 Y33.690 F2400
G1 X95.824 Y34.130 F2400
; inner perimeter
G1 X95.323 Y34.466 F4800
G92 E0
G1 X95.715 Y34.944 E0.0463 F1080
G1 X96.193 Y35.336 E0.0926
G1 X96.738 Y35.628 E0.1388
G1 X97.330 Y35.807 E0.1851
G1 X97.945 Y35.868 E0.2314
G1 X98.561 Y35.807 E0.2777
G1 X99.153 Y35.628 E0.3239
G1 X99.698 Y35.336 E0.3702
G1 X100.176 Y34.944 E0.4165
G1 X100.568 Y34.466 E0.4628
G1 X100.860 Y33.921 E0.5090
G1 X101.039 Y33.329 E0.5553
G1 X101.100 Y32.714 E0.6016
G1 X101.039 Y32.098 E0.6479
G1 X100.860 Y31.506 E0.6941
G1 X100.568 Y30.961 E0.7404
G1 X100.176 Y30.483 E0.7867
G1 X99.698 Y30.091 E0.8330
G1 X99.153 Y29.799 E0.8792
G1 X98.561 Y29.620 E0.9255
G1 X97.945 Y29.559 E0.9718
G1 X97.330 Y29.620 E1.0181
G1 X96.738 Y29.799 E1.0643
G1 X96.193 Y30.091 E1.1106
G1 X95.715 Y30.483 E1.1569
G1 X95.323 Y30.961 E1.2032
G1 X95.031 Y31.506 E1.2494
G1 X94.852 Y32.098 E1.2957
G1 X94.791 Y32.714 E1.3420
G1 X94.852 Y33.329 E1.3883
G1 X95.031 Y33.921 E1.4345
G1 X95.228 Y34.290 E1.4658
G1 X95.323 Y34.466 F1080
; outer perimeter
G1 X96.042 Y34.387 F4800
G1 X96.146 Y34.513 F4800
G1 X96.531 Y34.830 F4800
G1 X96.971 Y35.065 F4800
G1 X97.449 Y35.210 F4800
G1 X97.945 Y35.259 F4800
G1 X98.442 Y35.210 F4800
G1 X98.920 Y35.065 F4800
G1 X99.360 Y34.830 F4800
G1 X99.745 Y34.513 F4800
G1 X100.062 Y34.128 F4800
G1 X100.164 Y33.936 F4800
G1 X106.016 Y33.296 F4800
G92 E0
G1 X106.206 Y33.924 E0.0491 F960
G1 X106.485 Y34.446 E0.0934
G1 X106.829 Y34.865 E0.1339
G1 X107.248 Y35.209 E0.1745
G1 X107.734 Y35.469 E0.2157
G1 X108.385 Y35.666 E0.2667
G1 X108.878 Y35.715 E0.3037
G1 X109.371 Y35.666 E0.3408
G1 X110.022 Y35.469 E0.3917
G1 X110.508 Y35.209 E0.4329
G1 X110.927 Y34.865 E0.4735
G1 X111.270 Y34.446 E0.5140
G1 X111.549 Y33.924 E0.5583
G1 X111.740 Y33.296 E0.6074
G1 X111.787 Y32.814 E0.6437
G1 X111.740 Y32.332 E0.6799
G1 X111.553 Y31.716 E0.7281
G1 X111.270 Y31.187 E0.7730
G1 X110.926 Y30.768 E0.8136
G1 X110.507 Y30.424 E0.8541
G1 X109.986 Y30.145 E0.8984
G1 X109.365 Y29.957 E0.9470
G1 X108.878 Y29.909 E0.9836
G1 X108.391 Y29.957 E1.0202
G1 X107.770 Y30.145 E1.0687
G1 X107.248 Y30.424 E1.1130
G1 X106.830 Y30.768 E1.1536
G1 X106.486 Y31.187 E1.1941
G1 X106.203 Y31.716 E1.2391
G1 X106.016 Y32.332 E1.2872
G1 X105.968 Y32.814 E1.3235
G1 X105.996 Y33.097 E1.3448
G1 X106.016 Y33.296 F960
G1 X106.206 Y33.924 F2400
G1 X106.485 Y34.446 F2400
G1 X106.829 Y34.865 F2400
G1 X106.992 Y34.998 F2400
; inner perimeter
G1 X106.403 Y35.291 F4800
G92 E0
G1 X106.913 Y35.710 E0.0494 F1080
G1 X107.503 Y36.026 E0.0995
G1 X108.268 Y36.257 E0.1593
G1 X108.878 Y36.317 E0.2052
G1 X109.488 Y36.257 E0.2511
G1 X110.252 Y36.026 E0.3108
G1 X110.843 Y35.710 E0.3609
G1 X111.353 Y35.291 E0.4103
G1 X111.772 Y34.781 E0.4597
G1 X112.106 Y34.155 E0.5128
G1 X112.331 Y33.414 E0.5708
G1 X112.390 Y32.814 E0.6159
G1 X112.331 Y32.214 E0.6610
G1 X112.110 Y31.486 E0.7180
G1 X111.771 Y30.852 E0.7718
G1 X111.353 Y30.341 E0.8212
G1 X110.842 Y29.923 E0.8706
G1 X110.216 Y29.588 E0.9237
G1 X109.482 Y29.365 E0.9811
G1 X108.878 Y29.306 E1.0265
G1 X108.273 Y29.365 E1.0720
G1 X107.539 Y29.588 E1.1294
G1 X106.914 Y29.923 E1.1825
G1 X106.403 Y30.341 E1.2319
G1 X105.985 Y30.852 E1.2813
G1 X105.646 Y31.486 E1.3351
G1 X105.425 Y32.214 E1.3921
G1 X105.366 Y32.814 E1.4372
G1 X105.425 Y33.414 E1.4823
G1 X105.649 Y34.155 E1.5402
G1 X105.984 Y34.781 E1.5934
G1 X106.276 Y35.137 E1.6278
G1 X106.403 Y35.291 F1080
; solid layer
G1 X107.310 Y36.399 F4800
G92 E0
G1 X107.383 Y36.472 E0.0077 F960
G1 X106.535 Y36.472 E0.0712
G1 X101.068 Y31.004 E0.6498
G1 X101.250 Y31.345 E0.6787
G1 X101.453 Y32.016 E0.7312
G1 X101.477 Y32.263 E0.7498
G1 X105.686 Y36.472 E1.1952
G1 X104.838 Y36.471 E1.2587
G1 X101.482 Y33.116 E1.6138
G1 X101.453 Y33.411 E1.6360
G1 X101.331 Y33.813 E1.6675
G1 X103.989 Y36.472 E1.9488
G1 X103.141 Y36.471 E2.0123
G1 X101.076 Y34.407 E2.2308
G1 X100.919 Y34.700 E2.2557
G1 X100.740 Y34.919 E2.2768
G1 X102.292 Y36.471 E2.4411
G1 X101.444 Y36.471 E2.5046
G1 X100.332 Y35.360 E2.6223
G1 X99.932 Y35.687 E2.6610
G1 X99.853 Y35.730 E2.6677
G1 X100.595 Y36.472 E2.7462
G1 X99.746 Y36.472 E2.8097
G1 X99.298 Y36.023 E2.8572
G1 X98.647 Y36.220 E2.9081
G1 X98.898 Y36.471 E2.9347
G1 X98.049 Y36.471 E2.9982
G1 X97.859 Y36.281 E3.0183
G1 X97.248 Y36.221 E3.0643
G1 X96.821 Y36.092 E3.0977
G1 X97.059 Y36.330 E3.1229
G1 X97.201 Y36.471 F960
G1 X107.657 Y29.109 F4800
G92 E0
G1 X107.661 Y29.112 E0.0004 F960
G1 X107.378 Y29.198 E0.0225
G1 X107.065 Y29.365 E0.0491
G1 X106.809 Y29.109 E0.0762
G1 X105.960 Y29.109 E0.1397
G1 X106.538 Y29.687 E0.2009
G1 X106.105 Y30.043 E0.2429
G1 X106.078 Y30.075 E0.2461
G1 X105.112 Y29.109 E0.3484
G1 X104.263 Y29.109 E0.4119
G1 X105.696 Y30.541 E0.5635
G1 X105.634 Y30.617 E0.5708
G1 X105.386 Y31.080 E0.6101
G1 X103.414 Y29.109 E0.8188
G1 X102.566 Y29.109 E0.8823
G1 X105.145 Y31.688 E1.1553
G1 X105.011 Y32.132 E1.1900
G1 X104.986 Y32.378 E1.2085
G1 X101.717 Y29.109 E1.5545
G1 X100.869 Y29.109 E1.6180
G1 X104.984 Y33.224 E2.0535
G1 X105.011 Y33.496 E2.0740
G1 X105.260 Y34.317 E2.1381
G1 X105.295 Y34.384 E2.1438
G1 X100.020 Y29.109 E2.7021
G1 X99.172 Y29.109 E2.7656
G1 X99.655 Y29.591 E2.8167
G1 X99.314 Y29.409 E2.8456
G1 X98.643 Y29.206 E2.8980
G1 X98.396 Y29.182 E2.9166
G1 X98.323 Y29.109 E2.9243
G1 X97.475 Y29.109 E2.9878
G1 X97.543 Y29.177 E2.9950
G1 X97.248 Y29.206 E3.0172
G1 X96.845 Y29.328 E3.0487
G1 X96.626 Y29.109 E3.0719
G1 X95.778 Y29.109 E3.1354
G1 X96.252 Y29.583 E3.1856
G1 X95.958 Y29.740 E3.2105
G1 X95.740 Y29.919 E3.2317
G1 X94.929 Y29.109 E3.3175
G1 X94.081 Y29.109 E3.3810
G1 X95.299 Y30.327 E3.5099
G1 X94.972 Y30.727 E3.5486
G1 X94.929 Y30.806 E3.5553
G1 X93.232 Y29.109 E3.7349
G1 X92.384 Y29.109 E3.7984
G1 X94.636 Y31.361 E4.0368
G1 X94.439 Y32.012 E4.0878
G1 X91.535 Y29.109 E4.3951
G1 X90.687 Y29.109 E4.4586
G1 X94.378 Y32.800 E4.8492
G1 X94.438 Y33.411 E4.8952
G1 X94.567 Y33.838 E4.9285
G1 X89.838 Y29.109 E5.4290
G1 X88.989 Y29.109 E5.4925
G1 X96.352 Y36.471 E6.2718
G1 X95.504 Y36.472 E6.3353
G1 X88.141 Y29.109 E7.1145
G1 X87.292 Y29.109 E7.1780
G1 X94.655 Y36.471 E7.9573
G1 X93.807 Y36.471 E8.0208
G1 X86.444 Y29.109 E8.8000
G1 X85.595 Y29.109 E8.8635
G1 X92.958 Y36.471 E9.6427
G1 X92.110 Y36.471 E9.7062
G1 X84.747 Y29.109 E10.4855
G1 X83.898 Y29.109 E10.5490
G1 X91.261 Y36.471 E11.3282
G1 X90.413 Y36.471 E11.3917
G1 X83.050 Y29.109 E12.1709
G1 X82.201 Y29.109 E12.2344
G1 X89.564 Y36.471 E13.0137
G1 X88.716 Y36.472 E13.0772
G1 X81.353 Y29.109 E13.8564
G1 X80.504 Y29.109 E13.9199
G1 X87.867 Y36.472 E14.6991
G1 X87.019 Y36.471 E14.7626
G1 X79.656 Y29.109 E15.5419
G1 X78.807 Y29.109 E15.6054
G1 X86.170 Y36.471 E16.3846
G1 X85.321 Y36.471 E16.4481
G1 X77.959 Y29.109 E17.2273
G1 X77.110 Y29.109 E17.2908
G1 X84.473 Y36.471 E18.0701
G1 X83.624 Y36.471 E18.1336
G1 X76.262 Y29.109 E18.9128
G1 X75.413 Y29.109 E18.9763
G1 X82.776 Y36.471 E19.7555
G1 X81.927 Y36.471 E19.8190
G1 X74.564 Y29.109 E20.5983
G1 X73.716 Y29.109 E20.6618
G1 X81.079 Y36.471 E21.4410
G1 X80.230 Y36.471 E21.5045
G1 X72.867 Y29.109 E22.2838
G1 X72.019 Y29.109 E22.3473
G1 X79.382 Y36.471 E23.1265
G1 X78.533 Y36.471 E23.1900
G1 X71.170 Y29.109 E23.9692
G1 X70.322 Y29.109 E24.0327
G1 X77.685 Y36.471 E24.8120
G1 X76.836 Y36.471 E24.8755
G1 X69.473 Y29.109 E25.6547
G1 X68.625 Y29.109 E25.7182
G1 X75.988 Y36.471 E26.4974
G1 X75.139 Y36.471 E26.5609
G1 X67.776 Y29.109 E27.3402
G1 X67.494 Y29.109 E27.3613
G1 X67.005 Y29.186 E27.3983
G1 X74.291 Y36.471 E28.1694
G1 X73.442 Y36.471 E28.2329
G1 X66.309 Y29.338 E28.9878
G1 X65.747 Y29.625 E29.0350
G1 X72.594 Y36.471 E29.7596
G1 X71.745 Y36.471 E29.8231
G1 X65.278 Y30.004 E30.5076
G1 X64.875 Y30.406 E30.5501
G1 X64.860 Y30.435 E30.5526
G1 X70.896 Y36.471 E31.1914
G1 X70.048 Y36.471 E31.2549
