; generated by PrusaSlicer 2.5.2+win64 on 2023-05-18 at 17:02:13 UTC

; 

; external perimeters extrusion width = 0.45mm
; perimeters extrusion width = 0.45mm
; infill extrusion width = 0.45mm
; solid infill extrusion width = 0.45mm
; top infill extrusion width = 0.40mm
; first layer extrusion width = 0.42mm

M73 P0 R39
M73 Q0 S40
M107
;TYPE:Custom
M862.3 P "MK3S" ; printer model check
M862.1 P0.4 ; nozzle diameter check
G90 ; use absolute coordinates
M83 ; extruder relative mode
M104 S215 ; set extruder temp
M140 S60 ; set bed temp
M190 S60 ; wait for bed temp
M109 S215 ; wait for extruder temp
G28 W ; home all without mesh bed level
G80 ; mesh bed leveling
G1 Y-3.0 F1000.0 ; go outside print area
G92 E0.0
G1 X60.0 E9.0 F1000.0 ; intro line
G1 X100.0 E12.5 F1000.0 ; intro line
G92 E0.0
M221 S95

; Don't change E values below. Excessive value can damage the printer.
M907 E430 ; set extruder motor current
G21 ; set units to millimeters
G90 ; use absolute coordinates
M83 ; use relative distances for extrusion
M900 K0.05 ; Filament gcode LA 1.5
M900 K30 ; Filament gcode LA 1.0
M107
;LAYER_CHANGE
;Z:0.2
;HEIGHT:0.2
;BEFORE_LAYER_CHANGE
G92 E0.0
;0.2


G1 E-.8 F2100
M73 Q0 S39
G1 Z.4 F720
;AFTER_LAYER_CHANGE
;0.2
G1 X107.968 Y83.222 F10800
G1 Z.2 F720
G1 E.8 F2100
M204 S800
;TYPE:Skirt/Brim
;WIDTH:0.42
G1 F1200
G1 X108.51 Y82.62 E.02542
G1 X109.137 Y82.106 E.02542
G1 X123.702 Y72.609 E.54517
G1 X125.011 Y72.224 E.04278
G1 X126.298 Y72.609 E.0421
G1 X140.863 Y82.106 E.54517
G1 X141.49 Y82.62 E.02542
G1 X142.032 Y83.222 E.02542
G1 X142.478 Y83.899 E.02542
G1 X142.817 Y84.635 E.02542
G1 X143.138 Y86.039 E.04514
G1 X146.23 Y121.386 E1.11252
G1 X146.232 Y122.046 E.02069
G1 X146.17 Y122.547 E.01582
G1 X145.923 Y123.403 E.02796
G1 X145.253 Y124.535 E.04123
G1 X140.485 Y129.195 E.20905
G1 X129.366 Y136.318 E.41403
G1 X125.813 Y137.633 E.11879
G1 X124.187 Y137.633 E.05098
G1 X120.518 Y136.258 E.12285
G1 X109.515 Y129.195 E.40996
G1 X104.747 Y124.535 E.20905
G1 X104.077 Y123.403 E.04123
G1 X103.827 Y122.534 E.02836
G1 X103.761 Y121.632 E.02836
G1 X106.862 Y86.039 E1.12023
G1 X107.043 Y85.066 E.03103
G1 X107.319 Y84.303 E.02542
G1 X107.937 Y83.273 E.03767
M204 S1000
; printing object Frame.stl id:0 copy 0
;WIPE_START
G1 F8640
G1 X108.51 Y82.62 E-.20081
G1 X109.137 Y82.106 E-.1872
G1 X110.487 Y81.226 E-.372
;WIPE_END
G1 E-.04 F2100
G1 Z.6 F720
G1 X138.367 Y96.738 F10800
G1 Z.2 F720
G1 E.8 F2100
M204 S800
;TYPE:Perimeter
;WIDTH:0.419999
G1 F1200
G1 X138.467 Y96.724 E.00315
G1 X138.646 Y96.638 E.00622
G1 X138.809 Y96.453 E.00773
G1 X138.88 Y96.179 E.00888
G1 X138.88 Y84.582 E.36361
G1 X139.264 Y84.87 E.01505
G1 X139.658 Y85.344 E.01931
G1 X139.838 Y85.704 E.01261
G1 X139.988 Y86.344 E.02063
G1 X143.073 Y121.689 E1.11243
G1 X143.014 Y122.156 E.01475
G1 X142.835 Y122.484 E.0117
G1 X142.574 Y122.75 E.0117
G1 X142.237 Y122.912 E.0117
G1 X141.829 Y122.981 E.01299
G1 X137.82 Y122.981 E.12569
G1 X137.539 Y123.055 E.0091
G1 X137.34 Y123.247 E.0087
G1 X137.256 Y123.509 E.00861
G1 X137.288 Y123.74 E.00731
G1 X138.307 Y126.537 E.09334
G1 X136.729 Y126.53 E.04947
G1 X136.587 Y126.287 E.00883
G1 X136.365 Y126.146 E.00825
G1 X136.151 Y126.115 E.00678
G1 X135.753 Y126.135 E.01249
G1 X135.525 Y126.195 E.0074
G1 X135.239 Y126.539 E.01403
G1 X133.311 Y126.539 E.06046
G1 X133.055 Y126.393 E.00923
G1 X132.806 Y126.374 E.00785
G1 X132.543 Y126.485 E.00894
G1 X132.111 Y126.849 E.01772
G1 X132.011 Y127.112 E.00882
G1 X132.041 Y127.368 E.00811
G1 X132.758 Y129.337 E.06568
G1 X131.207 Y129.907 E.0518
G1 X130.961 Y129.788 E.00859
G1 X130.71 Y129.786 E.00786
G1 X130.506 Y129.875 E.00698
G1 X130.107 Y130.203 E.01619
G1 X129.978 Y130.453 E.00883
G1 X129.995 Y130.769 E.00993
G1 X130.111 Y131.098 E.01095
G1 X128.564 Y131.668 E.05171
G1 X128.295 Y131.543 E.00926
G1 X128.068 Y131.546 E.00712
G1 X127.833 Y131.657 E.00817
G1 X127.415 Y132.027 E.01749
G1 X127.322 Y132.289 E.00874
G1 X127.352 Y132.53 E.00761
G1 X127.718 Y133.561 E.03429
G1 X125 Y134.561 E.09079
G1 X122.282 Y133.561 E.09079
G1 X122.648 Y132.53 E.03429
G1 X122.678 Y132.289 E.00761
G1 X122.585 Y132.027 E.00874
G1 X122.167 Y131.657 E.01749
G1 X121.986 Y131.56 E.00645
G1 X121.705 Y131.543 E.00883
G1 X121.43 Y131.665 E.00943
G1 X119.889 Y131.098 E.05148
G1 X120.005 Y130.769 E.01095
G1 X120.022 Y130.453 E.00993
G1 X119.986 Y130.346 E.00354
G1 X119.825 Y130.14 E.00821
G1 X119.388 Y129.817 E.01705
G1 X119.039 Y129.788 E.01097
G1 X118.786 Y129.905 E.00875
G1 X117.242 Y129.337 E.05157
G1 X117.985 Y127.269 E.0689
G1 X117.983 Y127.07 E.00623
G1 X117.868 Y126.82 E.00863
G1 X117.457 Y126.485 E.01663
G1 X117.219 Y126.378 E.00818
G1 X116.945 Y126.393 E.00861
G1 X116.689 Y126.539 E.00923
G1 X114.75 Y126.539 E.0608
G1 X114.475 Y126.195 E.01382
G1 X114.395 Y126.162 E.0027
G1 X113.849 Y126.115 E.01719
G1 X113.635 Y126.146 E.00678
G1 X113.413 Y126.287 E.00825
G1 X113.271 Y126.53 E.00883
G1 X111.693 Y126.537 E.04947
G1 X112.692 Y123.792 E.09159
G1 X112.745 Y123.52 E.00871
G1 X112.66 Y123.247 E.00894
G1 X112.461 Y123.055 E.00866
G1 X112.18 Y122.981 E.00913
G1 X108.104 Y122.973 E.12782
G1 X107.644 Y122.874 E.01475
G1 X107.333 Y122.667 E.0117
G1 X107.09 Y122.383 E.0117
G1 X106.958 Y122.034 E.0117
G1 X106.926 Y121.621 E.01299
G1 X110.012 Y86.344 E1.1103
G1 X110.122 Y85.827 E.01658
M73 Q1 S39
G1 X110.323 Y85.37 E.01565
G1 X110.632 Y84.978 E.01565
G1 X111.036 Y84.637 E.01658
G1 X125 Y75.54 E.52254
G1 X131.496 Y79.77 E.24306
M73 P1 R39
G1 X131.922 Y80.01 E.01531
G1 X131.486 Y79.994 E.01369
G1 X124.999 Y79.991 E.20337
G1 X124.593 Y80.019 E.01276
G1 X124.463 Y80.082 E.00455
G1 X124.3 Y80.243 E.00717
G1 X124.206 Y80.556 E.01025
G1 X124.206 Y96.179 E.48985
G1 X124.217 Y96.29 E.00349
G1 X124.324 Y96.526 E.00812
G1 X124.525 Y96.688 E.00811
G1 X124.771 Y96.745 E.00792
G1 X138.308 Y96.745 E.42443
M204 S1000
G1 X138.314 Y96.368 F10800
M204 S800
;TYPE:External perimeter
G1 F1200
G1 X138.425 Y96.332 E.00364
G1 X138.503 Y96.179 E.00538
G1 X138.503 Y83.887 E.38542
G1 X139.468 Y84.548 E.03669
G1 X139.738 Y84.818 E.01195
G1 X140.028 Y85.23 E.01582
G1 X140.275 Y85.831 E.02037
G1 X140.362 Y86.297 E.01487
G1 X143.45 Y121.695 E1.1141
G1 X143.373 Y122.278 E.01842
G1 X143.138 Y122.708 E.01538
G1 X142.794 Y123.058 E.01538
G1 X142.353 Y123.271 E.01538
G1 X141.848 Y123.358 E.01604
G1 X137.82 Y123.358 E.12631
G1 X137.66 Y123.447 E.00574
G1 X137.643 Y123.611 E.00517
G1 X138.846 Y126.916 E.1103
G1 X137.157 Y126.909 E.05294
G1 X136.487 Y126.882 E.02103
G1 X136.354 Y126.609 E.00952
G1 X136.241 Y126.502 E.00489
G1 X135.723 Y126.521 E.01627
G1 X135.601 Y126.644 E.00541
G1 X135.534 Y126.861 E.00713
G1 X135.429 Y126.917 E.00372
G1 X133.251 Y126.917 E.0683
G1 X132.943 Y126.754 E.01091
G1 X132.804 Y126.764 E.00438
G1 X132.411 Y127.077 E.01573
G1 X132.395 Y127.239 E.00511
G1 X133.24 Y129.561 E.07746
G1 X131.299 Y130.275 E.06485
G1 X131.108 Y130.291 E.00603
G1 X130.932 Y130.179 E.00654
G1 X130.791 Y130.154 E.00451
G1 X130.376 Y130.469 E.01632
G1 X130.351 Y130.644 E.00552
G1 X130.591 Y131.324 E.02262
G1 X129.2 Y131.835 E.04647
G1 X128.546 Y132.054 E.02161
G1 X128.223 Y131.914 E.01104
G1 X128.119 Y131.923 E.00327
G1 X127.728 Y132.236 E.01572
G1 X127.707 Y132.404 E.0053
G1 X128.171 Y133.712 E.0435
G1 X128.144 Y133.806 E.00308
G1 X125 Y134.962 E.10502
G1 X121.877 Y133.814 E.10434
G1 X121.822 Y133.732 E.00309
G1 X122.293 Y132.404 E.04416
G1 X122.291 Y132.274 E.00408
G1 X121.931 Y131.952 E.01517
G1 X121.814 Y131.91 E.00388
G1 X121.532 Y132.04 E.00972
G1 X121.408 Y132.059 E.00394
G1 X119.409 Y131.324 E.06679
G1 X119.649 Y130.644 E.02262
G1 X119.643 Y130.503 E.00442
G1 X119.287 Y130.191 E.01482
G1 X119.126 Y130.155 E.00519
G1 X118.889 Y130.279 E.0084
G1 X118.765 Y130.299 E.00394
G1 X116.76 Y129.561 E.06699
G1 X117.616 Y127.183 E.07925
G1 X117.567 Y127.048 E.00448
G1 X117.161 Y126.751 E.01579
G1 X116.749 Y126.917 E.0139
G1 X114.591 Y126.917 E.06766
G1 X114.476 Y126.866 E.00396
G1 X114.401 Y126.653 E.00708
G1 X114.304 Y126.532 E.00488
G1 X113.83 Y126.491 E.01491
G1 X113.685 Y126.549 E.0049
G1 X113.56 Y126.822 E.00942
G1 X113.478 Y126.906 E.00369
G1 X111.154 Y126.916 E.07287
G1 X112.368 Y123.566 E.11173
G1 X112.327 Y123.429 E.00449
G1 X112.18 Y123.358 E.00513
G1 X108.239 Y123.358 E.12356
G1 X107.967 Y123.338 E.00856
G1 X107.491 Y123.221 E.01538
G1 X107.083 Y122.949 E.01538
G1 X106.764 Y122.576 E.01538
G1 X106.59 Y122.118 E.01538
G1 X106.548 Y121.608 E.01604
G1 X109.638 Y86.297 E1.11136
G1 X109.764 Y85.711 E.01881
G1 X109.999 Y85.176 E.01832
G1 X110.36 Y84.716 E.01832
G1 X110.818 Y84.329 E.01881
G1 X125 Y75.09 E.53069
G1 X131.702 Y79.454 E.25076
G1 X132.579 Y79.946 E.03153
G1 X133.369 Y80.306 E.02721
G1 X133.771 Y80.565 E.015
G1 X133.006 Y80.557 E.02398
G1 X132.51 Y80.453 E.01589
G1 X131.993 Y80.39 E.01633
G1 X131.485 Y80.371 E.01594
G1 X124.771 Y80.368 E.21051
G1 X124.657 Y80.406 E.0038
G1 X124.583 Y80.556 E.00523
G1 X124.583 Y96.179 E.48985
G1 X124.633 Y96.307 E.0043
G1 X124.771 Y96.368 E.00475
G1 X138.254 Y96.368 E.42275
M204 S1000
G1 X138.392 Y96.454 F10800
;WIPE_START
G1 F8640
G1 X138.425 Y96.332 E-.04021
G1 X138.503 Y96.179 E-.03963
G1 X138.503 Y93.234 E-.68016
;WIPE_END
G1 E-.04 F2100
G1 Z.6 F720
G1 X139.684 Y85.779 F10800
G1 Z.2 F720
G1 E.8 F2100
M204 S800
;TYPE:Solid infill
;WIDTH:0.422804
G1 F1200
G1 X139.219 Y85.315 E.02075
G1 X139.219 Y85.852 E.01697
G1 X139.631 Y86.264 E.01839
G1 X139.693 Y86.863 E.01902
G1 X139.219 Y86.389 E.02115
G1 X139.219 Y86.927 E.01697
G1 X139.744 Y87.452 E.02345
G1 X139.796 Y88.04 E.01867
G1 X139.219 Y87.464 E.02575
G1 X139.219 Y88.001 E.01697
G1 X139.847 Y88.629 E.02805
G1 X139.899 Y89.218 E.01867
G1 X139.219 Y88.538 E.03035
G1 X139.219 Y89.076 E.01697
G1 X139.95 Y89.807 E.03266
G1 X140.002 Y90.395 E.01867
G1 X139.219 Y89.613 E.03496
G1 X139.219 Y90.15 E.01697
G1 X140.053 Y90.984 E.03726
G1 X140.105 Y91.573 E.01867
G1 X139.219 Y90.687 E.03956
G1 X139.219 Y91.225 E.01697
G1 X140.156 Y92.162 E.04186
G1 X140.208 Y92.75 E.01867
G1 X139.219 Y91.762 E.04416
G1 X139.219 Y92.299 E.01697
G1 X140.259 Y93.339 E.04646
G1 X140.311 Y93.928 E.01867
G1 X139.219 Y92.836 E.04876
G1 X139.219 Y93.373 E.01697
G1 X140.362 Y94.517 E.05106
G1 X140.414 Y95.105 E.01867
G1 X139.219 Y93.911 E.05336
G1 X139.219 Y94.448 E.01697
G1 X140.465 Y95.694 E.05566
G1 X140.517 Y96.283 E.01867
G1 X139.219 Y94.985 E.05797
G1 X139.219 Y95.522 E.01697
G1 X140.568 Y96.872 E.06027
G1 X140.62 Y97.46 E.01867
G1 X139.219 Y96.06 E.06257
G1 X139.215 Y96.27 E.00664
G1 X139.14 Y96.518 E.00818
G1 X140.671 Y98.049 E.06841
G1 X140.723 Y98.638 E.01867
G1 X138.919 Y96.834 E.08058
G1 X138.849 Y96.913 E.00335
G1 X138.587 Y97.039 E.00917
G1 X140.774 Y99.227 E.0977
G1 X140.826 Y99.815 E.01867
G1 X138.095 Y97.084 E.122
G1 X137.558 Y97.084 E.01697
G1 X140.877 Y100.404 E.1483
G1 X140.929 Y100.993 E.01867
G1 X137.02 Y97.084 E.1746
G1 X136.483 Y97.084 E.01697
G1 X140.98 Y101.582 E.2009
G1 X141.032 Y102.17 E.01867
G1 X135.946 Y97.084 E.2272
G1 X135.409 Y97.084 E.01697
G1 X141.083 Y102.759 E.2535
G1 X141.135 Y103.348 E.01867
G1 X134.871 Y97.084 E.2798
G1 X134.334 Y97.084 E.01697
G1 X141.186 Y103.936 E.3061
G1 X141.238 Y104.525 E.01867
G1 X133.797 Y97.084 E.3324
G1 X133.26 Y97.084 E.01697
G1 X141.289 Y105.114 E.3587
G1 X141.341 Y105.703 E.01867
G1 X132.722 Y97.084 E.385
G1 X132.185 Y97.084 E.01697
G1 X141.393 Y106.291 E.4113
G1 X141.444 Y106.88 E.01867
G1 X131.648 Y97.084 E.4376
G1 X131.111 Y97.084 E.01697
G1 X141.496 Y107.469 E.4639
G1 X141.547 Y108.058 E.01867
M73 P2 R39
M73 Q2 S39
G1 X130.573 Y97.084 E.4902
G1 X130.036 Y97.084 E.01697
G1 X141.599 Y108.646 E.5165
G1 X141.65 Y109.235 E.01867
G1 X129.499 Y97.084 E.5428
G1 X128.962 Y97.084 E.01697
G1 X141.702 Y109.824 E.5691
G1 X141.753 Y110.413 E.01867
G1 X128.425 Y97.084 E.5954
G1 X127.887 Y97.084 E.01697
G1 X141.805 Y111.001 E.6217
G1 X141.856 Y111.59 E.01867
G1 X127.35 Y97.084 E.648
G1 X126.813 Y97.084 E.01697
G1 X141.908 Y112.179 E.6743
G1 X141.959 Y112.768 E.01867
G1 X126.276 Y97.084 E.7006
G1 X125.738 Y97.084 E.01697
G1 X142.011 Y113.356 E.7269
G1 X142.062 Y113.945 E.01867
M73 P2 R38
G1 X125.031 Y96.914 E.76078
M204 S1000
;WIPE_START
G1 F8640
G1 X127.359 Y99.242 E-.76
;WIPE_END
G1 E-.04 F2100
G1 Z.6 F720
G1 X130.504 Y79.824 F10800
G1 Z.2 F720
G1 E.8 F2100
M204 S800
G1 F1200
G1 X129.661 Y78.98 E.0377
G1 X128.121 Y77.977 E.05804
G1 X129.797 Y79.653 E.07489
G1 X129.26 Y79.653 E.01698
G1 X126.581 Y76.974 E.11966
G1 X125.041 Y75.972 E.05804
G1 X128.722 Y79.653 E.16444
G1 X128.185 Y79.653 E.01698
G1 X124.683 Y76.152 E.1564
G1 X124.358 Y76.363 E.01226
G1 X127.647 Y79.652 E.14693
G1 X127.11 Y79.652 E.01698
G1 X124.033 Y76.575 E.13745
G1 X123.708 Y76.787 E.01226
G1 X126.572 Y79.652 E.12797
G1 X126.035 Y79.652 E.01698
G1 X123.382 Y76.999 E.11849
G1 X123.057 Y77.211 E.01226
G1 X125.497 Y79.651 E.10901
G1 X124.96 Y79.651 E.01698
G1 X122.732 Y77.423 E.09953
G1 X122.406 Y77.635 E.01226
G1 X124.473 Y79.702 E.09233
G1 X124.219 Y79.836 E.00907
G1 X124.147 Y79.913 E.00333
G1 X122.081 Y77.847 E.09231
G1 X121.756 Y78.059 E.01226
G1 X123.932 Y80.236 E.09724
G1 X123.9 Y80.307 E.00247
G1 X123.866 Y80.546 E.00762
G1 X123.866 Y80.707 E.00509
G1 X121.43 Y78.271 E.10882
G1 X121.105 Y78.483 E.01226
G1 X123.866 Y81.244 E.12335
G1 X123.866 Y81.781 E.01697
G1 X120.78 Y78.695 E.13788
G1 X120.454 Y78.907 E.01226
G1 X123.866 Y82.319 E.15242
G1 X123.866 Y82.856 E.01697
G1 X120.129 Y79.118 E.16695
G1 X119.804 Y79.33 E.01226
G1 X123.866 Y83.393 E.18148
G1 X123.866 Y83.93 E.01697
M73 Q2 S38
G1 X119.479 Y79.542 E.19601
G1 X119.153 Y79.754 E.01226
G1 X123.866 Y84.467 E.21054
G1 X123.866 Y85.005 E.01697
G1 X118.828 Y79.966 E.22508
G1 X118.503 Y80.178 E.01226
G1 X123.866 Y85.542 E.23961
G1 X123.866 Y86.079 E.01697
G1 X118.177 Y80.39 E.25414
G1 X117.852 Y80.602 E.01226
G1 X123.866 Y86.616 E.26867
G1 X123.866 Y87.154 E.01697
G1 X117.527 Y80.814 E.2832
G1 X117.201 Y81.026 E.01226
G1 X123.866 Y87.691 E.29774
G1 X123.866 Y88.228 E.01697
G1 X116.876 Y81.238 E.31227
G1 X116.551 Y81.45 E.01226
G1 X123.866 Y88.765 E.3268
G1 X123.866 Y89.303 E.01697
G1 X116.225 Y81.662 E.34133
G1 X115.9 Y81.874 E.01226
G1 X123.866 Y89.84 E.35587
G1 X123.866 Y90.377 E.01697
G1 X115.575 Y82.085 E.3704
G1 X115.249 Y82.297 E.01226
G1 X123.866 Y90.914 E.38493
G1 X123.866 Y91.452 E.01697
M73 Q3 S38
G1 X114.924 Y82.509 E.39946
M73 P3 R38
G1 X114.599 Y82.721 E.01226
G1 X123.866 Y91.989 E.41399
G1 X123.866 Y92.526 E.01697
G1 X114.274 Y82.933 E.42853
G1 X113.948 Y83.145 E.01226
G1 X123.866 Y93.063 E.44306
G1 X123.866 Y93.6 E.01697
G1 X113.623 Y83.357 E.45759
G1 X113.298 Y83.569 E.01226
G1 X123.866 Y94.138 E.47212
G1 X123.866 Y94.675 E.01697
G1 X112.972 Y83.781 E.48665
G1 X112.647 Y83.993 E.01226
G1 X123.866 Y95.212 E.50119
G1 X123.866 Y95.749 E.01697
G1 X112.322 Y84.205 E.51572
G1 X111.996 Y84.417 E.01226
G1 X123.877 Y96.298 E.53074
G1 X123.967 Y96.598 E.0099
G1 X124.104 Y96.792 E.00749
G1 X124.267 Y96.932 E.0068
G1 X124.486 Y97.04 E.00772
G1 X124.645 Y97.066 E.00509
G1 X142.114 Y114.534 E.78033
G1 X142.165 Y115.123 E.01867
G1 X111.671 Y84.629 E1.36221
G1 X111.346 Y84.841 E.01226
G1 X142.217 Y115.711 E1.37905
G1 X142.268 Y116.3 E.01867
G1 X111.034 Y85.066 E1.39527
G1 X110.765 Y85.334 E.012
G1 X142.32 Y116.889 E1.4096
G1 X142.371 Y117.478 E.01867
G1 X110.556 Y85.663 E1.42121
G1 X110.489 Y85.798 E.00477
G1 X110.407 Y86.05 E.00839
G1 X142.423 Y118.066 E1.4302
G1 X142.474 Y118.655 E.01867
G1 X110.337 Y86.518 E1.4356
G1 X110.294 Y87.012 E.01566
M73 P4 R38
M73 Q4 S38
G1 X142.526 Y119.244 E1.43983
G1 X142.577 Y119.833 E.01867
G1 X110.251 Y87.506 E1.44406
G1 X110.208 Y88 E.01566
G1 X142.629 Y120.421 E1.44829
G1 X142.68 Y121.01 E.01867
G1 X110.165 Y88.494 E1.45252
G1 X110.121 Y88.988 E.01566
G1 X142.732 Y121.599 E1.45675
G1 X142.731 Y121.871 E.00861
G1 X142.676 Y122.08 E.00682
G1 X110.078 Y89.482 E1.45618
G1 X110.035 Y89.976 E.01566
G1 X142.458 Y122.399 E1.44837
G1 X142.375 Y122.473 E.0035
G1 X142.219 Y122.562 E.00567
G1 X142.116 Y122.595 E.00342
G1 X109.992 Y90.471 E1.43504
G1 X109.948 Y90.965 E.01566
G1 X141.625 Y122.641 E1.41504
G1 X141.088 Y122.641 E.01697
G1 X109.905 Y91.459 E1.39297
G1 X109.862 Y91.953 E.01566
