; generated by PrusaSlicer 2.3.1+win64 on 2021-10-20 at 19:48:11 UTC

; 

; external perimeters extrusion width = 0.45mm
; perimeters extrusion width = 0.45mm
; infill extrusion width = 0.45mm
; solid infill extrusion width = 0.45mm
; top infill extrusion width = 0.40mm
; support material extrusion width = 0.35mm
; first layer extrusion width = 0.42mm

M73 P0 R16
M73 Q0 S16
M201 X1000 Y1000 Z1000 E5000 ; sets maximum accelerations, mm/sec^2
M203 X200 Y200 Z12 E120 ; sets maximum feedrates, mm/sec
M204 P1250 R1250 T1250 ; sets acceleration (P, T) and retract acceleration (R), mm/sec^2
M205 X8.00 Y8.00 Z0.40 E1.50 ; sets the jerk limits, mm/sec
M205 S0 T0 ; sets the minimum extruding and travel feed rate, mm/sec
M107
;TYPE:Custom
M862.3 P "MK3S" ; printer model check
M862.1 P0.4 ; nozzle diameter check
M115 U3.8.0 ; tell printer latest fw version
G90 ; use absolute coordinates
M83 ; extruder relative mode
M104 S215 ; set extruder temp
M140 S60 ; set bed temp
M190 S60 ; wait for bed temp
M109 S215 ; wait for extruder temp
G28 W ; home all without mesh bed level
G80 ; mesh bed leveling
G1 Y-3.0 F1000.0 ; go outside print area
G92 E0.0
G1 X60.0 E9.0 F1000.0 ; intro line
G1 X100.0 E12.5 F1000.0 ; intro line
G92 E0.0
M221 S95
G21 ; set units to millimeters
G90 ; use absolute coordinates
M83 ; use relative distances for extrusion
M900 K0.05 ; Filament gcode LA 1.5
M900 K30 ; Filament gcode LA 1.0
;LAYER_CHANGE
;Z:0.2
;HEIGHT:0.2
;BEFORE_LAYER_CHANGE
G92 E0.0
;0.2


G1 E-0.80000 F2100.000
G1 Z0.600 F10800.000
;AFTER_LAYER_CHANGE
;0.2
G1 X98.600 Y125.670
G1 Z0.200
G1 E0.80000 F2100.000
M204 S1000
;TYPE:Perimeter
;WIDTH:0.42
G1 F1200.000
G1 X98.600 Y73.239 E1.64394
M73 P1 R16
M73 Q1 S16
G1 X100.927 Y73.278 E0.07295
G1 X100.927 Y136.722 E1.98924
G1 X98.600 Y136.761 E0.07295
G1 X98.600 Y125.730 E0.34589
G1 X98.223 Y125.730 F10800.000
;TYPE:External perimeter
G1 F1200.000
G1 X98.223 Y72.855 E1.65784
G1 X101.304 Y72.907 E0.09660
G1 X101.304 Y137.093 E2.01249
M73 P2 R16
M73 Q2 S16
G1 X98.223 Y137.145 E0.09660
G1 X98.223 Y125.790 E0.35603
G1 X98.551 Y125.500 F10800.000
G1 E-0.80000 F2100.000
G1 Z0.800 F10800.000
G1 X100.814 Y74.156
G1 Z0.200
G1 E0.80000 F2100.000
;TYPE:Solid infill
;WIDTH:0.422164
G1 F1200.000
G1 X100.206 Y73.549 E0.02710
G1 X99.660 Y73.539 E0.01721
G1 X100.644 Y74.523 E0.04386
G1 X100.644 Y75.059 E0.01691
G1 X99.115 Y73.530 E0.06819
G1 X98.883 Y73.526 E0.00731
G1 X98.883 Y73.835 E0.00973
G1 X100.644 Y75.596 E0.07852
G1 X100.644 Y76.132 E0.01691
G1 X98.883 Y74.371 E0.07852
G1 X98.883 Y74.908 E0.01691
G1 X100.644 Y76.668 E0.07852
G1 X100.644 Y77.205 E0.01691
G1 X98.883 Y75.444 E0.07852
G1 X98.883 Y75.980 E0.01691
G1 X100.644 Y77.741 E0.07852
G1 X100.644 Y78.277 E0.01691
G1 X98.883 Y76.517 E0.07852
G1 X98.883 Y77.053 E0.01691
G1 X100.644 Y78.814 E0.07852
G1 X100.644 Y79.350 E0.01691
G1 X98.883 Y77.589 E0.07852
G1 X98.883 Y78.126 E0.01691
G1 X100.644 Y79.886 E0.07852
G1 X100.644 Y80.423 E0.01691
G1 X98.883 Y78.662 E0.07852
G1 X98.883 Y79.198 E0.01691
G1 X100.644 Y80.959 E0.07852
G1 X100.644 Y81.495 E0.01691
G1 X98.883 Y79.735 E0.07852
G1 X98.883 Y80.271 E0.01691
G1 X100.644 Y82.032 E0.07852
G1 X100.644 Y82.568 E0.01691
G1 X98.883 Y80.807 E0.07852
G1 X98.883 Y81.344 E0.01691
G1 X100.644 Y83.104 E0.07852
G1 X100.644 Y83.641 E0.01691
G1 X98.883 Y81.880 E0.07852
G1 X98.883 Y82.416 E0.01691
G1 X100.644 Y84.177 E0.07852
G1 X100.644 Y84.713 E0.01691
G1 X98.883 Y82.953 E0.07852
G1 X98.883 Y83.489 E0.01691
G1 X100.644 Y85.250 E0.07852
G1 X100.644 Y85.786 E0.01691
G1 X98.883 Y84.025 E0.07852
G1 X98.883 Y84.562 E0.01691
G1 X100.644 Y86.322 E0.07852
G1 X100.644 Y86.859 E0.01691
G1 X98.883 Y85.098 E0.07852
G1 X98.883 Y85.634 E0.01691
G1 X100.644 Y87.395 E0.07852
G1 X100.644 Y87.931 E0.01691
G1 X98.883 Y86.171 E0.07852
G1 X98.883 Y86.707 E0.01691
G1 X100.644 Y88.468 E0.07852
G1 X100.644 Y89.004 E0.01691
G1 X98.883 Y87.243 E0.07852
G1 X98.883 Y87.780 E0.01691
G1 X100.644 Y89.540 E0.07852
G1 X100.644 Y90.077 E0.01691
G1 X98.883 Y88.316 E0.07852
G1 X98.883 Y88.852 E0.01691
G1 X100.644 Y90.613 E0.07852
G1 X100.644 Y91.149 E0.01691
G1 X98.883 Y89.389 E0.07852
G1 X98.883 Y89.925 E0.01691
G1 X100.644 Y91.686 E0.07852
G1 X100.644 Y92.222 E0.01691
G1 X98.883 Y90.461 E0.07852
G1 X98.883 Y90.998 E0.01691
G1 X100.644 Y92.758 E0.07852
G1 X100.644 Y93.295 E0.01691
G1 X98.883 Y91.534 E0.07852
G1 X98.883 Y92.070 E0.01691
G1 X100.644 Y93.831 E0.07852
G1 X100.644 Y94.367 E0.01691
G1 X98.883 Y92.607 E0.07852
G1 X98.883 Y93.143 E0.01691
G1 X100.644 Y94.904 E0.07852
G1 X100.644 Y95.440 E0.01691
G1 X98.883 Y93.679 E0.07852
G1 X98.883 Y94.216 E0.01691
G1 X100.644 Y95.976 E0.07852
G1 X100.644 Y96.513 E0.01691
G1 X98.883 Y94.752 E0.07852
G1 X98.883 Y95.288 E0.01691
G1 X100.644 Y97.049 E0.07852
G1 X100.644 Y97.585 E0.01691
G1 X98.883 Y95.825 E0.07852
G1 X98.883 Y96.361 E0.01691
G1 X100.644 Y98.122 E0.07852
M73 Q3 S16
G1 X100.644 Y98.658 E0.01691
G1 X98.883 Y96.897 E0.07852
G1 X98.883 Y97.434 E0.01691
G1 X100.644 Y99.194 E0.07852
G1 X100.644 Y99.731 E0.01691
G1 X98.883 Y97.970 E0.07852
G1 X98.883 Y98.506 E0.01691
G1 X100.644 Y100.267 E0.07852
M73 P3 R16
G1 X100.644 Y100.803 E0.01691
G1 X98.883 Y99.043 E0.07852
G1 X98.883 Y99.579 E0.01691
G1 X100.644 Y101.340 E0.07852
G1 X100.644 Y101.876 E0.01691
G1 X98.883 Y100.115 E0.07852
G1 X98.883 Y100.652 E0.01691
G1 X100.644 Y102.412 E0.07852
G1 X100.644 Y102.949 E0.01691
G1 X98.883 Y101.188 E0.07852
G1 X98.883 Y101.724 E0.01691
G1 X100.644 Y103.485 E0.07852
G1 X100.644 Y104.021 E0.01691
G1 X98.883 Y102.261 E0.07852
G1 X98.883 Y102.797 E0.01691
G1 X100.644 Y104.558 E0.07852
G1 X100.644 Y105.094 E0.01691
G1 X98.883 Y103.333 E0.07852
G1 X98.883 Y103.870 E0.01691
G1 X100.644 Y105.630 E0.07852
G1 X100.644 Y106.167 E0.01691
G1 X98.883 Y104.406 E0.07852
G1 X98.883 Y104.942 E0.01691
G1 X100.644 Y106.703 E0.07852
G1 X100.644 Y107.239 E0.01691
G1 X98.883 Y105.479 E0.07852
G1 X98.883 Y106.015 E0.01691
G1 X100.644 Y107.776 E0.07852
G1 X100.644 Y108.312 E0.01691
G1 X98.883 Y106.551 E0.07852
G1 X98.883 Y107.087 E0.01691
G1 X100.644 Y108.848 E0.07852
G1 X100.644 Y109.385 E0.01691
G1 X98.883 Y107.624 E0.07852
G1 X98.883 Y108.160 E0.01691
G1 X100.644 Y109.921 E0.07852
G1 X100.644 Y110.457 E0.01691
G1 X98.883 Y108.696 E0.07852
G1 X98.883 Y109.233 E0.01691
G1 X100.644 Y110.994 E0.07852
G1 X100.644 Y111.530 E0.01691
G1 X98.883 Y109.769 E0.07852
G1 X98.883 Y110.305 E0.01691
G1 X100.644 Y112.066 E0.07852
G1 X100.644 Y112.603 E0.01691
G1 X98.883 Y110.842 E0.07852
G1 X98.883 Y111.378 E0.01691
G1 X100.644 Y113.139 E0.07852
G1 X100.644 Y113.675 E0.01691
G1 X98.883 Y111.914 E0.07852
G1 X98.883 Y112.451 E0.01691
G1 X100.644 Y114.212 E0.07852
G1 X100.644 Y114.748 E0.01691
G1 X98.883 Y112.987 E0.07852
G1 X98.883 Y113.523 E0.01691
G1 X100.644 Y115.284 E0.07852
G1 X100.644 Y115.821 E0.01691
G1 X98.883 Y114.060 E0.07852
G1 X98.883 Y114.596 E0.01691
G1 X100.644 Y116.357 E0.07852
G1 X100.644 Y116.893 E0.01691
G1 X98.883 Y115.132 E0.07852
G1 X98.883 Y115.669 E0.01691
G1 X100.644 Y117.430 E0.07852
G1 X100.644 Y117.966 E0.01691
G1 X98.883 Y116.205 E0.07852
G1 X98.883 Y116.741 E0.01691
G1 X100.644 Y118.502 E0.07852
G1 X100.644 Y119.039 E0.01691
G1 X98.883 Y117.278 E0.07852
G1 X98.883 Y117.814 E0.01691
G1 X100.644 Y119.575 E0.07852
G1 X100.644 Y120.111 E0.01691
G1 X98.883 Y118.350 E0.07852
G1 X98.883 Y118.887 E0.01691
G1 X100.644 Y120.648 E0.07852
G1 X100.644 Y121.184 E0.01691
G1 X98.883 Y119.423 E0.07852
G1 X98.883 Y119.959 E0.01691
G1 X100.644 Y121.720 E0.07852
G1 X100.644 Y122.257 E0.01691
G1 X98.883 Y120.496 E0.07852
G1 X98.883 Y121.032 E0.01691
G1 X100.644 Y122.793 E0.07852
G1 X100.644 Y123.329 E0.01691
G1 X98.883 Y121.568 E0.07852
G1 X98.883 Y122.105 E0.01691
G1 X100.644 Y123.866 E0.07852
G1 X100.644 Y124.402 E0.01691
G1 X98.883 Y122.641 E0.07852
G1 X98.883 Y123.177 E0.01691
G1 X100.644 Y124.938 E0.07852
G1 X100.644 Y125.475 E0.01691
G1 X98.883 Y123.714 E0.07852
G1 X98.883 Y124.250 E0.01691
G1 X100.644 Y126.011 E0.07852
G1 X100.644 Y126.547 E0.01691
G1 X98.883 Y124.786 E0.07852
G1 X98.883 Y125.323 E0.01691
G1 X100.644 Y127.084 E0.07852
G1 X100.644 Y127.620 E0.01691
G1 X98.883 Y125.859 E0.07852
G1 X98.883 Y126.395 E0.01691
G1 X100.644 Y128.156 E0.07852
G1 X100.644 Y128.693 E0.01691
G1 X98.883 Y126.932 E0.07852
G1 X98.883 Y127.468 E0.01691
G1 X100.644 Y129.229 E0.07852
G1 X100.644 Y129.765 E0.01691
G1 X98.883 Y128.004 E0.07852
G1 X98.883 Y128.541 E0.01691
G1 X100.644 Y130.302 E0.07852
M73 Q4 S16
G1 X100.644 Y130.838 E0.01691
G1 X98.883 Y129.077 E0.07852
G1 X98.883 Y129.613 E0.01691
G1 X100.644 Y131.374 E0.07852
G1 X100.644 Y131.911 E0.01691
G1 X98.883 Y130.150 E0.07852
G1 X98.883 Y130.686 E0.01691
G1 X100.644 Y132.447 E0.07852
M73 P4 R16
G1 X100.644 Y132.983 E0.01691
G1 X98.883 Y131.222 E0.07852
G1 X98.883 Y131.759 E0.01691
G1 X100.644 Y133.520 E0.07852
G1 X100.644 Y134.056 E0.01691
G1 X98.883 Y132.295 E0.07852
G1 X98.883 Y132.831 E0.01691
G1 X100.644 Y134.592 E0.07852
G1 X100.644 Y135.129 E0.01691
G1 X98.883 Y133.368 E0.07852
G1 X98.883 Y133.904 E0.01691
G1 X100.644 Y135.665 E0.07852
G1 X100.644 Y136.201 E0.01691
G1 X98.883 Y134.440 E0.07852
G1 X98.883 Y134.977 E0.01691
G1 X100.355 Y136.449 E0.06565
G1 X99.828 Y136.458 E0.01663
G1 X98.883 Y135.513 E0.04213
G1 X98.883 Y136.049 E0.01691
G1 X99.467 Y136.634 E0.02605
G1 E-0.80000 F2100.000
G1 Z0.800 F10800.000
G1 X108.461 Y83.340
G1 Z0.200
G1 E0.80000 F2100.000
;TYPE:Perimeter
;WIDTH:0.42
G1 F1200.000
G1 X108.461 Y136.722 E1.67375
G1 X106.135 Y136.761 E0.07295
G1 X106.135 Y73.239 E1.99171
M73 P4 R15
M73 Q4 S15
G1 X108.461 Y73.278 E0.07295
G1 X108.461 Y83.280 E0.31361
G1 X108.838 Y83.280 F10800.000
;TYPE:External perimeter
G1 F1200.000
G1 X108.838 Y137.093 E1.68726
M73 P5 R15
M73 Q5 S15
G1 X105.758 Y137.145 E0.09660
G1 X105.758 Y72.855 E2.01576
G1 X108.838 Y72.907 E0.09660
G1 X108.838 Y83.220 E0.32336
G1 X108.513 Y83.512 F10800.000
G1 E-0.80000 F2100.000
G1 Z0.800 F10800.000
G1 X107.002 Y136.634
G1 Z0.200
G1 E0.80000 F2100.000
;TYPE:Solid infill
;WIDTH:0.422164
G1 F1200.000
G1 X106.418 Y136.049 E0.02605
G1 X106.418 Y135.513 E0.01691
G1 X107.362 Y136.458 E0.04213
G1 X107.890 Y136.449 E0.01663
G1 X106.418 Y134.977 E0.06565
G1 X106.418 Y134.440 E0.01691
G1 X108.178 Y136.201 E0.07852
G1 X108.178 Y135.665 E0.01691
G1 X106.418 Y133.904 E0.07852
G1 X106.418 Y133.368 E0.01691
G1 X108.178 Y135.129 E0.07852
G1 X108.178 Y134.592 E0.01691
G1 X106.418 Y132.831 E0.07852
G1 X106.418 Y132.295 E0.01691
G1 X108.178 Y134.056 E0.07852
G1 X108.178 Y133.520 E0.01691
G1 X106.418 Y131.759 E0.07852
G1 X106.418 Y131.222 E0.01691
G1 X108.178 Y132.983 E0.07852
G1 X108.178 Y132.447 E0.01691
G1 X106.418 Y130.686 E0.07852
G1 X106.418 Y130.150 E0.01691
G1 X108.178 Y131.911 E0.07852
G1 X108.178 Y131.374 E0.01691
G1 X106.418 Y129.613 E0.07852
G1 X106.418 Y129.077 E0.01691
G1 X108.178 Y130.838 E0.07852
G1 X108.178 Y130.302 E0.01691
G1 X106.418 Y128.541 E0.07852
M73 Q6 S15
G1 X106.418 Y128.004 E0.01691
G1 X108.178 Y129.765 E0.07852
G1 X108.178 Y129.229 E0.01691
G1 X106.418 Y127.468 E0.07852
G1 X106.418 Y126.932 E0.01691
G1 X108.178 Y128.693 E0.07852
G1 X108.178 Y128.156 E0.01691
G1 X106.418 Y126.395 E0.07852
G1 X106.418 Y125.859 E0.01691
G1 X108.178 Y127.620 E0.07852
G1 X108.178 Y127.084 E0.01691
G1 X106.418 Y125.323 E0.07852
M73 P6 R15
G1 X106.418 Y124.786 E0.01691
G1 X108.178 Y126.547 E0.07852
G1 X108.178 Y126.011 E0.01691
G1 X106.418 Y124.250 E0.07852
G1 X106.418 Y123.714 E0.01691
G1 X108.178 Y125.475 E0.07852
G1 X108.178 Y124.938 E0.01691
G1 X106.418 Y123.177 E0.07852
G1 X106.418 Y122.641 E0.01691
G1 X108.178 Y124.402 E0.07852
G1 X108.178 Y123.866 E0.01691
G1 X106.418 Y122.105 E0.07852
G1 X106.418 Y121.568 E0.01691
G1 X108.178 Y123.329 E0.07852
G1 X108.178 Y122.793 E0.01691
G1 X106.418 Y121.032 E0.07852
G1 X106.418 Y120.496 E0.01691
G1 X108.178 Y122.257 E0.07852
G1 X108.178 Y121.720 E0.01691
G1 X106.418 Y119.959 E0.07852
G1 X106.418 Y119.423 E0.01691
G1 X108.178 Y121.184 E0.07852
G1 X108.178 Y120.648 E0.01691
G1 X106.418 Y118.887 E0.07852
G1 X106.418 Y118.350 E0.01691
G1 X108.178 Y120.111 E0.07852
G1 X108.178 Y119.575 E0.01691
G1 X106.418 Y117.814 E0.07852
G1 X106.418 Y117.278 E0.01691
G1 X108.178 Y119.039 E0.07852
G1 X108.178 Y118.502 E0.01691
G1 X106.418 Y116.741 E0.07852
G1 X106.418 Y116.205 E0.01691
G1 X108.178 Y117.966 E0.07852
G1 X108.178 Y117.430 E0.01691
G1 X106.418 Y115.669 E0.07852
G1 X106.418 Y115.132 E0.01691
G1 X108.178 Y116.893 E0.07852
G1 X108.178 Y116.357 E0.01691
G1 X106.418 Y114.596 E0.07852
G1 X106.418 Y114.060 E0.01691
G1 X108.178 Y115.821 E0.07852
G1 X108.178 Y115.284 E0.01691
G1 X106.418 Y113.523 E0.07852
G1 X106.418 Y112.987 E0.01691
G1 X108.178 Y114.748 E0.07852
G1 X108.178 Y114.212 E0.01691
G1 X106.418 Y112.451 E0.07852
G1 X106.418 Y111.914 E0.01691
G1 X108.178 Y113.675 E0.07852
G1 X108.178 Y113.139 E0.01691
G1 X106.418 Y111.378 E0.07852
G1 X106.418 Y110.842 E0.01691
G1 X108.178 Y112.603 E0.07852
G1 X108.178 Y112.066 E0.01691
G1 X106.418 Y110.305 E0.07852
G1 X106.418 Y109.769 E0.01691
G1 X108.178 Y111.530 E0.07852
G1 X108.178 Y110.994 E0.01691
G1 X106.418 Y109.233 E0.07852
G1 X106.418 Y108.696 E0.01691
G1 X108.178 Y110.457 E0.07852
G1 X108.178 Y109.921 E0.01691
G1 X106.418 Y108.160 E0.07852
G1 X106.418 Y107.624 E0.01691
G1 X108.178 Y109.385 E0.07852
G1 X108.178 Y108.848 E0.01691
G1 X106.418 Y107.087 E0.07852
G1 X106.418 Y106.551 E0.01691
G1 X108.178 Y108.312 E0.07852
G1 X108.178 Y107.776 E0.01691
G1 X106.418 Y106.015 E0.07852
G1 X106.418 Y105.479 E0.01691
G1 X108.178 Y107.239 E0.07852
G1 X108.178 Y106.703 E0.01691
G1 X106.418 Y104.942 E0.07852
G1 X106.418 Y104.406 E0.01691
G1 X108.178 Y106.167 E0.07852
G1 X108.178 Y105.630 E0.01691
G1 X106.418 Y103.870 E0.07852
G1 X106.418 Y103.333 E0.01691
G1 X108.178 Y105.094 E0.07852
G1 X108.178 Y104.558 E0.01691
G1 X106.418 Y102.797 E0.07852
G1 X106.418 Y102.261 E0.01691
G1 X108.178 Y104.021 E0.07852
G1 X108.178 Y103.485 E0.01691
G1 X106.418 Y101.724 E0.07852
G1 X106.418 Y101.188 E0.01691
G1 X108.178 Y102.949 E0.07852
G1 X108.178 Y102.412 E0.01691
G1 X106.418 Y100.652 E0.07852
G1 X106.418 Y100.115 E0.01691
G1 X108.178 Y101.876 E0.07852
G1 X108.178 Y101.340 E0.01691
G1 X106.418 Y99.579 E0.07852
G1 X106.418 Y99.043 E0.01691
G1 X108.178 Y100.803 E0.07852
G1 X108.178 Y100.267 E0.01691
G1 X106.418 Y98.506 E0.07852
G1 X106.418 Y97.970 E0.01691
G1 X108.178 Y99.731 E0.07852
G1 X108.178 Y99.194 E0.01691
G1 X106.418 Y97.434 E0.07852
G1 X106.418 Y96.897 E0.01691
G1 X108.178 Y98.658 E0.07852
G1 X108.178 Y98.122 E0.01691
G1 X106.418 Y96.361 E0.07852
M73 Q7 S15
G1 X106.418 Y95.825 E0.01691
G1 X108.178 Y97.585 E0.07852
G1 X108.178 Y97.049 E0.01691
G1 X106.418 Y95.288 E0.07852
G1 X106.418 Y94.752 E0.01691
G1 X108.178 Y96.513 E0.07852
G1 X108.178 Y95.976 E0.01691
G1 X106.418 Y94.216 E0.07852
G1 X106.418 Y93.679 E0.01691
G1 X108.178 Y95.440 E0.07852
G1 X108.178 Y94.904 E0.01691
G1 X106.418 Y93.143 E0.07852
M73 P7 R15
G1 X106.418 Y92.607 E0.01691
G1 X108.178 Y94.367 E0.07852
G1 X108.178 Y93.831 E0.01691
G1 X106.418 Y92.070 E0.07852
G1 X106.418 Y91.534 E0.01691
G1 X108.178 Y93.295 E0.07852
G1 X108.178 Y92.758 E0.01691
G1 X106.418 Y90.998 E0.07852
G1 X106.418 Y90.461 E0.01691
G1 X108.178 Y92.222 E0.07852
G1 X108.178 Y91.686 E0.01691
G1 X106.418 Y89.925 E0.07852
G1 X106.418 Y89.389 E0.01691
G1 X108.178 Y91.149 E0.07852
G1 X108.178 Y90.613 E0.01691
G1 X106.418 Y88.852 E0.07852
G1 X106.418 Y88.316 E0.01691
G1 X108.178 Y90.077 E0.07852
G1 X108.178 Y89.540 E0.01691
G1 X106.418 Y87.780 E0.07852
G1 X106.418 Y87.243 E0.01691
G1 X108.178 Y89.004 E0.07852
G1 X108.178 Y88.468 E0.01691
G1 X106.418 Y86.707 E0.07852
G1 X106.418 Y86.171 E0.01691
G1 X108.178 Y87.931 E0.07852
G1 X108.178 Y87.395 E0.01691
G1 X106.418 Y85.634 E0.07852
G1 X106.418 Y85.098 E0.01691
G1 X108.178 Y86.859 E0.07852
G1 X108.178 Y86.322 E0.01691
G1 X106.418 Y84.562 E0.07852
G1 X106.418 Y84.025 E0.01691
G1 X108.178 Y85.786 E0.07852
G1 X108.178 Y85.250 E0.01691
G1 X106.418 Y83.489 E0.07852
G1 X106.418 Y82.953 E0.01691
G1 X108.178 Y84.713 E0.07852
G1 X108.178 Y84.177 E0.01691
G1 X106.418 Y82.416 E0.07852
