; generated by PrusaSlicer 2.3.1+win64 on 2021-10-20 at 19:50:23 UTC

; 

; external perimeters extrusion width = 0.45mm
; perimeters extrusion width = 0.45mm
; infill extrusion width = 0.45mm
; solid infill extrusion width = 0.45mm
; top infill extrusion width = 0.40mm
; support material extrusion width = 0.35mm
; first layer extrusion width = 0.42mm

M73 P0 R215
M73 Q0 S216
M201 X1000 Y1000 Z1000 E5000 ; sets maximum accelerations, mm/sec^2
M203 X200 Y200 Z12 E120 ; sets maximum feedrates, mm/sec
M204 P1250 R1250 T1250 ; sets acceleration (P, T) and retract acceleration (R), mm/sec^2
M205 X8.00 Y8.00 Z0.40 E1.50 ; sets the jerk limits, mm/sec
M205 S0 T0 ; sets the minimum extruding and travel feed rate, mm/sec
M107
;TYPE:Custom
M862.3 P "MK3S" ; printer model check
M862.1 P0.4 ; nozzle diameter check
M115 U3.8.0 ; tell printer latest fw version
G90 ; use absolute coordinates
M83 ; extruder relative mode
M104 S215 ; set extruder temp
M140 S60 ; set bed temp
M190 S60 ; wait for bed temp
M109 S215 ; wait for extruder temp
G28 W ; home all without mesh bed level
G80 ; mesh bed leveling
G1 Y-3.0 F1000.0 ; go outside print area
G92 E0.0
G1 X60.0 E9.0 F1000.0 ; intro line
G1 X100.0 E12.5 F1000.0 ; intro line
G92 E0.0
M221 S95
G21 ; set units to millimeters
G90 ; use absolute coordinates
M83 ; use relative distances for extrusion
M900 K0.05 ; Filament gcode LA 1.5
M900 K30 ; Filament gcode LA 1.0
;LAYER_CHANGE
;Z:0.2
;HEIGHT:0.2
;BEFORE_LAYER_CHANGE
G92 E0.0
;0.2


G1 E-0.80000 F2100.000
G1 Z0.600 F10800.000
;AFTER_LAYER_CHANGE
;0.2
G1 X114.538 Y160.703
G1 Z0.200
G1 E0.80000 F2100.000
M204 S1000
;TYPE:Perimeter
;WIDTH:0.42
G1 F1200.000
G1 X114.538 Y204.350 E1.36852
G1 X112.211 Y204.311 E0.07295
G1 X112.211 Y140.867 E1.98924
G1 X114.538 Y140.827 E0.07295
G1 X114.538 Y160.643 E0.62130
G1 X114.915 Y160.643 F10800.000
;TYPE:External perimeter
G1 F1200.000
G1 X114.915 Y204.733 E1.38243
G1 X111.834 Y204.681 E0.09660
G1 X111.834 Y140.496 E2.01249
G1 X114.915 Y140.444 E0.09660
G1 X114.915 Y160.583 E0.63145
M73 Q0 S215
G1 X114.579 Y160.860 F10800.000
G1 E-0.80000 F2100.000
G1 Z0.800 F10800.000
G1 X113.105 Y204.213
G1 Z0.200
G1 E0.80000 F2100.000
;TYPE:Solid infill
;WIDTH:0.422164
G1 F1200.000
G1 X112.494 Y203.602 E0.02723
G1 X112.494 Y203.066 E0.01691
G1 X113.478 Y204.049 E0.04386
G1 X114.023 Y204.058 E0.01721
G1 X112.494 Y202.529 E0.06819
G1 X112.494 Y201.993 E0.01691
G1 X114.255 Y203.754 E0.07852
G1 X114.255 Y203.217 E0.01691
G1 X112.494 Y201.457 E0.07852
G1 X112.494 Y200.920 E0.01691
G1 X114.255 Y202.681 E0.07852
G1 X114.255 Y202.145 E0.01691
G1 X112.494 Y200.384 E0.07852
G1 X112.494 Y199.848 E0.01691
G1 X114.255 Y201.608 E0.07852
G1 X114.255 Y201.072 E0.01691
G1 X112.494 Y199.311 E0.07852
G1 X112.494 Y198.775 E0.01691
G1 X114.255 Y200.536 E0.07852
G1 X114.255 Y199.999 E0.01691
G1 X112.494 Y198.239 E0.07852
G1 X112.494 Y197.702 E0.01691
G1 X114.255 Y199.463 E0.07852
G1 X114.255 Y198.927 E0.01691
G1 X112.494 Y197.166 E0.07852
G1 X112.494 Y196.630 E0.01691
G1 X114.255 Y198.390 E0.07852
G1 X114.255 Y197.854 E0.01691
G1 X112.494 Y196.093 E0.07852
G1 X112.494 Y195.557 E0.01691
G1 X114.255 Y197.318 E0.07852
G1 X114.255 Y196.781 E0.01691
G1 X112.494 Y195.021 E0.07852
G1 X112.494 Y194.484 E0.01691
G1 X114.255 Y196.245 E0.07852
G1 X114.255 Y195.709 E0.01691
G1 X112.494 Y193.948 E0.07852
G1 X112.494 Y193.412 E0.01691
G1 X114.255 Y195.172 E0.07852
G1 X114.255 Y194.636 E0.01691
G1 X112.494 Y192.875 E0.07852
G1 X112.494 Y192.339 E0.01691
G1 X114.255 Y194.100 E0.07852
G1 X114.255 Y193.563 E0.01691
G1 X112.494 Y191.803 E0.07852
G1 X112.494 Y191.266 E0.01691
G1 X114.255 Y193.027 E0.07852
G1 X114.255 Y192.491 E0.01691
G1 X112.494 Y190.730 E0.07852
G1 X112.494 Y190.194 E0.01691
G1 X114.255 Y191.954 E0.07852
G1 X114.255 Y191.418 E0.01691
G1 X112.494 Y189.657 E0.07852
G1 X112.494 Y189.121 E0.01691
G1 X114.255 Y190.882 E0.07852
G1 X114.255 Y190.345 E0.01691
G1 X112.494 Y188.585 E0.07852
G1 X112.494 Y188.048 E0.01691
G1 X114.255 Y189.809 E0.07852
G1 X114.255 Y189.273 E0.01691
G1 X112.494 Y187.512 E0.07852
G1 X112.494 Y186.976 E0.01691
G1 X114.255 Y188.736 E0.07852
G1 X114.255 Y188.200 E0.01691
G1 X112.494 Y186.439 E0.07852
G1 X112.494 Y185.903 E0.01691
G1 X114.255 Y187.664 E0.07852
G1 X114.255 Y187.127 E0.01691
G1 X112.494 Y185.367 E0.07852
G1 X112.494 Y184.830 E0.01691
G1 X114.255 Y186.591 E0.07852
G1 X114.255 Y186.055 E0.01691
G1 X112.494 Y184.294 E0.07852
G1 X112.494 Y183.758 E0.01691
G1 X114.255 Y185.518 E0.07852
G1 X114.255 Y184.982 E0.01691
G1 X112.494 Y183.221 E0.07852
G1 X112.494 Y182.685 E0.01691
G1 X114.255 Y184.446 E0.07852
G1 X114.255 Y183.909 E0.01691
G1 X112.494 Y182.149 E0.07852
G1 X112.494 Y181.612 E0.01691
G1 X114.255 Y183.373 E0.07852
G1 X114.255 Y182.837 E0.01691
G1 X112.494 Y181.076 E0.07852
G1 X112.494 Y180.540 E0.01691
G1 X114.255 Y182.300 E0.07852
G1 X114.255 Y181.764 E0.01691
G1 X112.494 Y180.003 E0.07852
G1 X112.494 Y179.467 E0.01691
G1 X114.255 Y181.228 E0.07852
G1 X114.255 Y180.691 E0.01691
G1 X112.494 Y178.931 E0.07852
G1 X112.494 Y178.394 E0.01691
G1 X114.255 Y180.155 E0.07852
G1 X114.255 Y179.619 E0.01691
G1 X112.494 Y177.858 E0.07852
G1 X112.494 Y177.322 E0.01691
G1 X114.255 Y179.082 E0.07852
G1 X114.255 Y178.546 E0.01691
G1 X112.494 Y176.785 E0.07852
G1 X112.494 Y176.249 E0.01691
G1 X114.255 Y178.010 E0.07852
G1 X114.255 Y177.473 E0.01691
G1 X112.494 Y175.713 E0.07852
G1 X112.494 Y175.176 E0.01691
G1 X114.255 Y176.937 E0.07852
G1 X114.255 Y176.401 E0.01691
G1 X112.494 Y174.640 E0.07852
G1 X112.494 Y174.104 E0.01691
G1 X114.255 Y175.864 E0.07852
G1 X114.255 Y175.328 E0.01691
G1 X112.494 Y173.567 E0.07852
G1 X112.494 Y173.031 E0.01691
G1 X114.255 Y174.792 E0.07852
G1 X114.255 Y174.255 E0.01691
G1 X112.494 Y172.495 E0.07852
G1 X112.494 Y171.958 E0.01691
G1 X114.255 Y173.719 E0.07852
G1 X114.255 Y173.183 E0.01691
G1 X112.494 Y171.422 E0.07852
G1 X112.494 Y170.886 E0.01691
G1 X114.255 Y172.646 E0.07852
G1 X114.255 Y172.110 E0.01691
G1 X112.494 Y170.349 E0.07852
G1 X112.494 Y169.813 E0.01691
G1 X114.255 Y171.574 E0.07852
G1 X114.255 Y171.037 E0.01691
G1 X112.494 Y169.277 E0.07852
G1 X112.494 Y168.740 E0.01691
G1 X114.255 Y170.501 E0.07852
G1 X114.255 Y169.965 E0.01691
G1 X112.494 Y168.204 E0.07852
G1 X112.494 Y167.668 E0.01691
G1 X114.255 Y169.428 E0.07852
G1 X114.255 Y168.892 E0.01691
G1 X112.494 Y167.131 E0.07852
G1 X112.494 Y166.595 E0.01691
G1 X114.255 Y168.356 E0.07852
G1 X114.255 Y167.819 E0.01691
G1 X112.494 Y166.059 E0.07852
G1 X112.494 Y165.522 E0.01691
G1 X114.255 Y167.283 E0.07852
G1 X114.255 Y166.747 E0.01691
G1 X112.494 Y164.986 E0.07852
G1 X112.494 Y164.450 E0.01691
G1 X114.255 Y166.210 E0.07852
G1 X114.255 Y165.674 E0.01691
G1 X112.494 Y163.913 E0.07852
G1 X112.494 Y163.377 E0.01691
G1 X114.255 Y165.138 E0.07852
G1 X114.255 Y164.601 E0.01691
G1 X112.494 Y162.841 E0.07852
G1 X112.494 Y162.304 E0.01691
G1 X114.255 Y164.065 E0.07852
G1 X114.255 Y163.529 E0.01691
G1 X112.494 Y161.768 E0.07852
G1 X112.494 Y161.232 E0.01691
G1 X114.255 Y162.992 E0.07852
G1 X114.255 Y162.456 E0.01691
G1 X112.494 Y160.695 E0.07852
G1 X112.494 Y160.159 E0.01691
G1 X114.255 Y161.920 E0.07852
G1 X114.255 Y161.383 E0.01691
G1 X112.494 Y159.623 E0.07852
G1 X112.494 Y159.086 E0.01691
G1 X114.255 Y160.847 E0.07852
G1 X114.255 Y160.311 E0.01691
G1 X112.494 Y158.550 E0.07852
G1 X112.494 Y158.014 E0.01691
G1 X114.255 Y159.774 E0.07852
G1 X114.255 Y159.238 E0.01691
G1 X112.494 Y157.477 E0.07852
G1 X112.494 Y156.941 E0.01691
G1 X114.255 Y158.702 E0.07852
G1 X114.255 Y158.165 E0.01691
G1 X112.494 Y156.405 E0.07852
G1 X112.494 Y155.868 E0.01691
G1 X114.255 Y157.629 E0.07852
G1 X114.255 Y157.093 E0.01691
G1 X112.494 Y155.332 E0.07852
G1 X112.494 Y154.796 E0.01691
G1 X114.255 Y156.556 E0.07852
G1 X114.255 Y156.020 E0.01691
G1 X112.494 Y154.259 E0.07852
G1 X112.494 Y153.723 E0.01691
G1 X114.255 Y155.484 E0.07852
G1 X114.255 Y154.947 E0.01691
G1 X112.494 Y153.187 E0.07852
G1 X112.494 Y152.650 E0.01691
G1 X114.255 Y154.411 E0.07852
G1 X114.255 Y153.875 E0.01691
G1 X112.494 Y152.114 E0.07852
G1 X112.494 Y151.578 E0.01691
G1 X114.255 Y153.338 E0.07852
G1 X114.255 Y152.802 E0.01691
G1 X112.494 Y151.041 E0.07852
G1 X112.494 Y150.505 E0.01691
G1 X114.255 Y152.266 E0.07852
G1 X114.255 Y151.729 E0.01691
G1 X112.494 Y149.969 E0.07852
G1 X112.494 Y149.432 E0.01691
G1 X114.255 Y151.193 E0.07852
G1 X114.255 Y150.657 E0.01691
G1 X112.494 Y148.896 E0.07852
G1 X112.494 Y148.360 E0.01691
G1 X114.255 Y150.120 E0.07852
G1 X114.255 Y149.584 E0.01691
G1 X112.494 Y147.823 E0.07852
G1 X112.494 Y147.287 E0.01691
G1 X114.255 Y149.048 E0.07852
G1 X114.255 Y148.511 E0.01691
G1 X112.494 Y146.751 E0.07852
G1 X112.494 Y146.214 E0.01691
G1 X114.255 Y147.975 E0.07852
G1 X114.255 Y147.439 E0.01691
G1 X112.494 Y145.678 E0.07852
G1 X112.494 Y145.142 E0.01691
G1 X114.255 Y146.902 E0.07852
G1 X114.255 Y146.366 E0.01691
G1 X112.494 Y144.605 E0.07852
G1 X112.494 Y144.069 E0.01691
G1 X114.255 Y145.830 E0.07852
G1 X114.255 Y145.293 E0.01691
G1 X112.494 Y143.533 E0.07852
G1 X112.494 Y142.996 E0.01691
G1 X114.255 Y144.757 E0.07852
G1 X114.255 Y144.221 E0.01691
G1 X112.494 Y142.460 E0.07852
G1 X112.494 Y141.924 E0.01691
G1 X114.255 Y143.684 E0.07852
G1 X114.255 Y143.148 E0.01691
G1 X112.494 Y141.387 E0.07852
G1 X112.494 Y141.145 E0.00765
G1 X112.783 Y141.140 E0.00911
G1 X114.255 Y142.612 E0.06565
G1 X114.255 Y142.075 E0.01691
G1 X113.310 Y141.131 E0.04213
G1 X113.838 Y141.122 E0.01663
G1 X114.425 Y141.709 E0.02617
G1 E-0.80000 F2100.000
G1 Z0.800 F10800.000
G1 X104.677 Y171.317
G1 Z0.200
G1 E0.80000 F2100.000
;TYPE:Perimeter
;WIDTH:0.42
G1 F1200.000
G1 X104.677 Y140.867 E0.95476
G1 X107.003 Y140.827 E0.07295
G1 X107.003 Y204.350 E1.99171
G1 X104.677 Y204.311 E0.07295
G1 X104.677 Y171.377 E1.03260
G1 X104.300 Y171.377 F10800.000
;TYPE:External perimeter
G1 F1200.000
G1 X104.300 Y140.496 E0.96826
G1 X107.381 Y140.444 E0.09660
G1 X107.381 Y204.733 E2.01576
G1 X104.300 Y204.681 E0.09660
G1 X104.300 Y171.437 E1.04235
G1 X104.640 Y171.167 F10800.000
G1 E-0.80000 F2100.000
G1 Z0.800 F10800.000
G1 X105.571 Y204.213
G1 Z0.200
G1 E0.80000 F2100.000
;TYPE:Solid infill
;WIDTH:0.422164
G1 F1200.000
G1 X104.960 Y203.602 E0.02723
G1 X104.960 Y203.066 E0.01691
G1 X105.943 Y204.049 E0.04386
M73 P0 R214
G1 X106.489 Y204.058 E0.01721
G1 X104.960 Y202.529 E0.06819
G1 X104.960 Y201.993 E0.01691
G1 X106.721 Y203.754 E0.07852
G1 X106.721 Y203.217 E0.01691
G1 X104.960 Y201.457 E0.07852
G1 X104.960 Y200.920 E0.01691
G1 X106.721 Y202.681 E0.07852
G1 X106.721 Y202.145 E0.01691
G1 X104.960 Y200.384 E0.07852
G1 X104.960 Y199.848 E0.01691
G1 X106.721 Y201.608 E0.07852
G1 X106.721 Y201.072 E0.01691
G1 X104.960 Y199.311 E0.07852
G1 X104.960 Y198.775 E0.01691
G1 X106.721 Y200.536 E0.07852
G1 X106.721 Y199.999 E0.01691
G1 X104.960 Y198.239 E0.07852
G1 X104.960 Y197.702 E0.01691
G1 X106.721 Y199.463 E0.07852
G1 X106.721 Y198.927 E0.01691
G1 X104.960 Y197.166 E0.07852
G1 X104.960 Y196.630 E0.01691
G1 X106.721 Y198.390 E0.07852
G1 X106.721 Y197.854 E0.01691
G1 X104.960 Y196.093 E0.07852
G1 X104.960 Y195.557 E0.01691
G1 X106.721 Y197.318 E0.07852
G1 X106.721 Y196.781 E0.01691
G1 X104.960 Y195.021 E0.07852
G1 X104.960 Y194.484 E0.01691
G1 X106.721 Y196.245 E0.07852
G1 X106.721 Y195.709 E0.01691
G1 X104.960 Y193.948 E0.07852
G1 X104.960 Y193.412 E0.01691
G1 X106.721 Y195.172 E0.07852
G1 X106.721 Y194.636 E0.01691
G1 X104.960 Y192.875 E0.07852
G1 X104.960 Y192.339 E0.01691
G1 X106.721 Y194.100 E0.07852
G1 X106.721 Y193.563 E0.01691
G1 X104.960 Y191.803 E0.07852
G1 X104.960 Y191.266 E0.01691
G1 X106.721 Y193.027 E0.07852
G1 X106.721 Y192.491 E0.01691
G1 X104.960 Y190.730 E0.07852
G1 X104.960 Y190.194 E0.01691
G1 X106.721 Y191.954 E0.07852
G1 X106.721 Y191.418 E0.01691
G1 X104.960 Y189.657 E0.07852
G1 X104.960 Y189.121 E0.01691
G1 X106.721 Y190.882 E0.07852
G1 X106.721 Y190.345 E0.01691
G1 X104.960 Y188.585 E0.07852
G1 X104.960 Y188.048 E0.01691
G1 X106.721 Y189.809 E0.07852
G1 X106.721 Y189.273 E0.01691
G1 X104.960 Y187.512 E0.07852
G1 X104.960 Y186.976 E0.01691
G1 X106.721 Y188.736 E0.07852
G1 X106.721 Y188.200 E0.01691
G1 X104.960 Y186.439 E0.07852
G1 X104.960 Y185.903 E0.01691
G1 X106.721 Y187.664 E0.07852
G1 X106.721 Y187.127 E0.01691
G1 X104.960 Y185.367 E0.07852
G1 X104.960 Y184.830 E0.01691
G1 X106.721 Y186.591 E0.07852
G1 X106.721 Y186.055 E0.01691
G1 X104.960 Y184.294 E0.07852
G1 X104.960 Y183.758 E0.01691
G1 X106.721 Y185.518 E0.07852
G1 X106.721 Y184.982 E0.01691
G1 X104.960 Y183.221 E0.07852
G1 X104.960 Y182.685 E0.01691
G1 X106.721 Y184.446 E0.07852
G1 X106.721 Y183.909 E0.01691
G1 X104.960 Y182.149 E0.07852
G1 X104.960 Y181.612 E0.01691
G1 X106.721 Y183.373 E0.07852
G1 X106.721 Y182.837 E0.01691
G1 X104.960 Y181.076 E0.07852
G1 X104.960 Y180.540 E0.01691
G1 X106.721 Y182.300 E0.07852
G1 X106.721 Y181.764 E0.01691
G1 X104.960 Y180.003 E0.07852
G1 X104.960 Y179.467 E0.01691
G1 X106.721 Y181.228 E0.07852
G1 X106.721 Y180.691 E0.01691
G1 X104.960 Y178.931 E0.07852
G1 X104.960 Y178.394 E0.01691
G1 X106.721 Y180.155 E0.07852
G1 X106.721 Y179.619 E0.01691
G1 X104.960 Y177.858 E0.07852
G1 X104.960 Y177.322 E0.01691
G1 X106.721 Y179.082 E0.07852
G1 X106.721 Y178.546 E0.01691
G1 X104.960 Y176.785 E0.07852
G1 X104.960 Y176.249 E0.01691
G1 X106.721 Y178.010 E0.07852
G1 X106.721 Y177.473 E0.01691
G1 X104.960 Y175.713 E0.07852
G1 X104.960 Y175.176 E0.01691
G1 X106.721 Y176.937 E0.07852
G1 X106.721 Y176.401 E0.01691
G1 X104.960 Y174.640 E0.07852
G1 X104.960 Y174.104 E0.01691
G1 X106.721 Y175.864 E0.07852
G1 X106.721 Y175.328 E0.01691
G1 X104.960 Y173.567 E0.07852
G1 X104.960 Y173.031 E0.01691
G1 X106.721 Y174.792 E0.07852
G1 X106.721 Y174.255 E0.01691
G1 X104.960 Y172.495 E0.07852
G1 X104.960 Y171.958 E0.01691
G1 X106.721 Y173.719 E0.07852
G1 X106.721 Y173.183 E0.01691
G1 X104.960 Y171.422 E0.07852
G1 X104.960 Y170.886 E0.01691
G1 X106.721 Y172.646 E0.07852
G1 X106.721 Y172.110 E0.01691
G1 X104.960 Y170.349 E0.07852
G1 X104.960 Y169.813 E0.01691
G1 X106.721 Y171.574 E0.07852
G1 X106.721 Y171.037 E0.01691
G1 X104.960 Y169.277 E0.07852
G1 X104.960 Y168.740 E0.01691
G1 X106.721 Y170.501 E0.07852
G1 X106.721 Y169.965 E0.01691
G1 X104.960 Y168.204 E0.07852
G1 X104.960 Y167.668 E0.01691
G1 X106.721 Y169.428 E0.07852
G1 X106.721 Y168.892 E0.01691
G1 X104.960 Y167.131 E0.07852
G1 X104.960 Y166.595 E0.01691
G1 X106.721 Y168.356 E0.07852
G1 X106.721 Y167.819 E0.01691
G1 X104.960 Y166.059 E0.07852
G1 X104.960 Y165.522 E0.01691
G1 X106.721 Y167.283 E0.07852
G1 X106.721 Y166.747 E0.01691
G1 X104.960 Y164.986 E0.07852
G1 X104.960 Y164.450 E0.01691
G1 X106.721 Y166.210 E0.07852
G1 X106.721 Y165.674 E0.01691
G1 X104.960 Y163.913 E0.07852
G1 X104.960 Y163.377 E0.01691
G1 X106.721 Y165.138 E0.07852
G1 X106.721 Y164.601 E0.01691
G1 X104.960 Y162.841 E0.07852
G1 X104.960 Y162.304 E0.01691
G1 X106.721 Y164.065 E0.07852
G1 X106.721 Y163.529 E0.01691
G1 X104.960 Y161.768 E0.07852
G1 X104.960 Y161.232 E0.01691
G1 X106.721 Y162.992 E0.07852
G1 X106.721 Y162.456 E0.01691
G1 X104.960 Y160.695 E0.07852
G1 X104.960 Y160.159 E0.01691
G1 X106.721 Y161.920 E0.07852
G1 X106.721 Y161.383 E0.01691
G1 X104.960 Y159.623 E0.07852
G1 X104.960 Y159.086 E0.01691
G1 X106.721 Y160.847 E0.07852
G1 X106.721 Y160.311 E0.01691
G1 X104.960 Y158.550 E0.07852
G1 X104.960 Y158.014 E0.01691
G1 X106.721 Y159.774 E0.07852
G1 X106.721 Y159.238 E0.01691
G1 X104.960 Y157.477 E0.07852
G1 X104.960 Y156.941 E0.01691
G1 X106.721 Y158.702 E0.07852
G1 X106.721 Y158.165 E0.01691
G1 X104.960 Y156.405 E0.07852
G1 X104.960 Y155.868 E0.01691
G1 X106.721 Y157.629 E0.07852
G1 X106.721 Y157.093 E0.01691
G1 X104.960 Y155.332 E0.07852
G1 X104.960 Y154.796 E0.01691
G1 X106.721 Y156.556 E0.07852
G1 X106.721 Y156.020 E0.01691
G1 X104.960 Y154.259 E0.07852
G1 X104.960 Y153.723 E0.01691
G1 X106.721 Y155.484 E0.07852
G1 X106.721 Y154.947 E0.01691
G1 X104.960 Y153.187 E0.07852
G1 X104.960 Y152.650 E0.01691
G1 X106.721 Y154.411 E0.07852
G1 X106.721 Y153.875 E0.01691
G1 X104.960 Y152.114 E0.07852
G1 X104.960 Y151.578 E0.01691
G1 X106.721 Y153.338 E0.07852
G1 X106.721 Y152.802 E0.01691
