; generated by PrusaSlicer 2.4.2+win64 on 2022-07-28 at 19:46:44 UTC

; 

; external perimeters extrusion width = 0.45mm
; perimeters extrusion width = 0.45mm
; infill extrusion width = 0.45mm
; solid infill extrusion width = 0.45mm
; top infill extrusion width = 0.40mm
; first layer extrusion width = 0.42mm

M73 P0 R180
M73 Q0 S180
M107
;TYPE:Custom
M862.3 P "MK3S" ; printer model check
M862.1 P0.4 ; nozzle diameter check
M115 U3.8.0 ; tell printer latest fw version
G90 ; use absolute coordinates
M83 ; extruder relative mode
M104 S215 ; set extruder temp
M140 S60 ; set bed temp
M190 S60 ; wait for bed temp
M109 S215 ; wait for extruder temp
G28 W ; home all without mesh bed level
G80 ; mesh bed leveling
G1 Y-3.0 F1000.0 ; go outside print area
G92 E0.0
G1 X60.0 E9.0 F1000.0 ; intro line
G1 X100.0 E12.5 F1000.0 ; intro line
G92 E0.0
M221 S95
G21 ; set units to millimeters
G90 ; use absolute coordinates
M83 ; use relative distances for extrusion
M900 K0.05 ; Filament gcode LA 1.5
M900 K30 ; Filament gcode LA 1.0
M107
;LAYER_CHANGE
;Z:0.2
;HEIGHT:0.2
;BEFORE_LAYER_CHANGE
G92 E0.0
;0.2


G1 E-.8 F2100
M73 P0 R179
G1 Z.6 F10800
;AFTER_LAYER_CHANGE
;0.2
G1 X18.351 Y17.507
G1 Z.2
G1 E.8 F2100
M204 S1000
;TYPE:Skirt/Brim
;WIDTH:0.42
G1 F1200
G1 X21.924 Y13.762 E.16229
G1 X23.195 Y13.068 E.04539
G1 X40.107 Y9.832 E.53989
G1 X143.604 Y2.802 E3.25254
G1 X178.868 Y2.481 E1.10573
G1 X185.997 Y2.482 E.22354
G1 X196.066 Y2.829 E.31589
G1 X211.878 Y5.463 E.5026
G1 X212.854 Y5.864 E.03309
G1 X215.094 Y7.439 E.08586
G1 X215.584 Y7.899 E.02108
G1 X240.782 Y39.439 E1.26577
G1 X241.302 Y40.975 E.05081
G1 X238.658 Y163.109 E3.83032
G1 X238.212 Y164.445 E.04417
G1 X213.014 Y199.5 E1.35363
G1 X211.933 Y200.333 E.04278
G1 X211.19 Y200.487 E.02379
G1 X54.431 Y207.517 E4.92
G1 X53.934 Y207.487 E.01562
M73 Q0 S179
G1 X38.122 Y204.852 E.5026
G1 X37.146 Y204.452 E.03309
G1 X34.906 Y202.877 E.08586
G1 X34.416 Y202.416 E.02108
G1 X9.218 Y170.876 E1.26577
G1 X8.698 Y169.344 E.05072
G1 X11.401 Y36.154 E4.17695
G1 X13.487 Y23.208 E.41114
G1 X14.113 Y21.95 E.04407
G1 X18.31 Y17.55 E.19064
; printing object side diff.stl id:3 copy 21
G1 E-.8 F2100
G1 Z.8 F10800
G1 X195.782 Y181.922
G1 Z.2
G1 E.8 F2100
;TYPE:Perimeter
G1 F1200
G1 X196.294 Y181.787 E.01663
G1 X197.307 Y181.409 E.0339
G1 X198.277 Y180.931 E.0339
G1 X199.194 Y180.358 E.0339
G1 X200.049 Y179.697 E.0339
G1 X200.834 Y178.953 E.0339
G1 X201.54 Y178.135 E.0339
G1 X201.754 Y177.829 E.01171
G1 X202.16 Y177.249 E.02218
G1 X202.689 Y176.306 E.0339
G1 X203.121 Y175.315 E.0339
G1 X203.451 Y174.286 E.0339
G1 X203.535 Y173.89 E.01269
G1 X209.178 Y173.89 E.17692
G1 X210.172 Y195.417 E.67569
G1 X210.203 Y195.935 E.01625
G1 X210.274 Y196.493 E.01766
G1 X209.849 Y196.101 E.01813
G1 X208.742 Y195.372 E.04157
G1 X207.586 Y194.757 E.04104
G1 X206.382 Y194.248 E.04101
G1 X205.137 Y193.848 E.04101
G1 X203.861 Y193.56 E.041
G1 X202.565 Y193.387 E.04101
G1 X201.258 Y193.33 E.041
G1 X199.952 Y193.389 E.04101
G1 X198.656 Y193.564 E.041
G1 X197.38 Y193.854 E.04101
G1 X196.136 Y194.256 E.04101
G1 X195.367 Y194.582 E.02619
G1 X193.888 Y193.542 E.05668
G1 X195.772 Y181.981 E.36727
G1 X195.449 Y181.62 F10800
;TYPE:External perimeter
G1 F1200
G1 X196.18 Y181.427 E.02371
G1 X197.158 Y181.062 E.03271
G1 X198.093 Y180.601 E.03271
G1 X198.978 Y180.049 E.03271
G1 X199.803 Y179.41 E.03271
G1 X200.56 Y178.693 E.03271
G1 X201.242 Y177.903 E.03271
G1 X201.445 Y177.612 E.01112
G1 X201.84 Y177.048 E.02159
G1 X202.351 Y176.138 E.03271
G1 X202.767 Y175.182 E.03271
G1 X203.086 Y174.189 E.03271
G1 X203.23 Y173.513 E.02166
G1 X209.538 Y173.513 E.19778
G1 X210.548 Y195.397 E.6869
G1 X210.579 Y195.9 E.01579
G1 X210.642 Y196.409 E.01609
G1 X210.836 Y197.306 E.02877
G1 X210.851 Y197.639 E.01047
G1 X210.5 Y197.346 E.01436
G1 X210.246 Y197.024 E.01285
G1 X209.953 Y196.7 E.01369
G1 X209.619 Y196.401 E.01407
G1 X208.549 Y195.697 E.04015
G1 X207.424 Y195.098 E.03996
G1 X206.25 Y194.602 E.03995
G1 X205.037 Y194.212 E.03995
G1 X203.794 Y193.932 E.03995
G1 X202.531 Y193.763 E.03995
G1 X201.258 Y193.707 E.03995
G1 X199.985 Y193.765 E.03995
G1 X198.723 Y193.935 E.03995
G1 X197.48 Y194.218 E.03995
G1 X196.268 Y194.609 E.03995
G1 X195.321 Y195.011 E.03223
G1 X193.478 Y193.715 E.07066
G1 X195.439 Y181.679 E.38236
G1 X195.824 Y181.759 F10800
G1 E-.8 F2100
G1 Z.8 F10800
G1 X208.295 Y174.003
G1 Z.2
G1 E.8 F2100
;TYPE:Solid infill
;WIDTH:0.425334
G1 F1200
G1 X208.929 Y174.637 E.0285
G1 X208.955 Y175.204 E.01805
G1 X207.924 Y174.173 E.04637
G1 X207.383 Y174.173 E.0172
G1 X208.982 Y175.771 E.07187
G1 X209.008 Y176.338 E.01805
G1 X206.843 Y174.173 E.09736
G1 X206.302 Y174.173 E.0172
G1 X209.034 Y176.905 E.12286
G1 X209.06 Y177.472 E.01805
G1 X205.761 Y174.173 E.14836
G1 X205.22 Y174.173 E.0172
G1 X209.086 Y178.039 E.17385
G1 X209.112 Y178.606 E.01805
G1 X204.679 Y174.173 E.19935
G1 X204.139 Y174.173 E.0172
G1 X209.139 Y179.173 E.22485
G1 X209.165 Y179.74 E.01805
G1 X203.735 Y174.31 E.24418
G1 X203.607 Y174.723 E.01376
G1 X209.191 Y180.307 E.25109
G1 X209.217 Y180.874 E.01805
G1 X203.476 Y175.133 E.25817
G1 X203.335 Y175.532 E.01347
G1 X209.243 Y181.441 E.26571
G1 X209.27 Y182.008 E.01805
G1 X203.17 Y175.909 E.27427
G1 X203.006 Y176.286 E.01307
G1 X209.296 Y182.575 E.28282
G1 X209.322 Y183.142 E.01805
G1 X202.824 Y176.644 E.29221
G1 X202.63 Y176.99 E.01263
G1 X209.348 Y183.709 E.30212
G1 X209.374 Y184.276 E.01805
G1 X202.435 Y177.337 E.31204
G1 X202.218 Y177.66 E.01239
G1 X209.4 Y184.843 E.323
G1 X209.427 Y185.41 E.01805
G1 X201.995 Y177.978 E.3342
G1 X201.772 Y178.296 E.01235
G1 X209.453 Y185.977 E.3454
G1 X209.479 Y186.544 E.01805
G1 X201.523 Y178.587 E.35779
G1 X201.272 Y178.878 E.01219
G1 X209.505 Y187.111 E.37023
G1 X209.531 Y187.678 E.01805
M73 P0 R178
G1 X201.02 Y179.166 E.38275
G1 X200.742 Y179.429 E.01216
G1 X209.557 Y188.245 E.39641
G1 X209.584 Y188.812 E.01805
G1 X200.465 Y179.693 E.41008
G1 X200.182 Y179.951 E.01217
G1 X209.61 Y189.379 E.42394
G1 X209.636 Y189.946 E.01805
G1 X199.877 Y180.187 E.43883
G1 X199.573 Y180.423 E.01226
G1 X209.662 Y190.513 E.45372
G1 X209.688 Y191.08 E.01805
G1 X199.26 Y180.651 E.46897
G1 X198.927 Y180.859 E.01248
G1 X209.715 Y191.647 E.48512
G1 X209.741 Y192.214 E.01805
G1 X198.594 Y181.067 E.50127
G1 X198.247 Y181.261 E.01263
G1 X209.767 Y192.781 E.51803
G1 X209.793 Y193.348 E.01805
G1 X197.885 Y181.439 E.5355
G1 X197.523 Y181.618 E.01284
G1 X209.819 Y193.915 E.55297
G1 X209.845 Y194.482 E.01805
G1 X197.138 Y181.774 E.57145
G1 X196.744 Y181.921 E.01336
G1 X209.872 Y195.049 E.59033
G1 X209.901 Y195.618 E.01814
G1 X196.348 Y182.066 E.60946
G1 X196.031 Y182.149 E.01041
G1 X196.011 Y182.27 E.00391
G1 X208.852 Y195.111 E.57744
G1 X207.698 Y194.498 E.04155
G1 X195.936 Y182.735 E.52896
G1 X195.86 Y183.2 E.01498
G1 X206.761 Y194.102 E.49023
G1 X206.48 Y193.983 E.0097
G1 X205.922 Y193.803 E.01863
G1 X195.784 Y183.665 E.4559
G1 X195.708 Y184.13 E.01498
G1 X205.136 Y193.558 E.42395
G1 X204.438 Y193.4 E.02277
G1 X195.633 Y184.595 E.39595
G1 X195.557 Y185.06 E.01498
G1 X203.757 Y193.261 E.36877
G1 X203.133 Y193.178 E.02003
G1 X195.481 Y185.525 E.34411
G1 X195.405 Y185.99 E.01498
G1 X202.516 Y193.102 E.31979
G1 X201.951 Y193.077 E.018
G1 X195.329 Y186.455 E.29776
G1 X195.254 Y186.92 E.01498
G1 X201.385 Y193.052 E.27573
G1 X200.857 Y193.065 E.0168
G1 X195.178 Y187.386 E.25539
G1 X195.102 Y187.851 E.01498
G1 X200.34 Y193.088 E.23553
G1 X199.831 Y193.12 E.01622
G1 X195.026 Y188.316 E.21604
G1 X194.951 Y188.781 E.01498
G1 X199.354 Y193.184 E.19802
G1 X198.878 Y193.249 E.01529
G1 X194.875 Y189.246 E.18001
G1 X194.799 Y189.711 E.01498
G1 X198.417 Y193.328 E.16268
G1 X197.976 Y193.428 E.01437
G1 X194.723 Y190.176 E.14627
G1 X194.647 Y190.641 E.01498
G1 X197.535 Y193.529 E.12986
G1 X197.11 Y193.644 E.01402
G1 X194.572 Y191.106 E.11414
G1 X194.496 Y191.571 E.01498
G1 X196.701 Y193.776 E.09916
G1 X196.292 Y193.908 E.01366
G1 X194.42 Y192.036 E.08419
G1 X194.344 Y192.501 E.01498
G1 X195.894 Y194.051 E.06971
G1 X195.515 Y194.212 E.01311
G1 X194.121 Y192.818 E.06269
G1 E-.8 F2100
G1 Z.8 F10800
G1 X210.364 Y196.66
G1 Z.2
G1 E.8 F2100
;TYPE:Gap fill
;WIDTH:0.216624
G1 F1200
G1 X210.586 Y197.111 E.00727
; stop printing object side diff.stl id:3 copy 21
; printing object side diff.stl id:0 copy 16
G1 E-.8 F2100
G1 Z.8 F10800
G1 X181.562 Y186.094
G1 Z.2
G1 E.8 F2100
;TYPE:Perimeter
;WIDTH:0.42
G1 F1200
G1 X181.049 Y186.229 E.01663
G1 X180.036 Y186.607 E.0339
G1 X179.067 Y187.085 E.0339
G1 X178.15 Y187.658 E.0339
G1 X177.295 Y188.319 E.0339
G1 X176.51 Y189.063 E.0339
G1 X175.804 Y189.881 E.0339
G1 X175.59 Y190.187 E.01171
G1 X175.184 Y190.767 E.02218
G1 X174.655 Y191.71 E.0339
G1 X174.223 Y192.701 E.0339
G1 X173.893 Y193.73 E.0339
G1 X173.809 Y194.126 E.01269
G1 X168.166 Y194.126 E.17692
G1 X167.182 Y172.803 E.66929
G1 X167.11 Y171.784 E.03201
G1 X167.061 Y171.514 E.00861
G1 X167.494 Y171.915 E.01849
G1 X168.602 Y172.644 E.04157
G1 X169.757 Y173.259 E.04104
G1 X170.962 Y173.768 E.04101
G1 X172.207 Y174.168 E.04101
G1 X173.483 Y174.456 E.041
G1 X174.779 Y174.629 E.04101
G1 X176.086 Y174.686 E.041
G1 X177.392 Y174.627 E.04101
G1 X178.688 Y174.452 E.041
G1 X179.963 Y174.162 E.04101
G1 X181.208 Y173.76 E.04101
G1 X181.977 Y173.434 E.02619
G1 X183.456 Y174.474 E.05668
G1 X181.572 Y186.035 E.36727
G1 X181.895 Y186.396 F10800
;TYPE:External perimeter
G1 F1200
G1 X181.163 Y186.589 E.02371
G1 X180.186 Y186.954 E.03271
G1 X179.25 Y187.415 E.03271
G1 X178.365 Y187.967 E.03271
G1 X177.54 Y188.606 E.03271
G1 X176.783 Y189.323 E.03271
G1 X176.102 Y190.113 E.03271
G1 X175.898 Y190.404 E.01112
G1 X175.503 Y190.968 E.02159
G1 X174.993 Y191.878 E.03271
G1 X174.576 Y192.834 E.03271
G1 X174.258 Y193.827 E.03271
G1 X174.114 Y194.503 E.02166
G1 X167.806 Y194.503 E.19778
G1 X166.805 Y172.825 E.68044
G1 X166.735 Y171.831 E.03123
M73 Q0 S178
G1 X166.644 Y171.323 E.01618
G1 X166.514 Y170.851 E.01534
G1 X166.495 Y170.385 E.01465
G1 X166.844 Y170.67 E.01413
G1 X167.098 Y170.992 E.01285
G1 X167.39 Y171.316 E.01369
G1 X167.725 Y171.615 E.01407
G1 X168.795 Y172.319 E.04015
G1 X169.92 Y172.918 E.03996
G1 X171.093 Y173.414 E.03995
G1 X172.306 Y173.804 E.03995
G1 X173.549 Y174.084 E.03995
G1 X174.812 Y174.253 E.03995
G1 X176.085 Y174.309 E.03995
G1 X177.358 Y174.251 E.03995
G1 X178.621 Y174.081 E.03995
G1 X179.863 Y173.798 E.03995
G1 X181.076 Y173.407 E.03995
G1 X182.022 Y173.005 E.03223
G1 X183.866 Y174.301 E.07066
G1 X181.904 Y186.337 E.38236
G1 X181.52 Y186.257 F10800
G1 E-.8 F2100
G1 Z.8 F10800
G1 X183.223 Y175.198
G1 Z.2
G1 E.8 F2100
;TYPE:Solid infill
;WIDTH:0.425334
G1 F1200
G1 X181.829 Y173.804 E.06269
G1 X181.449 Y173.965 E.01311
G1 X182.999 Y175.515 E.06971
G1 X182.924 Y175.98 E.01498
G1 X181.051 Y174.108 E.08419
G1 X180.643 Y174.24 E.01366
G1 X182.848 Y176.445 E.09917
G1 X182.772 Y176.91 E.01498
G1 X180.234 Y174.372 E.11414
G1 X179.808 Y174.487 E.01402
G1 X182.696 Y177.375 E.12986
G1 X182.62 Y177.84 E.01498
G1 X179.368 Y174.588 E.14627
G1 X178.927 Y174.688 E.01437
G1 X182.545 Y178.305 E.16268
G1 X182.469 Y178.77 E.01498
G1 X178.466 Y174.767 E.18001
G1 X177.99 Y174.832 E.01529
G1 X182.393 Y179.235 E.19803
G1 X182.317 Y179.7 E.01498
G1 X177.513 Y174.896 E.21604
G1 X177.004 Y174.928 E.01622
G1 X182.242 Y180.166 E.23553
G1 X182.166 Y180.631 E.01498
G1 X176.487 Y174.951 E.25539
G1 X175.958 Y174.964 E.0168
G1 X182.09 Y181.096 E.27574
G1 X182.014 Y181.561 E.01498
G1 X175.393 Y174.939 E.29776
G1 X174.827 Y174.914 E.018
G1 X181.938 Y182.026 E.31979
G1 X181.863 Y182.491 E.01498
G1 X174.21 Y174.838 E.34411
G1 X173.586 Y174.755 E.02003
G1 X181.787 Y182.956 E.36877
G1 X181.711 Y183.421 E.01498
G1 X172.906 Y174.616 E.39595
G1 X172.208 Y174.458 E.02277
G1 X181.635 Y183.886 E.42395
G1 X181.56 Y184.351 E.01498
G1 X171.421 Y174.213 E.45591
G1 X170.863 Y174.033 E.01863
G1 X170.582 Y173.914 E.00971
G1 X181.484 Y184.816 E.49023
G1 X181.408 Y185.281 E.01498
G1 X169.645 Y173.518 E.52896
G1 X168.491 Y172.905 E.04155
G1 X181.332 Y185.746 E.57745
G1 X181.312 Y185.867 E.00391
M73 Q1 S178
G1 X180.996 Y185.95 E.01041
G1 X167.436 Y172.391 E.60977
G1 X167.472 Y172.968 E.01838
M73 P1 R178
G1 X180.6 Y186.095 E.59032
G1 X180.206 Y186.242 E.01336
G1 X167.499 Y173.535 E.57143
G1 X167.525 Y174.102 E.01805
G1 X179.821 Y186.398 E.55295
G1 X179.459 Y186.577 E.01284
G1 X167.551 Y174.669 E.53549
G1 X167.577 Y175.236 E.01805
G1 X179.096 Y186.755 E.51802
G1 X178.75 Y186.949 E.01263
G1 X167.603 Y175.803 E.50126
G1 X167.629 Y176.37 E.01805
G1 X178.417 Y187.157 E.48511
G1 X178.084 Y187.365 E.01248
G1 X167.656 Y176.937 E.46896
G1 X167.682 Y177.504 E.01805
G1 X177.771 Y187.593 E.45371
G1 X177.466 Y187.829 E.01226
G1 X167.708 Y178.071 E.43882
G1 X167.734 Y178.638 E.01805
G1 X177.161 Y188.065 E.42393
G1 X176.879 Y188.323 E.01217
G1 X167.76 Y179.205 E.41006
G1 X167.786 Y179.771 E.01805
G1 X176.601 Y188.587 E.3964
G1 X176.324 Y188.85 E.01216
G1 X167.813 Y180.338 E.38274
G1 X167.839 Y180.905 E.01805
G1 X176.072 Y189.138 E.37022
G1 X175.821 Y189.429 E.01219
G1 X167.865 Y181.472 E.35778
G1 X167.891 Y182.039 E.01805
G1 X175.572 Y189.72 E.34539
G1 X175.349 Y190.038 E.01235
G1 X167.917 Y182.606 E.3342
G1 X167.943 Y183.173 E.01805
G1 X175.126 Y190.356 E.323
G1 X174.908 Y190.679 E.01239
G1 X167.97 Y183.74 E.31203
G1 X167.996 Y184.307 E.01805
G1 X174.714 Y191.026 E.30212
G1 X174.52 Y191.372 E.01263
G1 X168.022 Y184.874 E.2922
G1 X168.048 Y185.441 E.01805
G1 X174.337 Y191.731 E.28282
G1 X174.173 Y192.107 E.01307
M73 P1 R177
G1 X168.074 Y186.008 E.27426
G1 X168.1 Y186.575 E.01805
G1 X174.009 Y192.484 E.26571
G1 X173.868 Y192.883 E.01347
G1 X168.127 Y187.142 E.25817
G1 X168.153 Y187.709 E.01805
G1 X173.736 Y193.293 E.25109
G1 X173.609 Y193.706 E.01376
G1 X168.179 Y188.276 E.24418
G1 X168.205 Y188.843 E.01805
G1 X173.205 Y193.843 E.22484
G1 X172.664 Y193.843 E.0172
G1 X168.231 Y189.41 E.19935
G1 X168.257 Y189.977 E.01805
G1 X172.123 Y193.843 E.17385
G1 X171.583 Y193.843 E.0172
G1 X168.284 Y190.544 E.14835
G1 X168.31 Y191.111 E.01805
G1 X171.042 Y193.843 E.12286
G1 X170.501 Y193.843 E.0172
G1 X168.336 Y191.678 E.09736
G1 X168.362 Y192.245 E.01805
G1 X169.96 Y193.843 E.07186
G1 X169.419 Y193.843 E.0172
G1 X168.388 Y192.812 E.04637
G1 X168.414 Y193.379 E.01805
G1 X169.048 Y194.013 E.0285
G1 E-.8 F2100
G1 Z.8 F10800
G1 X166.979 Y171.344
G1 Z.2
G1 E.8 F2100
;TYPE:Gap fill
;WIDTH:0.217905
G1 F1200
G1 X166.731 Y170.873 E.00775
; stop printing object side diff.stl id:0 copy 16
; printing object side diff.stl id:3 copy 11
G1 E-.8 F2100
G1 Z.8 F10800
G1 X155.916 Y173.89
G1 Z.2
G1 E.8 F2100
;TYPE:Perimeter
;WIDTH:0.42
G1 F1200
G1 X156.91 Y195.417 E.67569
G1 X156.941 Y195.935 E.01625
G1 X157.012 Y196.493 E.01766
G1 X156.587 Y196.101 E.01813
G1 X155.48 Y195.372 E.04157
G1 X154.324 Y194.757 E.04104
G1 X153.12 Y194.248 E.04101
G1 X151.875 Y193.848 E.04101
G1 X150.599 Y193.56 E.041
G1 X149.303 Y193.387 E.04101
G1 X147.996 Y193.33 E.041
G1 X146.689 Y193.389 E.04101
G1 X145.393 Y193.564 E.041
G1 X144.118 Y193.854 E.04101
G1 X142.874 Y194.256 E.04101
G1 X142.105 Y194.582 E.02619
G1 X140.626 Y193.542 E.05668
G1 X142.52 Y181.922 E.36915
G1 X143.032 Y181.787 E.01663
G1 X144.045 Y181.409 E.0339
G1 X145.015 Y180.931 E.0339
G1 X145.932 Y180.358 E.0339
G1 X146.787 Y179.697 E.0339
G1 X147.571 Y178.953 E.0339
G1 X148.278 Y178.135 E.0339
G1 X148.492 Y177.829 E.01171
G1 X148.898 Y177.249 E.02218
G1 X149.427 Y176.306 E.0339
G1 X149.858 Y175.315 E.0339
G1 X150.189 Y174.286 E.0339
G1 X150.273 Y173.89 E.01269
G1 X155.856 Y173.89 E.17504
G1 X156.276 Y173.513 F10800
;TYPE:External perimeter
G1 F1200
G1 X157.286 Y195.397 E.6869
G1 X157.317 Y195.9 E.01579
G1 X157.38 Y196.409 E.01609
G1 X157.574 Y197.306 E.02877
G1 X157.589 Y197.639 E.01047
G1 X157.238 Y197.346 E.01436
G1 X156.984 Y197.024 E.01285
G1 X156.691 Y196.7 E.01369
G1 X156.357 Y196.401 E.01407
G1 X155.287 Y195.697 E.04015
G1 X154.162 Y195.098 E.03996
G1 X152.988 Y194.602 E.03995
G1 X151.775 Y194.212 E.03995
G1 X150.532 Y193.932 E.03995
G1 X149.269 Y193.763 E.03995
G1 X147.996 Y193.707 E.03995
G1 X146.723 Y193.765 E.03995
G1 X145.461 Y193.935 E.03995
G1 X144.218 Y194.218 E.03995
