; generated by PrusaSlicer 2.2.0+win64 on 2020-11-18 at 23:57:05 UTC

; 

; external perimeters extrusion width = 0.60mm
; perimeters extrusion width = 0.50mm
; infill extrusion width = 0.50mm
; solid infill extrusion width = 0.50mm
; top infill extrusion width = 0.45mm
; first layer extrusion width = 0.42mm

M73 P0 R42
M73 Q0 S42
M201 X1000 Y1000 Z1000 E5000 ; sets maximum accelerations, mm/sec^2
M203 X200 Y200 Z12 E120 ; sets maximum feedrates, mm/sec
M204 P1250 R1250 T1250 ; sets acceleration (P, T) and retract acceleration (R), mm/sec^2
M205 X8.00 Y8.00 Z0.40 E1.50 ; sets the jerk limits, mm/sec
M205 S0 T0 ; sets the minimum extruding and travel feed rate, mm/sec
M107
M862.3 P "MK3S" ; printer model check
M862.1 P0.4 ; nozzle diameter check
M115 U3.8.0 ; tell printer latest fw version
G90 ; use absolute coordinates
M83 ; extruder relative mode
M104 S215 ; set extruder temp
M140 S60 ; set bed temp
M190 S60 ; wait for bed temp
M109 S215 ; wait for extruder temp
G28 W ; home all without mesh bed level
G80 ; mesh bed leveling
G1 Y-3.0 F1000.0 ; go outside print area
G92 E0.0
G1 X60.0 E9.0 F1000.0 ; intro line
M73 Q0 S42
M73 P0 R42
G1 X100.0 E12.5 F1000.0 ; intro line
G92 E0.0
M221 S95
G21 ; set units to millimeters
G90 ; use absolute coordinates
M83 ; use relative distances for extrusion
M900 K0.05 ; Filament gcode LA 1.5
M900 K30 ; Filament gcode LA 1.0
;BEFORE_LAYER_CHANGE
G92 E0.0
;0.2


G1 E-0.80000 F2100.00000
G1 Z0.600 F10800.000
;AFTER_LAYER_CHANGE
;0.2
G1 X80.016 Y62.913
G1 Z0.200
G1 E0.80000 F2100.00000
M204 S1000
G1 F1200.000
G1 X80.755 Y62.189 E0.03244
G1 X82.003 Y61.400 E0.04628
G1 X108.440 Y50.735 E0.89382
G1 X109.408 Y50.466 E0.03152
G1 X110.480 Y50.365 E0.03375
G1 X149.491 Y50.365 E1.22317
G1 X150.454 Y50.446 E0.03031
G1 X151.296 Y50.654 E0.02720
G1 X152.525 Y51.217 E0.04239
G1 X153.212 Y51.696 E0.02625
G1 X153.922 Y52.386 E0.03102
G1 X154.494 Y53.164 E0.03030
G1 X154.936 Y54.041 E0.03078
G1 X171.083 Y102.944 E1.61476
G1 X171.285 Y103.823 E0.02828
G1 X171.376 Y105.313 E0.04680
G1 X171.268 Y106.319 E0.03171
G1 X164.102 Y138.138 E1.02265
G1 X163.498 Y139.687 E0.05214
G1 X162.616 Y140.998 E0.04954
G1 X161.454 Y142.108 E0.05037
G1 X160.171 Y142.893 E0.04716
G1 X128.080 Y158.943 E1.12502
G1 X126.710 Y159.412 E0.04540
G1 X125.792 Y159.572 E0.02921
G1 X124.330 Y159.580 E0.04585
G1 X123.379 Y159.432 E0.03017
G1 X121.922 Y158.938 E0.04823
G1 X92.995 Y145.705 E0.99738
G1 X92.483 Y145.385 E0.01894
G1 X91.958 Y144.782 E0.02508
G1 X78.839 Y122.972 E0.79801
G1 X78.668 Y122.476 E0.01645
G1 X78.610 Y121.954 E0.01647
G1 X78.610 Y66.718 E1.73187
G1 X78.667 Y65.910 E0.02539
G1 X78.815 Y65.196 E0.02286
G1 X79.199 Y64.167 E0.03446
G1 X79.983 Y62.963 E0.04503
G1 E-0.80000 F2100.00000
G1 Z0.800 F10800.000
G1 X87.200 Y121.167
G1 Z0.200
G1 E0.80000 F2100.00000
G1 F1200.000
G1 X81.774 Y121.167 E0.17012
G1 X81.774 Y109.937 E0.35210
G1 X81.804 Y109.523 E0.01301
G1 X81.886 Y109.145 E0.01213
G1 X82.021 Y108.783 E0.01213
G1 X82.207 Y108.443 E0.01213
G1 X82.439 Y108.133 E0.01213
G1 X82.712 Y107.860 E0.01213
G1 X83.022 Y107.628 E0.01213
G1 X83.361 Y107.443 E0.01213
G1 X83.724 Y107.308 E0.01213
G1 X84.102 Y107.225 E0.01213
G1 X84.487 Y107.198 E0.01213
G1 X84.873 Y107.225 E0.01213
G1 X85.251 Y107.308 E0.01213
G1 X85.614 Y107.443 E0.01213
G1 X85.953 Y107.628 E0.01213
G1 X86.263 Y107.860 E0.01213
G1 X86.536 Y108.133 E0.01213
G1 X86.768 Y108.443 E0.01213
G1 X86.953 Y108.783 E0.01213
G1 X87.088 Y109.145 E0.01213
G1 X87.171 Y109.523 E0.01213
G1 X87.200 Y109.937 E0.01301
G1 X87.200 Y121.107 E0.35022
G1 X87.577 Y121.544 F10800.000
G1 F1200.000
G1 X81.397 Y121.544 E0.19377
G1 X81.397 Y109.923 E0.36435
G1 X81.430 Y109.469 E0.01428
G1 X81.524 Y109.038 E0.01382
G1 X81.678 Y108.626 E0.01382
G1 X81.889 Y108.239 E0.01382
G1 X82.153 Y107.886 E0.01382
G1 X82.465 Y107.574 E0.01382
G1 X82.817 Y107.310 E0.01382
G1 X83.204 Y107.099 E0.01382
G1 X83.617 Y106.945 E0.01382
G1 X84.048 Y106.851 E0.01382
G1 X84.487 Y106.820 E0.01382
G1 X84.927 Y106.851 E0.01382
G1 X85.358 Y106.945 E0.01382
G1 X85.771 Y107.099 E0.01382
G1 X86.157 Y107.310 E0.01382
G1 X86.510 Y107.574 E0.01382
G1 X86.822 Y107.886 E0.01382
G1 X87.086 Y108.239 E0.01382
G1 X87.297 Y108.626 E0.01382
G1 X87.451 Y109.038 E0.01382
G1 X87.545 Y109.469 E0.01382
G1 X87.577 Y109.923 E0.01428
G1 X87.577 Y121.484 E0.36247
G1 X87.231 Y121.344 F10800.000
G1 E-0.80000 F2100.00000
G1 Z0.800 F10800.000
G1 X86.865 Y108.868
G1 Z0.200
G1 E0.80000 F2100.00000
G1 F1200.000
G1 X86.051 Y108.055 E0.03692
G1 X85.800 Y107.867 E0.01009
G1 X85.496 Y107.701 E0.01112
G1 X85.171 Y107.580 E0.01112
G1 X84.991 Y107.540 E0.00593
G1 X86.856 Y109.405 E0.08468
G1 X86.890 Y109.563 E0.00518
G1 X86.918 Y110.013 E0.01447
G1 X84.392 Y107.488 E0.11465
G1 X84.142 Y107.506 E0.00806
G1 X83.914 Y107.556 E0.00749
G1 X86.918 Y110.559 E0.13637
G1 X86.918 Y111.105 E0.01753
G1 X83.504 Y107.691 E0.15500
G1 X83.151 Y107.885 E0.01291
G1 X86.918 Y111.651 E0.17101
G1 X86.918 Y112.197 E0.01753
G1 X82.846 Y108.126 E0.18485
G1 X82.585 Y108.410 E0.01241
G1 X86.918 Y112.743 E0.19673
G1 X86.918 Y113.289 E0.01753
G1 X82.367 Y108.739 E0.20659
G1 X82.279 Y108.900 E0.00589
G1 X82.199 Y109.117 E0.00741
G1 X86.918 Y113.835 E0.21425
G1 X86.918 Y114.382 E0.01753
G1 X82.087 Y109.551 E0.21930
G1 X82.057 Y110.067 E0.01659
G1 X86.918 Y114.928 E0.22067
G1 X86.918 Y115.474 E0.01753
G1 X82.057 Y110.613 E0.22067
G1 X82.057 Y111.159 E0.01753
G1 X86.918 Y116.020 E0.22067
G1 X86.918 Y116.566 E0.01753
G1 X82.057 Y111.705 E0.22067
G1 X82.057 Y112.251 E0.01753
G1 X86.918 Y117.112 E0.22067
G1 X86.918 Y117.658 E0.01753
G1 X82.057 Y112.797 E0.22067
G1 X82.057 Y113.343 E0.01753
G1 X86.918 Y118.204 E0.22067
G1 X86.918 Y118.750 E0.01753
G1 X82.057 Y113.890 E0.22067
G1 X82.057 Y114.436 E0.01753
G1 X86.918 Y119.296 E0.22067
G1 X86.918 Y119.842 E0.01753
G1 X82.057 Y114.982 E0.22067
G1 X82.057 Y115.528 E0.01753
G1 X86.918 Y120.388 E0.22067
G1 X86.918 Y120.884 E0.01592
G1 X86.867 Y120.884 E0.00161
G1 X82.057 Y116.074 E0.21840
G1 X82.057 Y116.620 E0.01753
G1 X86.321 Y120.884 E0.19360
G1 X85.775 Y120.884 E0.01753
G1 X82.057 Y117.166 E0.16881
G1 X82.057 Y117.712 E0.01753
G1 X85.229 Y120.884 E0.14402
G1 X84.683 Y120.884 E0.01753
G1 X82.057 Y118.258 E0.11923
G1 X82.057 Y118.804 E0.01753
G1 X84.137 Y120.884 E0.09444
G1 X83.591 Y120.884 E0.01753
G1 X82.057 Y119.350 E0.06965
G1 X82.057 Y119.896 E0.01753
G1 X83.045 Y120.884 E0.04486
G1 X82.499 Y120.884 E0.01753
G1 X81.888 Y120.272 E0.02777
G1 E-0.80000 F2100.00000
G1 Z0.800 F10800.000
G1 X94.774 Y121.167
G1 Z0.200
G1 E0.80000 F2100.00000
G1 F1200.000
G1 X94.774 Y109.937 E0.35210
G1 X94.804 Y109.523 E0.01301
G1 X94.886 Y109.145 E0.01213
G1 X95.021 Y108.783 E0.01213
G1 X95.207 Y108.443 E0.01213
G1 X95.439 Y108.133 E0.01213
G1 X95.712 Y107.860 E0.01213
G1 X96.022 Y107.628 E0.01213
G1 X96.361 Y107.443 E0.01213
G1 X96.724 Y107.308 E0.01213
G1 X97.102 Y107.225 E0.01213
G1 X97.487 Y107.198 E0.01213
G1 X97.873 Y107.225 E0.01213
G1 X98.251 Y107.308 E0.01213
G1 X98.614 Y107.443 E0.01213
G1 X98.953 Y107.628 E0.01213
G1 X99.263 Y107.860 E0.01213
G1 X99.536 Y108.133 E0.01213
G1 X99.768 Y108.443 E0.01213
G1 X99.953 Y108.783 E0.01213
G1 X100.088 Y109.145 E0.01213
G1 X100.171 Y109.523 E0.01213
G1 X100.200 Y109.937 E0.01301
G1 X100.200 Y121.167 E0.35210
G1 X94.834 Y121.167 E0.16824
G1 X94.397 Y121.544 F10800.000
G1 F1200.000
G1 X94.397 Y109.923 E0.36435
G1 X94.430 Y109.469 E0.01428
G1 X94.524 Y109.038 E0.01382
G1 X94.678 Y108.626 E0.01382
G1 X94.889 Y108.239 E0.01382
G1 X95.153 Y107.886 E0.01382
G1 X95.465 Y107.574 E0.01382
G1 X95.817 Y107.310 E0.01382
G1 X96.204 Y107.099 E0.01382
G1 X96.617 Y106.945 E0.01382
G1 X97.048 Y106.851 E0.01382
G1 X97.487 Y106.820 E0.01382
G1 X97.927 Y106.851 E0.01382
G1 X98.358 Y106.945 E0.01382
G1 X98.771 Y107.099 E0.01382
G1 X99.157 Y107.310 E0.01382
G1 X99.510 Y107.574 E0.01382
G1 X99.822 Y107.886 E0.01382
G1 X100.086 Y108.239 E0.01382
G1 X100.297 Y108.626 E0.01382
G1 X100.451 Y109.038 E0.01382
G1 X100.545 Y109.469 E0.01382
G1 X100.577 Y109.923 E0.01428
G1 X100.577 Y121.544 E0.36435
G1 X94.457 Y121.544 E0.19189
G1 X94.462 Y121.149 F10800.000
G1 E-0.80000 F2100.00000
G1 Z0.800 F10800.000
G1 X99.865 Y108.868
G1 Z0.200
G1 E0.80000 F2100.00000
G1 F1200.000
G1 X99.051 Y108.055 E0.03692
G1 X98.800 Y107.867 E0.01009
G1 X98.496 Y107.701 E0.01112
G1 X98.171 Y107.580 E0.01112
G1 X97.991 Y107.540 E0.00593
G1 X99.856 Y109.405 E0.08468
G1 X99.890 Y109.563 E0.00518
G1 X99.918 Y110.013 E0.01447
G1 X97.392 Y107.488 E0.11465
G1 X97.142 Y107.506 E0.00806
G1 X96.914 Y107.556 E0.00749
G1 X99.918 Y110.559 E0.13637
G1 X99.918 Y111.105 E0.01753
G1 X96.504 Y107.691 E0.15500
G1 X96.151 Y107.885 E0.01291
G1 X99.918 Y111.651 E0.17101
G1 X99.918 Y112.197 E0.01753
G1 X95.846 Y108.126 E0.18485
G1 X95.585 Y108.410 E0.01241
G1 X99.918 Y112.743 E0.19673
G1 X99.918 Y113.289 E0.01753
G1 X95.367 Y108.739 E0.20659
G1 X95.279 Y108.900 E0.00589
G1 X95.199 Y109.117 E0.00741
G1 X99.918 Y113.835 E0.21425
G1 X99.918 Y114.382 E0.01753
G1 X95.087 Y109.551 E0.21930
G1 X95.057 Y110.067 E0.01659
G1 X99.918 Y114.928 E0.22067
G1 X99.918 Y115.474 E0.01753
G1 X95.057 Y110.613 E0.22067
G1 X95.057 Y111.159 E0.01753
G1 X99.918 Y116.020 E0.22067
G1 X99.918 Y116.566 E0.01753
G1 X95.057 Y111.705 E0.22067
G1 X95.057 Y112.251 E0.01753
G1 X99.918 Y117.112 E0.22067
G1 X99.918 Y117.658 E0.01753
G1 X95.057 Y112.797 E0.22067
G1 X95.057 Y113.343 E0.01753
G1 X99.918 Y118.204 E0.22067
G1 X99.918 Y118.750 E0.01753
G1 X95.057 Y113.890 E0.22067
G1 X95.057 Y114.436 E0.01753
G1 X99.918 Y119.296 E0.22067
G1 X99.918 Y119.842 E0.01753
G1 X95.057 Y114.982 E0.22067
G1 X95.057 Y115.528 E0.01753
G1 X99.918 Y120.388 E0.22067
G1 X99.918 Y120.884 E0.01592
G1 X99.867 Y120.884 E0.00161
G1 X95.057 Y116.074 E0.21840
G1 X95.057 Y116.620 E0.01753
G1 X99.321 Y120.884 E0.19360
G1 X98.775 Y120.884 E0.01753
G1 X95.057 Y117.166 E0.16881
G1 X95.057 Y117.712 E0.01753
G1 X98.229 Y120.884 E0.14402
G1 X97.683 Y120.884 E0.01753
G1 X95.057 Y118.258 E0.11923
G1 X95.057 Y118.804 E0.01753
G1 X97.137 Y120.884 E0.09444
G1 X96.591 Y120.884 E0.01753
G1 X95.057 Y119.350 E0.06965
G1 X95.057 Y119.896 E0.01753
G1 X96.045 Y120.884 E0.04486
G1 X95.499 Y120.884 E0.01753
G1 X94.888 Y120.272 E0.02777
G1 E-0.80000 F2100.00000
G1 Z0.800 F10800.000
G1 X100.200 Y142.758
G1 Z0.200
G1 E0.80000 F2100.00000
G1 F1200.000
G1 X94.774 Y142.758 E0.17012
G1 X94.774 Y131.528 E0.35210
G1 X94.804 Y131.114 E0.01301
G1 X94.886 Y130.736 E0.01213
G1 X95.021 Y130.374 E0.01213
G1 X95.207 Y130.035 E0.01213
G1 X95.439 Y129.725 E0.01213
G1 X95.712 Y129.451 E0.01213
G1 X96.022 Y129.220 E0.01213
G1 X96.361 Y129.034 E0.01213
G1 X96.724 Y128.899 E0.01213
G1 X97.102 Y128.817 E0.01213
G1 X97.487 Y128.789 E0.01213
G1 X97.873 Y128.817 E0.01213
G1 X98.251 Y128.899 E0.01213
G1 X98.614 Y129.034 E0.01213
G1 X98.953 Y129.220 E0.01213
G1 X99.263 Y129.451 E0.01213
G1 X99.536 Y129.725 E0.01213
G1 X99.768 Y130.035 E0.01213
G1 X99.953 Y130.374 E0.01213
G1 X100.088 Y130.736 E0.01213
G1 X100.171 Y131.114 E0.01213
G1 X100.200 Y131.528 E0.01301
G1 X100.200 Y142.698 E0.35022
G1 X100.577 Y143.135 F10800.000
G1 F1200.000
G1 X94.397 Y143.135 E0.19377
G1 X94.397 Y131.515 E0.36435
G1 X94.430 Y131.061 E0.01428
G1 X94.524 Y130.630 E0.01382
G1 X94.678 Y130.217 E0.01382
G1 X94.889 Y129.830 E0.01382
G1 X95.153 Y129.477 E0.01382
G1 X95.465 Y129.166 E0.01382
G1 X95.817 Y128.902 E0.01382
G1 X96.204 Y128.690 E0.01382
G1 X96.617 Y128.536 E0.01382
G1 X97.048 Y128.443 E0.01382
G1 X97.487 Y128.411 E0.01382
G1 X97.927 Y128.443 E0.01382
G1 X98.358 Y128.536 E0.01382
G1 X98.771 Y128.690 E0.01382
G1 X99.157 Y128.902 E0.01382
G1 X99.510 Y129.166 E0.01382
G1 X99.822 Y129.477 E0.01382
G1 X100.086 Y129.830 E0.01382
G1 X100.297 Y130.217 E0.01382
G1 X100.451 Y130.630 E0.01382
G1 X100.545 Y131.061 E0.01382
G1 X100.577 Y131.515 E0.01428
G1 X100.577 Y143.075 E0.36247
G1 X100.231 Y142.936 F10800.000
G1 E-0.80000 F2100.00000
G1 Z0.800 F10800.000
G1 X99.865 Y130.460
G1 Z0.200
G1 E0.80000 F2100.00000
G1 F1200.000
G1 X99.051 Y129.646 E0.03692
G1 X98.800 Y129.458 E0.01009
G1 X98.496 Y129.292 E0.01112
G1 X98.171 Y129.171 E0.01112
G1 X97.991 Y129.132 E0.00593
G1 X99.856 Y130.997 E0.08468
G1 X99.890 Y131.155 E0.00518
G1 X99.918 Y131.605 E0.01447
G1 X97.392 Y129.080 E0.11465
G1 X97.142 Y129.098 E0.00806
G1 X96.914 Y129.147 E0.00749
G1 X99.918 Y132.151 E0.13637
G1 X99.918 Y132.697 E0.01753
G1 X96.504 Y129.283 E0.15500
G1 X96.151 Y129.476 E0.01291
G1 X99.918 Y133.243 E0.17101
G1 X99.918 Y133.789 E0.01753
G1 X95.846 Y129.717 E0.18485
G1 X95.585 Y130.002 E0.01241
G1 X99.918 Y134.335 E0.19673
G1 X99.918 Y134.881 E0.01753
G1 X95.367 Y130.331 E0.20659
G1 X95.279 Y130.492 E0.00589
G1 X95.199 Y130.708 E0.00741
G1 X99.918 Y135.427 E0.21425
G1 X99.918 Y135.973 E0.01753
G1 X95.087 Y131.143 E0.21930
G1 X95.057 Y131.659 E0.01659
G1 X99.918 Y136.519 E0.22067
G1 X99.918 Y137.065 E0.01753
G1 X95.057 Y132.205 E0.22067
G1 X95.057 Y132.751 E0.01753
G1 X99.918 Y137.611 E0.22067
G1 X99.918 Y138.157 E0.01753
G1 X95.057 Y133.297 E0.22067
G1 X95.057 Y133.843 E0.01753
G1 X99.918 Y138.703 E0.22067
G1 X99.918 Y139.249 E0.01753
G1 X95.057 Y134.389 E0.22067
G1 X95.057 Y134.935 E0.01753
G1 X99.918 Y139.795 E0.22067
G1 X99.918 Y140.341 E0.01753
G1 X95.057 Y135.481 E0.22067
G1 X95.057 Y136.027 E0.01753
G1 X99.918 Y140.887 E0.22067
M73 Q2 S41
G1 X99.918 Y141.433 E0.01753
G1 X95.057 Y136.573 E0.22067
G1 X95.057 Y137.119 E0.01753
M73 P2 R41
G1 X99.918 Y141.979 E0.22067
G1 X99.918 Y142.475 E0.01592
G1 X99.867 Y142.475 E0.00161
G1 X95.057 Y137.665 E0.21840
G1 X95.057 Y138.211 E0.01753
G1 X99.321 Y142.475 E0.19360
G1 X98.775 Y142.475 E0.01753
G1 X95.057 Y138.757 E0.16881
G1 X95.057 Y139.303 E0.01753
G1 X98.229 Y142.475 E0.14402
G1 X97.683 Y142.475 E0.01753
G1 X95.057 Y139.849 E0.11923
G1 X95.057 Y140.395 E0.01753
G1 X97.137 Y142.475 E0.09444
G1 X96.591 Y142.475 E0.01753
G1 X95.057 Y140.941 E0.06965
G1 X95.057 Y141.487 E0.01753
G1 X96.045 Y142.475 E0.04486
G1 X95.499 Y142.475 E0.01753
G1 X94.888 Y141.864 E0.02777
G1 E-0.80000 F2100.00000
G1 Z0.800 F10800.000
G1 X107.774 Y142.758
G1 Z0.200
G1 E0.80000 F2100.00000
G1 F1200.000
G1 X107.774 Y131.528 E0.35210
G1 X107.804 Y131.114 E0.01301
G1 X107.886 Y130.736 E0.01213
G1 X108.021 Y130.374 E0.01213
G1 X108.207 Y130.035 E0.01213
G1 X108.439 Y129.725 E0.01213
G1 X108.712 Y129.451 E0.01213
G1 X109.022 Y129.220 E0.01213
G1 X109.361 Y129.034 E0.01213
G1 X109.724 Y128.899 E0.01213
G1 X110.102 Y128.817 E0.01213
G1 X110.487 Y128.789 E0.01213
G1 X110.873 Y128.817 E0.01213
G1 X111.251 Y128.899 E0.01213
G1 X111.614 Y129.034 E0.01213
G1 X111.953 Y129.220 E0.01213
G1 X112.263 Y129.451 E0.01213
G1 X112.536 Y129.725 E0.01213
G1 X112.768 Y130.035 E0.01213
G1 X112.953 Y130.374 E0.01213
G1 X113.088 Y130.736 E0.01213
G1 X113.171 Y131.114 E0.01213
G1 X113.200 Y131.528 E0.01301
G1 X113.200 Y142.758 E0.35210
G1 X107.834 Y142.758 E0.16824
G1 X107.397 Y143.135 F10800.000
G1 F1200.000
G1 X107.397 Y131.515 E0.36435
G1 X107.430 Y131.061 E0.01428
G1 X107.524 Y130.630 E0.01382
G1 X107.678 Y130.217 E0.01382
G1 X107.889 Y129.830 E0.01382
G1 X108.153 Y129.477 E0.01382
G1 X108.465 Y129.166 E0.01382
G1 X108.817 Y128.902 E0.01382
G1 X109.204 Y128.690 E0.01382
G1 X109.617 Y128.536 E0.01382
G1 X110.048 Y128.443 E0.01382
G1 X110.487 Y128.411 E0.01382
G1 X110.927 Y128.443 E0.01382
G1 X111.358 Y128.536 E0.01382
G1 X111.771 Y128.690 E0.01382
G1 X112.157 Y128.902 E0.01382
G1 X112.510 Y129.166 E0.01382
G1 X112.822 Y129.477 E0.01382
G1 X113.086 Y129.830 E0.01382
G1 X113.297 Y130.217 E0.01382
G1 X113.451 Y130.630 E0.01382
G1 X113.545 Y131.061 E0.01382
G1 X113.577 Y131.515 E0.01428
G1 X113.577 Y143.135 E0.36435
G1 X107.457 Y143.135 E0.19189
G1 X107.462 Y142.740 F10800.000
G1 E-0.80000 F2100.00000
G1 Z0.800 F10800.000
G1 X112.865 Y130.460
G1 Z0.200
G1 E0.80000 F2100.00000
G1 F1200.000
G1 X112.051 Y129.646 E0.03692
G1 X111.800 Y129.458 E0.01009
G1 X111.496 Y129.292 E0.01112
G1 X111.171 Y129.171 E0.01112
G1 X110.991 Y129.132 E0.00593
G1 X112.856 Y130.997 E0.08468
G1 X112.890 Y131.155 E0.00518
G1 X112.918 Y131.605 E0.01447
G1 X110.392 Y129.080 E0.11465
