; generated by PrusaSlicer 2.1.1+win64 on 2020-06-16 at 17:55:37 UTC

; 

; external perimeters extrusion width = 0.45mm
; perimeters extrusion width = 0.45mm
; infill extrusion width = 0.45mm
; solid infill extrusion width = 0.45mm
; top infill extrusion width = 0.40mm
; first layer extrusion width = 0.42mm

M73 P0 R30
M73 Q0 S30
M201 X1000 Y1000 Z1000 E5000 ; sets maximum accelerations, mm/sec^2
M203 X200 Y200 Z12 E120 ; sets maximum feedrates, mm/sec
M204 P1250 R1250 T1250 ; sets acceleration (P, T) and retract acceleration (R), mm/sec^2
M205 X8.00 Y8.00 Z0.40 E1.50 ; sets the jerk limits, mm/sec
M205 S0 T0 ; sets the minimum extruding and travel feed rate, mm/sec
M107
M862.3 P "MK3S" ; printer model check
M862.1 P0.4 ; nozzle diameter check
M115 U3.8.0 ; tell printer latest fw version
G90 ; use absolute coordinates
M83 ; extruder relative mode
M104 S215 ; set extruder temp
M140 S60 ; set bed temp
M190 S60 ; wait for bed temp
M109 S215 ; wait for extruder temp
G28 W ; home all without mesh bed level
G80 ; mesh bed leveling
G1 Y-3.0 F1000.0 ; go outside print area
G92 E0.0
G1 X60.0 E9.0 F1000.0 ; intro line
M73 Q0 S30
M73 P0 R30
G1 X100.0 E12.5 F1000.0 ; intro line
G92 E0.0
M221 S95
G21 ; set units to millimeters
G90 ; use absolute coordinates
M83 ; use relative distances for extrusion
M900 K30 ; Filament gcode
;BEFORE_LAYER_CHANGE
G92 E0.0
;0.2


G1 E-0.80000 F2100.00000
G1 Z0.600 F10800.000
;AFTER_LAYER_CHANGE
;0.2
G1 X107.235 Y125.535
G1 Z0.200
G1 E0.80000 F2100.00000
M204 S1000
G1 F1200
G1 X106.690 Y125.481 E0.01718
G1 X106.165 Y125.322 E0.01718
G1 X105.682 Y125.064 E0.01718
G1 X105.259 Y124.716 E0.01718
G1 X104.911 Y124.293 E0.01718
G1 X104.653 Y123.810 E0.01718
G1 X104.494 Y123.285 E0.01718
G1 X104.440 Y122.740 E0.01718
G1 X104.494 Y122.195 E0.01718
G1 X104.653 Y121.671 E0.01718
G1 X104.911 Y121.188 E0.01718
G1 X105.259 Y120.764 E0.01718
G1 X105.682 Y120.417 E0.01718
G1 X106.165 Y120.158 E0.01718
G1 X106.690 Y119.999 E0.01718
G1 X107.216 Y119.948 E0.01657
G1 X107.778 Y119.999 E0.01770
G1 X108.304 Y120.158 E0.01725
G1 X108.787 Y120.417 E0.01718
G1 X109.211 Y120.764 E0.01718
G1 X109.558 Y121.188 E0.01718
G1 X109.817 Y121.671 E0.01718
G1 X109.976 Y122.195 E0.01718
G1 X110.029 Y122.740 E0.01718
G1 X109.976 Y123.285 E0.01718
G1 X109.817 Y123.810 E0.01718
G1 X109.558 Y124.293 E0.01718
G1 X109.211 Y124.716 E0.01718
G1 X108.787 Y125.064 E0.01718
G1 X108.304 Y125.322 E0.01718
G1 X107.780 Y125.481 E0.01718
G1 X107.294 Y125.529 E0.01530
G1 X107.235 Y125.156 F10800.000
G1 F1200
G1 X106.763 Y125.110 E0.01485
G1 X106.310 Y124.972 E0.01485
G1 X105.893 Y124.749 E0.01485
G1 X105.527 Y124.448 E0.01485
G1 X105.226 Y124.082 E0.01485
G1 X105.003 Y123.665 E0.01485
G1 X104.865 Y123.212 E0.01485
G1 X104.819 Y122.740 E0.01485
G1 X104.865 Y122.269 E0.01485
G1 X105.003 Y121.816 E0.01485
G1 X105.226 Y121.398 E0.01485
G1 X105.527 Y121.032 E0.01485
G1 X105.893 Y120.732 E0.01485
G1 X106.310 Y120.508 E0.01485
G1 X106.763 Y120.371 E0.01485
G1 X107.217 Y120.326 E0.01429
G1 X107.705 Y120.371 E0.01538
G1 X108.159 Y120.508 E0.01487
G1 X108.577 Y120.732 E0.01485
G1 X108.943 Y121.032 E0.01485
G1 X109.243 Y121.398 E0.01485
G1 X109.467 Y121.816 E0.01485
G1 X109.604 Y122.269 E0.01485
G1 X109.650 Y122.740 E0.01485
G1 X109.604 Y123.212 E0.01485
G1 X109.467 Y123.665 E0.01485
G1 X109.243 Y124.082 E0.01485
G1 X108.943 Y124.448 E0.01485
G1 X108.577 Y124.749 E0.01485
G1 X108.159 Y124.972 E0.01485
G1 X107.706 Y125.110 E0.01485
G1 X107.294 Y125.150 E0.01297
G1 X107.035 Y125.502 F10800.000
G1 E-0.80000 F2100.00000
G1 Z0.800 F10800.000
G1 X107.487 Y108.479
G1 Z0.200
G1 E0.80000 F2100.00000
G1 F1200
G1 X106.593 Y108.459 E0.02803
G1 X105.706 Y108.352 E0.02804
G1 X104.833 Y108.157 E0.02804
G1 X103.912 Y107.857 E0.03037
G1 X103.093 Y107.497 E0.02806
G1 X102.300 Y107.051 E0.02852
G1 X101.555 Y106.529 E0.02852
G1 X100.864 Y105.937 E0.02852
G1 X100.235 Y105.280 E0.02852
G1 X99.673 Y104.565 E0.02852
G1 X99.183 Y103.798 E0.02852
G1 X98.772 Y102.987 E0.02852
G1 X98.442 Y102.139 E0.02852
G1 X98.196 Y101.263 E0.02852
G1 X98.038 Y100.367 E0.02852
G1 X97.968 Y99.460 E0.02852
G1 X97.987 Y98.550 E0.02852
G1 X98.096 Y97.647 E0.02852
G1 X98.292 Y96.759 E0.02852
G1 X98.575 Y95.894 E0.02852
G1 X98.941 Y95.061 E0.02852
G1 X99.387 Y94.268 E0.02852
G1 X99.909 Y93.523 E0.02852
G1 X100.501 Y92.832 E0.02852
G1 X101.157 Y92.203 E0.02852
G1 X101.873 Y91.641 E0.02852
G1 X102.640 Y91.151 E0.02853
G1 X103.472 Y90.730 E0.02925
G1 X103.858 Y90.564 E0.01317
G1 X104.304 Y90.411 E0.01480
G1 X105.209 Y90.153 E0.02950
G1 X106.091 Y89.996 E0.02808
G1 X107.000 Y89.927 E0.02856
G1 X107.876 Y89.947 E0.02750
G1 X108.764 Y90.054 E0.02804
G1 X109.637 Y90.249 E0.02804
G1 X110.558 Y90.549 E0.03037
G1 X111.377 Y90.909 E0.02806
G1 X112.169 Y91.355 E0.02852
G1 X112.915 Y91.877 E0.02852
G1 X113.606 Y92.469 E0.02852
G1 X114.235 Y93.126 E0.02852
G1 X114.797 Y93.841 E0.02852
G1 X115.286 Y94.608 E0.02852
G1 X115.698 Y95.419 E0.02852
G1 X116.028 Y96.267 E0.02852
G1 X116.273 Y97.143 E0.02852
G1 X116.432 Y98.039 E0.02852
G1 X116.501 Y98.946 E0.02852
G1 X116.482 Y99.856 E0.02852
G1 X116.374 Y100.759 E0.02852
G1 X116.177 Y101.647 E0.02852
G1 X115.894 Y102.512 E0.02852
G1 X115.528 Y103.345 E0.02852
G1 X115.083 Y104.138 E0.02852
G1 X114.561 Y104.883 E0.02852
G1 X113.969 Y105.574 E0.02852
G1 X113.312 Y106.203 E0.02852
G1 X112.597 Y106.765 E0.02852
G1 X111.830 Y107.254 E0.02852
G1 X111.017 Y107.667 E0.02857
G1 X110.144 Y108.002 E0.02934
G1 X109.260 Y108.253 E0.02880
G1 X108.379 Y108.410 E0.02806
G1 X107.547 Y108.474 E0.02616
G1 X107.477 Y108.101 F10800.000
G1 F1200
G1 X106.620 Y108.083 E0.02686
G1 X105.769 Y107.980 E0.02687
G1 X104.933 Y107.793 E0.02688
G1 X104.047 Y107.504 E0.02921
G1 X103.262 Y107.159 E0.02689
G1 X102.501 Y106.731 E0.02736
G1 X101.786 Y106.231 E0.02736
G1 X101.123 Y105.663 E0.02736
G1 X100.520 Y105.033 E0.02736
G1 X99.981 Y104.347 E0.02736
G1 X99.511 Y103.611 E0.02736
G1 X99.116 Y102.833 E0.02736
G1 X98.800 Y102.019 E0.02736
G1 X98.564 Y101.179 E0.02736
G1 X98.412 Y100.320 E0.02736
G1 X98.345 Y99.449 E0.02736
G1 X98.364 Y98.577 E0.02736
G1 X98.468 Y97.711 E0.02736
G1 X98.657 Y96.858 E0.02736
G1 X98.928 Y96.029 E0.02736
G1 X99.279 Y95.230 E0.02736
G1 X99.707 Y94.469 E0.02736
G1 X100.207 Y93.754 E0.02736
G1 X100.775 Y93.092 E0.02736
G1 X101.405 Y92.488 E0.02736
G1 X102.091 Y91.949 E0.02736
G1 X102.827 Y91.479 E0.02737
G1 X103.632 Y91.072 E0.02829
G1 X103.994 Y90.916 E0.01236
G1 X104.417 Y90.771 E0.01403
G1 X105.294 Y90.521 E0.02858
G1 X106.139 Y90.371 E0.02689
G1 X107.010 Y90.305 E0.02739
G1 X107.849 Y90.323 E0.02633
G1 X108.700 Y90.426 E0.02687
G1 X109.537 Y90.613 E0.02688
G1 X110.423 Y90.902 E0.02921
G1 X111.208 Y91.247 E0.02689
G1 X111.968 Y91.675 E0.02736
G1 X112.684 Y92.175 E0.02736
G1 X113.346 Y92.743 E0.02736
G1 X113.950 Y93.373 E0.02736
G1 X114.489 Y94.059 E0.02736
G1 X114.958 Y94.795 E0.02736
G1 X115.353 Y95.573 E0.02736
G1 X115.670 Y96.387 E0.02736
G1 X115.905 Y97.227 E0.02736
G1 X116.057 Y98.086 E0.02736
G1 X116.124 Y98.956 E0.02736
G1 X116.105 Y99.829 E0.02736
G1 X116.001 Y100.695 E0.02736
G1 X115.813 Y101.548 E0.02736
G1 X115.542 Y102.377 E0.02736
G1 X115.191 Y103.176 E0.02736
G1 X114.763 Y103.937 E0.02736
G1 X114.263 Y104.652 E0.02736
G1 X113.695 Y105.314 E0.02736
G1 X113.065 Y105.918 E0.02736
G1 X112.378 Y106.457 E0.02736
G1 X111.643 Y106.926 E0.02736
G1 X110.864 Y107.322 E0.02738
G1 X110.024 Y107.644 E0.02820
G1 X109.175 Y107.885 E0.02767
G1 X108.331 Y108.035 E0.02689
G1 X107.537 Y108.097 E0.02498
G1 X107.287 Y108.453 F10800.000
G1 E-0.80000 F2100.00000
G1 Z0.800 F10800.000
G1 X107.235 Y78.460
G1 Z0.200
G1 E0.80000 F2100.00000
G1 F1200
G1 X106.690 Y78.407 E0.01718
G1 X106.165 Y78.248 E0.01718
G1 X105.682 Y77.989 E0.01718
G1 X105.259 Y77.642 E0.01718
G1 X104.911 Y77.218 E0.01718
G1 X104.653 Y76.735 E0.01718
G1 X104.494 Y76.211 E0.01718
G1 X104.440 Y75.666 E0.01718
G1 X104.494 Y75.121 E0.01718
G1 X104.653 Y74.596 E0.01718
G1 X104.911 Y74.113 E0.01718
G1 X105.259 Y73.690 E0.01718
G1 X105.682 Y73.342 E0.01718
G1 X106.167 Y73.083 E0.01725
G1 X106.709 Y72.923 E0.01770
G1 X107.235 Y72.871 E0.01657
G1 X107.780 Y72.925 E0.01718
G1 X108.304 Y73.084 E0.01718
G1 X108.787 Y73.342 E0.01718
G1 X109.211 Y73.690 E0.01718
G1 X109.558 Y74.113 E0.01718
G1 X109.817 Y74.596 E0.01718
G1 X109.976 Y75.121 E0.01718
G1 X110.029 Y75.666 E0.01718
G1 X109.976 Y76.211 E0.01718
G1 X109.817 Y76.735 E0.01718
G1 X109.558 Y77.218 E0.01718
G1 X109.211 Y77.642 E0.01718
G1 X108.787 Y77.989 E0.01718
G1 X108.304 Y78.248 E0.01718
G1 X107.780 Y78.407 E0.01718
G1 X107.294 Y78.454 E0.01530
G1 X107.235 Y78.081 F10800.000
G1 F1200
G1 X106.763 Y78.035 E0.01485
G1 X106.310 Y77.898 E0.01485
G1 X105.893 Y77.674 E0.01485
G1 X105.527 Y77.374 E0.01485
G1 X105.226 Y77.008 E0.01485
G1 X105.003 Y76.590 E0.01485
G1 X104.865 Y76.137 E0.01485
G1 X104.819 Y75.666 E0.01485
G1 X104.865 Y75.194 E0.01485
G1 X105.003 Y74.741 E0.01485
G1 X105.226 Y74.324 E0.01485
G1 X105.527 Y73.958 E0.01485
G1 X105.893 Y73.657 E0.01485
G1 X106.311 Y73.434 E0.01487
G1 X106.781 Y73.295 E0.01538
G1 X107.235 Y73.250 E0.01429
G1 X107.706 Y73.296 E0.01485
G1 X108.159 Y73.434 E0.01485
G1 X108.577 Y73.657 E0.01485
G1 X108.943 Y73.958 E0.01485
G1 X109.243 Y74.324 E0.01485
G1 X109.467 Y74.741 E0.01485
G1 X109.604 Y75.194 E0.01485
G1 X109.650 Y75.666 E0.01485
G1 X109.604 Y76.137 E0.01485
G1 X109.467 Y76.590 E0.01485
G1 X109.243 Y77.008 E0.01485
G1 X108.943 Y77.374 E0.01485
G1 X108.577 Y77.674 E0.01485
G1 X108.159 Y77.898 E0.01485
G1 X107.706 Y78.035 E0.01485
G1 X107.294 Y78.076 E0.01297
G1 X107.035 Y78.428 F10800.000
G1 E-0.80000 F2100.00000
G1 Z0.800 F10800.000
G1 X107.274 Y127.694
G1 Z0.200
G1 E0.80000 F2100.00000
G1 F1200
G1 X106.776 Y127.670 E0.01562
G1 X106.282 Y127.597 E0.01566
G1 X105.798 Y127.475 E0.01566
G1 X105.327 Y127.307 E0.01566
G1 X104.876 Y127.093 E0.01566
G1 X104.466 Y126.848 E0.01500
G1 X104.046 Y126.539 E0.01635
G1 X103.677 Y126.204 E0.01562
G1 X103.341 Y125.834 E0.01566
G1 X103.044 Y125.433 E0.01566
G1 X102.787 Y125.004 E0.01566
G1 X102.573 Y124.553 E0.01566
G1 X102.405 Y124.083 E0.01566
G1 X102.284 Y123.599 E0.01566
G1 X102.211 Y123.105 E0.01566
G1 X102.185 Y122.592 E0.01610
G1 X102.194 Y113.535 E0.28397
G1 X101.129 Y113.097 E0.03611
G1 X100.455 Y112.780 E0.02336
G1 X99.797 Y112.431 E0.02336
G1 X99.156 Y112.050 E0.02336
G1 X98.536 Y111.638 E0.02336
G1 X97.936 Y111.197 E0.02336
G1 X97.359 Y110.726 E0.02336
G1 X96.805 Y110.227 E0.02336
G1 X96.277 Y109.702 E0.02336
G1 X95.775 Y109.152 E0.02336
G1 X95.301 Y108.578 E0.02336
G1 X94.855 Y107.981 E0.02336
G1 X94.439 Y107.363 E0.02336
G1 X94.054 Y106.725 E0.02336
G1 X93.701 Y106.069 E0.02336
G1 X93.380 Y105.397 E0.02336
G1 X93.093 Y104.710 E0.02336
G1 X92.840 Y104.009 E0.02336
G1 X92.621 Y103.297 E0.02336
G1 X92.438 Y102.575 E0.02336
G1 X92.296 Y101.874 E0.02242
G1 X92.179 Y101.108 E0.02431
G1 X92.103 Y100.368 E0.02334
G1 X92.066 Y99.654 E0.02242
G1 X92.062 Y98.878 E0.02431
G1 X92.096 Y98.135 E0.02334
G1 X92.167 Y97.393 E0.02336
G1 X92.274 Y96.656 E0.02336
G1 X92.417 Y95.925 E0.02336
G1 X92.596 Y95.202 E0.02336
G1 X92.810 Y94.488 E0.02336
G1 X93.058 Y93.786 E0.02336
G1 X93.341 Y93.097 E0.02336
G1 X93.658 Y92.423 E0.02336
G1 X94.007 Y91.765 E0.02336
G1 X94.387 Y91.125 E0.02336
G1 X94.799 Y90.504 E0.02336
G1 X95.241 Y89.904 E0.02336
G1 X95.712 Y89.327 E0.02336
G1 X96.210 Y88.773 E0.02336
G1 X96.735 Y88.245 E0.02336
G1 X97.286 Y87.743 E0.02336
G1 X97.860 Y87.269 E0.02336
G1 X98.457 Y86.823 E0.02336
G1 X99.075 Y86.407 E0.02336
G1 X99.713 Y86.022 E0.02336
G1 X100.368 Y85.669 E0.02336
G1 X101.044 Y85.347 E0.02345
G1 X102.100 Y84.892 E0.03607
G1 X102.100 Y75.796 E0.28521
G1 X102.126 Y75.283 E0.01611
G1 X102.199 Y74.789 E0.01566
G1 X102.320 Y74.304 E0.01566
G1 X102.488 Y73.834 E0.01566
G1 X102.702 Y73.383 E0.01566
G1 X102.959 Y72.955 E0.01566
G1 X103.256 Y72.553 E0.01566
G1 X103.591 Y72.184 E0.01562
G1 X103.978 Y71.836 E0.01635
G1 X104.363 Y71.551 E0.01500
G1 X104.791 Y71.294 E0.01566
G1 X105.242 Y71.080 E0.01566
G1 X105.713 Y70.912 E0.01566
G1 X106.197 Y70.791 E0.01566
G1 X106.690 Y70.718 E0.01562
G1 X107.211 Y70.694 E0.01635
G1 X107.689 Y70.717 E0.01500
G1 X108.183 Y70.791 E0.01566
G1 X108.667 Y70.912 E0.01566
G1 X109.137 Y71.080 E0.01566
G1 X109.589 Y71.294 E0.01566
G1 X110.017 Y71.551 E0.01566
G1 X110.418 Y71.848 E0.01566
G1 X110.788 Y72.183 E0.01566
G1 X111.124 Y72.553 E0.01566
G1 X111.421 Y72.954 E0.01566
G1 X111.678 Y73.383 E0.01566
G1 X111.891 Y73.834 E0.01566
G1 X112.060 Y74.304 E0.01566
G1 X112.181 Y74.789 E0.01566
G1 X112.254 Y75.281 E0.01560
G1 X112.276 Y75.794 E0.01611
G1 X112.276 Y84.871 E0.28461
G1 X113.340 Y85.309 E0.03610
G1 X114.015 Y85.626 E0.02336
G1 X114.673 Y85.975 E0.02336
G1 X115.313 Y86.356 E0.02336
G1 X115.934 Y86.768 E0.02336
G1 X116.534 Y87.209 E0.02336
G1 X117.111 Y87.680 E0.02336
G1 X117.664 Y88.179 E0.02336
G1 X118.171 Y88.683 E0.02242
G1 X118.695 Y89.254 E0.02431
G1 X119.169 Y89.828 E0.02334
G1 X119.615 Y90.425 E0.02336
G1 X120.030 Y91.043 E0.02335
G1 X120.415 Y91.681 E0.02336
G1 X120.754 Y92.310 E0.02242
G1 X121.089 Y93.009 E0.02431
G1 X121.377 Y93.696 E0.02334
G1 X121.620 Y94.369 E0.02242
G1 X121.848 Y95.109 E0.02431
G1 X122.031 Y95.831 E0.02334
G1 X122.179 Y96.561 E0.02336
G1 X122.291 Y97.297 E0.02336
G1 X122.366 Y98.038 E0.02336
G1 X122.405 Y98.782 E0.02336
G1 X122.407 Y99.527 E0.02336
G1 X122.373 Y100.271 E0.02336
G1 X122.303 Y101.013 E0.02336
G1 X122.196 Y101.750 E0.02336
G1 X122.053 Y102.481 E0.02336
G1 X121.874 Y103.204 E0.02336
G1 X121.660 Y103.918 E0.02336
G1 X121.411 Y104.620 E0.02336
G1 X121.140 Y105.281 E0.02242
G1 X120.812 Y105.984 E0.02431
G1 X120.463 Y106.641 E0.02334
G1 X120.097 Y107.256 E0.02242
G1 X119.670 Y107.902 E0.02431
G1 X119.228 Y108.502 E0.02334
G1 X118.758 Y109.079 E0.02336
G1 X118.259 Y109.633 E0.02336
G1 X117.734 Y110.161 E0.02336
G1 X117.184 Y110.663 E0.02336
G1 X116.610 Y111.137 E0.02336
G1 X116.013 Y111.583 E0.02336
G1 X115.395 Y111.999 E0.02336
G1 X114.757 Y112.384 E0.02336
G1 X114.101 Y112.737 E0.02336
G1 X113.429 Y113.058 E0.02336
G1 X112.369 Y113.500 E0.03600
G1 X112.365 Y122.591 E0.28504
G1 X112.339 Y123.105 E0.01611
G1 X112.266 Y123.599 E0.01566
G1 X112.145 Y124.083 E0.01566
G1 X111.976 Y124.553 E0.01566
G1 X111.763 Y125.004 E0.01566
G1 X111.506 Y125.433 E0.01566
G1 X111.209 Y125.834 E0.01566
G1 X110.873 Y126.204 E0.01566
G1 X110.503 Y126.539 E0.01566
G1 X110.102 Y126.837 E0.01566
G1 X109.674 Y127.093 E0.01566
G1 X109.222 Y127.307 E0.01566
G1 X108.752 Y127.475 E0.01566
G1 X108.268 Y127.597 E0.01566
G1 X107.795 Y127.667 E0.01500
G1 X107.334 Y127.691 E0.01447
G1 X107.275 Y128.072 F10800.000
G1 F1200
G1 X106.739 Y128.046 E0.01681
G1 X106.208 Y127.967 E0.01682
G1 X105.688 Y127.836 E0.01682
G1 X105.183 Y127.656 E0.01682
G1 X104.698 Y127.426 E0.01682
G1 X104.257 Y127.162 E0.01614
G1 X103.807 Y126.831 E0.01751
G1 X103.410 Y126.471 E0.01681
G1 X103.049 Y126.073 E0.01682
G1 X102.730 Y125.643 E0.01682
G1 X102.454 Y125.182 E0.01682
G1 X102.225 Y124.698 E0.01682
G1 X102.044 Y124.192 E0.01682
G1 X101.914 Y123.672 E0.01682
G1 X101.835 Y123.142 E0.01682
G1 X101.808 Y122.601 E0.01698
G1 X101.817 Y113.787 E0.27633
G1 X100.977 Y113.442 E0.02847
G1 X100.286 Y113.118 E0.02394
G1 X99.612 Y112.760 E0.02394
G1 X98.956 Y112.370 E0.02394
G1 X98.320 Y111.948 E0.02394
G1 X97.705 Y111.495 E0.02394
G1 X97.113 Y111.012 E0.02394
G1 X96.546 Y110.501 E0.02394
G1 X96.005 Y109.963 E0.02394
G1 X95.490 Y109.399 E0.02394
G1 X95.004 Y108.811 E0.02394
G1 X94.547 Y108.199 E0.02394
G1 X94.121 Y107.566 E0.02394
G1 X93.727 Y106.912 E0.02394
G1 X93.365 Y106.240 E0.02394
G1 X93.036 Y105.551 E0.02394
G1 X92.742 Y104.847 E0.02394
G1 X92.482 Y104.129 E0.02394
G1 X92.258 Y103.399 E0.02394
G1 X92.070 Y102.659 E0.02394
G1 X91.925 Y101.940 E0.02299
G1 X91.805 Y101.156 E0.02489
G1 X91.727 Y100.396 E0.02393
G1 X91.689 Y99.664 E0.02299
G1 X91.685 Y98.871 E0.02489
G1 X91.720 Y98.108 E0.02393
G1 X91.792 Y97.348 E0.02394
G1 X91.902 Y96.593 E0.02394
G1 X92.049 Y95.843 E0.02394
G1 X92.232 Y95.102 E0.02394
G1 X92.451 Y94.371 E0.02394
G1 X92.706 Y93.652 E0.02394
G1 X92.996 Y92.945 E0.02394
