; generated by PrusaSlicer 2.3.1+win64 on 2021-08-06 at 16:54:55 UTC

; 

; external perimeters extrusion width = 0.45mm
; perimeters extrusion width = 0.45mm
; infill extrusion width = 0.45mm
; solid infill extrusion width = 0.45mm
; top infill extrusion width = 0.40mm
; support material extrusion width = 0.35mm
; first layer extrusion width = 0.42mm

M73 P0 R20
M73 Q0 S20
M201 X1000 Y1000 Z1000 E5000 ; sets maximum accelerations, mm/sec^2
M203 X200 Y200 Z12 E120 ; sets maximum feedrates, mm/sec
M204 P1250 R1250 T1250 ; sets acceleration (P, T) and retract acceleration (R), mm/sec^2
M205 X8.00 Y8.00 Z0.40 E1.50 ; sets the jerk limits, mm/sec
M205 S0 T0 ; sets the minimum extruding and travel feed rate, mm/sec
M107
;TYPE:Custom
M862.3 P "MK3S" ; printer model check
M862.1 P0.4 ; nozzle diameter check
M115 U3.8.0 ; tell printer latest fw version
G90 ; use absolute coordinates
M83 ; extruder relative mode
M104 S215 ; set extruder temp
M140 S60 ; set bed temp
M190 S60 ; wait for bed temp
M109 S215 ; wait for extruder temp
G28 W ; home all without mesh bed level
G80 ; mesh bed leveling
G1 Y-3.0 F1000.0 ; go outside print area
G92 E0.0
G1 X60.0 E9.0 F1000.0 ; intro line
G1 X100.0 E12.5 F1000.0 ; intro line
G92 E0.0
M221 S95
G21 ; set units to millimeters
G90 ; use absolute coordinates
M83 ; use relative distances for extrusion
M900 K0.05 ; Filament gcode LA 1.5
M900 K30 ; Filament gcode LA 1.0
;LAYER_CHANGE
;Z:0.2
;HEIGHT:0.2
;BEFORE_LAYER_CHANGE
G92 E0.0
;0.2


G1 E-0.80000 F2100.000
G1 Z0.600 F10800.000
;AFTER_LAYER_CHANGE
;0.2
G1 X132.246 Y131.892
G1 Z0.200
G1 E0.80000 F2100.000
M204 S1000
;TYPE:Perimeter
;WIDTH:0.42
G1 F1200.000
G1 X129.587 Y131.892 E0.08338
G1 X129.587 Y120.080 E0.37035
G1 X154.513 Y120.080 E0.78153
G1 X154.513 Y131.892 E0.37035
G1 X132.306 Y131.892 E0.69627
G1 X132.306 Y132.269 F10800.000
;TYPE:External perimeter
G1 F1200.000
G1 X129.210 Y132.269 E0.09708
G1 X129.210 Y119.703 E0.39400
M73 Q1 S20
G1 X154.890 Y119.703 E0.80518
M73 P1 R20
G1 X154.890 Y132.269 E0.39400
G1 X132.366 Y132.269 E0.70621
G1 X132.051 Y131.961 F10800.000
G1 E-0.80000 F2100.000
G1 Z0.800 F10800.000
G1 X154.400 Y120.958
G1 Z0.200
G1 E0.80000 F2100.000
;TYPE:Solid infill
;WIDTH:0.42102
G1 F1200.000
G1 X153.805 Y120.363 E0.02644
G1 X153.270 Y120.363 E0.01681
G1 X154.230 Y121.323 E0.04267
G1 X154.230 Y121.857 E0.01681
G1 X152.736 Y120.363 E0.06645
G1 X152.201 Y120.363 E0.01681
G1 X154.230 Y122.392 E0.09022
G1 X154.230 Y122.927 E0.01681
G1 X151.666 Y120.363 E0.11400
G1 X151.131 Y120.363 E0.01681
G1 X154.230 Y123.462 E0.13777
G1 X154.230 Y123.996 E0.01681
G1 X150.597 Y120.363 E0.16154
G1 X150.062 Y120.363 E0.01681
G1 X154.230 Y124.531 E0.18532
G1 X154.230 Y125.066 E0.01681
G1 X149.527 Y120.363 E0.20909
G1 X148.993 Y120.363 E0.01681
G1 X154.230 Y125.600 E0.23287
G1 X154.230 Y126.135 E0.01681
G1 X148.458 Y120.363 E0.25664
G1 X147.923 Y120.363 E0.01681
G1 X154.230 Y126.670 E0.28042
G1 X154.230 Y127.205 E0.01681
G1 X147.388 Y120.363 E0.30419
G1 X146.854 Y120.363 E0.01681
G1 X154.230 Y127.739 E0.32796
G1 X154.230 Y128.274 E0.01681
G1 X146.319 Y120.363 E0.35174
G1 X145.784 Y120.363 E0.01681
G1 X154.230 Y128.809 E0.37551
G1 X154.230 Y129.343 E0.01681
G1 X145.250 Y120.363 E0.39929
G1 X144.715 Y120.363 E0.01681
G1 X154.230 Y129.878 E0.42306
G1 X154.230 Y130.413 E0.01681
G1 X144.180 Y120.363 E0.44684
G1 X143.645 Y120.363 E0.01681
G1 X154.230 Y130.948 E0.47061
M73 Q2 S20
G1 X154.230 Y131.482 E0.01681
G1 X143.111 Y120.363 E0.49438
M73 P2 R20
G1 X142.576 Y120.363 E0.01681
G1 X153.822 Y131.609 E0.50003
G1 X153.288 Y131.609 E0.01681
G1 X142.041 Y120.363 E0.50003
G1 X141.507 Y120.363 E0.01681
G1 X152.753 Y131.609 E0.50003
G1 X152.218 Y131.609 E0.01681
G1 X140.972 Y120.363 E0.50003
G1 X140.437 Y120.363 E0.01681
G1 X151.683 Y131.609 E0.50003
G1 X151.149 Y131.609 E0.01681
G1 X139.902 Y120.363 E0.50003
G1 X139.368 Y120.363 E0.01681
G1 X150.614 Y131.609 E0.50003
G1 X150.079 Y131.609 E0.01681
G1 X138.833 Y120.363 E0.50003
G1 X138.298 Y120.363 E0.01681
G1 X149.545 Y131.609 E0.50003
G1 X149.010 Y131.609 E0.01681
G1 X137.764 Y120.363 E0.50003
G1 X137.229 Y120.363 E0.01681
G1 X148.475 Y131.609 E0.50003
G1 X147.940 Y131.609 E0.01681
G1 X136.694 Y120.363 E0.50003
G1 X136.159 Y120.363 E0.01681
G1 X147.406 Y131.609 E0.50003
G1 X146.871 Y131.609 E0.01681
G1 X135.625 Y120.363 E0.50003
M73 Q3 S20
G1 X135.090 Y120.363 E0.01681
G1 X146.336 Y131.609 E0.50003
M73 P3 R20
G1 X145.802 Y131.609 E0.01681
G1 X134.555 Y120.363 E0.50003
G1 X134.021 Y120.363 E0.01681
G1 X145.267 Y131.609 E0.50003
G1 X144.732 Y131.609 E0.01681
G1 X133.486 Y120.363 E0.50003
G1 X132.951 Y120.363 E0.01681
G1 X144.197 Y131.609 E0.50003
G1 X143.663 Y131.609 E0.01681
G1 X132.416 Y120.363 E0.50003
G1 X131.882 Y120.363 E0.01681
G1 X143.128 Y131.609 E0.50003
G1 X142.593 Y131.609 E0.01681
G1 X131.347 Y120.363 E0.50003
G1 X130.812 Y120.363 E0.01681
G1 X142.059 Y131.609 E0.50003
G1 X141.524 Y131.609 E0.01681
G1 X130.278 Y120.363 E0.50003
G1 X129.870 Y120.363 E0.01282
G1 X129.870 Y120.490 E0.00399
G1 X140.989 Y131.609 E0.49438
G1 X140.454 Y131.609 E0.01681
G1 X129.870 Y121.025 E0.47061
G1 X129.870 Y121.559 E0.01681
G1 X139.920 Y131.609 E0.44683
G1 X139.385 Y131.609 E0.01681
G1 X129.870 Y122.094 E0.42306
M73 P3 R19
G1 X129.870 Y122.629 E0.01681
G1 X138.850 Y131.609 E0.39928
M73 Q4 S20
G1 X138.316 Y131.609 E0.01681
G1 X129.870 Y123.163 E0.37551
M73 P4 R19
G1 X129.870 Y123.698 E0.01681
G1 X137.781 Y131.609 E0.35174
M73 Q4 S19
G1 X137.246 Y131.609 E0.01681
G1 X129.870 Y124.233 E0.32796
G1 X129.870 Y124.768 E0.01681
G1 X136.711 Y131.609 E0.30419
G1 X136.177 Y131.609 E0.01681
G1 X129.870 Y125.302 E0.28041
G1 X129.870 Y125.837 E0.01681
G1 X135.642 Y131.609 E0.25664
G1 X135.107 Y131.609 E0.01681
G1 X129.870 Y126.372 E0.23286
G1 X129.870 Y126.906 E0.01681
G1 X134.573 Y131.609 E0.20909
G1 X134.038 Y131.609 E0.01681
G1 X129.870 Y127.441 E0.18532
G1 X129.870 Y127.976 E0.01681
G1 X133.503 Y131.609 E0.16154
G1 X132.968 Y131.609 E0.01681
G1 X129.870 Y128.511 E0.13777
G1 X129.870 Y129.045 E0.01681
G1 X132.434 Y131.609 E0.11399
G1 X131.899 Y131.609 E0.01681
G1 X129.870 Y129.580 E0.09022
G1 X129.870 Y130.115 E0.01681
G1 X131.364 Y131.609 E0.06644
G1 X130.830 Y131.609 E0.01681
G1 X129.870 Y130.649 E0.04267
G1 X129.870 Y131.184 E0.01681
G1 X130.465 Y131.779 E0.02644
G1 E-0.80000 F2100.000
G1 Z0.800 F10800.000
G1 X129.587 Y104.490
G1 Z0.200
G1 E0.80000 F2100.000
;TYPE:Perimeter
;WIDTH:0.42
G1 F1200.000
G1 X129.587 Y99.094 E0.16920
G1 X154.513 Y99.094 E0.78153
G1 X154.513 Y110.906 E0.37035
G1 X129.587 Y110.906 E0.78153
G1 X129.587 Y104.550 E0.19928
G1 X129.210 Y104.550 F10800.000
;TYPE:External perimeter
G1 F1200.000
G1 X129.210 Y98.717 E0.18290
G1 X154.890 Y98.717 E0.80518
G1 X154.890 Y111.283 E0.39400
M73 Q5 S19
G1 X129.210 Y111.283 E0.80518
M73 P5 R19
G1 X129.210 Y104.610 E0.20922
G1 X129.439 Y104.222 F10800.000
G1 E-0.80000 F2100.000
G1 Z0.800 F10800.000
G1 X154.400 Y99.972
G1 Z0.200
G1 E0.80000 F2100.000
;TYPE:Solid infill
;WIDTH:0.42102
G1 F1200.000
G1 X153.805 Y99.377 E0.02644
G1 X153.270 Y99.377 E0.01681
G1 X154.230 Y100.337 E0.04267
G1 X154.230 Y100.871 E0.01681
G1 X152.736 Y99.377 E0.06645
G1 X152.201 Y99.377 E0.01681
G1 X154.230 Y101.406 E0.09022
G1 X154.230 Y101.941 E0.01681
G1 X151.666 Y99.377 E0.11400
G1 X151.131 Y99.377 E0.01681
G1 X154.230 Y102.476 E0.13777
G1 X154.230 Y103.010 E0.01681
G1 X150.597 Y99.377 E0.16154
G1 X150.062 Y99.377 E0.01681
G1 X154.230 Y103.545 E0.18532
G1 X154.230 Y104.080 E0.01681
G1 X149.527 Y99.377 E0.20909
G1 X148.993 Y99.377 E0.01681
G1 X154.230 Y104.614 E0.23287
G1 X154.230 Y105.149 E0.01681
G1 X148.458 Y99.377 E0.25664
G1 X147.923 Y99.377 E0.01681
G1 X154.230 Y105.684 E0.28042
G1 X154.230 Y106.219 E0.01681
G1 X147.388 Y99.377 E0.30419
G1 X146.854 Y99.377 E0.01681
G1 X154.230 Y106.753 E0.32796
G1 X154.230 Y107.288 E0.01681
G1 X146.319 Y99.377 E0.35174
G1 X145.784 Y99.377 E0.01681
G1 X154.230 Y107.823 E0.37551
G1 X154.230 Y108.357 E0.01681
G1 X145.250 Y99.377 E0.39929
G1 X144.715 Y99.377 E0.01681
G1 X154.230 Y108.892 E0.42306
G1 X154.230 Y109.427 E0.01681
G1 X144.180 Y99.377 E0.44684
G1 X143.645 Y99.377 E0.01681
G1 X154.230 Y109.962 E0.47061
G1 X154.230 Y110.496 E0.01681
G1 X143.111 Y99.377 E0.49438
G1 X142.576 Y99.377 E0.01681
G1 X153.822 Y110.623 E0.50003
M73 P6 R19
M73 Q6 S19
G1 X153.288 Y110.623 E0.01681
G1 X142.041 Y99.377 E0.50003
G1 X141.507 Y99.377 E0.01681
G1 X152.753 Y110.623 E0.50003
G1 X152.218 Y110.623 E0.01681
G1 X140.972 Y99.377 E0.50003
G1 X140.437 Y99.377 E0.01681
G1 X151.683 Y110.623 E0.50003
G1 X151.149 Y110.623 E0.01681
G1 X139.902 Y99.377 E0.50003
G1 X139.368 Y99.377 E0.01681
G1 X150.614 Y110.623 E0.50003
G1 X150.079 Y110.623 E0.01681
G1 X138.833 Y99.377 E0.50003
G1 X138.298 Y99.377 E0.01681
G1 X149.545 Y110.623 E0.50003
G1 X149.010 Y110.623 E0.01681
G1 X137.764 Y99.377 E0.50003
G1 X137.229 Y99.377 E0.01681
G1 X148.475 Y110.623 E0.50003
G1 X147.940 Y110.623 E0.01681
G1 X136.694 Y99.377 E0.50003
G1 X136.159 Y99.377 E0.01681
G1 X147.406 Y110.623 E0.50003
G1 X146.871 Y110.623 E0.01681
G1 X135.625 Y99.377 E0.50003
G1 X135.090 Y99.377 E0.01681
G1 X146.336 Y110.623 E0.50003
M73 Q7 S19
G1 X145.802 Y110.623 E0.01681
G1 X134.555 Y99.377 E0.50003
M73 P7 R19
G1 X134.021 Y99.377 E0.01681
G1 X145.267 Y110.623 E0.50003
G1 X144.732 Y110.623 E0.01681
G1 X133.486 Y99.377 E0.50003
G1 X132.951 Y99.377 E0.01681
G1 X144.197 Y110.623 E0.50003
G1 X143.663 Y110.623 E0.01681
G1 X132.416 Y99.377 E0.50003
G1 X131.882 Y99.377 E0.01681
G1 X143.128 Y110.623 E0.50003
G1 X142.593 Y110.623 E0.01681
G1 X131.347 Y99.377 E0.50003
G1 X130.812 Y99.377 E0.01681
G1 X142.059 Y110.623 E0.50003
G1 X141.524 Y110.623 E0.01681
G1 X130.278 Y99.377 E0.50003
G1 X129.870 Y99.377 E0.01282
G1 X129.870 Y99.504 E0.00399
G1 X140.989 Y110.623 E0.49438
G1 X140.454 Y110.623 E0.01681
G1 X129.870 Y100.039 E0.47061
G1 X129.870 Y100.573 E0.01681
G1 X139.920 Y110.623 E0.44683
G1 X139.385 Y110.623 E0.01681
G1 X129.870 Y101.108 E0.42306
G1 X129.870 Y101.643 E0.01681
G1 X138.850 Y110.623 E0.39928
G1 X138.316 Y110.623 E0.01681
G1 X129.870 Y102.177 E0.37551
G1 X129.870 Y102.712 E0.01681
G1 X137.781 Y110.623 E0.35174
M73 Q8 S19
G1 X137.246 Y110.623 E0.01681
G1 X129.870 Y103.247 E0.32796
M73 P8 R19
G1 X129.870 Y103.782 E0.01681
G1 X136.711 Y110.623 E0.30419
G1 X136.177 Y110.623 E0.01681
G1 X129.870 Y104.316 E0.28041
G1 X129.870 Y104.851 E0.01681
G1 X135.642 Y110.623 E0.25664
G1 X135.107 Y110.623 E0.01681
G1 X129.870 Y105.386 E0.23286
G1 X129.870 Y105.920 E0.01681
G1 X134.573 Y110.623 E0.20909
G1 X134.038 Y110.623 E0.01681
G1 X129.870 Y106.455 E0.18532
G1 X129.870 Y106.990 E0.01681
G1 X133.503 Y110.623 E0.16154
G1 X132.968 Y110.623 E0.01681
G1 X129.870 Y107.525 E0.13777
G1 X129.870 Y108.059 E0.01681
G1 X132.434 Y110.623 E0.11399
G1 X131.899 Y110.623 E0.01681
G1 X129.870 Y108.594 E0.09022
G1 X129.870 Y109.129 E0.01681
G1 X131.364 Y110.623 E0.06644
G1 X130.830 Y110.623 E0.01681
G1 X129.870 Y109.663 E0.04267
G1 X129.870 Y110.198 E0.01681
G1 X130.465 Y110.793 E0.02644
G1 E-0.80000 F2100.000
G1 Z0.800 F10800.000
G1 X149.342 Y89.920
G1 Z0.200
G1 E0.80000 F2100.000
;TYPE:Perimeter
;WIDTH:0.42
G1 F1200.000
G1 X129.587 Y89.920 E0.61940
G1 X129.587 Y78.108 E0.37035
G1 X154.513 Y78.108 E0.78153
G1 X154.513 Y89.920 E0.37035
G1 X149.402 Y89.920 E0.16025
G1 X149.402 Y90.297 F10800.000
;TYPE:External perimeter
G1 F1200.000
G1 X129.210 Y90.297 E0.63311
G1 X129.210 Y77.731 E0.39400
G1 X154.890 Y77.731 E0.80518
M73 P8 R18
G1 X154.890 Y90.297 E0.39400
M73 Q9 S18
G1 X149.462 Y90.297 E0.17019
M73 P9 R18
G1 X149.086 Y90.051 F10800.000
G1 E-0.80000 F2100.000
G1 Z0.800 F10800.000
G1 X130.465 Y89.807
G1 Z0.200
G1 E0.80000 F2100.000
;TYPE:Solid infill
;WIDTH:0.42102
G1 F1200.000
G1 X129.870 Y89.212 E0.02644
G1 X129.870 Y88.677 E0.01681
G1 X130.830 Y89.637 E0.04267
G1 X131.364 Y89.637 E0.01681
G1 X129.870 Y88.143 E0.06644
G1 X129.870 Y87.608 E0.01681
G1 X131.899 Y89.637 E0.09022
G1 X132.434 Y89.637 E0.01681
G1 X129.870 Y87.073 E0.11399
G1 X129.870 Y86.539 E0.01681
G1 X132.968 Y89.637 E0.13777
G1 X133.503 Y89.637 E0.01681
G1 X129.870 Y86.004 E0.16154
G1 X129.870 Y85.469 E0.01681
G1 X134.038 Y89.637 E0.18532
G1 X134.573 Y89.637 E0.01681
G1 X129.870 Y84.934 E0.20909
G1 X129.870 Y84.400 E0.01681
G1 X135.107 Y89.637 E0.23286
G1 X135.642 Y89.637 E0.01681
G1 X129.870 Y83.865 E0.25664
G1 X129.870 Y83.330 E0.01681
G1 X136.177 Y89.637 E0.28041
G1 X136.711 Y89.637 E0.01681
G1 X129.870 Y82.796 E0.30419
G1 X129.870 Y82.261 E0.01681
G1 X137.246 Y89.637 E0.32796
G1 X137.781 Y89.637 E0.01681
G1 X129.870 Y81.726 E0.35174
G1 X129.870 Y81.191 E0.01681
G1 X138.316 Y89.637 E0.37551
G1 X138.850 Y89.637 E0.01681
G1 X129.870 Y80.657 E0.39928
G1 X129.870 Y80.122 E0.01681
G1 X139.385 Y89.637 E0.42306
G1 X139.920 Y89.637 E0.01681
G1 X129.870 Y79.587 E0.44683
G1 X129.870 Y79.053 E0.01681
G1 X140.454 Y89.637 E0.47061
G1 X140.989 Y89.637 E0.01681
G1 X129.870 Y78.518 E0.49438
G1 X129.870 Y78.391 E0.00399
G1 X130.278 Y78.391 E0.01282
G1 X141.524 Y89.637 E0.50003
G1 X142.059 Y89.637 E0.01681
G1 X130.812 Y78.391 E0.50003
M73 Q10 S18
G1 X131.347 Y78.391 E0.01681
G1 X142.593 Y89.637 E0.50003
M73 P10 R18
G1 X143.128 Y89.637 E0.01681
G1 X131.882 Y78.391 E0.50003
G1 X132.416 Y78.391 E0.01681
G1 X143.663 Y89.637 E0.50003
G1 X144.197 Y89.637 E0.01681
G1 X132.951 Y78.391 E0.50003
G1 X133.486 Y78.391 E0.01681
G1 X144.732 Y89.637 E0.50003
G1 X145.267 Y89.637 E0.01681
G1 X134.021 Y78.391 E0.50003
G1 X134.555 Y78.391 E0.01681
G1 X145.802 Y89.637 E0.50003
G1 X146.336 Y89.637 E0.01681
G1 X135.090 Y78.391 E0.50003
G1 X135.625 Y78.391 E0.01681
G1 X146.871 Y89.637 E0.50003
G1 X147.406 Y89.637 E0.01681
G1 X136.159 Y78.391 E0.50003
G1 X136.694 Y78.391 E0.01681
G1 X147.940 Y89.637 E0.50003
G1 X148.475 Y89.637 E0.01681
G1 X137.229 Y78.391 E0.50003
G1 X137.764 Y78.391 E0.01681
G1 X149.010 Y89.637 E0.50003
G1 X149.545 Y89.637 E0.01681
G1 X138.298 Y78.391 E0.50003
G1 X138.833 Y78.391 E0.01681
G1 X150.079 Y89.637 E0.50003
M73 Q11 S18
G1 X150.614 Y89.637 E0.01681
G1 X139.368 Y78.391 E0.50003
M73 P11 R18
G1 X139.902 Y78.391 E0.01681
G1 X151.149 Y89.637 E0.50003
G1 X151.683 Y89.637 E0.01681
G1 X140.437 Y78.391 E0.50003
G1 X140.972 Y78.391 E0.01681
G1 X152.218 Y89.637 E0.50003
G1 X152.753 Y89.637 E0.01681
G1 X141.507 Y78.391 E0.50003
G1 X142.041 Y78.391 E0.01681
G1 X153.288 Y89.637 E0.50003
G1 X153.822 Y89.637 E0.01681
G1 X142.576 Y78.391 E0.50003
G1 X143.111 Y78.391 E0.01681
G1 X154.230 Y89.510 E0.49438
G1 X154.230 Y88.976 E0.01681
G1 X143.645 Y78.391 E0.47061
G1 X144.180 Y78.391 E0.01681
G1 X154.230 Y88.441 E0.44684
G1 X154.230 Y87.906 E0.01681
G1 X144.715 Y78.391 E0.42306
G1 X145.250 Y78.391 E0.01681
G1 X154.230 Y87.371 E0.39929
G1 X154.230 Y86.837 E0.01681
G1 X145.784 Y78.391 E0.37551
G1 X146.319 Y78.391 E0.01681
G1 X154.230 Y86.302 E0.35174
G1 X154.230 Y85.767 E0.01681
G1 X146.854 Y78.391 E0.32796
G1 X147.388 Y78.391 E0.01681
G1 X154.230 Y85.233 E0.30419
G1 X154.230 Y84.698 E0.01681
M73 Q12 S18
G1 X147.923 Y78.391 E0.28042
M73 P12 R18
G1 X148.458 Y78.391 E0.01681
G1 X154.230 Y84.163 E0.25664
G1 X154.230 Y83.628 E0.01681
G1 X148.993 Y78.391 E0.23287
G1 X149.527 Y78.391 E0.01681
G1 X154.230 Y83.094 E0.20909
G1 X154.230 Y82.559 E0.01681
G1 X150.062 Y78.391 E0.18532
G1 X150.597 Y78.391 E0.01681
G1 X154.230 Y82.024 E0.16154
G1 X154.230 Y81.490 E0.01681
G1 X151.131 Y78.391 E0.13777
G1 X151.666 Y78.391 E0.01681
G1 X154.230 Y80.955 E0.11400
G1 X154.230 Y80.420 E0.01681
G1 X152.201 Y78.391 E0.09022
G1 X152.736 Y78.391 E0.01681
G1 X154.230 Y79.885 E0.06645
G1 X154.230 Y79.351 E0.01681
G1 X153.270 Y78.391 E0.04267
G1 X153.805 Y78.391 E0.01681
G1 X154.400 Y78.986 E0.02644
G1 E-0.80000 F2100.000
G1 Z0.800 F10800.000
G1 X120.413 Y87.467
G1 Z0.200
G1 E0.80000 F2100.000
;TYPE:Perimeter
;WIDTH:0.42
G1 F1200.000
G1 X120.413 Y89.920 E0.07692
G1 X95.487 Y89.920 E0.78153
G1 X95.487 Y78.108 E0.37035
G1 X120.413 Y78.108 E0.78153
G1 X120.413 Y87.407 E0.29155
G1 X120.790 Y87.407 F10800.000
;TYPE:External perimeter
G1 F1200.000
G1 X120.790 Y90.297 E0.09062
G1 X95.110 Y90.297 E0.80518
G1 X95.110 Y77.731 E0.39400
