; generated by PrusaSlicer 2.3.1+win64 on 2021-08-06 at 16:49:14 UTC

; 

; external perimeters extrusion width = 0.45mm
; perimeters extrusion width = 0.45mm
; infill extrusion width = 0.45mm
; solid infill extrusion width = 0.45mm
; top infill extrusion width = 0.40mm
; support material extrusion width = 0.35mm
; first layer extrusion width = 0.42mm

M73 P0 R42
M73 Q0 S42
M201 X1000 Y1000 Z1000 E5000 ; sets maximum accelerations, mm/sec^2
M203 X200 Y200 Z12 E120 ; sets maximum feedrates, mm/sec
M204 P1250 R1250 T1250 ; sets acceleration (P, T) and retract acceleration (R), mm/sec^2
M205 X8.00 Y8.00 Z0.40 E1.50 ; sets the jerk limits, mm/sec
M205 S0 T0 ; sets the minimum extruding and travel feed rate, mm/sec
M107
;TYPE:Custom
M862.3 P "MK3S" ; printer model check
M862.1 P0.4 ; nozzle diameter check
M115 U3.8.0 ; tell printer latest fw version
G90 ; use absolute coordinates
M83 ; extruder relative mode
M104 S215 ; set extruder temp
M140 S60 ; set bed temp
M190 S60 ; wait for bed temp
M109 S215 ; wait for extruder temp
G28 W ; home all without mesh bed level
G80 ; mesh bed leveling
G1 Y-3.0 F1000.0 ; go outside print area
G92 E0.0
G1 X60.0 E9.0 F1000.0 ; intro line
G1 X100.0 E12.5 F1000.0 ; intro line
G92 E0.0
M221 S95
G21 ; set units to millimeters
G90 ; use absolute coordinates
M83 ; use relative distances for extrusion
M900 K0.05 ; Filament gcode LA 1.5
M900 K30 ; Filament gcode LA 1.0
;LAYER_CHANGE
;Z:0.2
;HEIGHT:0.2
;BEFORE_LAYER_CHANGE
G92 E0.0
;0.2


G1 E-0.80000 F2100.000
G1 Z0.600 F10800.000
;AFTER_LAYER_CHANGE
;0.2
G1 X108.015 Y97.665
G1 Z0.200
G1 E0.80000 F2100.000
M204 S1000
;TYPE:Perimeter
;WIDTH:0.42
G1 F1200.000
G1 X107.609 Y98.451 E0.02774
G1 X107.427 Y98.727 E0.01035
G1 X106.989 Y99.277 E0.02207
G1 X106.493 Y99.765 E0.02180
G1 X105.936 Y100.196 E0.02207
G1 X105.651 Y100.378 E0.01063
G1 X105.355 Y100.543 E0.01063
G1 X104.712 Y100.829 E0.02207
G1 X104.039 Y101.037 E0.02207
G1 X103.716 Y101.106 E0.01035
G1 X103.017 Y101.190 E0.02207
G1 X102.322 Y101.190 E0.02180
G1 X101.632 Y101.107 E0.02180
G1 X100.965 Y100.945 E0.02150
G1 X100.635 Y100.833 E0.01094
G1 X99.992 Y100.547 E0.02205
G1 X99.403 Y100.195 E0.02150
G1 X99.120 Y99.991 E0.01095
G1 X98.597 Y99.535 E0.02175
G1 X98.355 Y99.283 E0.01095
G1 X97.922 Y98.741 E0.02175
G1 X97.555 Y98.150 E0.02181
G1 X97.259 Y97.512 E0.02207
G1 X97.045 Y96.850 E0.02180
G1 X96.911 Y96.178 E0.02150
G1 X96.874 Y95.831 E0.01095
G1 X96.863 Y95.127 E0.02205
G1 X96.937 Y94.427 E0.02207
G1 X97.001 Y94.103 E0.01035
G1 X97.198 Y93.427 E0.02208
G1 X97.467 Y92.797 E0.02150
G1 X97.632 Y92.489 E0.01094
G1 X98.024 Y91.895 E0.02232
G1 X98.230 Y91.637 E0.01035
G1 X98.716 Y91.128 E0.02207
G1 X99.254 Y90.686 E0.02180
G1 X99.831 Y90.317 E0.02150
G1 X100.140 Y90.155 E0.01094
G1 X100.791 Y89.888 E0.02205
G1 X101.452 Y89.705 E0.02150
G1 X101.795 Y89.642 E0.01094
G1 X102.496 Y89.579 E0.02205
G1 X103.181 Y89.599 E0.02150
G1 X103.528 Y89.640 E0.01094
G1 X104.216 Y89.786 E0.02205
G1 X104.865 Y90.007 E0.02150
G1 X105.184 Y90.148 E0.01094
G1 X105.798 Y90.490 E0.02205
G1 X106.368 Y90.904 E0.02207
G1 X106.616 Y91.121 E0.01035
G1 X107.109 Y91.637 E0.02235
G1 X107.315 Y91.895 E0.01035
G1 X107.703 Y92.482 E0.02207
G1 X108.014 Y93.104 E0.02180
G1 X108.246 Y93.749 E0.02150
G1 X108.334 Y94.087 E0.01094
G1 X108.450 Y94.781 E0.02205
G1 X108.481 Y95.484 E0.02207
G1 X108.466 Y95.814 E0.01035
G1 X108.371 Y96.520 E0.02235
G1 X108.297 Y96.842 E0.01035
G1 X108.038 Y97.610 E0.02540
G1 X108.385 Y97.758 F10800.000
;TYPE:External perimeter
G1 F1200.000
G1 X108.287 Y97.987 E0.00782
G1 X107.933 Y98.645 E0.02341
G1 X107.733 Y98.949 E0.01141
G1 X107.269 Y99.530 E0.02331
G1 X106.742 Y100.049 E0.02321
G1 X106.154 Y100.504 E0.02331
G1 X105.844 Y100.702 E0.01151
G1 X105.524 Y100.881 E0.01151
G1 X104.844 Y101.183 E0.02331
G1 X104.134 Y101.402 E0.02331
G1 X103.778 Y101.478 E0.01141
G1 X103.040 Y101.567 E0.02331
G1 X102.299 Y101.567 E0.02321
G1 X101.564 Y101.478 E0.02322
G1 X100.860 Y101.307 E0.02272
G1 X100.497 Y101.184 E0.01201
G1 X99.818 Y100.882 E0.02330
G1 X99.196 Y100.511 E0.02272
G1 X98.885 Y100.286 E0.01201
G1 X98.337 Y99.808 E0.02281
G1 X98.071 Y99.532 E0.01201
G1 X97.617 Y98.964 E0.02281
G1 X97.220 Y98.324 E0.02360
G1 X96.908 Y97.650 E0.02331
G1 X96.679 Y96.945 E0.02322
G1 X96.538 Y96.234 E0.02272
G1 X96.497 Y95.854 E0.01201
G1 X96.486 Y95.111 E0.02330
G1 X96.564 Y94.371 E0.02331
G1 X96.634 Y94.014 E0.01141
G1 X96.843 Y93.300 E0.02331
G1 X97.127 Y92.634 E0.02272
G1 X97.308 Y92.296 E0.01201
G1 X97.719 Y91.673 E0.02340
G1 X97.946 Y91.388 E0.01141
G1 X98.459 Y90.851 E0.02331
G1 X99.031 Y90.381 E0.02322
G1 X99.642 Y89.990 E0.02272
G1 X99.981 Y89.813 E0.01201
G1 X100.669 Y89.531 E0.02330
G1 X101.367 Y89.337 E0.02272
G1 X101.744 Y89.268 E0.01201
G1 X102.484 Y89.201 E0.02330
G1 X103.209 Y89.222 E0.02272
G1 X103.589 Y89.267 E0.01201
G1 X104.316 Y89.422 E0.02330
G1 X105.002 Y89.655 E0.02272
G1 X105.353 Y89.810 E0.01201
G1 X106.002 Y90.172 E0.02330
G1 X106.603 Y90.609 E0.02331
G1 X106.877 Y90.849 E0.01141
G1 X107.393 Y91.388 E0.02341
G1 X107.620 Y91.673 E0.01141
G1 X108.030 Y92.293 E0.02331
G1 X108.361 Y92.956 E0.02322
G1 X108.606 Y93.638 E0.02272
G1 X108.703 Y94.008 E0.01201
G1 X108.825 Y94.741 E0.02330
G1 X108.859 Y95.484 E0.02331
G1 X108.842 Y95.848 E0.01141
G1 X108.742 Y96.588 E0.02341
G1 X108.661 Y96.942 E0.01141
G1 X108.409 Y97.703 E0.02512
G1 X108.139 Y97.797 F10800.000
G1 E-0.80000 F2100.000
G1 Z0.800 F10800.000
G1 X99.715 Y100.249
G1 Z0.200
G1 E0.80000 F2100.000
;TYPE:Solid infill
;WIDTH:0.423952
G1 F1200.000
G1 X98.568 Y99.097 E0.05152
G1 X98.151 Y98.574 E0.02117
G1 X97.807 Y98.020 E0.02068
G1 X97.619 Y97.615 E0.01414
G1 X100.441 Y100.437 E0.12645
G1 X100.738 Y100.569 E0.01029
G1 X101.271 Y100.728 E0.01762
G1 X97.318 Y96.775 E0.17711
G1 X97.188 Y96.106 E0.02158
G1 X101.941 Y100.859 E0.21294
G1 X102.339 Y100.907 E0.01270
G1 X102.528 Y100.907 E0.00598
G1 X97.152 Y95.532 E0.24084
G1 X97.161 Y95.002 E0.01680
G1 X103.059 Y100.900 E0.26428
G1 X103.540 Y100.842 E0.01535
G1 X97.212 Y94.514 E0.28353
G1 X97.306 Y94.068 E0.01442
G1 X103.993 Y100.755 E0.29961
G1 X104.404 Y100.628 E0.01365
G1 X97.428 Y93.651 E0.31261
G1 X97.577 Y93.262 E0.01322
G1 X104.797 Y100.482 E0.32352
G1 X105.170 Y100.316 E0.01293
G1 X97.740 Y92.886 E0.33289
G1 X97.935 Y92.543 E0.01252
G1 X105.519 Y100.127 E0.33981
G1 X105.842 Y99.911 E0.01231
G1 X98.150 Y92.218 E0.34469
G1 X98.377 Y91.906 E0.01222
G1 X106.146 Y99.676 E0.34813
G1 X106.435 Y99.426 E0.01210
G1 X98.633 Y91.624 E0.34956
G1 X98.897 Y91.349 E0.01208
G1 X106.706 Y99.158 E0.34992
G1 X106.954 Y98.867 E0.01211
G1 X99.191 Y91.104 E0.34784
G1 X99.494 Y90.868 E0.01217
G1 X107.193 Y98.567 E0.34497
G1 X107.403 Y98.238 E0.01236
G1 X99.823 Y90.658 E0.33965
G1 X100.165 Y90.461 E0.01251
G1 X107.591 Y97.888 E0.33276
G1 X107.767 Y97.525 E0.01278
G1 X100.539 Y90.297 E0.32385
G1 X100.926 Y90.144 E0.01316
G1 X107.907 Y97.126 E0.31283
G1 X108.036 Y96.716 E0.01363
G1 X101.348 Y90.028 E0.29967
G1 X101.790 Y89.931 E0.01433
G1 X108.120 Y96.261 E0.28366
G1 X108.184 Y95.787 E0.01518
G1 X102.280 Y89.882 E0.26455
G1 X102.504 Y89.862 E0.00714
G1 X102.808 Y89.871 E0.00961
G1 X108.188 Y95.251 E0.24106
G1 X108.168 Y94.810 E0.01397
G1 X108.144 Y94.669 E0.00455
G1 X103.383 Y89.907 E0.21334
G1 X104.055 Y90.041 E0.02172
G1 X108.021 Y94.006 E0.17768
G1 X107.975 Y93.833 E0.00566
G1 X107.738 Y93.184 E0.02190
G1 X104.873 Y90.320 E0.12836
M73 Q1 S42
G1 X105.058 Y90.401 E0.00641
G1 X105.646 Y90.729 E0.02132
G1 X106.191 Y91.126 E0.02136
G1 X106.400 Y91.308 E0.00877
G1 X107.553 Y92.461 E0.05168
G1 E-0.80000 F2100.000
G1 Z0.800 F10800.000
M73 P1 R42
G1 X121.297 Y89.903
G1 Z0.200
G1 E0.80000 F2100.000
;TYPE:External perimeter
;WIDTH:0.42
G1 F1200.000
G1 X122.446 Y89.481 E0.03837
G1 X123.632 Y89.272 E0.03777
G1 X124.818 Y89.272 E0.03720
G1 X126.023 Y89.481 E0.03833
G1 X127.155 Y89.893 E0.03778
G1 X128.198 Y90.495 E0.03777
G1 X129.121 Y91.270 E0.03777
G1 X129.895 Y92.192 E0.03777
G1 X130.498 Y93.236 E0.03777
G1 X130.903 Y94.350 E0.03720
G1 X131.119 Y95.554 E0.03833
G1 X131.119 Y96.759 E0.03778
G1 X130.910 Y97.945 E0.03777
G1 X130.498 Y99.077 E0.03777
G1 X129.895 Y100.120 E0.03777
G1 X129.121 Y101.043 E0.03777
G1 X128.198 Y101.817 E0.03777
G1 X127.155 Y102.420 E0.03777
G1 X126.040 Y102.825 E0.03720
G1 X124.837 Y103.041 E0.03833
G1 X123.632 Y103.041 E0.03778
G1 X122.446 Y102.832 E0.03777
G1 X121.314 Y102.420 E0.03777
G1 X120.270 Y101.817 E0.03777
G1 X119.348 Y101.043 E0.03777
G1 X118.585 Y100.134 E0.03720
G1 X117.971 Y99.077 E0.03833
G1 X117.559 Y97.945 E0.03778
G1 X117.350 Y96.759 E0.03777
G1 X117.350 Y95.554 E0.03777
G1 X117.559 Y94.368 E0.03777
G1 X117.971 Y93.236 E0.03777
G1 X118.573 Y92.192 E0.03777
G1 X119.348 Y91.270 E0.03777
G1 X120.271 Y90.495 E0.03777
G1 X121.245 Y89.933 E0.03528
G1 X121.331 Y89.504 F10800.000
G1 E-0.80000 F2100.000
G1 Z0.800 F10800.000
G1 X130.307 Y92.763
G1 Z0.200
G1 E0.80000 F2100.000
G1 F1200.000
G1 X130.562 Y93.206 E0.01601
G1 X130.978 Y94.348 E0.03811
G1 X131.190 Y95.548 E0.03821
G1 X131.190 Y96.765 E0.03816
G1 X130.978 Y97.963 E0.03816
G1 X130.562 Y99.107 E0.03816
G1 X129.953 Y100.161 E0.03816
G1 X129.169 Y101.095 E0.03825
G1 X128.239 Y101.875 E0.03807
G1 X127.185 Y102.484 E0.03816
G1 X126.041 Y102.900 E0.03816
G1 X124.843 Y103.111 E0.03816
G1 X123.626 Y103.111 E0.03816
G1 X122.427 Y102.900 E0.03816
G1 X121.284 Y102.484 E0.03816
G1 X120.230 Y101.875 E0.03816
G1 X119.298 Y101.093 E0.03816
G1 X118.514 Y100.158 E0.03825
G1 X117.907 Y99.107 E0.03807
G1 X117.491 Y97.965 E0.03811
G1 X117.279 Y96.765 E0.03820
G1 X117.279 Y95.548 E0.03816
G1 X117.491 Y94.349 E0.03816
G1 X117.907 Y93.206 E0.03816
G1 X118.515 Y92.152 E0.03816
G1 X119.300 Y91.218 E0.03825
G1 X120.230 Y90.437 E0.03807
G1 X121.282 Y89.829 E0.03811
G1 X122.426 Y89.413 E0.03816
G1 X123.626 Y89.201 E0.03821
G1 X124.841 Y89.201 E0.03810
G1 X126.041 Y89.412 E0.03821
G1 X127.185 Y89.829 E0.03816
G1 X128.239 Y90.437 E0.03816
G1 X129.173 Y91.222 E0.03825
G1 X129.953 Y92.152 E0.03807
G1 X130.277 Y92.711 E0.02026
G1 X130.119 Y93.117 F10800.000
G1 E-0.80000 F2100.000
G1 Z0.800 F10800.000
G1 X138.265 Y109.558
G1 Z0.200
G1 E0.80000 F2100.000
;TYPE:Perimeter
G1 F1200.000
G1 X138.875 Y109.954 E0.02281
G1 X139.149 Y110.171 E0.01095
G1 X139.657 Y110.657 E0.02205
G1 X140.104 Y111.200 E0.02207
G1 X140.290 Y111.473 E0.01036
G1 X140.629 Y112.080 E0.02177
G1 X140.772 Y112.398 E0.01094
G1 X141.002 Y113.072 E0.02232
G1 X141.080 Y113.393 E0.01035
G1 X141.185 Y114.089 E0.02207
G1 X141.206 Y114.792 E0.02207
G1 X141.186 Y115.122 E0.01035
G1 X141.082 Y115.818 E0.02207
G1 X140.894 Y116.497 E0.02207
G1 X140.775 Y116.814 E0.01063
G1 X140.637 Y117.124 E0.01063
G1 X140.294 Y117.738 E0.02207
G1 X139.886 Y118.301 E0.02180
G1 X139.413 Y118.811 E0.02180
G1 X138.890 Y119.254 E0.02150
G1 X138.605 Y119.456 E0.01095
G1 X137.989 Y119.812 E0.02232
G1 X137.689 Y119.951 E0.01036
G1 X137.035 Y120.186 E0.02177
G1 X136.698 Y120.274 E0.01094
G1 X136.004 Y120.390 E0.02205
G1 X135.310 Y120.421 E0.02180
G1 X134.608 Y120.368 E0.02207
G1 X133.943 Y120.237 E0.02125
G1 X133.265 Y120.017 E0.02235
G1 X132.961 Y119.887 E0.01035
G1 X132.341 Y119.554 E0.02207
G1 X131.773 Y119.154 E0.02180
G1 X131.256 Y118.688 E0.02180
G1 X130.793 Y118.158 E0.02207
G1 X130.599 Y117.891 E0.01035
G1 X130.238 Y117.287 E0.02208
G1 X129.959 Y116.660 E0.02150
G1 X129.845 Y116.330 E0.01094
G1 X129.676 Y115.639 E0.02232
G1 X129.627 Y115.312 E0.01035
G1 X129.584 Y114.601 E0.02235
G1 X129.594 Y114.271 E0.01035
G1 X129.678 Y113.572 E0.02207
G1 X129.843 Y112.896 E0.02180
G1 X130.083 Y112.254 E0.02150
G1 X130.234 Y111.939 E0.01094
G1 X130.595 Y111.336 E0.02205
G1 X131.014 Y110.793 E0.02150
G1 X131.250 Y110.536 E0.01094
G1 X131.773 Y110.066 E0.02205
G1 X132.334 Y109.670 E0.02150
G1 X132.635 Y109.495 E0.01094
G1 X133.274 Y109.199 E0.02205
G1 X133.925 Y108.987 E0.02150
G1 X134.266 Y108.908 E0.01094
G1 X134.963 Y108.814 E0.02205
G1 X135.648 Y108.803 E0.02150
G1 X135.996 Y108.828 E0.01095
G1 X136.699 Y108.945 E0.02232
G1 X137.018 Y109.028 E0.01035
G1 X137.681 Y109.265 E0.02207
G1 X138.212 Y109.531 E0.01860
G1 X138.380 Y109.194 F10800.000
;TYPE:External perimeter
G1 F1200.000
G1 X138.492 Y109.249 E0.00390
G1 X139.097 Y109.648 E0.02272
G1 X139.397 Y109.886 E0.01201
G1 X139.934 Y110.400 E0.02330
G1 X140.406 Y110.974 E0.02331
G1 X140.611 Y111.275 E0.01142
G1 X140.966 Y111.910 E0.02282
G1 X141.123 Y112.260 E0.01201
G1 X141.364 Y112.966 E0.02340
G1 X141.451 Y113.320 E0.01141
G1 X141.561 Y114.055 E0.02331
G1 X141.584 Y114.798 E0.02331
G1 X141.562 Y115.161 E0.01141
G1 X141.451 Y115.897 E0.02331
G1 X141.253 Y116.613 E0.02331
G1 X140.975 Y117.292 E0.02302
G1 X140.613 Y117.942 E0.02331
G1 X140.178 Y118.541 E0.02321
G1 X139.674 Y119.084 E0.02322
G1 X139.122 Y119.552 E0.02272
G1 X138.809 Y119.774 E0.01201
G1 X138.163 Y120.147 E0.02340
G1 X137.832 Y120.300 E0.01142
G1 X137.147 Y120.546 E0.02282
G1 X136.777 Y120.644 E0.01201
G1 X136.044 Y120.765 E0.02330
G1 X135.304 Y120.799 E0.02321
G1 X134.563 Y120.743 E0.02331
G1 X134.200 Y120.683 E0.01151
G1 X133.842 Y120.601 E0.01151
G1 X133.132 Y120.370 E0.02341
M73 P1 R41
G1 X132.798 Y120.227 E0.01141
G1 X132.143 Y119.875 E0.02331
G1 X131.537 Y119.449 E0.02321
G1 X130.987 Y118.954 E0.02321
G1 X130.498 Y118.394 E0.02331
G1 X130.284 Y118.099 E0.01141
G1 X129.903 Y117.461 E0.02331
G1 X129.608 Y116.799 E0.02272
G1 X129.483 Y116.437 E0.01201
G1 X129.306 Y115.712 E0.02340
G1 X129.251 Y115.352 E0.01141
G1 X129.207 Y114.606 E0.02341
G1 X129.218 Y114.243 E0.01141
G1 X129.306 Y113.504 E0.02331
G1 X129.482 Y112.785 E0.02322
G1 X129.736 Y112.107 E0.02272
G1 X129.901 Y111.761 E0.01201
G1 X130.283 Y111.123 E0.02330
G1 X130.725 Y110.549 E0.02272
G1 X130.985 Y110.268 E0.01201
G1 X131.538 Y109.770 E0.02330
G1 X132.130 Y109.353 E0.02272
G1 X132.461 Y109.160 E0.01201
G1 X133.135 Y108.848 E0.02330
G1 X133.824 Y108.623 E0.02272
G1 X134.198 Y108.537 E0.01201
G1 X134.934 Y108.437 E0.02330
G1 X135.659 Y108.426 E0.02272
G1 X136.041 Y108.453 E0.01201
G1 X136.777 Y108.576 E0.02340
G1 X137.129 Y108.667 E0.01141
G1 X137.829 Y108.918 E0.02331
G1 X138.327 Y109.167 E0.01743
G1 X138.390 Y109.318 F10800.000
G1 E-0.80000 F2100.000
G1 Z0.800 F10800.000
G1 X132.460 Y119.489
G1 Z0.200
G1 E0.80000 F2100.000
;TYPE:Solid infill
;WIDTH:0.423944
G1 F1200.000
G1 X131.443 Y118.472 E0.04558
G1 X131.015 Y117.982 E0.02061
G1 X130.835 Y117.735 E0.00966
G1 X130.489 Y117.156 E0.02137
G1 X130.347 Y116.838 E0.01105
G1 X133.185 Y119.675 E0.12715
G1 X133.364 Y119.752 E0.00618
G1 X134.011 Y119.962 E0.02152
G1 X130.057 Y116.009 E0.17712
G1 X129.954 Y115.584 E0.01385
G1 X129.915 Y115.328 E0.00821
G1 X134.677 Y120.090 E0.21337
G1 X135.260 Y120.134 E0.01851
G1 X129.876 Y114.750 E0.24120
G1 X129.885 Y114.220 E0.01680
G1 X135.782 Y120.117 E0.26420
G1 X135.975 Y120.108 E0.00612
G1 X136.264 Y120.060 E0.00929
G1 X129.943 Y113.739 E0.28321
G1 X130.037 Y113.294 E0.01440
G1 X136.719 Y119.976 E0.29940
G1 X137.132 Y119.850 E0.01368
G1 X130.154 Y112.872 E0.31266
G1 X130.301 Y112.480 E0.01326
G1 X137.529 Y119.708 E0.32384
G1 X137.898 Y119.538 E0.01287
G1 X130.467 Y112.108 E0.33293
G1 X130.666 Y111.768 E0.01248
G1 X138.239 Y119.341 E0.33932
G1 X138.571 Y119.134 E0.01239
G1 X130.874 Y111.437 E0.34487
M73 Q1 S41
G1 X131.109 Y111.133 E0.01217
G1 X138.873 Y118.898 E0.34791
G1 X139.165 Y118.650 E0.01211
G1 X131.355 Y110.840 E0.34993
G1 X131.449 Y110.738 E0.00442
G1 X131.629 Y110.576 E0.00767
G1 X139.430 Y118.376 E0.34951
G1 X139.687 Y118.094 E0.01209
G1 X131.913 Y110.320 E0.34830
G1 X132.225 Y110.093 E0.01222
G1 X139.913 Y117.782 E0.34449
G1 X140.127 Y117.457 E0.01232
G1 X132.545 Y109.875 E0.33974
G1 X132.895 Y109.686 E0.01261
G1 X140.320 Y117.111 E0.33268
G1 X140.489 Y116.741 E0.01290
G1 X133.264 Y109.516 E0.32372
G1 X133.658 Y109.372 E0.01331
G1 X140.640 Y116.354 E0.31283
G1 X140.757 Y115.931 E0.01388
G1 X134.070 Y109.244 E0.29963
G1 X134.523 Y109.159 E0.01463
G1 X140.846 Y115.482 E0.28330
G1 X140.910 Y115.007 E0.01519
G1 X135.000 Y109.096 E0.26482
G1 X135.530 Y109.088 E0.01681
G1 X140.914 Y114.472 E0.24122
G1 X140.903 Y114.114 E0.01133
G1 X140.869 Y113.888 E0.00725
