; generated by PrusaSlicer 2.4.2+win64 on 2022-04-28 at 20:43:43 UTC

; 

; external perimeters extrusion width = 0.45mm
; perimeters extrusion width = 0.45mm
; infill extrusion width = 0.45mm
; solid infill extrusion width = 0.45mm
; top infill extrusion width = 0.40mm
; support material extrusion width = 0.35mm
; first layer extrusion width = 0.42mm

; external perimeters extrusion width = 0.45mm
; perimeters extrusion width = 0.45mm
; infill extrusion width = 0.45mm
; solid infill extrusion width = 0.45mm
; top infill extrusion width = 0.40mm
; support material extrusion width = 0.35mm
; first layer extrusion width = 0.42mm

M73 P0 R55
M73 Q0 S55
M201 X1000 Y1000 Z200 E5000 ; sets maximum accelerations, mm/sec^2
M203 X200 Y200 Z12 E120 ; sets maximum feedrates, mm / sec
M204 P1250 R1250 T1250 ; sets acceleration (P, T) and retract acceleration (R), mm/sec^2
M205 X8.00 Y8.00 Z0.40 E4.50 ; sets the jerk limits, mm/sec
M205 S0 T0 ; sets the minimum extruding and travel feed rate, mm/sec
M107
;TYPE:Custom
M862.3 P "MK3S" ; printer model check
M862.1 P0.4 ; nozzle diameter check
M115 U3.10.1 ; tell printer latest fw version
G90 ; use absolute coordinates
M83 ; extruder relative mode
M104 S215 ; set extruder temp
M140 S60 ; set bed temp
M190 S60 ; wait for bed temp
M109 S215 ; wait for extruder temp
G28 W ; home all without mesh bed level
G80 ; mesh bed leveling
G1 Z0.2 F720
G1 Y-3 F1000 ; go outside print area
G92 E0
G1 X60 E9 F1000 ; intro line
G1 X100 E12.5 F1000 ; intro line
G92 E0
M221 S95

; Don't change E values below. Excessive value can damage the printer.

G21 ; set units to millimeters
G90 ; use absolute coordinates
M83 ; use relative distances for extrusion
M900 K0.05 ; Filament gcode LA 1.5
M900 K30 ; Filament gcode LA 1.0
M107
;LAYER_CHANGE
;Z:0.2
;HEIGHT:0.2
;BEFORE_LAYER_CHANGE
G92 E0.0
;0.2


G1 E-.8 F2100
G1 Z.4 F720
;AFTER_LAYER_CHANGE
;0.2
G1 X45.932 Y45.932 F10800
G1 Z.2 F720
G1 E.8 F2100
M204 S800
;TYPE:Skirt/Brim
;WIDTH:0.42
G1 F1200
G1 X48.262 Y43.602 E.10331
G1 X49.335 Y42.828 E.0415
G1 X57.275 Y38.858 E.27832
G1 X59.123 Y38.422 E.05952
G1 X192.66 Y38.422 E4.18696
G1 X194.423 Y38.818 E.05665
G1 X195.581 Y39.632 E.0444
G1 X203.713 Y47.765 E.36061
G1 X204.681 Y49.291 E.05665
M73 P0 R54
G1 X204.923 Y50.686 E.0444
G1 X204.923 Y62.595 E.37341
G1 X204.229 Y64.887 E.07507
G1 X196.29 Y76.797 E.44879
G1 X195.774 Y77.426 E.02553
G1 X187.641 Y85.559 E.36061
G1 X186.115 Y86.526 E.05665
G1 X184.72 Y86.769 E.0444
G1 X55.153 Y86.769 E4.06249
G1 X53.39 Y86.373 E.05665
G1 X52.232 Y85.559 E.0444
G1 X32.19 Y65.517 E.88869
G1 X31.222 Y63.991 E.05665
G1 X30.999 Y62.197 E.05665
G1 X31.562 Y60.481 E.05665
G1 X32.19 Y59.674 E.03204
G1 X45.89 Y45.974 E.60747
M204 S1000
G1 X46.156 Y46.241 F10800
M204 S800
G1 F1200
G1 X48.528 Y43.869 E.10519
G1 X49.504 Y43.166 E.03771
G1 X57.444 Y39.196 E.27832
G1 X59.123 Y38.799 E.05409
G1 X192.66 Y38.799 E4.18696
G1 X194.335 Y39.194 E.05397
M73 P1 R54
M73 Q1 S55
G1 X195.314 Y39.899 E.03783
G1 X203.447 Y48.031 E.36061
G1 X204.352 Y49.495 E.05397
M73 Q1 S54
G1 X204.546 Y50.686 E.03783
G1 X204.546 Y62.595 E.37341
G1 X203.916 Y64.678 E.06822
G1 X195.976 Y76.587 E.44879
G1 X195.507 Y77.16 E.0232
G1 X187.375 Y85.292 E.36061
G1 X185.911 Y86.198 E.05397
G1 X184.72 Y86.392 E.03782
G1 X55.153 Y86.392 E4.06249
G1 X53.477 Y85.997 E.05397
G1 X52.498 Y85.292 E.03782
G1 X32.456 Y65.25 E.88869
G1 X31.551 Y63.786 E.05397
G1 X31.393 Y62.072 E.05397
G1 X32.456 Y59.941 E.07467
G1 X46.114 Y46.283 E.60559
M204 S1000
G1 X46.38 Y46.55 F10800
M204 S800
G1 F1200
G1 X48.795 Y44.135 E.10707
G1 X49.673 Y43.503 E.03392
G1 X57.612 Y39.533 E.27832
G1 X59.123 Y39.177 E.04866
G1 X192.66 Y39.177 E4.18696
G1 X194.243 Y39.571 E.05115
G1 X195.048 Y40.166 E.03138
G1 X203.18 Y48.298 E.36061
G1 X204.021 Y49.696 E.05115
G1 X204.169 Y50.686 E.03138
G1 X204.169 Y62.595 E.37341
G1 X203.602 Y64.469 E.06137
G1 X195.662 Y76.378 E.44879
G1 X195.24 Y76.893 E.02087
G1 X187.108 Y85.025 E.36061
G1 X185.71 Y85.866 E.05115
G1 X184.72 Y86.014 E.03138
G1 X55.153 Y86.014 E4.06249
G1 X53.57 Y85.62 E.05115
G1 X52.765 Y85.025 E.03138
G1 X32.723 Y64.983 E.88869
G1 X31.882 Y63.585 E.05115
G1 X31.795 Y61.956 E.05115
G1 X32.723 Y60.208 E.06207
G1 X46.338 Y46.593 E.60371
M204 S1000
; printing object BoxCutter_Body2.stl id:1 copy 0
;WIPE_START
G1 F8640
M73 P2 R54
G1 X48.665 Y44.265 E-.76
;WIPE_END
G1 E-.04 F2100
G1 Z.6 F720
G1 X189.445 Y62.392 F10800
G1 Z.2 F720
M73 Q2 S54
G1 E.8 F2100
M204 S800
;TYPE:Support material
G1 F1200
G1 X181.98 Y71.71 E.37436
G1 X176.624 Y71.71 E.16793
G1 X189.445 Y55.707 E.64295
G1 X189.445 Y62.336 E.20784
M204 S1000
G1 X181.582 Y71.541 F10800
M204 S800
G1 F1200
G1 X182.081 Y71.042 E.02214
G1 X184.468 Y68.062 E.11971
G1 X181.159 Y71.371 E.14674
G1 X180.567 Y71.371 E.01858
G1 X186.856 Y65.082 E.27887
G1 X189.106 Y62.273 E.11285
G1 X189.106 Y62.239 E.00107
G1 X179.974 Y71.371 E.40493
G1 X179.382 Y71.371 E.01858
G1 X189.106 Y61.647 E.4312
G1 X189.106 Y61.054 E.01858
G1 X178.789 Y71.371 E.45747
G1 X178.196 Y71.371 E.01858
G1 X189.106 Y60.462 E.48375
G1 X189.106 Y59.869 E.01858
G1 X177.604 Y71.371 E.51002
G1 X177.331 Y71.371 E.00856
M73 P2 R53
G1 X178.618 Y69.765 E.06454
G1 X189.106 Y59.277 E.46507
G1 X189.106 Y58.684 E.01858
G1 X181.005 Y66.785 E.3592
G1 X183.393 Y63.805 E.11972
G1 X189.106 Y58.091 E.25334
G1 X189.106 Y57.499 E.01858
G1 X185.78 Y60.825 E.14748
G1 X188.167 Y57.845 E.11972
G1 X189.276 Y56.737 E.04915
M204 S1000
;WIPE_START
G1 F8640
G1 X188.167 Y57.845 E-.36193
G1 X187.089 Y59.191 E-.39807
;WIPE_END
G1 E-.04 F2100
G1 Z.6 F720
G1 X200.792 Y50.686 F10800
G1 Z.2 F720
G1 E.8 F2100
M204 S800
G1 F1200
G1 X198.807 Y52.671 E.08801
G1 X200.792 Y54.656 E.08801
G1 X198.807 Y56.641 E.08801
G1 X200.792 Y58.626 E.08801
G1 X198.807 Y60.611 E.08801
G1 X200.792 Y62.595 E.08801
G1 X190.868 Y72.52 E.44007
G1 X192.852 Y74.505 E.08801
G1 X184.72 Y82.637 E.36061
G1 X182.735 Y80.652 E.08801
G1 X180.75 Y82.637 E.08801
G1 X178.765 Y80.652 E.08801
G1 X176.78 Y82.637 E.08801
G1 X174.795 Y80.652 E.08801
G1 X172.811 Y82.637 E.08801
G1 X170.826 Y80.652 E.08801
G1 X168.841 Y82.637 E.08801
G1 X166.856 Y80.652 E.08801
G1 X164.871 Y82.637 E.08801
G1 X162.886 Y80.652 E.08801
G1 X160.901 Y82.637 E.08801
G1 X158.916 Y80.652 E.08801
G1 X156.931 Y82.637 E.08801
G1 X154.946 Y80.652 E.08801
G1 X152.961 Y82.637 E.08801
G1 X150.977 Y80.652 E.08801
G1 X148.992 Y82.637 E.08801
G1 X147.007 Y80.652 E.08801
G1 X145.022 Y82.637 E.08801
G1 X143.037 Y80.652 E.08801
G1 X141.052 Y82.637 E.08801
G1 X121.01 Y62.595 E.88869
G1 X137.082 Y46.523 E.71266
G1 X139.067 Y48.508 E.08801
G1 X145.022 Y42.554 E.26404
G1 X147.007 Y44.538 E.08801
G1 X148.992 Y42.554 E.08801
G1 X150.977 Y44.538 E.08801
G1 X152.961 Y42.554 E.08801
G1 X154.946 Y44.538 E.08801
G1 X156.931 Y42.554 E.08801
G1 X158.916 Y44.538 E.08801
G1 X160.901 Y42.554 E.08801
G1 X162.886 Y44.538 E.08801
G1 X164.871 Y42.554 E.08801
G1 X166.856 Y44.538 E.08801
G1 X168.841 Y42.554 E.08801
G1 X170.826 Y44.538 E.08801
G1 X172.811 Y42.554 E.08801
G1 X174.795 Y44.538 E.08801
G1 X176.78 Y42.554 E.08801
G1 X178.765 Y44.538 E.08801
G1 X180.75 Y42.554 E.08801
G1 X182.735 Y44.538 E.08801
G1 X184.72 Y42.554 E.08801
G1 X186.705 Y44.538 E.08801
G1 X188.69 Y42.554 E.08801
G1 X190.675 Y44.538 E.08801
G1 X192.66 Y42.554 E.08801
G1 X200.752 Y50.646 E.35883
M204 S1000
;WIPE_START
G1 F8640
G1 X198.425 Y48.319 E-.76
;WIPE_END
G1 E-.04 F2100
G1 Z.6 F720
G1 X165.162 Y48.81 F10800
G1 Z.2 F720
G1 E.8 F2100
M204 S800
G1 F1200
G1 X164.419 Y49.167 E.02584
G1 X144.262 Y74.327 E1.01083
G1 X145.248 Y76.38 E.07141
G1 X146.383 Y76.38 E.03559
G1 X147.007 Y77.004 E.02765
G1 X147.63 Y76.38 E.02765
G1 X183.137 Y76.38 E1.11327
G1 X183.533 Y76.29 E.01276
M73 Q2 S53
G1 X184.063 Y76.036 E.01841
G1 X184.381 Y75.783 E.01276
G1 X193.751 Y64.087 E.46989
G1 X193.9 Y63.819 E.00961
G1 X194.064 Y63.352 E.01552
G1 X194.115 Y63.05 E.00961
G1 X194.115 Y50.36 E.39787
G1 X193.84 Y49.695 E.02258
G1 X193.231 Y49.086 E.02701
G1 X192.565 Y48.81 E.02258
G1 X165.219 Y48.81 E.85744
M204 S1000
;WIPE_START
G1 F8640
G1 X168.51 Y48.81 E-.76
;WIPE_END
G1 E-.04 F2100
G1 Z.6 F720
G1 X184.537 Y82.214 F10800
G1 Z.2 F720
G1 E.8 F2100
M204 S800
G1 F1200
G1 X192.309 Y74.442 E.34465
G1 X192.013 Y74.145 E.01314
M73 P3 R53
M73 Q3 S53
G1 X184.36 Y81.798 E.33933
G1 X184.064 Y81.502 E.01314
G1 X191.717 Y73.849 E.33933
G1 X191.42 Y73.553 E.01314
G1 X183.768 Y81.205 E.33933
G1 X183.472 Y80.909 E.01314
G1 X191.124 Y73.257 E.33933
G1 X190.828 Y72.96 E.01314
G1 X183.175 Y80.613 E.33933
G1 X182.879 Y80.317 E.01314
G1 X190.532 Y72.664 E.33933
G1 X190.388 Y72.52 E.00639
G1 X200.312 Y62.595 E.44007
G1 X200.16 Y62.443 E.00675
G1 X180.598 Y82.005 E.86741
G1 X180.302 Y81.709 E.01314
G1 X199.864 Y62.147 E.86741
G1 X199.567 Y61.851 E.01314
G1 X180.005 Y81.413 E.86741
G1 X179.709 Y81.116 E.01314
G1 X199.271 Y61.554 E.86741
G1 X198.975 Y61.258 E.01314
G1 X186.29 Y73.943 E.56248
G1 X188.677 Y70.964 E.11971
G1 X198.679 Y60.962 E.44349
G1 X198.382 Y60.666 E.01314
G1 X191.064 Y67.984 E.3245
G1 X193.451 Y65.004 E.11971
G1 X200.071 Y58.384 E.29353
G1 X199.775 Y58.088 E.01314
G1 X194.376 Y63.487 E.23937
G1 X194.455 Y63.079 E.01302
G1 X194.455 Y62.816 E.00825
G1 X199.478 Y57.792 E.22276
G1 X199.182 Y57.496 E.01314
G1 X194.455 Y62.223 E.20962
G1 X194.455 Y61.631 E.01858
G1 X198.886 Y57.199 E.19648
G1 X198.59 Y56.903 E.01314
G1 X194.455 Y61.038 E.18335
G1 X194.455 Y60.446 E.01858
G1 X200.278 Y54.622 E.25822
G1 X199.982 Y54.326 E.01314
G1 X194.455 Y59.853 E.24509
G1 X194.455 Y59.26 E.01858
G1 X199.686 Y54.03 E.23195
G1 X199.389 Y53.733 E.01314
G1 X194.455 Y58.668 E.21881
G1 X194.455 Y58.075 E.01858
G1 X199.093 Y53.437 E.20568
G1 X198.797 Y53.141 E.01314
G1 X194.455 Y57.483 E.19254
G1 X194.455 Y56.89 E.01858
G1 X198.501 Y52.844 E.1794
G1 X198.327 Y52.671 E.00769
G1 X200.312 Y50.686 E.08801
G1 X200.189 Y50.563 E.00544
G1 X194.455 Y56.298 E.25428
G1 X194.455 Y55.705 E.01858
G1 X199.893 Y50.267 E.24114
G1 X199.597 Y49.971 E.01314
G1 X194.455 Y55.113 E.22801
G1 X194.455 Y54.52 E.01858
G1 X199.301 Y49.675 E.21487
G1 X199.004 Y49.378 E.01314
G1 X194.455 Y53.928 E.20173
G1 X194.455 Y53.335 E.01858
G1 X198.708 Y49.082 E.1886
G1 X198.412 Y48.786 E.01314
G1 X194.455 Y52.743 E.17546
G1 X194.455 Y52.15 E.01858
G1 X198.115 Y48.489 E.16232
G1 X197.819 Y48.193 E.01314
G1 X194.455 Y51.558 E.14919
G1 X194.455 Y50.965 E.01858
G1 X197.523 Y47.897 E.13605
G1 X197.227 Y47.601 E.01314
G1 X194.455 Y50.373 E.12291
G1 X194.455 Y50.293 E.0025
G1 X194.305 Y49.93 E.01231
G1 X196.93 Y47.304 E.11644
G1 X196.634 Y47.008 E.01314
G1 X194.131 Y49.511 E.111
G1 X193.837 Y49.213 E.01314
G1 X196.338 Y46.712 E.11089
G1 X196.042 Y46.416 E.01314
G1 X193.541 Y48.916 E.11089
G1 X193.423 Y48.798 E.00523
G1 X193.171 Y48.694 E.00855
G1 X195.745 Y46.119 E.11416
G1 X195.449 Y45.823 E.01314
G1 X192.752 Y48.52 E.1196
G1 X192.633 Y48.471 E.00404
G1 X192.209 Y48.471 E.0133
G1 X195.153 Y45.527 E.13055
G1 X194.857 Y45.231 E.01314
G1 X191.616 Y48.471 E.14369
G1 X191.024 Y48.471 E.01858
G1 X194.56 Y44.934 E.15683
G1 X194.264 Y44.638 E.01314
G1 X190.431 Y48.471 E.16996
G1 X189.839 Y48.471 E.01858
G1 X193.968 Y44.342 E.1831
G1 X193.672 Y44.046 E.01314
G1 X189.246 Y48.471 E.19624
G1 X188.653 Y48.471 E.01858
G1 X193.375 Y43.749 E.20937
G1 X193.079 Y43.453 E.01314
G1 X188.061 Y48.471 E.22251
G1 X187.468 Y48.471 E.01858
G1 X192.783 Y43.157 E.23565
G1 X192.66 Y43.034 E.00546
G1 X190.675 Y45.018 E.08801
G1 X190.502 Y44.845 E.00767
G1 X186.876 Y48.471 E.16077
G1 X186.283 Y48.471 E.01858
G1 X190.205 Y44.549 E.17391
G1 X189.909 Y44.253 E.01314
G1 X185.691 Y48.471 E.18704
G1 X185.098 Y48.471 E.01858
G1 X189.613 Y43.957 E.20018
G1 X189.317 Y43.66 E.01314
G1 X184.506 Y48.471 E.21332
G1 X183.913 Y48.471 E.01858
G1 X189.02 Y43.364 E.22645
G1 X188.724 Y43.068 E.01314
G1 X183.321 Y48.471 E.23959
G1 X182.728 Y48.471 E.01858
G1 X186.443 Y44.756 E.16471
G1 X186.147 Y44.46 E.01314
G1 X182.136 Y48.471 E.17785
G1 X181.543 Y48.471 E.01858
G1 X185.85 Y44.164 E.19099
G1 X185.554 Y43.868 E.01314
G1 X180.951 Y48.471 E.20412
G1 X180.358 Y48.471 E.01858
G1 X185.258 Y43.571 E.21726
G1 X184.962 Y43.275 E.01314
G1 X179.766 Y48.471 E.2304
G1 X179.173 Y48.471 E.01858
G1 X182.68 Y44.964 E.15552
G1 X182.384 Y44.668 E.01314
G1 X178.581 Y48.471 E.16866
G1 X177.988 Y48.471 E.01858
G1 X182.088 Y44.371 E.18179
G1 X181.792 Y44.075 E.01314
G1 X177.396 Y48.471 E.19493
G1 X176.803 Y48.471 E.01858
G1 X181.495 Y43.779 E.20807
G1 X181.199 Y43.482 E.01314
G1 X176.211 Y48.471 E.2212
G1 X175.618 Y48.471 E.01858
G1 X180.903 Y43.186 E.23434
G1 X180.75 Y43.034 E.00677
G1 X178.765 Y45.018 E.08801
G1 X178.622 Y44.875 E.00637
G1 X175.025 Y48.471 E.15946
G1 X174.433 Y48.471 E.01858
M73 P4 R53
M73 Q4 S53
G1 X178.325 Y44.579 E.1726
G1 X178.029 Y44.282 E.01314
G1 X173.84 Y48.471 E.18574
G1 X173.248 Y48.471 E.01858
G1 X177.733 Y43.986 E.19887
G1 X177.437 Y43.69 E.01314
G1 X172.655 Y48.471 E.21201
G1 X172.063 Y48.471 E.01858
G1 X177.14 Y43.394 E.22515
G1 X176.844 Y43.097 E.01314
G1 X171.47 Y48.471 E.23828
G1 X170.878 Y48.471 E.01858
M73 P4 R52
G1 X174.563 Y44.786 E.16341
G1 X174.267 Y44.49 E.01314
G1 X170.285 Y48.471 E.17654
G1 X169.693 Y48.471 E.01858
G1 X173.97 Y44.193 E.18968
G1 X173.674 Y43.897 E.01314
G1 X169.1 Y48.471 E.20282
G1 X168.508 Y48.471 E.01858
G1 X173.378 Y43.601 E.21595
G1 X173.082 Y43.305 E.01314
G1 X167.915 Y48.471 E.22909
G1 X167.323 Y48.471 E.01858
G1 X170.8 Y44.993 E.15421
G1 X170.504 Y44.697 E.01314
G1 X166.73 Y48.471 E.16735
G1 X166.138 Y48.471 E.01858
G1 X170.208 Y44.401 E.18049
G1 X169.912 Y44.105 E.01314
G1 X165.545 Y48.471 E.19362
G1 X165.085 Y48.471 E.01443
G1 X164.83 Y48.593 E.00886
G1 X169.615 Y43.808 E.21218
G1 X169.319 Y43.512 E.01314
G1 X135.863 Y76.968 E1.48351
G1 X136.159 Y77.265 E.01314
G1 X162.888 Y50.535 E1.18522
G1 X160.501 Y53.515 E.11971
G1 X136.455 Y77.561 E1.06623
G1 X136.752 Y77.857 E.01314
G1 X158.114 Y56.495 E.94724
G1 X155.727 Y59.474 E.11971
G1 X137.048 Y78.153 E.82825
G1 X137.344 Y78.45 E.01314
G1 X153.34 Y62.454 E.70926
G1 X150.952 Y65.434 E.11971
G1 X137.64 Y78.746 E.59027
G1 X137.937 Y79.042 E.01314
G1 X148.565 Y68.414 E.47128
G1 X146.178 Y71.393 E.11971
G1 X138.233 Y79.338 E.35229
G1 X138.529 Y79.635 E.01314
G1 X143.87 Y74.294 E.2368
G1 X144.062 Y74.694 E.01392
G1 X138.825 Y79.931 E.23219
G1 X139.122 Y80.227 E.01314
G1 X144.254 Y75.095 E.22758
G1 X144.446 Y75.495 E.01392
G1 X139.418 Y80.523 E.22296
G1 X139.714 Y80.82 E.01314
G1 X144.639 Y75.895 E.21835
G1 X144.831 Y76.296 E.01392
G1 X140.011 Y81.116 E.21374
G1 X140.307 Y81.412 E.01314
M73 Q4 S52
G1 X145.023 Y76.696 E.20912
G1 X145.034 Y76.72 E.00083
G1 X145.592 Y76.72 E.01747
G1 X140.603 Y81.708 E.2212
G1 X140.899 Y82.005 E.01314
G1 X146.184 Y76.72 E.23434
G1 X146.243 Y76.72 E.00183
G1 X146.51 Y76.987 E.01184
G1 X143.18 Y80.316 E.14762
G1 X143.477 Y80.612 E.01314
G1 X146.806 Y77.283 E.14762
G1 X147.007 Y77.484 E.00891
G1 X147.771 Y76.72 E.03388
G1 X147.962 Y76.72 E.00598
G1 X143.773 Y80.909 E.18574
G1 X144.069 Y81.205 E.01314
G1 X148.554 Y76.72 E.19887
G1 X149.147 Y76.72 E.01858
G1 X144.366 Y81.501 E.21201
G1 X144.662 Y81.797 E.01314
G1 X149.739 Y76.72 E.22515
G1 X150.332 Y76.72 E.01858
G1 X144.958 Y82.094 E.23828
G1 X145.022 Y82.157 E.00283
G1 X147.007 Y80.173 E.08801
G1 X147.239 Y80.405 E.01031
G1 X150.924 Y76.72 E.16341
G1 X151.517 Y76.72 E.01858
G1 X147.535 Y80.701 E.17654
G1 X147.832 Y80.998 E.01314
G1 X152.109 Y76.72 E.18968
G1 X152.702 Y76.72 E.01858
G1 X148.128 Y81.294 E.20282
G1 X148.424 Y81.59 E.01314
G1 X153.294 Y76.72 E.21595
G1 X153.887 Y76.72 E.01858
G1 X148.721 Y81.886 E.22909
G1 X148.992 Y82.157 E.01202
G1 X150.977 Y80.173 E.08801
G1 X151.002 Y80.198 E.00111
G1 X154.48 Y76.72 E.15421
G1 X155.072 Y76.72 E.01858
G1 X151.298 Y80.494 E.16735
G1 X151.594 Y80.79 E.01314
G1 X155.665 Y76.72 E.18049
G1 X156.257 Y76.72 E.01858
G1 X151.89 Y81.086 E.19362
G1 X152.187 Y81.383 E.01314
G1 X156.85 Y76.72 E.20676
G1 X157.442 Y76.72 E.01858
G1 X152.483 Y81.679 E.2199
G1 X152.779 Y81.975 E.01314
G1 X158.035 Y76.72 E.23303
G1 X158.627 Y76.72 E.01858
G1 X155.06 Y80.287 E.15816
G1 X155.357 Y80.583 E.01314
