; generated by PrusaSlicer 2.2.0+win64 on 2022-02-16 at 20:28:25 UTC

; 

; external perimeters extrusion width = 0.45mm
; perimeters extrusion width = 0.45mm
; infill extrusion width = 0.45mm
; solid infill extrusion width = 0.45mm
; top infill extrusion width = 0.40mm
; first layer extrusion width = 0.42mm

M73 P0 R97
M73 Q0 S98
M201 X1000 Y1000 Z200 E5000 ; sets maximum accelerations, mm/sec^2
M203 X200 Y200 Z12 E120 ; sets maximum feedrates, mm/sec
M204 P1250 R1250 T1250 ; sets acceleration (P, T) and retract acceleration (R), mm/sec^2
M205 X8.00 Y8.00 Z0.40 E4.50 ; sets the jerk limits, mm/sec
M205 S0 T0 ; sets the minimum extruding and travel feed rate, mm/sec
M107
M862.3 P "MK3S" ; printer model check
M862.1 P0.4 ; nozzle diameter check
G90 ; use absolute coordinates
M83 ; extruder relative mode
M104 S215 ; set extruder temp
M140 S60 ; set bed temp
M190 S60 ; wait for bed temp
M109 S215 ; wait for extruder temp
G28 W ; home all without mesh bed level
G80 ; mesh bed leveling
G1 Y-3.0 F1000.0 ; go outside print area
G92 E0.0
G1 X60.0 E9.0 F1000.0 ; intro line
M73 Q0 S98
M73 P0 R97
G1 X100.0 E12.5 F1000.0 ; intro line
G92 E0.0
M221 S95

; Don't change E values below. Excessive value can damage the printer.
M907 E430 ; set extruder motor current
G21 ; set units to millimeters
G90 ; use absolute coordinates
M83 ; use relative distances for extrusion
M900 K0.05 ; Filament gcode LA 1.5
M900 K30 ; Filament gcode LA 1.0
;BEFORE_LAYER_CHANGE
G92 E0.0
;0.2


G1 E-0.80000 F2100.00000
G1 Z0.400 F10800.000
;AFTER_LAYER_CHANGE
;0.2
G1 X98.025 Y81.074
G1 Z0.200
G1 E0.80000 F2100.00000
M204 S1000
G1 F1200.000
G1 X98.548 Y80.583 E0.02249
G1 X99.193 Y80.270 E0.02249
G1 X127.586 Y71.903 E0.92810
G1 X150.108 Y71.866 E0.70615
G1 X150.999 Y72.041 E0.02849
G1 X151.763 Y72.541 E0.02860
G1 X152.282 Y73.291 E0.02860
G1 X152.480 Y74.178 E0.02849
G1 X152.382 Y135.780 E1.93151
G1 X152.248 Y136.542 E0.02426
G1 X151.875 Y137.224 E0.02437
G1 X151.502 Y137.603 E0.01668
G1 X151.053 Y137.890 E0.01668
G1 X150.552 Y138.070 E0.01668
G1 X150.024 Y138.134 E0.01669
G1 X99.972 Y138.133 E1.56934
G1 X99.210 Y138.000 E0.02426
G1 X98.528 Y137.627 E0.02437
G1 X98.149 Y137.254 E0.01668
G1 X97.862 Y136.806 E0.01668
G1 X97.682 Y136.305 E0.01668
G1 X97.618 Y135.777 E0.01669
G1 X97.519 Y110.492 E0.79279
G1 X97.519 Y82.521 E0.87700
G1 X97.652 Y81.756 E0.02437
G1 X97.996 Y81.126 E0.02249
; printing object splint 2p A.stl id:2 copy 0
G1 F8640.000
G1 X98.548 Y80.583 E-0.17881
G1 X99.193 Y80.270 E-0.16559
G1 X100.920 Y79.761 E-0.41559
G1 E-0.04000 F2100.00000
G1 Z0.600 F10800.000
G1 X100.683 Y83.330
G1 Z0.200
G1 E0.80000 F2100.00000
G1 F1200.000
G1 X105.288 Y83.344 E0.14439
G1 X105.288 Y88.873 E0.17336
G1 X101.912 Y88.875 E0.10586
G1 X100.669 Y88.926 E0.03898
G1 X100.683 Y83.390 E0.17358
G1 F8640.000
G1 X103.974 Y83.357 E-0.76000
G1 E-0.04000 F2100.00000
G1 Z0.600 F10800.000
G1 X116.608 Y83.390
G1 Z0.200
G1 E0.80000 F2100.00000
G1 F1200.000
G1 X116.608 Y83.344 E0.00143
G1 X121.213 Y83.329 E0.14439
G1 X121.227 Y88.926 E0.17546
G1 X119.984 Y88.875 E0.03898
G1 X116.608 Y88.873 E0.10586
G1 X116.608 Y83.450 E0.17006
G1 F8640.000
G1 X116.608 Y83.344 E-0.02437
G1 X119.794 Y83.334 E-0.73563
G1 E-0.04000 F2100.00000
G1 Z0.600 F10800.000
G1 X100.671 Y92.639
G1 Z0.200
G1 E0.80000 F2100.00000
G1 F1200.000
G1 X101.984 Y92.689 E0.04120
G1 X119.407 Y92.691 E0.54630
G1 X120.416 Y92.676 E0.03162
G1 X121.225 Y92.637 E0.02541
G1 X121.224 Y92.726 E0.00279
G1 X100.672 Y92.726 E0.64437
G1 X100.672 Y92.699 E0.00087
G1 F8640.000
G1 X101.984 Y92.689 E-0.30299
G1 X103.963 Y92.689 E-0.45701
G1 E-0.04000 F2100.00000
G1 Z0.600 F10800.000
G1 X100.637 Y89.304
G1 Z0.200
G1 E0.80000 F2100.00000
G1 F1200.000
G1 X100.637 Y92.260 E0.09268
G1 X101.992 Y92.311 E0.04250
G1 X119.404 Y92.314 E0.54597
G1 X120.404 Y92.299 E0.03135
G1 X121.259 Y92.258 E0.02683
G1 X121.259 Y89.304 E0.09262
G1 X119.977 Y89.253 E0.04024
G1 X116.231 Y89.250 E0.11744
G1 X116.231 Y82.968 E0.19697
G1 X121.590 Y82.951 E0.16803
G1 X121.592 Y88.529 E0.17489
G1 X121.636 Y90.025 E0.04692
G1 X121.633 Y92.011 E0.06227
G1 X121.594 Y93.104 E0.03428
G1 X100.301 Y93.104 E0.66763
G1 X100.263 Y92.011 E0.03428
G1 X100.260 Y90.025 E0.06227
G1 X100.304 Y88.529 E0.04693
G1 X100.306 Y82.951 E0.17488
G1 X105.665 Y82.968 E0.16803
G1 X105.665 Y89.250 E0.19697
G1 X101.919 Y89.253 E0.11744
G1 X100.697 Y89.302 E0.03836
G1 X100.237 Y89.306 F10800.000
G1 X101.532 Y88.778
G1 F1200.000
G1 X100.954 Y88.199 E0.02623
G1 X100.955 Y87.655 E0.01746
G1 X101.893 Y88.593 E0.04255
G1 X102.438 Y88.592 E0.01747
G1 X100.956 Y87.111 E0.06720
G1 X100.958 Y86.567 E0.01746
G1 X102.983 Y88.592 E0.09187
G1 X103.528 Y88.592 E0.01749
G1 X100.959 Y86.022 E0.11654
G1 X100.960 Y85.478 E0.01746
G1 X104.073 Y88.591 E0.14121
G1 X104.619 Y88.591 E0.01749
G1 X100.962 Y84.934 E0.16588
G1 X100.963 Y84.390 E0.01746
G1 X105.005 Y88.432 E0.18335
G1 X105.005 Y87.886 E0.01750
G1 X100.964 Y83.846 E0.18329
G1 X100.965 Y83.613 E0.00745
G1 X101.278 Y83.614 E0.01006
G1 X105.005 Y87.341 E0.16904
G1 X105.005 Y86.795 E0.01750
G1 X101.826 Y83.616 E0.14422
G1 X102.373 Y83.618 E0.01755
G1 X105.005 Y86.250 E0.11940
G1 X105.005 Y85.704 E0.01750
G1 X102.920 Y83.619 E0.09457
G1 X103.467 Y83.621 E0.01755
G1 X105.005 Y85.159 E0.06975
G1 X105.005 Y84.613 E0.01750
G1 X104.015 Y83.623 E0.04493
G1 X104.562 Y83.625 E0.01755
G1 X105.175 Y84.238 E0.02780
G1 F8640.000
G1 X104.562 Y83.625 E-0.20015
G1 X104.015 Y83.623 E-0.12636
G1 X105.005 Y84.613 E-0.32344
G1 X105.005 Y85.090 E-0.11005
G1 E-0.04000 F2100.00000
G1 Z0.600 F10800.000
G1 X117.498 Y88.761
G1 Z0.200
G1 E0.80000 F2100.00000
G1 F1200.000
G1 X116.891 Y88.153 E0.02742
G1 X116.891 Y87.611 E0.01733
G1 X117.872 Y88.591 E0.04427
G1 X118.415 Y88.592 E0.01734
G1 X116.891 Y87.068 E0.06879
G1 X116.891 Y86.525 E0.01733
G1 X118.958 Y88.592 E0.09331
G1 X119.501 Y88.592 E0.01734
G1 X116.891 Y85.982 E0.11783
G1 X116.891 Y85.439 E0.01733
G1 X120.047 Y88.595 E0.14245
G1 X120.612 Y88.618 E0.01807
G1 X116.891 Y84.896 E0.16799
G1 X116.891 Y84.353 E0.01733
G1 X120.939 Y88.401 E0.18272
G1 X120.933 Y87.853 E0.01750
G1 X116.891 Y83.810 E0.18248
G1 X116.891 Y83.626 E0.00589
G1 X117.248 Y83.625 E0.01140
G1 X120.930 Y87.307 E0.16621
G1 X120.930 Y86.764 E0.01733
G1 X117.789 Y83.623 E0.14178
G1 X118.330 Y83.621 E0.01727
G1 X120.930 Y86.221 E0.11736
G1 X120.930 Y85.678 E0.01733
G1 X118.871 Y83.620 E0.09293
G1 X119.413 Y83.618 E0.01727
G1 X120.930 Y85.136 E0.06850
G1 X120.930 Y84.593 E0.01733
G1 X119.954 Y83.616 E0.04408
G1 X120.495 Y83.614 E0.01727
G1 X121.100 Y84.219 E0.02731
; stop printing object splint 2p A.stl id:2 copy 0
; printing object splint 2p A.stl id:0 copy 0
G1 F8640.000
G1 X120.495 Y83.614 E-0.19756
G1 X119.954 Y83.616 E-0.12495
G1 X120.930 Y84.593 E-0.31885
G1 X120.930 Y85.106 E-0.11864
G1 E-0.04000 F2100.00000
G1 Z0.600 F10800.000
G1 X105.288 Y100.317
G1 Z0.200
G1 E0.80000 F2100.00000
G1 F1200.000
G1 X105.288 Y105.846 E0.17336
G1 X101.912 Y105.848 E0.10586
G1 X100.669 Y105.899 E0.03898
G1 X100.683 Y100.303 E0.17546
G1 X105.228 Y100.317 E0.14251
G1 F8640.000
G1 X105.264 Y103.608 E-0.76000
G1 E-0.04000 F2100.00000
G1 Z0.600 F10800.000
G1 X116.608 Y100.317
G1 Z0.200
G1 E0.80000 F2100.00000
G1 F1200.000
G1 X121.213 Y100.302 E0.14439
G1 X121.227 Y105.899 E0.17546
G1 X119.984 Y105.848 E0.03898
G1 X116.608 Y105.846 E0.10586
G1 X116.608 Y100.377 E0.17148
G1 F8640.000
G1 X119.899 Y100.324 E-0.76000
G1 E-0.04000 F2100.00000
G1 Z0.600 F10800.000
G1 X100.671 Y109.612
G1 Z0.200
G1 E0.80000 F2100.00000
G1 F1200.000
G1 X101.984 Y109.662 E0.04120
G1 X119.407 Y109.664 E0.54630
G1 X120.416 Y109.649 E0.03162
G1 X121.225 Y109.610 E0.02541
G1 X121.224 Y109.700 E0.00279
G1 X100.672 Y109.700 E0.64437
G1 X100.672 Y109.672 E0.00087
G1 F8640.000
G1 X101.984 Y109.662 E-0.30299
G1 X103.963 Y109.662 E-0.45701
G1 E-0.04000 F2100.00000
G1 Z0.600 F10800.000
G1 X100.637 Y106.277
G1 Z0.200
G1 E0.80000 F2100.00000
G1 F1200.000
G1 X100.637 Y109.233 E0.09268
G1 X101.992 Y109.284 E0.04250
G1 X119.404 Y109.287 E0.54597
G1 X120.404 Y109.272 E0.03135
G1 X121.259 Y109.231 E0.02683
G1 X121.259 Y106.277 E0.09262
G1 X119.977 Y106.226 E0.04024
G1 X116.231 Y106.223 E0.11744
G1 X116.231 Y99.941 E0.19697
G1 X121.590 Y99.924 E0.16803
G1 X121.592 Y105.502 E0.17489
G1 X121.636 Y106.998 E0.04692
G1 X121.633 Y108.984 E0.06227
G1 X121.594 Y110.077 E0.03428
G1 X100.301 Y110.077 E0.66763
G1 X100.263 Y108.984 E0.03428
G1 X100.260 Y106.998 E0.06227
G1 X100.304 Y105.502 E0.04693
G1 X100.306 Y99.924 E0.17488
G1 X105.665 Y99.941 E0.16803
G1 X105.665 Y106.223 E0.19697
G1 X101.919 Y106.226 E0.11744
G1 X100.697 Y106.275 E0.03836
G1 X100.237 Y106.279 F10800.000
G1 X101.532 Y105.751
G1 F1200.000
G1 X100.954 Y105.172 E0.02623
G1 X100.955 Y104.628 E0.01746
G1 X101.893 Y105.566 E0.04255
G1 X102.438 Y105.565 E0.01747
G1 X100.956 Y104.084 E0.06720
G1 X100.958 Y103.540 E0.01746
G1 X102.983 Y105.565 E0.09187
G1 X103.528 Y105.565 E0.01749
G1 X100.959 Y102.995 E0.11654
G1 X100.960 Y102.451 E0.01746
G1 X104.073 Y105.564 E0.14121
G1 X104.619 Y105.564 E0.01749
G1 X100.962 Y101.907 E0.16588
G1 X100.963 Y101.363 E0.01746
G1 X105.005 Y105.405 E0.18335
G1 X105.005 Y104.859 E0.01750
G1 X100.964 Y100.819 E0.18329
G1 X100.965 Y100.586 E0.00745
G1 X101.278 Y100.587 E0.01006
G1 X105.005 Y104.314 E0.16904
G1 X105.005 Y103.768 E0.01750
G1 X101.826 Y100.589 E0.14422
G1 X102.373 Y100.591 E0.01755
G1 X105.005 Y103.223 E0.11940
G1 X105.005 Y102.677 E0.01750
G1 X102.920 Y100.592 E0.09457
G1 X103.467 Y100.594 E0.01755
G1 X105.005 Y102.132 E0.06975
G1 X105.005 Y101.586 E0.01750
G1 X104.015 Y100.596 E0.04493
G1 X104.562 Y100.598 E0.01755
G1 X105.175 Y101.211 E0.02780
G1 F8640.000
G1 X104.562 Y100.598 E-0.20015
G1 X104.015 Y100.596 E-0.12636
G1 X105.005 Y101.586 E-0.32344
G1 X105.005 Y102.063 E-0.11005
G1 E-0.04000 F2100.00000
G1 Z0.600 F10800.000
G1 X117.498 Y105.734
G1 Z0.200
G1 E0.80000 F2100.00000
G1 F1200.000
G1 X116.891 Y105.126 E0.02742
G1 X116.891 Y104.584 E0.01733
G1 X117.872 Y105.564 E0.04427
G1 X118.415 Y105.565 E0.01734
G1 X116.891 Y104.041 E0.06879
G1 X116.891 Y103.498 E0.01733
G1 X118.958 Y105.565 E0.09331
G1 X119.501 Y105.565 E0.01734
G1 X116.891 Y102.955 E0.11783
G1 X116.891 Y102.412 E0.01733
G1 X120.047 Y105.568 E0.14245
G1 X120.612 Y105.591 E0.01807
G1 X116.891 Y101.869 E0.16799
G1 X116.891 Y101.326 E0.01733
G1 X120.939 Y105.374 E0.18272
G1 X120.933 Y104.826 E0.01750
G1 X116.891 Y100.784 E0.18248
G1 X116.891 Y100.599 E0.00589
G1 X117.248 Y100.598 E0.01140
G1 X120.930 Y104.280 E0.16621
G1 X120.930 Y103.737 E0.01733
G1 X117.789 Y100.596 E0.14178
G1 X118.330 Y100.594 E0.01727
G1 X120.930 Y103.194 E0.11736
G1 X120.930 Y102.651 E0.01733
G1 X118.871 Y100.593 E0.09293
G1 X119.413 Y100.591 E0.01727
G1 X120.930 Y102.109 E0.06850
G1 X120.930 Y101.566 E0.01733
G1 X119.954 Y100.589 E0.04408
G1 X120.495 Y100.588 E0.01727
G1 X121.100 Y101.193 E0.02731
; stop printing object splint 2p A.stl id:0 copy 0
; printing object splint 2p B.stl id:5 copy 0
G1 F8640.000
G1 X120.495 Y100.588 E-0.19756
G1 X119.954 Y100.589 E-0.12495
G1 X120.930 Y101.566 E-0.31885
G1 X120.930 Y102.079 E-0.11864
G1 E-0.04000 F2100.00000
G1 Z0.600 F10800.000
G1 X121.100 Y117.274
G1 Z0.200
G1 E0.80000 F2100.00000
G1 F1200.000
G1 X121.213 Y117.274 E0.00355
G1 X121.213 Y134.969 E0.55484
G1 X100.782 Y134.969 E0.64059
G1 X100.782 Y117.274 E0.55484
G1 X121.040 Y117.274 E0.63516
G1 X121.590 Y116.897 F10800.000
G1 F1200.000
G1 X121.590 Y135.347 E0.57849
G1 X100.405 Y135.347 E0.66424
G1 X100.405 Y116.897 E0.57849
G1 X121.530 Y116.897 E0.66236
M73 Q1 S97
M73 P1 R96
G1 X121.478 Y117.280 F10800.000
G1 F8640.000
G1 X121.541 Y120.188 E-0.76000
G1 E-0.04000 F2100.00000
G1 Z0.600 F10800.000
G1 X101.667 Y134.856
G1 Z0.200
G1 E0.80000 F2100.00000
G1 F1200.000
G1 X101.065 Y134.255 E0.02697
G1 X101.065 Y133.716 E0.01710
G1 X102.036 Y134.687 E0.04355
G1 X102.575 Y134.687 E0.01710
G1 X101.065 Y133.176 E0.06773
G1 X101.065 Y132.637 E0.01710
G1 X103.115 Y134.687 E0.09191
G1 X103.654 Y134.687 E0.01710
G1 X101.065 Y132.098 E0.11609
G1 X101.065 Y131.558 E0.01710
G1 X104.193 Y134.687 E0.14027
G1 X104.732 Y134.687 E0.01710
G1 X101.065 Y131.019 E0.16446
G1 X101.065 Y130.480 E0.01710
G1 X105.272 Y134.687 E0.18864
G1 X105.811 Y134.687 E0.01710
G1 X101.065 Y129.941 E0.21282
G1 X101.065 Y129.401 E0.01710
G1 X106.350 Y134.687 E0.23700
G1 X106.890 Y134.687 E0.01710
G1 X101.065 Y128.862 E0.26118
G1 X101.065 Y128.323 E0.01710
G1 X107.429 Y134.687 E0.28536
G1 X107.968 Y134.687 E0.01710
G1 X101.065 Y127.783 E0.30955
G1 X101.065 Y127.244 E0.01710
G1 X108.507 Y134.687 E0.33373
G1 X109.047 Y134.687 E0.01710
G1 X101.065 Y126.705 E0.35791
G1 X101.065 Y126.166 E0.01710
G1 X109.586 Y134.687 E0.38209
G1 X110.125 Y134.687 E0.01710
G1 X101.065 Y125.626 E0.40627
G1 X101.065 Y125.087 E0.01710
G1 X110.665 Y134.687 E0.43046
G1 X111.204 Y134.687 E0.01710
G1 X101.065 Y124.548 E0.45464
G1 X101.065 Y124.009 E0.01710
G1 X111.743 Y134.687 E0.47882
G1 X112.282 Y134.687 E0.01710
G1 X101.065 Y123.469 E0.50300
G1 X101.065 Y122.930 E0.01710
G1 X112.822 Y134.687 E0.52718
G1 X113.361 Y134.687 E0.01710
G1 X101.065 Y122.391 E0.55136
G1 X101.065 Y121.851 E0.01710
G1 X113.900 Y134.687 E0.57555
G1 X114.439 Y134.687 E0.01710
G1 X101.065 Y121.312 E0.59973
G1 X101.065 Y120.773 E0.01710
G1 X114.979 Y134.687 E0.62391
G1 X115.518 Y134.687 E0.01710
G1 X101.065 Y120.234 E0.64809
G1 X101.065 Y119.694 E0.01710
G1 X116.057 Y134.687 E0.67227
G1 X116.597 Y134.687 E0.01710
G1 X101.065 Y119.155 E0.69646
G1 X101.065 Y118.616 E0.01710
G1 X117.136 Y134.687 E0.72064
G1 X117.675 Y134.687 E0.01710
G1 X101.065 Y118.076 E0.74482
G1 X101.065 Y117.556 E0.01649
G1 X101.084 Y117.556 E0.00061
G1 X118.214 Y134.687 E0.76814
G1 X118.754 Y134.687 E0.01710
G1 X101.623 Y117.556 E0.76814
G1 X102.163 Y117.556 E0.01710
G1 X119.293 Y134.687 E0.76814
G1 X119.832 Y134.687 E0.01710
G1 X102.702 Y117.556 E0.76814
G1 X103.241 Y117.556 E0.01710
G1 X120.372 Y134.687 E0.76814
G1 X120.911 Y134.687 E0.01710
G1 X103.781 Y117.556 E0.76814
G1 X104.320 Y117.556 E0.01710
G1 X120.930 Y134.167 E0.74482
G1 X120.930 Y133.627 E0.01710
G1 X104.859 Y117.556 E0.72064
G1 X105.398 Y117.556 E0.01710
G1 X120.930 Y133.088 E0.69646
G1 X120.930 Y132.549 E0.01710
G1 X105.938 Y117.556 E0.67228
G1 X106.477 Y117.556 E0.01710
G1 X120.930 Y132.010 E0.64809
G1 X120.930 Y131.470 E0.01710
G1 X107.016 Y117.556 E0.62391
G1 X107.556 Y117.556 E0.01710
G1 X120.930 Y130.931 E0.59973
G1 X120.930 Y130.392 E0.01710
G1 X108.095 Y117.556 E0.57555
G1 X108.634 Y117.556 E0.01710
G1 X120.930 Y129.852 E0.55137
G1 X120.930 Y129.313 E0.01710
G1 X109.173 Y117.556 E0.52719
G1 X109.713 Y117.556 E0.01710
G1 X120.930 Y128.774 E0.50300
G1 X120.930 Y128.235 E0.01710
G1 X110.252 Y117.556 E0.47882
G1 X110.791 Y117.556 E0.01710
G1 X120.930 Y127.695 E0.45464
G1 X120.930 Y127.156 E0.01710
G1 X111.330 Y117.556 E0.43046
G1 X111.870 Y117.556 E0.01710
G1 X120.930 Y126.617 E0.40628
G1 X120.930 Y126.077 E0.01710
G1 X112.409 Y117.556 E0.38209
G1 X112.948 Y117.556 E0.01710
G1 X120.930 Y125.538 E0.35791
G1 X120.930 Y124.999 E0.01710
G1 X113.488 Y117.556 E0.33373
G1 X114.027 Y117.556 E0.01710
G1 X120.930 Y124.460 E0.30955
G1 X120.930 Y123.920 E0.01710
G1 X114.566 Y117.556 E0.28537
G1 X115.105 Y117.556 E0.01710
G1 X120.930 Y123.381 E0.26119
G1 X120.930 Y122.842 E0.01710
G1 X115.645 Y117.556 E0.23700
G1 X116.184 Y117.556 E0.01710
G1 X120.930 Y122.303 E0.21282
G1 X120.930 Y121.763 E0.01710
G1 X116.723 Y117.556 E0.18864
G1 X117.263 Y117.556 E0.01710
G1 X120.930 Y121.224 E0.16446
G1 X120.930 Y120.685 E0.01710
G1 X117.802 Y117.556 E0.14028
G1 X118.341 Y117.556 E0.01710
G1 X120.930 Y120.145 E0.11609
G1 X120.930 Y119.606 E0.01710
G1 X118.880 Y117.556 E0.09191
G1 X119.420 Y117.556 E0.01710
G1 X120.930 Y119.067 E0.06773
G1 X120.930 Y118.528 E0.01710
G1 X119.959 Y117.556 E0.04355
G1 X120.498 Y117.556 E0.01710
G1 X121.100 Y118.158 E0.02698
; stop printing object splint 2p B.stl id:5 copy 0
; printing object splint 2p B.stl id:1 copy 0
G1 F8640.000
G1 X120.498 Y117.556 E-0.19645
G1 X119.959 Y117.556 E-0.12452
G1 X120.930 Y118.528 E-0.31714
G1 X120.930 Y119.055 E-0.12189
