; generated by PrusaSlicer 2.4.1+win64 on 2022-08-11 at 21:30:14 UTC

; 

; external perimeters extrusion width = 0.45mm
; perimeters extrusion width = 0.45mm
; infill extrusion width = 0.45mm
; solid infill extrusion width = 0.45mm
; top infill extrusion width = 0.40mm
; first layer extrusion width = 0.42mm

M73 P0 R25
M73 C20
M73 Q0 S25
M73 D21
M107
;TYPE:Custom
M862.3 P "MK3S" ; printer model check
M862.1 P0.4 ; nozzle diameter check
G90 ; use absolute coordinates
M83 ; extruder relative mode
M104 S215 ; set extruder temp
M140 S60 ; set bed temp
M190 S60 ; wait for bed temp
M109 S215 ; wait for extruder temp
G28 W ; home all without mesh bed level
G80 ; mesh bed leveling
G1 Y-3.0 F1000.0 ; go outside print area
G92 E0.0
G1 X60.0 E9.0 F1000.0 ; intro line
M73 D20
G1 X100.0 E12.5 F1000.0 ; intro line
G92 E0.0
M221 S95

; Don't change E values below. Excessive value can damage the printer.
M907 E430 ; set extruder motor current
G21 ; set units to millimeters
G90 ; use absolute coordinates
M83 ; use relative distances for extrusion
M900 K0.05 ; Filament gcode LA 1.5
M900 K30 ; Filament gcode LA 1.0
M107
;LAYER_CHANGE
;Z:0.2
;HEIGHT:0.2
;BEFORE_LAYER_CHANGE
G92 E0.0
;0.2


G1 E-.8 F2100
G1 Z.4 F720
;AFTER_LAYER_CHANGE
;0.2
G1 X82.147 Y90.367 F10800
G1 Z.2 F720
G1 E.8 F2100
M204 S800
;TYPE:Skirt/Brim
;WIDTH:0.42
G1 F1200
G1 X83.133 Y89.798 E.03569
G1 X84.301 Y89.583 E.03725
G1 X166.699 Y89.583 E2.58351
G1 X168.006 Y89.975 E.04278
G1 X168.561 Y90.482 E.02358
G1 X170.561 Y93.002 E.10087
G1 X171.076 Y94.48 E.04907
G1 X171.076 Y115.52 E.65969
G1 X170.561 Y116.998 E.04907
G1 X168.561 Y119.518 E.10087
G1 X167.441 Y120.298 E.04278
G1 X166.699 Y120.417 E.02358
G1 X84.301 Y120.417 E2.58351
G1 X83.133 Y120.202 E.03725
M73 P1 R24
M73 Q1 S25
G1 X82.354 Y119.792 E.02759
G1 X81.938 Y119.452 E.01684
G1 X79.645 Y117.225 E.10022
G1 X78.924 Y115.52 E.05804
G1 X78.924 Y94.48 E.65969
G1 X79.645 Y92.775 E.05804
G1 X82.104 Y90.409 E.10699
M204 S1000
; printing object Text.stl id:0 copy 1
;WIPE_START
G1 F8640
G1 X83.133 Y89.798 E-.27628
G1 X84.301 Y89.583 E-.27434
G1 X85.208 Y89.583 E-.20938
;WIPE_END
G1 E-.04 F2100
G1 Z.6 F720
G1 X95.576 Y109.531 F10800
G1 Z.2 F720
G1 E.8 F2100
M204 S800
;TYPE:Perimeter
G1 F1200
G1 X96.922 Y109.263 E.04303
G1 X96.922 Y108.787 E.01493
G1 X165.912 Y108.787 E2.16312
G1 X165.912 Y111.307 E.07901
G1 X167.912 Y111.307 E.06271
G1 X167.912 Y114.733 E.10741
G1 X165.912 Y114.733 E.06271
G1 X165.912 Y117.253 E.07901
G1 X96.922 Y117.253 E2.16312
G1 X96.922 Y116.777 E.01493
M73 Q1 S24
G1 X95.576 Y116.509 E.04303
G1 X95.313 Y117.143 E.02152
G1 X95.238 Y117.219 E.00335
G1 X95.083 Y117.253 E.00497
G1 X84.353 Y117.253 E.33644
G1 X84.248 Y117.239 E.00332
G1 X84.156 Y117.186 E.00335
G1 X84.102 Y117.093 E.00335
G1 X84.088 Y116.988 E.00332
G1 X84.088 Y114.733 E.07072
G1 X82.088 Y114.733 E.06271
G1 X82.088 Y111.307 E.10741
G1 X84.088 Y111.307 E.06271
G1 X84.088 Y109.052 E.07072
G1 X84.123 Y108.897 E.00497
G1 X84.198 Y108.821 E.00335
G1 X84.248 Y108.801 E.00169
G1 X84.353 Y108.787 E.00332
G1 X95.083 Y108.787 E.33644
G1 X95.238 Y108.821 E.00497
G1 X95.313 Y108.897 E.00335
G1 X95.553 Y109.476 E.01964
M204 S1000
G1 X95.806 Y109.101 F10800
M204 S800
;TYPE:External perimeter
G1 F1200
G1 X96.545 Y108.954 E.02362
G1 X96.545 Y108.41 E.01705
G1 X166.289 Y108.41 E2.18677
G1 X166.289 Y110.93 E.07901
M73 P2 R24
M73 Q2 S24
G1 X168.289 Y110.93 E.06271
G1 X168.289 Y115.11 E.13106
G1 X166.289 Y115.11 E.06271
G1 X166.289 Y117.63 E.07901
G1 X96.545 Y117.63 E2.18677
G1 X96.545 Y117.086 E.01705
G1 X95.806 Y116.939 E.02362
G1 X95.643 Y117.333 E.01337
G1 X95.549 Y117.455 E.0048
G1 X95.428 Y117.548 E.0048
G1 X95.287 Y117.606 E.0048
G1 X95.108 Y117.63 E.00565
G1 X84.328 Y117.63 E.33799
G1 X84.15 Y117.606 E.00565
G1 X84.008 Y117.548 E.0048
G1 X83.887 Y117.455 E.0048
G1 X83.793 Y117.333 E.0048
G1 X83.735 Y117.192 E.0048
G1 X83.711 Y117.013 E.00565
G1 X83.711 Y115.11 E.05967
G1 X81.711 Y115.11 E.06271
G1 X81.711 Y110.93 E.13106
G1 X83.711 Y110.93 E.06271
G1 X83.711 Y109.027 E.05967
G1 X83.735 Y108.848 E.00565
G1 X83.793 Y108.707 E.0048
G1 X83.887 Y108.585 E.0048
G1 X84.008 Y108.492 E.0048
G1 X84.15 Y108.434 E.0048
G1 X84.328 Y108.41 E.00565
G1 X95.108 Y108.41 E.33799
G1 X95.287 Y108.434 E.00565
G1 X95.428 Y108.492 E.0048
G1 X95.549 Y108.585 E.0048
G1 X95.643 Y108.707 E.0048
G1 X95.783 Y109.045 E.01149
M204 S1000
G1 X95.918 Y109.485 F10800
;WIPE_START
G1 F8640
G1 X96.545 Y108.954 E-.17718
G1 X96.545 Y108.41 E-.12556
G1 X98.525 Y108.41 E-.45725
;WIPE_END
G1 E-.04 F2100
G1 Z.6 F720
G1 X167.019 Y111.42 F10800
G1 Z.2 F720
G1 E.8 F2100
M204 S800
;TYPE:Solid infill
;WIDTH:0.421003
G1 F1200
G1 X167.629 Y112.03 E.02709
G1 X167.629 Y112.564 E.01681
G1 X166.485 Y111.42 E.05087
M204 S1000
;WIPE_START
G1 F8640
G1 X167.629 Y112.564 E-.3736
G1 X167.629 Y112.03 E-.12346
G1 X167.019 Y111.42 E-.199
;WIPE_END
G1 E-.10394 F2100
G1 Z.6 F720
G1 X165.798 Y109.665 F10800
G1 Z.2 F720
G1 E.8 F2100
M204 S800
G1 F1200
G1 X165.204 Y109.07 E.02644
G1 X164.669 Y109.07 E.01681
G1 X165.629 Y110.03 E.04267
G1 X165.629 Y110.564 E.01681
G1 X164.134 Y109.07 E.06644
G1 X163.6 Y109.07 E.01681
G1 X165.629 Y111.099 E.09021
G1 X165.629 Y111.59 E.01543
G1 X166.12 Y111.59 E.01543
G1 X167.629 Y113.099 E.06709
G1 X167.629 Y113.634 E.01681
G1 X163.065 Y109.07 E.2029
G1 X162.53 Y109.07 E.01681
G1 X167.629 Y114.168 E.22668
G1 X167.629 Y114.45 E.00886
G1 X167.376 Y114.45 E.00795
G1 X161.996 Y109.07 E.2392
G1 X161.461 Y109.07 E.01681
G1 X166.841 Y114.45 E.2392
G1 X166.306 Y114.45 E.01681
G1 X160.926 Y109.07 E.2392
G1 X160.392 Y109.07 E.01681
G1 X165.772 Y114.45 E.2392
G1 X165.629 Y114.45 E.0045
G1 X165.629 Y114.842 E.01231
G1 X159.857 Y109.07 E.25662
G1 X159.322 Y109.07 E.01681
G1 X165.629 Y115.376 E.28039
G1 X165.629 Y115.911 E.01681
G1 X158.787 Y109.07 E.30416
G1 X158.253 Y109.07 E.01681
G1 X165.629 Y116.446 E.32793
G1 X165.629 Y116.97 E.01648
M73 P3 R24
M73 Q3 S24
G1 X157.718 Y109.07 E.35147
G1 X157.183 Y109.07 E.01681
G1 X165.084 Y116.97 E.35124
G1 X164.549 Y116.97 E.01681
G1 X156.649 Y109.07 E.35124
G1 X156.114 Y109.07 E.01681
G1 X164.014 Y116.97 E.35124
G1 X163.48 Y116.97 E.01681
G1 X155.579 Y109.07 E.35124
G1 X155.045 Y109.07 E.01681
G1 X162.945 Y116.97 E.35124
G1 X162.41 Y116.97 E.01681
G1 X154.51 Y109.07 E.35124
G1 X153.975 Y109.07 E.01681
G1 X161.875 Y116.97 E.35124
G1 X161.341 Y116.97 E.01681
G1 X153.441 Y109.07 E.35124
G1 X152.906 Y109.07 E.01681
G1 X160.806 Y116.97 E.35124
G1 X160.271 Y116.97 E.01681
G1 X152.371 Y109.07 E.35124
G1 X151.836 Y109.07 E.01681
G1 X159.737 Y116.97 E.35124
G1 X159.202 Y116.97 E.01681
M73 C19
G1 X151.302 Y109.07 E.35124
G1 X150.767 Y109.07 E.01681
G1 X158.667 Y116.97 E.35124
G1 X158.133 Y116.97 E.01681
G1 X150.232 Y109.07 E.35124
G1 X149.698 Y109.07 E.01681
G1 X157.598 Y116.97 E.35124
G1 X157.063 Y116.97 E.01681
G1 X149.163 Y109.07 E.35124
G1 X148.628 Y109.07 E.01681
G1 X156.529 Y116.97 E.35124
G1 X155.994 Y116.97 E.01681
G1 X148.094 Y109.07 E.35124
G1 X147.559 Y109.07 E.01681
G1 X155.459 Y116.97 E.35124
G1 X154.925 Y116.97 E.01681
G1 X147.024 Y109.07 E.35124
G1 X146.49 Y109.07 E.01681
G1 X154.39 Y116.97 E.35124
G1 X153.855 Y116.97 E.01681
G1 X145.955 Y109.07 E.35124
G1 X145.42 Y109.07 E.01681
G1 X153.32 Y116.97 E.35124
G1 X152.786 Y116.97 E.01681
M73 D19
G1 X144.885 Y109.07 E.35124
G1 X144.351 Y109.07 E.01681
M73 Q4 S24
G1 X152.251 Y116.97 E.35124
M73 P4 R24
G1 X151.716 Y116.97 E.01681
G1 X143.816 Y109.07 E.35124
G1 X143.281 Y109.07 E.01681
G1 X151.182 Y116.97 E.35124
G1 X150.647 Y116.97 E.01681
G1 X142.747 Y109.07 E.35124
G1 X142.212 Y109.07 E.01681
G1 X150.112 Y116.97 E.35124
G1 X149.578 Y116.97 E.01681
G1 X141.677 Y109.07 E.35124
G1 X141.143 Y109.07 E.01681
G1 X149.043 Y116.97 E.35124
G1 X148.508 Y116.97 E.01681
G1 X140.608 Y109.07 E.35124
G1 X140.073 Y109.07 E.01681
G1 X147.974 Y116.97 E.35124
G1 X147.439 Y116.97 E.01681
G1 X139.539 Y109.07 E.35124
G1 X139.004 Y109.07 E.01681
G1 X146.904 Y116.97 E.35124
G1 X146.369 Y116.97 E.01681
G1 X138.469 Y109.07 E.35124
G1 X137.935 Y109.07 E.01681
G1 X145.835 Y116.97 E.35124
G1 X145.3 Y116.97 E.01681
G1 X137.4 Y109.07 E.35124
G1 X136.865 Y109.07 E.01681
G1 X144.765 Y116.97 E.35124
G1 X144.231 Y116.97 E.01681
G1 X136.33 Y109.07 E.35124
G1 X135.796 Y109.07 E.01681
G1 X143.696 Y116.97 E.35124
G1 X143.161 Y116.97 E.01681
G1 X135.261 Y109.07 E.35124
G1 X134.726 Y109.07 E.01681
G1 X142.627 Y116.97 E.35124
G1 X142.092 Y116.97 E.01681
G1 X134.192 Y109.07 E.35124
G1 X133.657 Y109.07 E.01681
G1 X141.557 Y116.97 E.35124
G1 X141.023 Y116.97 E.01681
G1 X133.122 Y109.07 E.35124
G1 X132.588 Y109.07 E.01681
G1 X140.488 Y116.97 E.35124
G1 X139.953 Y116.97 E.01681
G1 X132.053 Y109.07 E.35124
G1 X131.518 Y109.07 E.01681
G1 X139.418 Y116.97 E.35124
G1 X138.884 Y116.97 E.01681
M73 P4 R23
G1 X130.984 Y109.07 E.35124
G1 X130.449 Y109.07 E.01681
M73 P5 R23
M73 Q5 S24
G1 X138.349 Y116.97 E.35124
G1 X137.814 Y116.97 E.01681
G1 X129.914 Y109.07 E.35124
G1 X129.379 Y109.07 E.01681
G1 X137.28 Y116.97 E.35124
G1 X136.745 Y116.97 E.01681
G1 X128.845 Y109.07 E.35124
G1 X128.31 Y109.07 E.01681
G1 X136.21 Y116.97 E.35124
G1 X135.676 Y116.97 E.01681
G1 X127.775 Y109.07 E.35124
G1 X127.241 Y109.07 E.01681
G1 X135.141 Y116.97 E.35124
G1 X134.606 Y116.97 E.01681
G1 X126.706 Y109.07 E.35124
G1 X126.171 Y109.07 E.01681
G1 X134.072 Y116.97 E.35124
G1 X133.537 Y116.97 E.01681
G1 X125.637 Y109.07 E.35124
G1 X125.102 Y109.07 E.01681
G1 X133.002 Y116.97 E.35124
G1 X132.468 Y116.97 E.01681
G1 X124.567 Y109.07 E.35124
G1 X124.033 Y109.07 E.01681
G1 X131.933 Y116.97 E.35124
G1 X131.398 Y116.97 E.01681
G1 X123.498 Y109.07 E.35124
G1 X122.963 Y109.07 E.01681
G1 X130.863 Y116.97 E.35124
G1 X130.329 Y116.97 E.01681
M73 Q5 S23
G1 X122.429 Y109.07 E.35124
G1 X121.894 Y109.07 E.01681
G1 X129.794 Y116.97 E.35124
G1 X129.259 Y116.97 E.01681
G1 X121.359 Y109.07 E.35124
G1 X120.824 Y109.07 E.01681
G1 X128.725 Y116.97 E.35124
G1 X128.19 Y116.97 E.01681
G1 X120.29 Y109.07 E.35124
G1 X119.755 Y109.07 E.01681
G1 X127.655 Y116.97 E.35124
G1 X127.121 Y116.97 E.01681
G1 X119.22 Y109.07 E.35124
G1 X118.686 Y109.07 E.01681
G1 X126.586 Y116.97 E.35124
G1 X126.051 Y116.97 E.01681
G1 X118.151 Y109.07 E.35124
G1 X117.616 Y109.07 E.01681
G1 X125.517 Y116.97 E.35124
G1 X124.982 Y116.97 E.01681
M73 P6 R23
M73 Q6 S23
G1 X117.082 Y109.07 E.35124
G1 X116.547 Y109.07 E.01681
G1 X124.447 Y116.97 E.35124
G1 X123.912 Y116.97 E.01681
G1 X116.012 Y109.07 E.35124
G1 X115.478 Y109.07 E.01681
G1 X123.378 Y116.97 E.35124
G1 X122.843 Y116.97 E.01681
G1 X114.943 Y109.07 E.35124
G1 X114.408 Y109.07 E.01681
G1 X122.308 Y116.97 E.35124
G1 X121.774 Y116.97 E.01681
G1 X113.873 Y109.07 E.35124
G1 X113.339 Y109.07 E.01681
G1 X121.239 Y116.97 E.35124
G1 X120.704 Y116.97 E.01681
G1 X112.804 Y109.07 E.35124
G1 X112.269 Y109.07 E.01681
G1 X120.17 Y116.97 E.35124
G1 X119.635 Y116.97 E.01681
G1 X111.735 Y109.07 E.35124
G1 X111.2 Y109.07 E.01681
G1 X119.1 Y116.97 E.35124
G1 X118.566 Y116.97 E.01681
G1 X110.665 Y109.07 E.35124
G1 X110.131 Y109.07 E.01681
G1 X118.031 Y116.97 E.35124
G1 X117.496 Y116.97 E.01681
G1 X109.596 Y109.07 E.35124
G1 X109.061 Y109.07 E.01681
G1 X116.962 Y116.97 E.35124
G1 X116.427 Y116.97 E.01681
G1 X108.527 Y109.07 E.35124
G1 X107.992 Y109.07 E.01681
G1 X115.892 Y116.97 E.35124
G1 X115.357 Y116.97 E.01681
G1 X107.457 Y109.07 E.35124
G1 X106.922 Y109.07 E.01681
G1 X114.823 Y116.97 E.35124
G1 X114.288 Y116.97 E.01681
G1 X106.388 Y109.07 E.35124
G1 X105.853 Y109.07 E.01681
G1 X113.753 Y116.97 E.35124
G1 X113.219 Y116.97 E.01681
G1 X105.318 Y109.07 E.35124
G1 X104.784 Y109.07 E.01681
G1 X112.684 Y116.97 E.35124
G1 X112.149 Y116.97 E.01681
G1 X104.249 Y109.07 E.35124
G1 X103.714 Y109.07 E.01681
M73 P7 R23
G1 X111.615 Y116.97 E.35124
G1 X111.08 Y116.97 E.01681
M73 Q7 S23
G1 X103.18 Y109.07 E.35124
G1 X102.645 Y109.07 E.01681
G1 X110.545 Y116.97 E.35124
G1 X110.011 Y116.97 E.01681
G1 X102.11 Y109.07 E.35124
G1 X101.576 Y109.07 E.01681
G1 X109.476 Y116.97 E.35124
G1 X108.941 Y116.97 E.01681
G1 X101.041 Y109.07 E.35124
G1 X100.506 Y109.07 E.01681
G1 X108.406 Y116.97 E.35124
G1 X107.872 Y116.97 E.01681
G1 X99.972 Y109.07 E.35124
G1 X99.437 Y109.07 E.01681
G1 X107.337 Y116.97 E.35124
G1 X106.802 Y116.97 E.01681
G1 X98.902 Y109.07 E.35124
G1 X98.367 Y109.07 E.01681
G1 X106.268 Y116.97 E.35124
G1 X105.733 Y116.97 E.01681
M73 C18
G1 X97.833 Y109.07 E.35124
G1 X97.298 Y109.07 E.01681
G1 X105.198 Y116.97 E.35124
G1 X104.664 Y116.97 E.01681
G1 X97.191 Y109.498 E.33221
G1 X96.745 Y109.587 E.0143
G1 X104.129 Y116.97 E.32827
G1 X103.594 Y116.97 E.01681
G1 X96.3 Y109.675 E.32432
G1 X95.854 Y109.764 E.0143
G1 X103.06 Y116.97 E.32038
G1 X102.525 Y116.97 E.01681
G1 X94.625 Y109.07 E.35124
G1 X94.09 Y109.07 E.01681
G1 X101.99 Y116.97 E.35124
G1 X101.455 Y116.97 E.01681
G1 X93.555 Y109.07 E.35124
G1 X93.021 Y109.07 E.01681
G1 X100.921 Y116.97 E.35124
G1 X100.386 Y116.97 E.01681
G1 X92.486 Y109.07 E.35124
G1 X91.951 Y109.07 E.01681
G1 X99.851 Y116.97 E.35124
G1 X99.317 Y116.97 E.01681
M73 D18
G1 X91.416 Y109.07 E.35124
G1 X90.882 Y109.07 E.01681
G1 X98.782 Y116.97 E.35124
G1 X98.247 Y116.97 E.01681
G1 X90.347 Y109.07 E.35124
G1 X89.812 Y109.07 E.01681
M73 P8 R23
M73 Q8 S23
G1 X97.713 Y116.97 E.35124
G1 X97.205 Y116.97 E.01597
G1 X97.205 Y116.545 E.01338
G1 X96.64 Y116.432 E.01809
G1 X89.278 Y109.07 E.32734
G1 X88.743 Y109.07 E.01681
G1 X95.973 Y116.3 E.32143
G1 X95.403 Y116.186 E.01825
G1 X95.38 Y116.242 E.00189
G1 X88.208 Y109.07 E.31887
G1 X87.674 Y109.07 E.01681
G1 X95.224 Y116.62 E.33568
G1 X95.081 Y116.964 E.01169
G1 X95.039 Y116.97 E.00134
G1 X87.139 Y109.07 E.35124
G1 X86.604 Y109.07 E.01681
G1 X94.505 Y116.97 E.35124
G1 X93.97 Y116.97 E.01681
G1 X86.07 Y109.07 E.35124
G1 X85.535 Y109.07 E.01681
G1 X93.435 Y116.97 E.35124
G1 X92.9 Y116.97 E.01681
G1 X85 Y109.07 E.35124
G1 X84.466 Y109.07 E.01681
G1 X92.366 Y116.97 E.35124
G1 X91.831 Y116.97 E.01681
G1 X84.371 Y109.51 E.33166
G1 X84.371 Y110.045 E.01681
G1 X91.296 Y116.97 E.30789
G1 X90.762 Y116.97 E.01681
G1 X84.371 Y110.58 E.28412
G1 X84.371 Y111.114 E.01681
G1 X90.227 Y116.97 E.26034
G1 X89.692 Y116.97 E.01681
G1 X84.312 Y111.59 E.2392
G1 X83.777 Y111.59 E.01681
G1 X89.158 Y116.97 E.2392
G1 X88.623 Y116.97 E.01681
G1 X83.243 Y111.59 E.2392
G1 X82.708 Y111.59 E.01681
G1 X88.088 Y116.97 E.2392
G1 X87.554 Y116.97 E.01681
G1 X82.371 Y111.788 E.2304
G1 X82.371 Y112.323 E.01681
G1 X87.019 Y116.97 E.20663
G1 X86.484 Y116.97 E.01681
G1 X84.371 Y114.857 E.09394
G1 X84.371 Y114.45 E.0128
G1 X83.964 Y114.45 E.0128
G1 X82.371 Y112.857 E.07082
G1 X82.371 Y113.392 E.01681
G1 X83.429 Y114.45 E.04705
G1 X82.895 Y114.45 E.01681
G1 X82.202 Y113.757 E.03082
M204 S1000
;WIPE_START
G1 F8640
G1 X82.895 Y114.45 E-.22637
G1 X83.429 Y114.45 E-.12346
G1 X82.371 Y113.392 E-.34556
G1 X82.371 Y113.112 E-.06462
;WIPE_END
G1 E-.04 F2100
G1 Z.6 F720
G1 X84.202 Y115.222 F10800
G1 Z.2 F720
G1 E.8 F2100
M204 S800
G1 F1200
G1 X85.949 Y116.97 E.07771
G1 X85.415 Y116.97 E.01681
G1 X84.371 Y115.927 E.04639
G1 X84.371 Y116.461 E.01681
G1 X85.05 Y117.14 E.03017
M204 S1000
; stop printing object Text.stl id:0 copy 1
; printing object Text.stl id:0 copy 0
;WIPE_START
G1 F8640
G1 X84.371 Y116.461 E-.22157
G1 X84.371 Y115.927 E-.12346
G1 X85.415 Y116.97 E-.34076
G1 X85.736 Y116.97 E-.07421
;WIPE_END
G1 E-.04 F2100
G1 Z.6 F720
G1 X95.576 Y93.491 F10800
G1 Z.2 F720
G1 E.8 F2100
M204 S800
;TYPE:Perimeter
;WIDTH:0.42
G1 F1200
G1 X96.922 Y93.223 E.04303
G1 X96.922 Y92.747 E.01493
G1 X165.912 Y92.747 E2.16312
G1 X165.912 Y95.267 E.07901
M73 P9 R22
M73 Q9 S23
G1 X167.912 Y95.267 E.06271
G1 X167.912 Y98.693 E.10741
G1 X165.912 Y98.693 E.06271
G1 X165.912 Y101.213 E.07901
G1 X96.922 Y101.213 E2.16312
G1 X96.922 Y100.737 E.01493
G1 X95.576 Y100.469 E.04303
G1 X95.313 Y101.103 E.02152
G1 X95.238 Y101.179 E.00335
G1 X95.083 Y101.213 E.00497
G1 X84.353 Y101.213 E.33644
G1 X84.248 Y101.199 E.00332
G1 X84.156 Y101.146 E.00335
G1 X84.102 Y101.053 E.00335
G1 X84.088 Y100.948 E.00332
G1 X84.088 Y98.693 E.07072
G1 X82.088 Y98.693 E.06271
G1 X82.088 Y95.267 E.10741
G1 X84.088 Y95.267 E.06271
