; generated by PrusaSlicer 2.2.0+win64 on 2020-08-27 at 18:47:15 UTC

; 

; external perimeters extrusion width = 0.45mm
; perimeters extrusion width = 0.45mm
; infill extrusion width = 0.45mm
; solid infill extrusion width = 0.45mm
; top infill extrusion width = 0.40mm
; support material extrusion width = 0.35mm
; first layer extrusion width = 0.42mm

; external perimeters extrusion width = 0.45mm
; perimeters extrusion width = 0.45mm
; infill extrusion width = 0.45mm
; solid infill extrusion width = 0.45mm
; top infill extrusion width = 0.40mm
; support material extrusion width = 0.35mm
; first layer extrusion width = 0.42mm

M73 P0 R62
M73 Q0 S63
M201 X1000 Y1000 Z1000 E5000 ; sets maximum accelerations, mm/sec^2
M203 X200 Y200 Z12 E120 ; sets maximum feedrates, mm/sec
M204 P1250 R1250 T1250 ; sets acceleration (P, T) and retract acceleration (R), mm/sec^2
M205 X8.00 Y8.00 Z0.40 E1.50 ; sets the jerk limits, mm/sec
M205 S0 T0 ; sets the minimum extruding and travel feed rate, mm/sec
M107
M862.3 P "MK3S" ; printer model check
M862.1 P0.4 ; nozzle diameter check
M115 U3.8.0 ; tell printer latest fw version
G90 ; use absolute coordinates
M83 ; extruder relative mode
M104 S215 ; set extruder temp
M140 S60 ; set bed temp
M190 S60 ; wait for bed temp
M109 S215 ; wait for extruder temp
G28 W ; home all without mesh bed level
G80 ; mesh bed leveling
G1 Y-3.0 F1000.0 ; go outside print area
G92 E0.0
G1 X60.0 E9.0 F1000.0 ; intro line
M73 Q0 S63
M73 P0 R62
G1 X100.0 E12.5 F1000.0 ; intro line
G92 E0.0
M221 S95
G21 ; set units to millimeters
G90 ; use absolute coordinates
M83 ; use relative distances for extrusion
M900 K0.06 ; Filament gcode LA 1.5
M900 K30 ; Filament gcode LA 1.0
;BEFORE_LAYER_CHANGE
G92 E0.0
;0.2


G1 E-0.80000 F2100.00000
G1 Z0.600 F10800.000
;AFTER_LAYER_CHANGE
;0.2
G1 X111.253 Y74.444
G1 Z0.200
G1 E0.80000 F2100.00000
M204 S1000
G1 F1200.000
G1 X112.409 Y73.293 E0.05115
G1 X112.857 Y73.026 E0.01635
G1 X113.344 Y72.838 E0.01635
G1 X113.855 Y72.736 E0.01635
G1 X114.033 Y72.731 E0.00558
G1 X111.141 Y75.622 E0.12823
G1 X111.136 Y76.008 E0.01208
G1 X111.239 Y76.591 E0.01857
G1 X115.001 Y72.829 E0.16678
G1 X115.389 Y72.954 E0.01278
G1 X115.752 Y73.144 E0.01287
G1 X111.557 Y77.339 E0.18602
G1 X111.631 Y77.476 E0.00486
G1 X111.953 Y77.886 E0.01635
G1 X112.018 Y77.945 E0.00276
G1 X116.355 Y73.608 E0.19232
G1 X116.484 Y73.746 E0.00593
G1 X114.730 Y75.500 E0.07778
G1 X115.130 Y75.900 E0.01772
G1 X112.617 Y78.412 E0.11141
G1 X112.779 Y78.515 E0.00602
G1 X113.260 Y78.717 E0.01635
G1 X113.357 Y78.739 E0.00311
G1 X115.663 Y76.433 E0.10225
G1 X116.196 Y76.966 E0.02365
G1 X114.138 Y79.025 E0.09127
G1 E-0.80000 F2100.00000
G1 Z0.800 F10800.000
G1 X116.976 Y74.276
G1 Z0.200
G1 E0.80000 F2100.00000
G1 F1200.000
G1 X115.482 Y75.769 E0.05392
G1 X115.841 Y76.127 E0.01295
G1 X117.081 Y74.887 E0.04479
G1 X117.213 Y75.472 E0.01532
G1 X116.200 Y76.486 E0.03661
G1 X116.558 Y76.844 E0.01295
G1 X117.424 Y75.978 E0.03127
G1 X117.855 Y76.122 E0.01160
G1 X116.845 Y77.132 E0.03647
G1 X116.917 Y77.203 E0.00258
G1 X115.659 Y78.460 E0.04541
G1 X115.849 Y78.374 E0.00534
G1 X116.174 Y78.663 E0.01109
G1 X117.275 Y77.561 E0.03976
G1 X117.634 Y77.920 E0.01295
G1 X116.139 Y79.415 E0.05397
G1 X116.078 Y79.627 E0.00564
G1 X116.361 Y79.910 E0.01021
G1 X117.992 Y78.279 E0.05891
G1 X118.351 Y78.637 E0.01295
G1 X116.622 Y80.366 E0.06244
G1 X115.750 Y80.613 F10800.000
G1 F1200.000
G1 X116.165 Y80.198 E0.01841
G1 X116.698 Y80.731 E0.02365
G1 X115.647 Y81.782 E0.04660
G1 X116.006 Y84.623 F10800.000
G1 F1200.000
G1 X123.899 Y76.730 E0.35000
G1 X123.366 Y76.196 E0.02365
G1 X115.933 Y83.629 E0.32958
G1 X115.830 Y82.666 E0.03037
G1 X122.832 Y75.663 E0.31052
G1 X122.299 Y75.130 E0.02365
G1 X118.813 Y78.616 E0.15457
G1 X118.280 Y78.082 E0.02365
G1 X121.766 Y74.596 E0.15457
G1 X121.233 Y74.063 E0.02365
G1 X117.747 Y77.549 E0.15457
G1 X117.329 Y77.132 E0.01851
G1 X118.960 Y75.500 E0.07234
G1 X118.845 Y75.385 E0.00513
G1 X120.298 Y73.931 E0.06443
G1 E-0.80000 F2100.00000
G1 Z0.800 F10800.000
G1 X136.647 Y78.913
G1 Z0.200
G1 E0.80000 F2100.00000
G1 F1200.000
G1 X138.661 Y76.899 E0.08929
G1 X138.788 Y76.523 E0.01246
G1 X138.869 Y76.008 E0.01635
G1 X138.863 Y75.630 E0.01183
G1 X135.639 Y78.855 E0.14297
G1 X135.229 Y78.808 E0.01294
G1 X135.274 Y78.763 E0.00200
G1 X134.969 Y78.458 E0.01352
G1 X138.682 Y74.745 E0.16462
G1 X138.585 Y74.484 E0.00872
G1 X138.326 Y74.035 E0.01628
G1 X134.436 Y77.925 E0.17248
G1 X133.902 Y77.391 E0.02365
G1 X137.814 Y73.480 E0.17343
G1 X137.595 Y73.293 E0.00903
G1 X137.181 Y73.046 E0.01511
G1 X135.001 Y75.227 E0.09669
G1 X134.467 Y74.694 E0.02365
G1 X136.379 Y72.782 E0.08477
G1 X136.149 Y72.736 E0.00734
G1 X135.628 Y72.721 E0.01635
G1 X135.331 Y72.763 E0.00941
G1 X133.814 Y74.280 E0.06726
G1 E-0.80000 F2100.00000
G1 Z0.800 F10800.000
G1 X132.755 Y74.990
G1 Z0.200
G1 E0.80000 F2100.00000
G1 F1200.000
G1 X133.517 Y74.227 E0.02753
G1 X133.876 Y74.586 E0.01295
G1 X132.245 Y76.217 E0.05891
G1 X132.603 Y76.576 E0.01295
G1 X134.235 Y74.945 E0.05891
G1 X134.593 Y75.303 E0.01295
G1 X132.962 Y76.935 E0.05891
G1 X133.159 Y77.132 E0.00712
G1 X131.527 Y78.763 E0.05891
G1 X131.689 Y78.924 E0.00583
G1 X133.320 Y77.293 E0.05891
G1 X133.679 Y77.652 E0.01295
G1 X131.950 Y79.381 E0.06244
G1 E-0.80000 F2100.00000
G1 Z0.800 F10800.000
G1 X133.025 Y80.456
G1 Z0.200
G1 E0.80000 F2100.00000
G1 F1200.000
G1 X133.912 Y79.570 E0.03201
G1 X133.747 Y79.017 E0.01473
G1 X132.765 Y80.000 E0.03549
G1 X132.406 Y79.642 E0.01295
G1 X134.037 Y78.010 E0.05891
G1 X134.396 Y78.369 E0.01295
G1 X134.213 Y78.552 E0.00662
G1 E-0.80000 F2100.00000
G1 Z0.800 F10800.000
G1 X131.788 Y75.957
G1 Z0.200
G1 E0.80000 F2100.00000
G1 F1200.000
G1 X131.888 Y75.856 E0.00362
G1 X131.536 Y75.491 E0.01295
G1 X131.430 Y75.598 E0.00385
G1 X129.824 Y74.004 F10800.000
G1 F1200.000
G1 X126.200 Y77.628 E0.16069
G1 X126.733 Y78.162 E0.02365
G1 X130.359 Y74.536 E0.16076
G1 X130.944 Y75.017 E0.02376
G1 X127.266 Y78.695 E0.16309
G1 X127.800 Y79.228 E0.02365
G1 X131.286 Y75.742 E0.15457
G1 X131.819 Y76.275 E0.02365
G1 X128.333 Y79.761 E0.15457
G1 X128.866 Y80.295 E0.02365
G1 X132.352 Y76.809 E0.15457
G1 X132.675 Y77.132 E0.01432
G1 X131.044 Y78.763 E0.07234
G1 X131.254 Y78.973 E0.00933
G1 X129.399 Y80.828 E0.08224
G1 X129.933 Y81.361 E0.02365
G1 X131.787 Y79.507 E0.08224
G1 X132.321 Y80.040 E0.02365
G1 X130.466 Y81.894 E0.08224
G1 X130.999 Y82.428 E0.02365
G1 X132.854 Y80.573 E0.08224
G1 X133.159 Y80.878 E0.01352
G1 X133.986 Y80.051 E0.03666
G1 X134.053 Y80.441 E0.01239
G1 X131.532 Y82.961 E0.11175
G1 X132.066 Y83.494 E0.02365
G1 X134.175 Y81.385 E0.09351
G1 X134.200 Y82.426 E0.03265
G1 X132.599 Y84.028 E0.07100
G1 X133.132 Y84.561 E0.02365
G1 X134.072 Y83.621 E0.04166
G1 X133.759 Y84.882 E0.04073
G1 X133.677 Y85.082 E0.00678
G1 X133.546 Y85.214 E0.00585
G1 E-0.80000 F2100.00000
G1 Z0.800 F10800.000
G1 X125.556 Y84.672
G1 Z0.200
G1 E0.80000 F2100.00000
G1 F1200.000
G1 X120.298 Y89.929 E0.23314
G1 X120.992 Y90.301 E0.02470
G1 X125.969 Y85.325 E0.22067
G1 X126.502 Y85.858 E0.02365
G1 X121.743 Y90.617 E0.21102
G1 X122.261 Y90.808 E0.01731
G1 X123.371 Y89.699 E0.04919
G1 X123.550 Y89.877 E0.00793
G1 X127.036 Y86.391 E0.15457
G1 X127.569 Y86.925 E0.02365
G1 X124.083 Y90.411 E0.15457
G1 X124.616 Y90.944 E0.02365
G1 X128.102 Y87.458 E0.15457
G1 X128.635 Y87.991 E0.02365
G1 X126.781 Y89.846 E0.08224
G1 X127.314 Y90.379 E0.02365
G1 X129.169 Y88.525 E0.08224
G1 X129.702 Y89.058 E0.02365
G1 X127.787 Y90.972 E0.08490
G1 E-0.80000 F2100.00000
G1 Z0.800 F10800.000
G1 X126.694 Y91.807
G1 Z0.200
G1 E0.80000 F2100.00000
G1 F1200.000
G1 X125.845 Y92.657 E0.03068
G1 X126.203 Y93.015 E0.01295
G1 X126.989 Y92.229 E0.02838
G1 X127.271 Y92.499 E0.00996
G1 X127.341 Y92.594 E0.00302
G1 X126.464 Y93.472 E0.03167
G1 E-0.80000 F2100.00000
G1 Z0.800 F10800.000
G1 X125.389 Y92.396
G1 Z0.200
G1 E0.80000 F2100.00000
G1 F1200.000
G1 X127.118 Y90.667 E0.06244
G1 X126.759 Y90.308 E0.01295
G1 X125.128 Y91.940 E0.05891
G1 X125.002 Y91.814 E0.00454
G1 X123.371 Y93.445 E0.05891
G1 X123.138 Y93.212 E0.00841
G1 X124.769 Y91.581 E0.05891
G1 X124.411 Y91.222 E0.01295
G1 X122.779 Y92.854 E0.05891
G1 X122.602 Y92.677 E0.00640
G1 X122.733 Y92.499 E0.00562
G1 X123.118 Y92.130 E0.01362
G1 X123.588 Y91.778 E0.01500
G1 X123.511 Y91.405 E0.00973
G1 X124.052 Y90.864 E0.01953
G1 X123.694 Y90.505 E0.01295
G1 X123.005 Y91.194 E0.02486
G1 E-0.80000 F2100.00000
G1 Z0.800 F10800.000
G1 X121.867 Y93.693
G1 Z0.200
G1 E0.80000 F2100.00000
G1 F1200.000
G1 X122.501 Y93.059 E0.02811
G1 X123.034 Y93.592 E0.02365
G1 X121.944 Y94.683 E0.04834
G1 X121.953 Y94.887 E0.00641
G1 X122.063 Y95.397 E0.01635
G1 X122.130 Y95.564 E0.00564
G1 X125.199 Y92.494 E0.13609
G1 X125.732 Y93.028 E0.02365
G1 X122.494 Y96.266 E0.14358
G1 X122.875 Y96.716 E0.01849
G1 X123.005 Y96.821 E0.00525
G1 X126.265 Y93.561 E0.14456
G1 X126.633 Y93.929 E0.01632
G1 X127.639 Y92.923 E0.04460
G1 X127.750 Y93.143 E0.00771
G1 X123.645 Y97.247 E0.18200
G1 X123.736 Y97.298 E0.00324
G1 X124.227 Y97.471 E0.01635
G1 X124.450 Y97.510 E0.00707
G1 X128.019 Y93.940 E0.15827
G1 X128.074 Y94.366 E0.01346
G1 X128.051 Y94.887 E0.01635
G1 X128.027 Y94.999 E0.00358
G1 X125.301 Y97.725 E0.12091
G1 X125.002 Y98.673 F10800.000
G1 F1200.000
G1 X124.647 Y98.673 E0.01114
G1 X123.946 Y98.553 E0.02229
G1 X123.276 Y98.316 E0.02229
G1 X122.655 Y97.969 E0.02229
G1 X122.102 Y97.522 E0.02229
G1 X121.632 Y96.989 E0.02229
G1 X121.259 Y96.383 E0.02229
G1 X120.994 Y95.724 E0.02229
G1 X120.845 Y95.029 E0.02229
G1 X120.814 Y94.319 E0.02229
G1 X120.905 Y93.613 E0.02229
G1 X121.113 Y92.934 E0.02229
G1 X121.433 Y92.299 E0.02229
G1 X121.787 Y91.820 E0.01869
G1 X120.769 Y91.445 E0.03401
G1 X119.506 Y90.768 E0.04492
G1 X118.349 Y89.923 E0.04492
G1 X117.320 Y88.927 E0.04492
G1 X116.439 Y87.797 E0.04492
G1 X115.723 Y86.556 E0.04492
G1 X115.185 Y85.228 E0.04492
G1 X114.836 Y83.838 E0.04492
G1 X114.683 Y82.414 E0.04492
G1 X114.729 Y80.982 E0.04492
G1 X114.913 Y79.913 E0.03401
G1 X114.321 Y79.980 E0.01869
G1 X113.611 Y79.940 E0.02229
G1 X112.918 Y79.780 E0.02229
G1 X112.262 Y79.506 E0.02229
G1 X111.662 Y79.125 E0.02229
G1 X111.135 Y78.647 E0.02229
G1 X110.697 Y78.088 E0.02229
G1 X110.359 Y77.463 E0.02229
G1 X110.131 Y76.789 E0.02229
G1 X110.021 Y76.087 E0.02229
G1 X110.031 Y75.376 E0.02229
G1 X110.161 Y74.677 E0.02229
G1 X110.408 Y74.010 E0.02229
G1 X110.763 Y73.394 E0.02229
G1 X111.217 Y72.848 E0.02229
G1 X111.758 Y72.385 E0.02229
G1 X112.368 Y72.021 E0.02229
G1 X113.032 Y71.766 E0.02229
G1 X113.729 Y71.626 E0.02229
G1 X114.439 Y71.606 E0.02229
G1 X115.143 Y71.706 E0.02229
G1 X115.820 Y71.924 E0.02229
G1 X116.450 Y72.253 E0.02229
G1 X117.015 Y72.683 E0.02229
G1 X117.500 Y73.204 E0.02229
G1 X117.890 Y73.798 E0.02229
G1 X118.128 Y74.345 E0.01869
G1 X118.961 Y73.651 E0.03401
G1 X120.179 Y72.895 E0.04492
G1 X121.489 Y72.315 E0.04492
G1 X122.867 Y71.923 E0.04492
G1 X124.215 Y71.734 E0.04268
G1 X125.716 Y71.724 E0.04709
G1 X127.137 Y71.922 E0.04499
G1 X128.515 Y72.315 E0.04492
G1 X129.826 Y72.895 E0.04492
G1 X131.043 Y73.651 E0.04492
G1 X131.877 Y74.345 E0.03401
G1 X132.114 Y73.798 E0.01869
G1 X132.504 Y73.204 E0.02229
G1 X132.989 Y72.683 E0.02229
G1 X133.554 Y72.253 E0.02229
G1 X134.184 Y71.924 E0.02229
G1 X134.861 Y71.706 E0.02229
G1 X135.565 Y71.606 E0.02229
G1 X136.276 Y71.626 E0.02229
G1 X136.973 Y71.766 E0.02229
G1 X137.636 Y72.021 E0.02229
G1 X138.246 Y72.385 E0.02229
G1 X138.787 Y72.848 E0.02229
G1 X139.241 Y73.394 E0.02229
G1 X139.597 Y74.010 E0.02229
G1 X139.843 Y74.677 E0.02229
G1 X139.973 Y75.376 E0.02229
G1 X139.983 Y76.087 E0.02229
G1 X139.873 Y76.789 E0.02229
G1 X139.645 Y77.463 E0.02229
G1 X139.308 Y78.088 E0.02229
G1 X138.869 Y78.647 E0.02229
G1 X138.342 Y79.125 E0.02229
G1 X137.742 Y79.506 E0.02229
G1 X137.086 Y79.780 E0.02229
G1 X136.393 Y79.940 E0.02229
G1 X135.683 Y79.980 E0.02229
G1 X135.091 Y79.913 E0.01869
G1 X135.276 Y80.982 E0.03401
G1 X135.321 Y82.414 E0.04492
G1 X135.168 Y83.838 E0.04492
G1 X134.819 Y85.228 E0.04492
G1 X134.282 Y86.556 E0.04492
G1 X133.601 Y87.735 E0.04268
G1 X132.685 Y88.925 E0.04709
G1 X131.655 Y89.923 E0.04499
G1 X130.498 Y90.768 E0.04492
G1 X129.235 Y91.445 E0.04492
G1 X128.217 Y91.820 E0.03401
G1 X128.571 Y92.299 E0.01869
G1 X128.891 Y92.934 E0.02229
G1 X129.099 Y93.613 E0.02229
G1 X129.190 Y94.319 E0.02229
G1 X129.159 Y95.029 E0.02229
G1 X129.010 Y95.724 E0.02229
G1 X128.745 Y96.383 E0.02229
G1 X128.372 Y96.989 E0.02229
G1 X127.902 Y97.522 E0.02229
G1 X127.349 Y97.969 E0.02229
G1 X126.728 Y98.316 E0.02229
G1 X126.058 Y98.553 E0.02229
G1 X125.358 Y98.673 E0.02229
G1 X125.062 Y98.673 E0.00926
G1 X125.002 Y98.296 F10800.000
G1 F1200.000
G1 X124.679 Y98.296 E0.01014
G1 X124.041 Y98.186 E0.02028
G1 X123.431 Y97.971 E0.02028
G1 X122.867 Y97.655 E0.02028
G1 X122.364 Y97.249 E0.02028
G1 X121.936 Y96.764 E0.02028
G1 X121.597 Y96.213 E0.02028
G1 X121.356 Y95.613 E0.02028
G1 X121.220 Y94.981 E0.02028
G1 X121.193 Y94.335 E0.02028
G1 X121.275 Y93.693 E0.02028
G1 X121.464 Y93.075 E0.02028
G1 X121.755 Y92.497 E0.02028
G1 X122.140 Y91.977 E0.02028
G1 X122.487 Y91.644 E0.01508
G1 X122.216 Y91.576 E0.00876
G1 X120.924 Y91.100 E0.04317
G1 X119.708 Y90.448 E0.04328
G1 X118.593 Y89.634 E0.04328
G1 X117.601 Y88.674 E0.04328
G1 X116.752 Y87.586 E0.04328
G1 X116.062 Y86.390 E0.04328
G1 X115.544 Y85.111 E0.04328
G1 X115.208 Y83.772 E0.04328
G1 X115.061 Y82.400 E0.04328
G1 X115.105 Y81.020 E0.04328
G1 X115.339 Y79.663 E0.04317
G1 X115.414 Y79.394 E0.00876
G1 X114.953 Y79.529 E0.01508
G1 X114.310 Y79.602 E0.02028
G1 X113.664 Y79.565 E0.02028
G1 X113.034 Y79.420 E0.02028
G1 X112.437 Y79.170 E0.02028
G1 X111.892 Y78.823 E0.02028
G1 X111.412 Y78.389 E0.02028
G1 X111.013 Y77.881 E0.02028
G1 X110.706 Y77.312 E0.02028
G1 X110.499 Y76.699 E0.02028
G1 X110.399 Y76.060 E0.02028
G1 X110.408 Y75.413 E0.02028
G1 X110.526 Y74.777 E0.02028
G1 X110.750 Y74.171 E0.02028
G1 X111.074 Y73.611 E0.02028
G1 X111.487 Y73.113 E0.02028
G1 X111.978 Y72.693 E0.02028
G1 X112.534 Y72.362 E0.02028
G1 X113.137 Y72.129 E0.02028
G1 X113.771 Y72.002 E0.02028
G1 X114.418 Y71.983 E0.02028
G1 X115.058 Y72.075 E0.02028
G1 X115.674 Y72.273 E0.02028
G1 X116.247 Y72.572 E0.02028
G1 X116.761 Y72.964 E0.02028
G1 X117.202 Y73.437 E0.02028
G1 X117.557 Y73.978 E0.02028
G1 X117.815 Y74.571 E0.02028
G1 X117.929 Y75.038 E0.01508
G1 X118.124 Y74.838 E0.00876
G1 X119.182 Y73.957 E0.04317
G1 X120.355 Y73.229 E0.04328
G1 X121.617 Y72.671 E0.04328
G1 X122.945 Y72.292 E0.04328
G1 X124.242 Y72.111 E0.04107
G1 X125.692 Y72.101 E0.04544
G1 X127.059 Y72.292 E0.04330
G1 X128.387 Y72.671 E0.04328
G1 X129.649 Y73.229 E0.04328
G1 X130.822 Y73.957 E0.04328
G1 X131.880 Y74.838 E0.04317
G1 X132.075 Y75.038 E0.00876
G1 X132.189 Y74.571 E0.01508
G1 X132.447 Y73.978 E0.02028
G1 X132.802 Y73.437 E0.02028
G1 X133.243 Y72.964 E0.02028
G1 X133.757 Y72.572 E0.02028
G1 X134.330 Y72.273 E0.02028
G1 X134.946 Y72.075 E0.02028
G1 X135.586 Y71.983 E0.02028
G1 X136.233 Y72.002 E0.02028
G1 X136.867 Y72.129 E0.02028
G1 X137.470 Y72.362 E0.02028
G1 X138.026 Y72.693 E0.02028
G1 X138.517 Y73.113 E0.02028
G1 X138.931 Y73.611 E0.02028
G1 X139.254 Y74.171 E0.02028
G1 X139.478 Y74.777 E0.02028
G1 X139.596 Y75.413 E0.02028
G1 X139.605 Y76.060 E0.02028
G1 X139.505 Y76.699 E0.02028
G1 X139.298 Y77.312 E0.02028
G1 X138.991 Y77.881 E0.02028
G1 X138.592 Y78.389 E0.02028
G1 X138.113 Y78.823 E0.02028
G1 X137.567 Y79.170 E0.02028
G1 X136.970 Y79.420 E0.02028
G1 X136.340 Y79.565 E0.02028
G1 X135.694 Y79.602 E0.02028
G1 X135.052 Y79.529 E0.02028
G1 X134.590 Y79.394 E0.01508
G1 X134.666 Y79.663 E0.00876
G1 X134.899 Y81.020 E0.04317
G1 X134.943 Y82.400 E0.04328
G1 X134.796 Y83.772 E0.04328
G1 X134.460 Y85.111 E0.04328
G1 X133.942 Y86.390 E0.04328
G1 X133.287 Y87.525 E0.04107
G1 X132.403 Y88.673 E0.04544
G1 X131.411 Y89.634 E0.04330
G1 X130.296 Y90.448 E0.04328
G1 X129.080 Y91.100 E0.04328
G1 X127.788 Y91.576 E0.04317
G1 X127.517 Y91.644 E0.00876
G1 X127.864 Y91.977 E0.01508
G1 X128.249 Y92.497 E0.02028
G1 X128.540 Y93.075 E0.02028
G1 X128.729 Y93.693 E0.02028
G1 X128.812 Y94.335 E0.02028
