; generated by PrusaSlicer 2.3.1+win64 on 2022-05-21 at 01:12:44 UTC

; 

; external perimeters extrusion width = 0.45mm
; perimeters extrusion width = 0.45mm
; infill extrusion width = 0.45mm
; solid infill extrusion width = 0.45mm
; top infill extrusion width = 0.40mm
; support material extrusion width = 0.35mm
; first layer extrusion width = 0.42mm

M73 P0 R20
M73 Q0 S20
M201 X1000 Y1000 Z1000 E5000 ; sets maximum accelerations, mm/sec^2
M203 X200 Y200 Z12 E120 ; sets maximum feedrates, mm/sec
M204 P1250 R1250 T1250 ; sets acceleration (P, T) and retract acceleration (R), mm/sec^2
M205 X8.00 Y8.00 Z0.40 E1.50 ; sets the jerk limits, mm/sec
M205 S0 T0 ; sets the minimum extruding and travel feed rate, mm/sec
M107
;TYPE:Custom
M862.3 P "MK3S" ; printer model check
M862.1 P0.4 ; nozzle diameter check
M115 U3.8.0 ; tell printer latest fw version
G90 ; use absolute coordinates
M83 ; extruder relative mode
M104 S215 ; set extruder temp
M140 S60 ; set bed temp
M190 S60 ; wait for bed temp
M109 S215 ; wait for extruder temp
G28 W ; home all without mesh bed level
G80 ; mesh bed leveling
G1 Y-3.0 F1000.0 ; go outside print area
G92 E0.0
G1 X60.0 E9.0 F1000.0 ; intro line
G1 X100.0 E12.5 F1000.0 ; intro line
G92 E0.0
M221 S95
G21 ; set units to millimeters
G90 ; use absolute coordinates
M83 ; use relative distances for extrusion
M900 K0.05 ; Filament gcode LA 1.5
M900 K30 ; Filament gcode LA 1.0
;LAYER_CHANGE
;Z:0.2
;HEIGHT:0.2
;BEFORE_LAYER_CHANGE
G92 E0.0
;0.2


G1 E-0.80000 F2100.000
G1 Z0.600 F10800.000
;AFTER_LAYER_CHANGE
;0.2
G1 X101.588 Y92.020
G1 Z0.200
G1 E0.80000 F2100.000
M204 S1000
;TYPE:Skirt
;WIDTH:0.42
G1 F1200.000
G1 X104.133 Y86.929 E0.17845
G1 X106.482 Y84.235 E0.11205
G1 X107.082 Y83.784 E0.02355
G1 X111.799 Y81.426 E0.16534
G1 X112.737 Y81.202 E0.03024
G1 X125.004 Y81.032 E0.38466
G1 X139.540 Y81.202 E0.45579
G1 X140.137 Y81.288 E0.01894
G1 X140.667 Y81.508 E0.01799
G1 X141.130 Y81.848 E0.01799
G1 X145.809 Y86.525 E0.20745
G1 X146.123 Y86.921 E0.01585
G1 X148.313 Y91.899 E0.17052
G1 X148.487 Y92.634 E0.02367
G1 X148.494 Y117.371 E0.77561
G1 X148.412 Y117.980 E0.01929
G1 X145.840 Y123.113 E0.17999
G1 X143.275 Y125.792 E0.11631
G1 X142.698 Y126.218 E0.02249
G1 X137.744 Y128.700 E0.17375
M73 Q1 S20
G1 X137.132 Y128.798 E0.01941
G1 X128.019 Y128.968 E0.28578
M73 P1 R20
G1 X121.191 Y128.968 E0.21409
G1 X112.740 Y128.798 E0.26504
G1 X112.191 Y128.717 E0.01740
G1 X107.106 Y126.229 E0.17751
G1 X106.503 Y125.787 E0.02343
G1 X104.137 Y123.078 E0.11278
G1 X101.600 Y118.024 E0.17730
G1 X101.506 Y117.363 E0.02093
G1 X101.506 Y92.629 E0.77550
G1 X101.580 Y92.079 E0.01741
; printing object Flasher mount.STL id:0 copy 0
G1 E-0.80000 F2100.000
G1 Z0.800 F10800.000
G1 X103.884 Y92.637
G1 Z0.200
G1 E0.80000 F2100.000
;TYPE:Support material
G1 F1200.000
G1 X103.884 Y103.351 E0.33592
G1 X104.638 Y103.351 E0.02365
G1 X104.638 Y92.807 E0.33060
G1 X105.392 Y92.807 E0.02365
G1 X105.392 Y103.351 E0.33060
G1 X106.146 Y103.351 E0.02365
G1 X106.146 Y88.193 E0.47527
G1 X106.900 Y88.193 E0.02365
G1 X106.900 Y103.351 E0.47527
G1 X107.075 Y103.351 E0.00549
G1 X107.132 Y102.798 E0.01742
G1 X107.257 Y101.931 E0.02747
G1 X107.490 Y101.729 E0.00967
G1 X107.654 Y101.729 E0.00516
G1 X107.654 Y88.193 E0.42442
G1 X108.193 Y88.193 E0.01688
G1 X108.193 Y85.886 E0.07234
G1 X108.409 Y85.886 E0.00677
G1 X108.409 Y101.729 E0.49676
G1 X109.163 Y101.729 E0.02365
G1 X109.163 Y85.886 E0.49676
G1 X109.917 Y85.886 E0.02365
G1 X109.917 Y101.729 E0.49676
G1 X110.671 Y101.729 E0.02365
G1 X110.671 Y85.886 E0.49676
G1 X111.425 Y85.886 E0.02365
G1 X111.425 Y103.351 E0.54761
M73 P2 R20
M73 Q2 S20
G1 X112.179 Y103.351 E0.02365
G1 X112.179 Y85.886 E0.54761
G1 X112.807 Y85.886 E0.01967
G1 X112.807 Y83.578 E0.07234
G1 X112.933 Y83.578 E0.00397
G1 X112.933 Y103.351 E0.61995
G1 X113.688 Y103.351 E0.02365
G1 X113.688 Y83.578 E0.61995
G1 X114.442 Y83.578 E0.02365
G1 X114.442 Y103.351 E0.61995
G1 X115.196 Y103.351 E0.02365
G1 X115.196 Y83.578 E0.61995
G1 X115.950 Y83.578 E0.02365
G1 X115.950 Y103.351 E0.61995
G1 X116.430 Y103.351 E0.01503
G1 X116.430 Y98.737 E0.14467
G1 X116.704 Y98.737 E0.00861
G1 X116.704 Y83.578 E0.47527
G1 X117.458 Y83.578 E0.02365
G1 X117.458 Y98.737 E0.47527
G1 X118.213 Y98.737 E0.02365
G1 X118.213 Y83.578 E0.47527
G1 X118.967 Y83.578 E0.02365
G1 X118.967 Y96.430 E0.40294
G1 X119.721 Y96.430 E0.02365
G1 X119.721 Y83.578 E0.40294
G1 X120.475 Y83.578 E0.02365
G1 X120.475 Y96.599 E0.40826
G1 X122.738 Y96.599 F10800.000
G1 F1200.000
G1 X122.738 Y91.316 E0.16566
G1 X122.030 Y91.444 E0.02254
G1 X121.983 Y91.406 E0.00191
G1 X121.983 Y96.430 E0.15751
G1 X121.229 Y96.430 E0.02365
G1 X121.229 Y83.578 E0.40294
M73 P3 R20
M73 Q3 S20
G1 X121.983 Y83.578 E0.02365
G1 X121.983 Y87.249 E0.11510
G1 X122.738 Y87.141 E0.02389
G1 X122.738 Y83.409 E0.11702
G1 E-0.80000 F2100.000
G1 Z0.800 F10800.000
G1 X125.000 Y83.409
G1 Z0.200
G1 E0.80000 F2100.000
G1 F1200.000
G1 X125.000 Y86.997 E0.11251
G1 X125.754 Y87.013 E0.02365
G1 X125.754 Y83.578 E0.10769
G1 X126.508 Y83.578 E0.02365
G1 X126.508 Y87.061 E0.10919
G1 X127.262 Y87.141 E0.02378
G1 X127.262 Y83.578 E0.11170
G1 X128.017 Y83.578 E0.02365
G1 X128.017 Y87.455 E0.12156
G1 E-0.80000 F2100.000
G1 Z0.800 F10800.000
G1 X125.000 Y90.956
G1 Z0.200
G1 E0.80000 F2100.000
G1 F1200.000
G1 X125.000 Y94.122 E0.09927
G1 X125.754 Y94.122 E0.02365
G1 X125.754 Y91.149 E0.09324
G1 X126.508 Y91.212 E0.02373
G1 X126.508 Y94.122 E0.09126
G1 X127.262 Y94.122 E0.02365
G1 X127.262 Y91.316 E0.08801
G1 X127.970 Y91.444 E0.02254
G1 X128.017 Y91.406 E0.00191
G1 X128.017 Y94.122 E0.08518
G1 X128.771 Y94.122 E0.02365
G1 X128.771 Y83.578 E0.33060
G1 X129.525 Y83.578 E0.02365
G1 X129.525 Y96.430 E0.40294
G1 X130.279 Y96.430 E0.02365
G1 X130.279 Y83.578 E0.40294
G1 X131.033 Y83.578 E0.02365
G1 X131.033 Y96.430 E0.40294
G1 X131.263 Y96.430 E0.00721
G1 X131.263 Y98.737 E0.07234
G1 X131.787 Y98.737 E0.01643
G1 X131.787 Y83.578 E0.47527
G1 X132.542 Y83.578 E0.02365
G1 X132.542 Y98.737 E0.47527
G1 X133.296 Y98.737 E0.02365
G1 X133.296 Y83.578 E0.47527
M73 P3 R19
G1 X134.050 Y83.578 E0.02365
G1 X134.050 Y101.044 E0.54761
G1 X134.804 Y101.044 E0.02365
G1 X134.804 Y83.578 E0.54761
G1 X135.558 Y83.578 E0.02365
G1 X135.558 Y101.044 E0.54761
M73 Q3 S19
G1 X135.878 Y101.044 E0.01001
G1 X135.878 Y103.351 E0.07234
G1 X136.312 Y103.351 E0.01363
G1 X136.312 Y83.578 E0.61995
M73 P4 R19
M73 Q4 S19
G1 X137.067 Y83.578 E0.02365
G1 X137.067 Y103.351 E0.61995
G1 X137.821 Y103.351 E0.02365
G1 X137.821 Y83.578 E0.61995
G1 X138.575 Y83.578 E0.02365
G1 X138.575 Y124.284 E1.27630
G1 X137.821 Y124.284 F10800.000
G1 F1200.000
G1 X137.821 Y104.342 E0.62527
G1 X137.067 Y104.342 E0.02365
G1 X137.067 Y126.422 E0.69228
G1 X136.312 Y126.422 E0.02365
G1 X136.312 Y104.342 E0.69228
G1 X135.878 Y104.342 E0.01363
G1 X135.878 Y106.649 E0.07234
G1 X135.558 Y106.649 E0.01001
G1 X135.558 Y126.422 E0.61995
G1 X134.804 Y126.422 E0.02365
G1 X134.804 Y106.649 E0.61995
G1 X134.050 Y106.649 E0.02365
G1 X134.050 Y126.422 E0.61995
G1 X133.296 Y126.422 E0.02365
G1 X133.296 Y111.263 E0.47527
M73 Q5 S19
G1 X132.542 Y111.263 E0.02365
G1 X132.542 Y126.422 E0.47527
M73 P5 R19
G1 X131.787 Y126.422 E0.02365
G1 X131.787 Y111.263 E0.47527
G1 X131.263 Y111.263 E0.01643
G1 X131.263 Y113.570 E0.07234
G1 X131.033 Y113.570 E0.00721
G1 X131.033 Y126.422 E0.40294
G1 X130.279 Y126.422 E0.02365
G1 X130.279 Y113.570 E0.40294
G1 X129.525 Y113.570 E0.02365
G1 X129.525 Y126.422 E0.40294
G1 X128.771 Y126.422 E0.02365
G1 X128.771 Y113.570 E0.40294
G1 X128.017 Y113.570 E0.02365
G1 X128.017 Y118.594 E0.15752
G1 X127.970 Y118.556 E0.00191
G1 X127.262 Y118.684 E0.02254
G1 X127.262 Y113.401 E0.16566
G1 E-0.80000 F2100.000
G1 Z0.800 F10800.000
G1 X125.000 Y115.708
G1 Z0.200
G1 E0.80000 F2100.000
G1 F1200.000
G1 X125.000 Y118.874 E0.09927
G1 X124.246 Y118.851 E0.02366
G1 X124.246 Y115.878 E0.09324
G1 X123.492 Y115.878 E0.02365
G1 X123.492 Y118.788 E0.09126
G1 X122.738 Y118.684 E0.02387
G1 X122.738 Y113.570 E0.16034
G1 X121.983 Y113.570 E0.02365
G1 X121.983 Y118.594 E0.15752
G1 X121.729 Y118.804 E0.01033
G1 X121.729 Y122.510 E0.11621
G1 X121.931 Y122.743 E0.00967
G1 X121.983 Y122.751 E0.00166
G1 X121.983 Y126.422 E0.11509
G1 X122.738 Y126.422 E0.02365
G1 X122.738 Y122.859 E0.11170
G1 X123.492 Y122.939 E0.02378
G1 X123.492 Y126.422 E0.10919
G1 X124.246 Y126.422 E0.02365
G1 X124.246 Y122.987 E0.10769
G1 X125.000 Y123.003 E0.02365
G1 X125.000 Y126.591 E0.11251
G1 E-0.80000 F2100.000
G1 Z0.800 F10800.000
G1 X127.262 Y126.591
G1 Z0.200
G1 E0.80000 F2100.000
G1 F1200.000
G1 X127.262 Y122.859 E0.11702
G1 X128.017 Y122.751 E0.02389
G1 X128.017 Y126.591 E0.12042
G1 E-0.80000 F2100.000
G1 Z0.800 F10800.000
G1 X121.229 Y126.591
G1 Z0.200
G1 E0.80000 F2100.000
G1 F1200.000
G1 X121.229 Y113.570 E0.40826
G1 X120.475 Y113.570 E0.02365
G1 X120.475 Y126.422 E0.40294
G1 X119.721 Y126.422 E0.02365
G1 X119.721 Y113.570 E0.40294
G1 X118.967 Y113.570 E0.02365
G1 X118.967 Y126.422 E0.40294
G1 X118.213 Y126.422 E0.02365
G1 X118.213 Y111.263 E0.47527
M73 P6 R19
M73 Q6 S19
G1 X117.458 Y111.263 E0.02365
G1 X117.458 Y126.422 E0.47527
G1 X116.704 Y126.422 E0.02365
G1 X116.704 Y111.263 E0.47527
G1 X116.430 Y111.263 E0.00861
G1 X116.430 Y108.956 E0.07234
G1 X115.950 Y108.956 E0.01503
G1 X115.950 Y126.422 E0.54761
G1 X115.196 Y126.422 E0.02365
G1 X115.196 Y108.956 E0.54761
G1 X114.442 Y108.956 E0.02365
G1 X114.442 Y126.422 E0.54761
G1 X113.688 Y126.422 E0.02365
G1 X113.688 Y106.649 E0.61995
G1 X112.933 Y106.649 E0.02365
G1 X112.933 Y126.422 E0.61995
G1 X112.807 Y126.422 E0.00397
G1 X112.807 Y124.114 E0.07234
G1 X112.179 Y124.114 E0.01967
G1 X112.179 Y106.649 E0.54761
G1 X111.425 Y106.649 E0.02365
G1 X111.425 Y124.114 E0.54761
G1 X110.671 Y124.114 E0.02365
G1 X110.671 Y108.271 E0.49676
G1 X109.917 Y108.271 E0.02365
G1 X109.917 Y124.114 E0.49676
G1 X109.163 Y124.114 E0.02365
G1 X109.163 Y108.271 E0.49676
G1 X108.409 Y108.271 E0.02365
G1 X108.409 Y124.114 E0.49676
M73 P7 R19
M73 Q7 S19
G1 X108.193 Y124.114 E0.00677
G1 X108.193 Y121.807 E0.07234
G1 X107.654 Y121.807 E0.01688
G1 X107.654 Y108.271 E0.42442
G1 X107.490 Y108.271 E0.00516
G1 X107.257 Y108.069 E0.00967
G1 X107.132 Y107.202 E0.02747
G1 X107.075 Y106.649 E0.01742
G1 X106.900 Y106.649 E0.00549
G1 X106.900 Y121.807 E0.47527
G1 X106.146 Y121.807 E0.02365
G1 X106.146 Y106.649 E0.47527
G1 X105.392 Y106.649 E0.02365
G1 X105.392 Y117.193 E0.33060
G1 X104.638 Y117.193 E0.02365
G1 X104.638 Y106.649 E0.33060
G1 X103.884 Y106.649 E0.02365
G1 X103.884 Y117.363 E0.33592
G1 E-0.80000 F2100.000
G1 Z0.800 F10800.000
G1 X139.329 Y108.101
G1 Z0.200
G1 E0.80000 F2100.000
G1 F1200.000
G1 X139.329 Y124.114 E0.50208
G1 X140.083 Y124.114 E0.02365
G1 X140.083 Y108.271 E0.49676
G1 X140.837 Y108.271 E0.02365
G1 X140.837 Y124.114 E0.49676
G1 X141.591 Y124.114 E0.02365
G1 X141.591 Y108.271 E0.49676
G1 X142.346 Y108.271 E0.02365
G1 X142.346 Y121.977 E0.42974
G1 E-0.80000 F2100.000
G1 Z0.800 F10800.000
G1 X146.116 Y117.363
G1 Z0.200
G1 E0.80000 F2100.000
G1 F1200.000
G1 X146.116 Y92.807 E0.76994
G1 X145.362 Y92.807 E0.02365
G1 X145.362 Y117.193 E0.76462
M73 Q8 S19
G1 X144.608 Y117.193 E0.02365
M73 P8 R19
G1 X144.608 Y92.807 E0.76462
G1 X144.114 Y92.807 E0.01548
G1 X144.114 Y88.193 E0.14467
G1 X143.854 Y88.193 E0.00817
G1 X143.854 Y121.807 E1.05397
G1 X143.100 Y121.807 E0.02365
G1 X143.100 Y88.193 E1.05397
G1 X142.346 Y88.193 E0.02365
G1 X142.346 Y101.729 E0.42442
G1 X141.591 Y101.729 E0.02365
G1 X141.591 Y85.886 E0.49676
G1 X140.837 Y85.886 E0.02365
G1 X140.837 Y101.729 E0.49676
G1 X140.083 Y101.729 E0.02365
G1 X140.083 Y85.886 E0.49676
M73 P8 R18
G1 X139.500 Y85.886 E0.01828
G1 X139.500 Y83.578 E0.07234
G1 X139.329 Y83.578 E0.00537
G1 X139.329 Y101.899 E0.57442
G1 E-0.80000 F2100.000
G1 Z0.800 F10800.000
G1 X127.070 Y119.932
G1 Z0.200
G1 E0.80000 F2100.000
;TYPE:Perimeter
G1 F1200.000
G1 X127.070 Y121.674 E0.05462
G1 X126.369 Y121.746 E0.02210
G1 X125.685 Y121.788 E0.02149
G1 X125.000 Y121.802 E0.02149
G1 X124.315 Y121.788 E0.02149
G1 X123.631 Y121.746 E0.02149
G1 X122.930 Y121.674 E0.02210
G1 X122.930 Y119.932 E0.05462
G1 X123.609 Y120.010 E0.02145
G1 X124.304 Y120.059 E0.02184
G1 X125.000 Y120.075 E0.02183
G1 X125.696 Y120.059 E0.02183
G1 X126.391 Y120.010 E0.02183
M73 Q8 S18
G1 X127.011 Y119.939 E0.01957
G1 X127.448 Y119.489 F10800.000
;TYPE:External perimeter
G1 F1200.000
G1 X127.448 Y122.001 E0.07876
G1 X126.400 Y122.122 E0.03306
G1 X125.701 Y122.165 E0.02197
G1 X125.000 Y122.179 E0.02197
G1 X124.299 Y122.165 E0.02197
G1 X123.600 Y122.122 E0.02197
G1 X122.552 Y122.001 E0.03306
G1 X122.552 Y119.489 E0.07876
G1 X123.644 Y119.635 E0.03453
G1 X124.321 Y119.682 E0.02129
G1 X125.000 Y119.698 E0.02129
G1 X125.679 Y119.682 E0.02129
G1 X126.356 Y119.635 E0.02129
G1 X127.388 Y119.498 E0.03264
G1 X127.260 Y119.842 F10800.000
G1 E-0.80000 F2100.000
G1 Z0.800 F10800.000
G1 X126.957 Y120.844
G1 Z0.200
G1 E0.80000 F2100.000
;TYPE:Solid infill
;WIDTH:0.432089
G1 F1200.000
G1 X126.406 Y120.293 E0.02523
G1 X125.891 Y120.329 E0.01669
G1 X126.788 Y121.225 E0.04102
G1 X126.788 Y121.419 E0.00627
G1 X126.465 Y121.452 E0.01051
G1 X125.362 Y120.349 E0.05047
G1 X124.815 Y120.353 E0.01768
G1 X125.951 Y121.489 E0.05196
G1 X125.422 Y121.511 E0.01711
M73 Q9 S18
G1 X124.250 Y120.338 E0.05365
G1 X123.659 Y120.297 E0.01918
G1 X124.878 Y121.517 E0.05581
M73 P9 R18
G1 X124.316 Y121.505 E0.01820
G1 X123.212 Y120.401 E0.05050
G1 X123.212 Y120.952 E0.01781
G1 X123.911 Y121.650 E0.03196
G1 E-0.80000 F2100.000
G1 Z0.800 F10800.000
G1 X110.068 Y107.070
G1 Z0.200
G1 E0.80000 F2100.000
;TYPE:Perimeter
;WIDTH:0.42
G1 F1200.000
G1 X108.326 Y107.070 E0.05462
G1 X108.254 Y106.369 E0.02210
G1 X108.212 Y105.685 E0.02149
G1 X108.198 Y105.000 E0.02149
G1 X108.212 Y104.315 E0.02149
G1 X108.254 Y103.631 E0.02149
G1 X108.326 Y102.930 E0.02210
G1 X110.079 Y102.930 E0.05495
G1 X109.990 Y103.605 E0.02135
G1 X109.941 Y104.304 E0.02198
G1 X109.925 Y105.000 E0.02183
G1 X109.941 Y105.696 E0.02183
G1 X109.990 Y106.391 E0.02183
G1 X110.061 Y107.011 E0.01957
G1 X110.511 Y107.448 F10800.000
;TYPE:External perimeter
G1 F1200.000
G1 X107.999 Y107.448 E0.07876
G1 X107.878 Y106.400 E0.03306
G1 X107.835 Y105.701 E0.02197
G1 X107.821 Y105.000 E0.02197
G1 X107.835 Y104.299 E0.02197
G1 X107.878 Y103.600 E0.02197
G1 X107.999 Y102.552 E0.03306
G1 X110.511 Y102.552 E0.07876
G1 X110.365 Y103.642 E0.03447
G1 X110.318 Y104.321 E0.02134
G1 X110.302 Y105.000 E0.02129
G1 X110.318 Y105.679 E0.02129
G1 X110.365 Y106.356 E0.02129
G1 X110.502 Y107.388 E0.03264
G1 X110.158 Y107.260 F10800.000
G1 E-0.80000 F2100.000
G1 Z0.800 F10800.000
G1 X109.163 Y103.043
G1 Z0.200
G1 E0.80000 F2100.000
;TYPE:Solid infill
;WIDTH:0.432704
G1 F1200.000
G1 X109.708 Y103.587 E0.02495
G1 X109.672 Y104.103 E0.01675
G1 X108.782 Y103.212 E0.04080
G1 X108.581 Y103.212 E0.00649
G1 X108.548 Y103.530 E0.01036
G1 X109.651 Y104.633 E0.05053
G1 X109.647 Y105.180 E0.01773
G1 X108.512 Y104.045 E0.05202
G1 X108.489 Y104.574 E0.01716
G1 X109.661 Y105.746 E0.05372
G1 X109.702 Y106.338 E0.01924
G1 X108.483 Y105.119 E0.05589
G1 X108.495 Y105.682 E0.01825
G1 X109.601 Y106.788 E0.05069
G1 X109.049 Y106.788 E0.01787
G1 X108.350 Y106.088 E0.03207
G1 E-0.80000 F2100.000
G1 Z0.800 F10800.000
G1 X139.932 Y107.070
G1 Z0.200
G1 E0.80000 F2100.000
;TYPE:Perimeter
;WIDTH:0.42
G1 F1200.000
G1 X140.010 Y106.391 E0.02145
G1 X140.059 Y105.696 E0.02183
G1 X140.075 Y105.000 E0.02183
G1 X140.059 Y104.304 E0.02183
G1 X140.010 Y103.609 E0.02183
G1 X139.932 Y102.930 E0.02145
G1 X141.673 Y102.930 E0.05459
G1 X141.746 Y103.631 E0.02213
G1 X141.788 Y104.315 E0.02147
G1 X141.802 Y105.000 E0.02149
G1 X141.788 Y105.685 E0.02149
G1 X141.746 Y106.369 E0.02149
G1 X141.674 Y107.070 E0.02210
G1 X139.992 Y107.070 E0.05274
G1 X139.489 Y107.448 F10800.000
;TYPE:External perimeter
G1 F1200.000
G1 X139.635 Y106.356 E0.03453
G1 X139.682 Y105.679 E0.02129
G1 X139.698 Y105.000 E0.02129
G1 X139.682 Y104.321 E0.02129
G1 X139.635 Y103.644 E0.02129
G1 X139.489 Y102.552 E0.03453
G1 X142.001 Y102.552 E0.07876
G1 X142.122 Y103.600 E0.03307
G1 X142.165 Y104.299 E0.02196
