; generated by PrusaSlicer 2.5.0+win64 on 2022-10-28 at 22:24:29 UTC

; 

; external perimeters extrusion width = 0.45mm
; perimeters extrusion width = 0.45mm
; infill extrusion width = 0.45mm
; solid infill extrusion width = 0.45mm
; top infill extrusion width = 0.40mm
; support material extrusion width = 0.35mm
; first layer extrusion width = 0.42mm

M73 P0 R153
M73 Q0 S155
M107
;TYPE:Custom
M862.3 P "MK3S" ; printer model check
M862.1 P0.4 ; nozzle diameter check
M115 U3.9.3 ; tell printer latest fw version
G90 ; use absolute coordinates
M83 ; extruder relative mode
M104 S215 ; set extruder temp
M140 S60 ; set bed temp
M190 S60 ; wait for bed temp
M109 S215 ; wait for extruder temp
G28 W ; home all without mesh bed level
G80 ; mesh bed leveling
G1 Y-3.0 F1000.0 ; go outside print area
G92 E0.0
G1 X60.0 E9.0 F1000.0 ; intro line
G1 X100.0 E12.5 F1000.0 ; intro line
G92 E0.0
M221 S95

; Don't change E values below. Excessive value can damage the printer.
M907 E430 ; set extruder motor current
G21 ; set units to millimeters
G90 ; use absolute coordinates
M83 ; use relative distances for extrusion
M900 K0.05 ; Filament gcode LA 1.5
M900 K30 ; Filament gcode LA 1.0
M107
;LAYER_CHANGE
;Z:0.2
;HEIGHT:0.2
;BEFORE_LAYER_CHANGE
G92 E0.0
;0.2


G1 E-.8 F2100
G1 Z.4 F720
;AFTER_LAYER_CHANGE
;0.2
G1 X68.554 Y67.994 F10800
G1 Z.2 F720
G1 E.8 F2100
M204 S800
;TYPE:Skirt/Brim
;WIDTH:0.42
G1 F600
G1 X69.759 Y66.779 E.05364
G1 X70.578 Y66.185 E.03174
G1 X72.226 Y65.457 E.05648
G1 X73.588 Y65.076 E.04434
G1 X74.206 Y64.993 E.01956
G1 X180.179 Y65.019 E3.3227
G1 X181.486 Y65.411 E.04278
G1 X182.361 Y66.457 E.04278
G1 X182.555 Y67.396 E.03004
G1 X182.556 Y127.946 E1.89852
G1 X182.463 Y128.604 E.02084
G1 X179.43 Y139.052 E.3411
G1 X179.052 Y139.821 E.02687
G1 X178.679 Y140.354 E.02039
G1 X178.086 Y140.972 E.02687
G1 X177.395 Y141.478 E.02687
G1 X176.22 Y141.994 E.04024
G1 X174.848 Y142.191 E.04346
G1 X95.655 Y142.179 E2.48301
G1 X94.667 Y142.012 E.03142
G1 X71.957 Y135.495 E.74082
G1 X70.448 Y134.192 E.06251
G1 X68.062 Y128.934 E.18104
G1 X67.703 Y127.547 E.0449
G1 X67.648 Y127.035 E.01615
G1 X67.648 Y69.886 E1.79188
G1 X68.337 Y68.212 E.05676
M73 P0 R152
M73 Q0 S154
G1 X68.512 Y68.036 E.00778
M204 S1000
; printing object RUSH-PREM-LE-DT Bracket id:0 copy 3
;WIPE_START
G1 F8640
G1 X69.759 Y66.779 E-.40886
G1 X70.578 Y66.185 E-.23374
G1 X71.043 Y65.98 E-.1174
;WIPE_END
G1 E-.04 F2100
G1 Z.6 F720
G1 X85.022 Y120.727 F10800
G1 Z.2 F720
G1 E.8 F2100
M204 S800
;TYPE:Support material
G1 F600
G1 X85.479 Y120.723 E.01431
G1 X85.674 Y120.684 E.00625
G1 X86.333 Y120.684 E.02067
G1 X86.61 Y120.63 E.00886
G1 X87.329 Y120.618 E.02253
G1 X180.178 Y120.614 E2.9112
G1 X180.179 Y127.946 E.22988
G1 X179.023 Y129.102 E.05124
G1 X178.526 Y129.356 E.01749
G1 X178.287 Y129.504 E.00884
G1 X177.662 Y129.711 E.02063
G1 X177.235 Y129.911 E.01479
G1 X122.165 Y129.911 E1.72669
G1 X122.174 Y129.755 E.0049
G1 X121.643 Y129.614 E.01725
G1 X121.289 Y129.614 E.01107
G1 X120.644 Y129.756 E.02073
G1 X119.991 Y129.634 E.02082
G1 X119.753 Y129.657 E.0075
G1 X119.572 Y129.641 E.00569
G1 X118.586 Y129.686 E.03093
G1 X118.167 Y129.614 E.01332
G1 X117.808 Y129.676 E.01144
G1 X117.429 Y129.662 E.01189
G1 X117.184 Y129.707 E.00782
G1 X116.748 Y129.748 E.01371
G1 X116.454 Y129.718 E.00928
G1 X115.778 Y129.737 E.0212
G1 X115.171 Y129.833 E.01927
G1 X114.881 Y129.803 E.00913
G1 X114.54 Y129.911 E.01123
G1 X71.852 Y129.922 E1.33845
G1 X70.854 Y129.077 E.04099
G1 X70.227 Y127.952 E.04041
G1 X70.227 Y127.403 E.0172
G1 X70.025 Y127.035 E.01316
G1 X70.025 Y123.105 E.12325
G1 X71.446 Y121.671 E.06329
G1 X71.863 Y121.404 E.01552
G1 X72.204 Y121.237 E.01189
G1 X73.053 Y120.903 E.0286
G1 X73.398 Y120.876 E.01086
G1 X74.211 Y120.589 E.02705
G1 X74.998 Y120.711 E.02498
G1 X75.118 Y120.722 E.00375
G1 X75.429 Y120.697 E.0098
G1 X76.091 Y120.8 E.021
G1 X77.006 Y120.82 E.02869
G1 X77.195 Y120.789 E.006
G1 X78.002 Y120.829 E.02533
G1 X78.479 Y120.829 E.01497
G1 X78.871 Y120.867 E.01236
G1 X81.362 Y120.868 E.07808
G1 X81.539 Y120.852 E.00559
G1 X82.036 Y120.868 E.01559
G1 X82.374 Y120.802 E.01081
G1 X82.639 Y120.804 E.00829
G1 X83.442 Y120.702 E.0254
G1 X83.897 Y120.722 E.01428
G1 X84.387 Y120.567 E.01611
G1 X84.967 Y120.713 E.01877
M204 S1000
G1 X179.467 Y128.418 F10800
M204 S800
G1 F600
G1 X179.467 Y120.954 E.23403
G1 X179.048 Y120.954 E.01314
G1 X179.048 Y128.597 E.23964
G1 X178.821 Y128.824 E.01007
G1 X178.629 Y128.922 E.00675
G1 X178.629 Y120.954 E.24984
G1 X178.21 Y120.954 E.01314
G1 X178.21 Y129.153 E.25707
G1 X178.142 Y129.195 E.00252
G1 X177.791 Y129.311 E.01159
G1 X177.791 Y120.954 E.26204
G1 X177.372 Y120.954 E.01314
G1 X177.372 Y129.472 E.26709
G1 X177.16 Y129.572 E.00736
G1 X176.953 Y129.572 E.00647
G1 X176.953 Y120.954 E.27021
G1 X176.534 Y120.954 E.01314
G1 X176.534 Y129.572 E.27021
G1 X176.115 Y129.572 E.01314
G1 X176.115 Y120.954 E.27021
G1 X175.696 Y120.954 E.01314
G1 X175.696 Y129.572 E.27021
G1 X175.277 Y129.57 E.01314
G1 X175.277 Y120.954 E.27017
G1 X174.858 Y120.954 E.01314
G1 X174.858 Y129.572 E.27021
G1 X174.439 Y129.572 E.01314
G1 X174.439 Y120.954 E.27021
G1 X174.02 Y120.954 E.01314
G1 X174.02 Y129.572 E.27021
G1 X173.601 Y129.572 E.01314
G1 X173.601 Y120.954 E.27021
G1 X173.182 Y120.954 E.01314
G1 X173.182 Y129.572 E.27021
G1 X172.763 Y129.572 E.01314
G1 X172.763 Y120.954 E.27021
G1 X172.344 Y120.954 E.01314
G1 X172.344 Y129.572 E.27021
G1 X171.925 Y129.572 E.01314
G1 X171.925 Y120.954 E.27021
G1 X171.506 Y120.954 E.01314
G1 X171.506 Y129.572 E.2702
G1 X171.087 Y129.572 E.01314
G1 X171.087 Y120.954 E.2702
G1 X170.668 Y120.954 E.01314
G1 X170.668 Y129.572 E.2702
G1 X170.25 Y129.572 E.01314
G1 X170.25 Y120.954 E.2702
G1 X169.831 Y120.954 E.01314
G1 X169.831 Y129.572 E.2702
G1 X169.412 Y129.572 E.01314
G1 X169.412 Y120.954 E.2702
G1 X168.993 Y120.954 E.01314
G1 X168.993 Y129.57 E.27015
G1 X168.574 Y129.572 E.01314
G1 X168.574 Y120.954 E.2702
G1 X168.155 Y120.954 E.01314
M73 P1 R152
G1 X168.155 Y129.572 E.2702
M73 Q1 S154
G1 X167.736 Y129.567 E.01314
G1 X167.736 Y120.954 E.27004
G1 X167.317 Y120.954 E.01314
G1 X167.317 Y129.572 E.2702
G1 X166.898 Y129.572 E.01314
G1 X166.898 Y120.954 E.2702
G1 X166.479 Y120.954 E.01314
G1 X166.479 Y129.572 E.2702
G1 X166.06 Y129.572 E.01314
G1 X166.06 Y120.954 E.2702
G1 X165.641 Y120.954 E.01314
G1 X165.641 Y129.572 E.2702
G1 X165.222 Y129.572 E.01314
M73 P1 R151
G1 X165.222 Y120.954 E.2702
G1 X164.803 Y120.954 E.01314
G1 X164.803 Y129.572 E.2702
G1 X164.384 Y129.572 E.01314
G1 X164.384 Y120.954 E.2702
G1 X163.965 Y120.954 E.01314
G1 X163.965 Y129.572 E.2702
G1 X163.546 Y129.572 E.01314
M73 Q1 S153
G1 X163.546 Y120.954 E.2702
G1 X163.127 Y120.954 E.01314
G1 X163.127 Y129.572 E.27019
G1 X162.708 Y129.572 E.01314
G1 X162.708 Y120.954 E.27019
G1 X162.289 Y120.954 E.01314
G1 X162.289 Y129.572 E.27019
G1 X161.87 Y129.572 E.01314
G1 X161.87 Y120.954 E.27019
G1 X161.451 Y120.954 E.01314
G1 X161.451 Y129.572 E.27019
G1 X161.032 Y129.572 E.01314
G1 X161.032 Y120.954 E.27019
G1 X160.613 Y120.954 E.01314
G1 X160.613 Y129.572 E.27019
G1 X160.194 Y129.572 E.01314
G1 X160.194 Y120.954 E.27019
G1 X159.775 Y120.954 E.01314
G1 X159.775 Y129.572 E.27019
G1 X159.356 Y129.572 E.01314
G1 X159.356 Y120.954 E.27019
G1 X158.937 Y120.955 E.01314
G1 X158.937 Y129.572 E.27019
G1 X158.518 Y129.572 E.01314
G1 X158.518 Y120.955 E.27019
G1 X158.099 Y120.955 E.01314
G1 X158.099 Y129.572 E.27019
G1 X157.68 Y129.572 E.01314
G1 X157.68 Y120.955 E.27019
G1 X157.261 Y120.955 E.01314
G1 X157.261 Y129.572 E.27019
G1 X156.842 Y129.572 E.01314
G1 X156.842 Y120.955 E.27019
G1 X156.423 Y120.955 E.01314
G1 X156.423 Y129.572 E.27019
G1 X156.004 Y129.572 E.01314
G1 X156.004 Y120.955 E.27019
G1 X155.585 Y120.955 E.01314
G1 X155.585 Y129.572 E.27019
G1 X155.166 Y129.572 E.01314
G1 X155.166 Y120.955 E.27019
G1 X154.747 Y120.955 E.01314
G1 X154.747 Y129.572 E.27018
G1 X154.328 Y129.572 E.01314
G1 X154.328 Y120.955 E.27018
G1 X153.909 Y120.955 E.01314
G1 X153.909 Y129.572 E.27018
G1 X153.49 Y129.572 E.01314
G1 X153.49 Y120.955 E.27018
G1 X153.071 Y120.955 E.01314
G1 X153.071 Y129.572 E.27018
G1 X152.652 Y129.572 E.01314
G1 X152.652 Y120.955 E.27018
G1 X152.234 Y120.955 E.01314
G1 X152.234 Y129.572 E.27018
G1 X151.815 Y129.572 E.01314
G1 X151.815 Y120.955 E.27018
G1 X151.396 Y120.955 E.01314
G1 X151.396 Y129.572 E.27018
G1 X150.977 Y129.572 E.01314
G1 X150.977 Y120.955 E.27018
G1 X150.558 Y120.955 E.01314
G1 X150.558 Y129.572 E.27018
G1 X150.139 Y129.572 E.01314
G1 X150.139 Y120.955 E.27018
G1 X149.72 Y120.955 E.01314
G1 X149.72 Y129.572 E.27018
G1 X149.301 Y129.572 E.01314
G1 X149.301 Y120.955 E.27018
G1 X148.882 Y120.955 E.01314
G1 X148.882 Y129.572 E.27018
G1 X148.463 Y129.572 E.01314
G1 X148.463 Y120.955 E.27018
G1 X148.044 Y120.955 E.01314
G1 X148.044 Y129.572 E.27018
G1 X147.625 Y129.572 E.01314
G1 X147.625 Y120.955 E.27018
G1 X147.206 Y120.955 E.01314
G1 X147.206 Y129.572 E.27018
G1 X146.787 Y129.572 E.01314
G1 X146.787 Y120.955 E.27018
G1 X146.368 Y120.955 E.01314
G1 X146.368 Y129.572 E.27017
G1 X145.949 Y129.572 E.01314
G1 X145.949 Y120.955 E.27017
G1 X145.53 Y120.955 E.01314
G1 X145.53 Y129.572 E.27017
G1 X145.111 Y129.572 E.01314
G1 X145.111 Y120.955 E.27017
G1 X144.692 Y120.955 E.01314
G1 X144.692 Y129.572 E.27017
G1 X144.273 Y129.572 E.01314
G1 X144.273 Y120.955 E.27017
G1 X143.854 Y120.955 E.01314
G1 X143.854 Y129.572 E.27017
G1 X143.435 Y129.572 E.01314
G1 X143.435 Y120.955 E.27017
G1 X143.016 Y120.955 E.01314
G1 X143.016 Y129.572 E.27017
G1 X142.597 Y129.572 E.01314
G1 X142.597 Y120.955 E.27017
G1 X142.178 Y120.955 E.01314
G1 X142.178 Y129.572 E.27017
G1 X141.759 Y129.572 E.01314
G1 X141.759 Y120.955 E.27017
G1 X141.34 Y120.955 E.01314
G1 X141.34 Y129.572 E.27017
G1 X140.921 Y129.572 E.01314
G1 X140.921 Y120.955 E.27017
G1 X140.502 Y120.955 E.01314
G1 X140.502 Y129.572 E.27017
G1 X140.083 Y129.572 E.01314
G1 X140.083 Y120.955 E.27017
G1 X139.664 Y120.955 E.01314
G1 X139.664 Y129.572 E.27017
G1 X139.245 Y129.572 E.01314
G1 X139.245 Y120.955 E.27017
G1 X138.826 Y120.955 E.01314
G1 X138.826 Y129.572 E.27017
G1 X138.407 Y129.572 E.01314
G1 X138.407 Y120.955 E.27017
G1 X137.988 Y120.955 E.01314
G1 X137.988 Y129.572 E.27016
G1 X137.569 Y129.572 E.01314
M73 P1 R150
G1 X137.569 Y120.955 E.27016
G1 X137.15 Y120.955 E.01314
G1 X137.15 Y129.572 E.27016
G1 X136.731 Y129.572 E.01314
G1 X136.731 Y120.955 E.27016
G1 X136.312 Y120.955 E.01314
G1 X136.312 Y129.572 E.27016
G1 X135.893 Y129.572 E.01314
G1 X135.893 Y120.955 E.27016
G1 X135.474 Y120.955 E.01314
M73 Q1 S152
G1 X135.474 Y129.572 E.27016
G1 X135.055 Y129.572 E.01314
G1 X135.055 Y120.955 E.27016
G1 X134.636 Y120.955 E.01314
G1 X134.636 Y129.572 E.27016
G1 X134.217 Y129.572 E.01314
G1 X134.217 Y120.955 E.27016
G1 X133.799 Y120.955 E.01314
G1 X133.799 Y129.572 E.27016
G1 X133.38 Y129.572 E.01314
G1 X133.38 Y120.955 E.27016
G1 X132.961 Y120.956 E.01314
G1 X132.961 Y129.572 E.27016
G1 X132.542 Y129.572 E.01314
G1 X132.542 Y120.956 E.27016
G1 X132.123 Y120.956 E.01314
G1 X132.123 Y129.572 E.27016
G1 X131.704 Y129.572 E.01314
G1 X131.704 Y120.956 E.27016
G1 X131.285 Y120.956 E.01314
G1 X131.285 Y129.572 E.27016
G1 X130.866 Y129.572 E.01314
G1 X130.866 Y120.956 E.27016
G1 X130.447 Y120.956 E.01314
G1 X130.447 Y129.572 E.27016
G1 X130.028 Y129.572 E.01314
G1 X130.028 Y120.956 E.27015
G1 X129.609 Y120.956 E.01314
G1 X129.609 Y129.572 E.27015
G1 X129.19 Y129.572 E.01314
G1 X129.19 Y120.956 E.27015
G1 X128.771 Y120.956 E.01314
G1 X128.771 Y129.572 E.27015
G1 X128.352 Y129.572 E.01314
G1 X128.352 Y120.956 E.27015
G1 X127.933 Y120.956 E.01314
G1 X127.933 Y129.572 E.27015
G1 X127.514 Y129.572 E.01314
G1 X127.514 Y120.956 E.27015
G1 X127.095 Y120.956 E.01314
G1 X127.095 Y129.572 E.27015
G1 X126.676 Y129.572 E.01314
G1 X126.676 Y120.956 E.27015
G1 X126.257 Y120.956 E.01314
G1 X126.257 Y129.572 E.27015
G1 X125.838 Y129.572 E.01314
G1 X125.838 Y120.956 E.27015
G1 X125.419 Y120.956 E.01314
M73 P2 R150
G1 X125.419 Y129.572 E.27015
G1 X125 Y129.572 E.01314
G1 X125 Y120.956 E.27015
G1 X124.581 Y120.956 E.01314
M73 Q2 S152
G1 X124.581 Y129.572 E.27015
G1 X124.162 Y129.572 E.01314
G1 X124.162 Y120.956 E.27015
G1 X123.743 Y120.956 E.01314
G1 X123.743 Y129.572 E.27015
G1 X123.324 Y129.572 E.01314
G1 X123.324 Y120.956 E.27015
G1 X122.905 Y120.956 E.01314
G1 X122.905 Y129.572 E.27015
G1 X122.525 Y129.572 E.0119
G1 X122.53 Y129.499 E.0023
G1 X122.486 Y129.487 E.00142
G1 X122.486 Y120.956 E.26748
G1 X122.067 Y120.956 E.01314
G1 X122.067 Y129.375 E.26399
G1 X121.648 Y129.274 E.01351
G1 X121.648 Y120.956 E.26082
G1 X121.229 Y120.956 E.01314
G1 X121.229 Y129.279 E.26098
G1 X120.81 Y129.372 E.01345
G1 X120.81 Y120.956 E.26387
G1 X120.391 Y120.956 E.01314
G1 X120.391 Y129.364 E.26361
G1 X119.972 Y129.295 E.01331
G1 X119.972 Y120.956 E.26146
G1 X119.553 Y120.956 E.01314
G1 X119.553 Y129.302 E.26169
G1 X119.134 Y129.324 E.01315
G1 X119.134 Y120.956 E.26236
G1 X118.715 Y120.956 E.01314
G1 X118.715 Y129.342 E.26293
G1 X118.615 Y129.345 E.00316
G1 X118.296 Y129.28 E.01019
G1 X118.296 Y120.956 E.26099
G1 X117.877 Y120.956 E.01314
G1 X117.877 Y129.32 E.26224
G1 X117.785 Y129.336 E.00295
G1 X117.458 Y129.324 E.01024
G1 X117.458 Y120.956 E.26237
G1 X117.039 Y120.956 E.01314
G1 X117.039 Y129.38 E.26412
G1 X116.749 Y129.407 E.00913
G1 X116.62 Y129.394 E.00407
G1 X116.62 Y120.956 E.26457
G1 X116.201 Y120.956 E.01314
G1 X116.201 Y129.386 E.26431
G1 X115.783 Y129.397 E.01314
G1 X115.783 Y120.956 E.26467
G1 X115.364 Y120.956 E.01314
G1 X115.364 Y129.463 E.26672
G1 X115.164 Y129.491 E.00631
G1 X114.945 Y129.469 E.00692
G1 X114.945 Y120.956 E.2669
G1 X114.526 Y120.956 E.01314
G1 X114.526 Y129.56 E.26976
G1 X114.487 Y129.572 E.00126
G1 X114.107 Y129.572 E.01193
G1 X114.107 Y120.956 E.27014
G1 X113.688 Y120.956 E.01314
G1 X113.688 Y129.572 E.27014
G1 X113.269 Y129.572 E.01314
G1 X113.269 Y120.956 E.27013
G1 X112.85 Y120.956 E.01314
G1 X112.85 Y129.572 E.27013
G1 X112.431 Y129.572 E.01314
G1 X112.431 Y120.956 E.27013
G1 X112.012 Y120.956 E.01314
G1 X112.012 Y129.572 E.27013
G1 X111.593 Y129.572 E.01314
G1 X111.593 Y120.956 E.27013
G1 X111.174 Y120.956 E.01314
G1 X111.174 Y129.572 E.27013
G1 X110.755 Y129.572 E.01314
G1 X110.755 Y120.956 E.27013
G1 X110.336 Y120.956 E.01314
G1 X110.336 Y129.572 E.27013
G1 X109.917 Y129.572 E.01314
G1 X109.917 Y120.956 E.27013
G1 X109.498 Y120.956 E.01314
M73 P2 R149
G1 X109.498 Y129.572 E.27013
G1 X109.079 Y129.572 E.01314
G1 X109.079 Y120.956 E.27013
G1 X108.66 Y120.956 E.01314
G1 X108.66 Y129.572 E.27013
G1 X108.241 Y129.572 E.01314
G1 X108.241 Y120.956 E.27013
G1 X107.822 Y120.956 E.01314
M73 Q2 S151
G1 X107.822 Y129.572 E.27013
G1 X107.403 Y129.572 E.01314
G1 X107.403 Y120.956 E.27013
G1 X106.984 Y120.957 E.01314
G1 X106.984 Y129.572 E.27013
G1 X106.565 Y129.572 E.01314
G1 X106.565 Y120.957 E.27013
G1 X106.146 Y120.957 E.01314
G1 X106.146 Y129.572 E.27013
G1 X105.727 Y129.572 E.01314
G1 X105.727 Y120.957 E.27013
G1 X105.308 Y120.957 E.01314
G1 X105.308 Y129.572 E.27013
G1 X104.889 Y129.572 E.01314
G1 X104.889 Y120.957 E.27012
G1 X104.47 Y120.957 E.01314
G1 X104.47 Y129.572 E.27012
G1 X104.051 Y129.572 E.01314
G1 X104.051 Y120.957 E.27012
G1 X103.632 Y120.957 E.01314
G1 X103.632 Y129.572 E.27012
G1 X103.213 Y129.572 E.01314
G1 X103.213 Y120.957 E.27012
G1 X102.794 Y120.957 E.01314
G1 X102.794 Y129.572 E.27012
G1 X102.375 Y129.572 E.01314
G1 X102.375 Y120.957 E.27012
G1 X101.956 Y120.957 E.01314
G1 X101.956 Y129.572 E.27012
G1 X101.537 Y129.572 E.01314
G1 X101.537 Y120.957 E.27012
G1 X101.118 Y120.957 E.01314
G1 X101.118 Y129.572 E.27012
G1 X100.699 Y129.572 E.01314
G1 X100.699 Y120.957 E.27012
G1 X100.28 Y120.957 E.01314
G1 X100.28 Y129.572 E.27012
G1 X99.861 Y129.572 E.01314
G1 X99.861 Y120.957 E.27012
G1 X99.442 Y120.957 E.01314
G1 X99.442 Y129.572 E.27012
G1 X99.023 Y129.572 E.01314
G1 X99.023 Y120.957 E.27012
G1 X98.604 Y120.957 E.01314
G1 X98.604 Y129.572 E.27012
G1 X98.185 Y129.572 E.01314
G1 X98.185 Y120.957 E.27012
G1 X97.766 Y120.957 E.01314
G1 X97.766 Y129.572 E.27012
G1 X97.348 Y129.572 E.01314
