; generated by PrusaSlicer 2.5.0+win64 on 2022-11-08 at 21:21:13 UTC

; 

; external perimeters extrusion width = 0.45mm
; perimeters extrusion width = 0.45mm
; infill extrusion width = 0.45mm
; solid infill extrusion width = 0.45mm
; top infill extrusion width = 0.40mm
; support material extrusion width = 0.35mm
; first layer extrusion width = 0.42mm

; external perimeters extrusion width = 0.45mm
; perimeters extrusion width = 0.45mm
; infill extrusion width = 0.45mm
; solid infill extrusion width = 0.45mm
; top infill extrusion width = 0.40mm
; support material extrusion width = 0.35mm
; first layer extrusion width = 0.42mm

M73 P0 R108
M73 C28
M73 Q0 S109
M73 D28
M107
;TYPE:Custom
M862.3 P "MK3S" ; printer model check
M862.1 P0.4 ; nozzle diameter check
M115 U3.9.3 ; tell printer latest fw version
G90 ; use absolute coordinates
M83 ; extruder relative mode
M104 S215 ; set extruder temp
M140 S60 ; set bed temp
M190 S60 ; wait for bed temp
M109 S215 ; wait for extruder temp
G28 W ; home all without mesh bed level
G80 ; mesh bed leveling
G1 Y-3.0 F1000.0 ; go outside print area
G92 E0.0
G1 X60.0 E9.0 F1000.0 ; intro line
G1 X100.0 E12.5 F1000.0 ; intro line
G92 E0.0
M221 S95

; Don't change E values below. Excessive value can damage the printer.
M907 E430 ; set extruder motor current
G21 ; set units to millimeters
G90 ; use absolute coordinates
M83 ; use relative distances for extrusion
M900 K0.05 ; Filament gcode LA 1.5
M900 K30 ; Filament gcode LA 1.0
M107
;LAYER_CHANGE
;Z:0.2
;HEIGHT:0.2
;BEFORE_LAYER_CHANGE
G92 E0.0
;0.2


G1 E-.8 F2100
G1 Z.4 F10800
;AFTER_LAYER_CHANGE
;0.2
G1 X54.571 Y79.907
G1 Z.2
G1 E.8 F2100
M204 S1000
;TYPE:Skirt/Brim
;WIDTH:0.42
G1 F1200
G1 X55.515 Y79.402 E.03358
G1 X56.324 Y79.18 E.02631
G1 X57.014 Y79.118 E.0217
G1 X144.164 Y77.968 E2.73278
G1 X184.649 Y77.969 E1.26938
G1 X193.109 Y78.171 E.26533
G1 X194.501 Y78.402 E.04423
G1 X195.292 Y78.72 E.02675
G1 X195.838 Y79.034 E.01975
G1 X196.905 Y79.971 E.04451
G1 X197.635 Y81.063 E.04118
G1 X198.092 Y82.407 E.04452
G1 X198.184 Y83.246 E.02646
G1 X198.388 Y88.908 E.17765
G1 X198.388 Y117.503 E.89658
G1 X198.173 Y126.968 E.29685
G1 X197.917 Y128.257 E.04118
G1 X197.582 Y129.041 E.02675
G1 X197.222 Y129.626 E.02152
G1 X196.674 Y130.28 E.02675
G1 X196.16 Y130.734 E.02151
G1 X195.446 Y131.201 E.02675
G1 X194.822 Y131.486 E.02152
G1 X193.948 Y131.737 E.02851
G1 X193.052 Y131.831 E.02826
G1 X104.536 Y134.034 E2.77621
G1 X70.573 Y134.035 E1.06487
M73 C27
G1 X70.042 Y133.975 E.01678
G1 X55.691 Y130.661 E.46179
G1 X54.925 Y130.319 E.02631
G1 X54.102 Y129.708 E.03214
G1 X53.422 Y128.881 E.03358
G1 X53.047 Y128.13 E.02632
G1 X52.825 Y127.321 E.02631
G1 X52.763 Y126.6 E.02268
G1 X52.775 Y83.097 E1.36402
G1 X53.047 Y81.87 E.03939
G1 X53.663 Y80.775 E.03939
G1 X54.527 Y79.948 E.03751
;WIPE_START
G1 F8640
G1 X55.515 Y79.402 E-.26068
G1 X56.324 Y79.18 E-.19373
G1 X57.014 Y79.118 E-.15979
G1 X57.645 Y79.11 E-.1458
;WIPE_END
G1 E-.04 F2100
G1 Z.6 F10800
G1 X182.991 Y110.142
G1 Z.2
G1 E.8 F2100
G1 F1200
G1 X183.13 Y109.702 E.01447
G1 X183.159 Y109.658 E.00168
G1 X183.367 Y109.482 E.00853
G1 X183.416 Y109.46 E.00168
G1 X184.015 Y109.378 E.01896
G1 X184.598 Y109.375 E.01827
G1 X185.128 Y109.402 E.01663
G1 X185.675 Y109.512 E.01751
G1 X186.106 Y109.559 E.01357
G1 X186.56 Y109.572 E.01426
G1 X193.175 Y109.585 E.20739
G1 X193.471 Y109.631 E.00941
G1 X193.891 Y109.763 E.0138
G1 X194.135 Y109.883 E.00854
G1 X194.515 Y110.146 E.01447
G1 X194.845 Y110.484 E.01482
G1 X195.085 Y110.848 E.01367
G1 X195.268 Y111.285 E.01487
G1 X195.362 Y111.751 E.01491
G1 X195.386 Y115.944 E.13147
G1 X195.429 Y116.358 E.01305
G1 X195.565 Y116.938 E.01865
G1 X195.576 Y117.488 E.01725
G1 X195.472 Y118.205 E.02271
G1 X195.307 Y118.422 E.00856
G1 X194.923 Y118.61 E.01341
G1 X194.65 Y118.6 E.00856
G1 X194.058 Y118.292 E.02091
G1 X193.615 Y117.977 E.01707
G1 X193.218 Y117.527 E.0188
G1 X192.911 Y117.256 E.01284
G1 X192.546 Y116.99 E.01417
G1 X185.719 Y112.212 E.26128
G1 X185.34 Y111.964 E.01418
G1 X184.962 Y111.757 E.01352
G1 X184.45 Y111.532 E.01753
G1 X183.994 Y111.245 E.01687
G1 X183.529 Y110.915 E.01789
G1 X183.087 Y110.505 E.01892
G1 X182.991 Y110.202 E.00995
G1 X183.375 Y110.178 F10800
G1 F1200
G1 X183.465 Y109.893 E.00937
G1 X183.548 Y109.823 E.00343
G1 X184.054 Y109.753 E.01601
G1 X184.584 Y109.752 E.01661
G1 X185.094 Y109.778 E.01602
G1 X185.617 Y109.884 E.01673
G1 X186.079 Y109.935 E.01459
G1 X186.554 Y109.949 E.01489
G1 X193.133 Y109.96 E.20629
G1 X193.375 Y109.996 E.00765
G1 X193.741 Y110.109 E.01201
G1 X193.936 Y110.203 E.0068
G1 X194.261 Y110.424 E.01231
G1 X194.543 Y110.71 E.01258
G1 X194.746 Y111.013 E.01145
G1 X194.903 Y111.382 E.01258
G1 X194.985 Y111.773 E.01253
G1 X195.009 Y115.965 E.13144
G1 X195.057 Y116.423 E.01444
G1 X195.188 Y116.966 E.01751
G1 X195.199 Y117.481 E.01613
G1 X195.124 Y118.044 E.01782
G1 X195.072 Y118.119 E.00287
G1 X194.853 Y118.233 E.00773
G1 X194.762 Y118.234 E.00287
G1 X194.266 Y117.977 E.01749
G1 X193.853 Y117.683 E.01591
G1 X193.487 Y117.261 E.0175
G1 X193.147 Y116.962 E.0142
G1 X192.765 Y116.683 E.01482
G1 X185.93 Y111.899 E.26158
G1 X185.534 Y111.64 E.01484
G1 X185.127 Y111.417 E.01455
G1 X184.638 Y111.206 E.01672
G1 X184.207 Y110.934 E.01596
G1 X183.776 Y110.63 E.01655
G1 X183.403 Y110.284 E.01596
G1 X183.39 Y110.236 E.00155
;WIPE_START
G1 F8640
G1 X183.465 Y109.893 E-.08104
G1 X183.548 Y109.823 E-.02524
G1 X184.054 Y109.753 E-.11787
G1 X184.584 Y109.752 E-.12229
G1 X185.094 Y109.778 E-.11799
G1 X185.617 Y109.884 E-.12318
G1 X186.079 Y109.935 E-.10748
G1 X186.36 Y109.943 E-.06492
;WIPE_END
G1 E-.04 F2100
G1 Z.6 F10800
G1 X180.543 Y114.302
G1 Z.2
G1 E.8 F2100
G1 F1200
G1 X195.138 Y124.522 E.55863
G1 X195.257 Y124.658 E.00567
G1 X195.334 Y124.806 E.00525
G1 X195.371 Y124.939 E.00431
G1 X195.367 Y126.8 E.05834
G1 X195.271 Y127.299 E.01594
G1 X195.069 Y127.778 E.0163
G1 X194.814 Y128.15 E.01416
G1 X194.634 Y128.342 E.00825
G1 X194.333 Y128.589 E.01221
G1 X193.92 Y128.819 E.01482
G1 X193.468 Y128.965 E.01487
G1 X192.961 Y129.021 E.01601
G1 X189.975 Y129.021 E.09362
G1 X189.659 Y128.921 E.0104
G1 X165.804 Y112.22 E.91303
G1 X165.423 Y111.97 E.01429
M73 D27
G1 X165.043 Y111.761 E.0136
G1 X164.532 Y111.536 E.01749
G1 X164.08 Y111.254 E.0167
G1 X163.623 Y110.933 E.01753
G1 X163.159 Y110.505 E.01977
G1 X163.062 Y110.196 E.01016
G1 X163.063 Y110.143 E.00168
G1 X163.203 Y109.702 E.01449
G1 X163.232 Y109.657 E.00168
G1 X163.441 Y109.482 E.00854
G1 X163.49 Y109.46 E.00168
G1 X164.094 Y109.378 E.01912
G1 X164.685 Y109.375 E.01852
G1 X165.221 Y109.407 E.01684
G1 X165.766 Y109.515 E.01743
G1 X166.199 Y109.56 E.01366
G1 X173.617 Y109.574 E.23258
G1 X173.933 Y109.674 E.01038
G1 X180.494 Y114.268 E.25113
G1 X180.278 Y114.577 F10800
G1 F1200
G1 X194.903 Y124.818 E.55981
G1 X194.999 Y125.002 E.00652
G1 X194.99 Y126.779 E.05571
G1 X194.905 Y127.206 E.01366
G1 X194.746 Y127.582 E.01278
G1 X194.527 Y127.905 E.01227
G1 X194.384 Y128.059 E.00658
G1 X194.108 Y128.286 E.01122
G1 X193.756 Y128.479 E.01257
G1 X193.374 Y128.599 E.01255
G1 X192.951 Y128.644 E.01333
G1 X190.004 Y128.644 E.09242
G1 X189.851 Y128.595 E.00501
G1 X166.016 Y111.908 E.9123
G1 X165.618 Y111.647 E.01493
G1 X165.209 Y111.422 E.01463
G1 X164.719 Y111.209 E.01674
G1 X164.293 Y110.943 E.01576
G1 X163.851 Y110.632 E.01696
G1 X163.476 Y110.284 E.01603
G1 X163.448 Y110.178 E.00343
G1 X163.538 Y109.893 E.00938
G1 X163.621 Y109.823 E.00343
G1 X164.132 Y109.753 E.01616
G1 X164.668 Y109.752 E.0168
G1 X165.185 Y109.783 E.01624
G1 X165.709 Y109.888 E.01676
G1 X166.18 Y109.937 E.01483
G1 X173.588 Y109.951 E.23228
G1 X173.74 Y110 E.00502
G1 X180.228 Y114.543 E.24834
;WIPE_START
G1 F8640
G1 X182.925 Y116.43 E-.76
;WIPE_END
G1 E-.04 F2100
G1 Z.6 F10800
G1 X173.889 Y123.596
G1 Z.2
G1 E.8 F2100
G1 F1200
G1 X178.202 Y126.61 E.16498
G1 X178.512 Y126.793 E.01129
G1 X179.354 Y127.179 E.02904
G1 X180.083 Y127.689 E.02789
G1 X180.515 Y128.102 E.01874
G1 X180.542 Y128.148 E.00167
G1 X180.604 Y128.463 E.01007
G1 X180.462 Y128.897 E.01432
G1 X180.432 Y128.941 E.00166
G1 X180.176 Y129.135 E.01005
G1 X179.546 Y129.219 E.01995
G1 X178.991 Y129.22 E.01738
G1 X178.443 Y129.188 E.01722
G1 X177.898 Y129.08 E.01743
G1 X177.465 Y129.035 E.01366
G1 X170.047 Y129.021 E.23258
G1 X169.731 Y128.921 E.01038
G1 X145.876 Y112.22 E.91303
G1 X145.495 Y111.97 E.01429
M73 Q0 S108
G1 X145.115 Y111.761 E.0136
G1 X144.604 Y111.536 E.01749
G1 X144.153 Y111.254 E.0167
G1 X143.695 Y110.933 E.01753
G1 X143.232 Y110.505 E.01977
G1 X143.204 Y110.459 E.00167
G1 X143.135 Y110.196 E.00854
G1 X143.136 Y110.143 E.00168
G1 X143.275 Y109.702 E.01449
G1 X143.305 Y109.657 E.00168
G1 X143.513 Y109.482 E.00854
G1 X143.562 Y109.46 E.00168
G1 X144.166 Y109.378 E.01912
G1 X144.757 Y109.375 E.01852
G1 X145.293 Y109.407 E.01684
G1 X145.839 Y109.515 E.01743
G1 X146.272 Y109.56 E.01366
G1 X153.69 Y109.574 E.23258
G1 X154.005 Y109.674 E.01038
G1 X173.84 Y123.562 E.75919
G1 X173.624 Y123.871 F10800
G1 F1200
G1 X178 Y126.928 E.16738
G1 X178.338 Y127.128 E.01232
G1 X179.152 Y127.498 E.02805
G1 X179.854 Y127.99 E.02687
G1 X180.195 Y128.317 E.01482
G1 X180.221 Y128.422 E.00338
G1 X180.129 Y128.703 E.00927
G1 X180.045 Y128.772 E.00339
G1 X179.532 Y128.842 E.01625
G1 X178.996 Y128.843 E.0168
G1 X178.479 Y128.812 E.01624
G1 X177.955 Y128.707 E.01676
M73 P0 R107
G1 X177.484 Y128.658 E.01483
G1 X170.076 Y128.644 E.23228
G1 X169.924 Y128.595 E.00502
G1 X146.088 Y111.908 E.9123
G1 X145.69 Y111.647 E.01493
G1 X145.281 Y111.422 E.01463
G1 X144.792 Y111.209 E.01674
G1 X144.365 Y110.943 E.01576
G1 X143.923 Y110.632 E.01696
G1 X143.548 Y110.284 E.01603
G1 X143.52 Y110.178 E.00343
G1 X143.61 Y109.893 E.00938
G1 X143.694 Y109.823 E.00343
G1 X144.205 Y109.753 E.01616
G1 X144.74 Y109.752 E.0168
G1 X145.257 Y109.783 E.01624
G1 X145.781 Y109.888 E.01676
G1 X146.252 Y109.937 E.01483
G1 X153.66 Y109.951 E.23228
G1 X153.813 Y110 E.00502
G1 X173.574 Y123.836 E.7564
;WIPE_START
G1 F8640
G1 X176.273 Y125.721 E-.76
;WIPE_END
G1 E-.04 F2100
G1 Z.6 F10800
G1 X160.614 Y128.148
G1 Z.2
G1 E.8 F2100
G1 F1200
G1 X160.677 Y128.463 E.01007
G1 X160.534 Y128.897 E.01432
G1 X160.504 Y128.941 E.00166
G1 X160.249 Y129.135 E.01005
G1 X159.618 Y129.219 E.01995
G1 X159.064 Y129.22 E.01738
G1 X158.516 Y129.188 E.01722
G1 X157.97 Y129.08 E.01743
G1 X157.535 Y129.035 E.01373
G1 X157.073 Y129.022 E.01448
G1 X150.117 Y129.021 E.21809
G1 X149.915 Y128.974 E.00651
G1 X129.81 Y114.921 E.76909
G1 X129.716 Y114.82 E.00432
G1 X129.617 Y114.639 E.00648
G1 X129.574 Y114.464 E.00565
G1 X129.584 Y111.789 E.08387
G1 X129.689 Y111.262 E.01687
G1 X129.84 Y110.896 E.01242
G1 X130.009 Y110.613 E.01031
G1 X130.253 Y110.316 E.01206
G1 X130.451 Y110.131 E.00851
G1 X130.814 Y109.883 E.01378
G1 X131.112 Y109.742 E.01033
G1 X131.492 Y109.628 E.01243
G1 X131.99 Y109.574 E.01572
G1 X133.821 Y109.583 E.05741
G1 X134.079 Y109.675 E.00859
G1 X157.89 Y126.347 E.91139
G1 X158.275 Y126.61 E.01461
G1 X158.584 Y126.793 E.01129
G1 X159.426 Y127.179 E.02904
G1 X160.155 Y127.689 E.02789
G1 X160.583 Y128.097 E.01853
G1 X160.267 Y128.317 F10800
G1 F1200
G1 X160.293 Y128.422 E.00338
G1 X160.201 Y128.703 E.00927
G1 X160.118 Y128.772 E.00339
G1 X159.604 Y128.842 E.01625
G1 X159.069 Y128.843 E.0168
G1 X158.551 Y128.812 E.01624
G1 X158.027 Y128.707 E.01676
G1 X157.559 Y128.658 E.01476
G1 X157.078 Y128.645 E.01509
G1 X150.143 Y128.644 E.21744
G1 X150.043 Y128.618 E.00323
G1 X130.047 Y114.627 E.7652
G1 X129.951 Y114.443 E.00651
G1 X129.961 Y111.809 E.08258
G1 X130.045 Y111.388 E.01345
G1 X130.183 Y111.052 E.0114
G1 X130.309 Y110.842 E.00769
G1 X130.536 Y110.566 E.01119
G1 X130.696 Y110.418 E.00682
G1 X131.013 Y110.204 E.01201
G1 X131.234 Y110.099 E.00767
G1 X131.583 Y109.994 E.01142
G1 X131.998 Y109.952 E.01309
G1 X133.784 Y109.96 E.05599
G1 X133.881 Y109.997 E.00325
G1 X157.676 Y126.657 E.91077
G1 X158.072 Y126.928 E.01506
G1 X158.41 Y127.128 E.01232
G1 X159.225 Y127.498 E.02805
G1 X159.927 Y127.99 E.02687
G1 X160.224 Y128.276 E.01294
;WIPE_START
G1 F8640
G1 X160.293 Y128.422 E-.03736
G1 X160.201 Y128.703 E-.06824
G1 X160.118 Y128.772 E-.02498
G1 X159.604 Y128.842 E-.11965
G1 X159.069 Y128.843 E-.12369
G1 X158.551 Y128.812 E-.11963
G1 X158.027 Y128.707 E-.12344
G1 X157.559 Y128.658 E-.10869
G1 X157.411 Y128.654 E-.03432
;WIPE_END
G1 E-.04 F2100
G1 Z.6 F10800
G1 X140.747 Y128.399
G1 Z.2
G1 E.8 F2100
G1 F1200
G1 X140.746 Y128.452 E.00168
G1 X140.608 Y128.892 E.01445
G1 X140.371 Y129.112 E.01015
G1 X140.323 Y129.134 E.00168
G1 X139.677 Y129.221 E.02042
G1 X138.668 Y129.206 E.03166
G1 X138.107 Y129.092 E.01795
G1 X137.69 Y129.04 E.01317
G1 X137.254 Y129.024 E.01367
G1 X131.985 Y129.021 E.16522
G1 X131.568 Y128.981 E.01313
G1 X131.249 Y128.902 E.0103
G1 X130.853 Y128.733 E.01349
G1 X130.465 Y128.475 E.01463
G1 X130.156 Y128.171 E.01358
G1 X129.958 Y127.906 E.01038
G1 X129.755 Y127.516 E.01378
G1 X129.667 Y127.259 E.00851
G1 X129.592 Y126.882 E.01206
G1 X129.558 Y123.382 E.10977
G1 X129.51 Y123.001 E.01205
G1 X129.38 Y122.477 E.01692
G1 X129.375 Y121.911 E.01773
G1 X129.479 Y121.235 E.02147
G1 X129.645 Y121.02 E.00851
G1 X130.027 Y120.834 E.01332
G1 X130.298 Y120.844 E.0085
G1 X130.836 Y121.118 E.01893
G1 X131.321 Y121.453 E.01846
G1 X131.722 Y121.909 E.01903
G1 X132.027 Y122.179 E.01277
G1 X137.617 Y126.106 E.21421
G1 X138.398 Y126.632 E.02953
G1 X138.773 Y126.838 E.01342
G1 X139.285 Y127.062 E.01753
G1 X139.741 Y127.349 E.01687
G1 X140.187 Y127.663 E.0171
G1 X140.65 Y128.09 E.01975
G1 X140.732 Y128.341 E.00827
G1 X140.362 Y128.417 F10800
G1 F1200
G1 X140.273 Y128.701 E.00935
G1 X140.19 Y128.772 E.00341
G1 X139.668 Y128.844 E.01651
G1 X138.692 Y128.829 E.03062
G1 X138.169 Y128.72 E.01674
G1 X137.72 Y128.664 E.01419
G1 X137.261 Y128.646 E.0144
G1 X131.994 Y128.643 E.16515
G1 X131.618 Y128.607 E.01184
G1 X131.381 Y128.548 E.00768
G1 X131.044 Y128.408 E.01142
G1 X130.715 Y128.192 E.01234
G1 X130.43 Y127.912 E.01252
G1 X130.285 Y127.717 E.00765
G1 X130.106 Y127.378 E.01201
G1 X130.034 Y127.172 E.00682
G1 X129.965 Y126.826 E.01107
G1 X129.935 Y123.356 E.10881
G1 X129.881 Y122.931 E.01344
G1 X129.751 Y122.409 E.01686
G1 X129.751 Y121.926 E.01515
G1 X129.826 Y121.398 E.01672
G1 X129.879 Y121.324 E.00285
G1 X130.097 Y121.211 E.00768
G1 X130.188 Y121.211 E.00286
G1 X130.653 Y121.448 E.01639
G1 X131.085 Y121.748 E.01648
G1 X131.452 Y122.174 E.01762
G1 X131.793 Y122.475 E.01426
G1 X137.403 Y126.416 E.21498
G1 X138.202 Y126.955 E.03019
G1 X138.608 Y127.177 E.01452
G1 X139.097 Y127.389 E.01672
G1 X139.529 Y127.661 E.01598
G1 X139.94 Y127.949 E.01576
G1 X140.334 Y128.312 E.01678
G1 X140.347 Y128.359 E.00153
;WIPE_START
G1 F8640
G1 X140.273 Y128.701 E-.08092
G1 X140.19 Y128.772 E-.02511
G1 X139.668 Y128.844 E-.12159
G1 X138.692 Y128.829 E-.22549
G1 X138.169 Y128.72 E-.12326
G1 X137.72 Y128.664 E-.10447
G1 X137.378 Y128.651 E-.07917
;WIPE_END
G1 E-.04 F2100
G1 Z.6 F10800
G1 X139.677 Y100.626
G1 Z.2
G1 E.8 F2100
G1 F1200
G1 X138.668 Y100.611 E.03166
G1 X138.107 Y100.497 E.01795
G1 X137.69 Y100.445 E.01317
G1 X137.254 Y100.429 E.01367
G1 X131.985 Y100.426 E.16522
G1 X131.568 Y100.386 E.01313
G1 X131.249 Y100.307 E.0103
G1 X130.853 Y100.138 E.01349
G1 X130.465 Y99.88 E.01463
G1 X130.156 Y99.576 E.01358
G1 X129.958 Y99.311 E.01038
G1 X129.755 Y98.921 E.01378
G1 X129.667 Y98.664 E.00851
G1 X129.592 Y98.287 E.01206
G1 X129.558 Y94.787 E.10977
G1 X129.51 Y94.406 E.01205
G1 X129.38 Y93.882 E.01692
G1 X129.375 Y93.316 E.01773
G1 X129.463 Y92.682 E.02009
G1 X129.611 Y92.454 E.00851
G1 X129.984 Y92.25 E.01332
G1 X130.255 Y92.238 E.0085
G1 X130.836 Y92.523 E.0203
G1 X131.321 Y92.858 E.01846
G1 X131.722 Y93.314 E.01903
G1 X132.027 Y93.584 E.01277
G1 X137.617 Y97.511 E.21421
G1 X138.398 Y98.037 E.02953
G1 X138.773 Y98.243 E.01342
G1 X139.285 Y98.467 E.01753
G1 X139.741 Y98.754 E.01687
G1 X140.187 Y99.068 E.0171
G1 X140.65 Y99.495 E.01975
G1 X140.677 Y99.541 E.00168
G1 X140.746 Y99.857 E.01014
G1 X140.608 Y100.297 E.01445
G1 X140.371 Y100.517 E.01015
G1 X140.323 Y100.539 E.00168
G1 X139.737 Y100.618 E.01853
G1 X139.686 Y100.246 F10800
G1 F1200
G1 X138.692 Y100.234 E.03116
