; G-Code generated by Simplify3D(R) Version 4.0.0
; Oct 12, 2017 at 9:43:39 AM
; Settings Summary
;   processName,Process1
;   applyToModels,BM66 Slingshot Dome Light,BM66 Slingshot Dome Light(2)
;   profileName,Prusa Research Original Prusa i3 MK2 (modified)
;   profileVersion,2017-10-10 10:29:02
;   baseProfile,
;   printMaterial,PLA
;   printQuality,Fast
;   printExtruders,
;   extruderName,Primary Extruder
;   extruderToolheadNumber,0
;   extruderDiameter,0.4
;   extruderAutoWidth,0
;   extruderWidth,0.4
;   extrusionMultiplier,1
;   extruderUseRetract,1
;   extruderRetractionDistance,1.5
;   extruderExtraRestartDistance,0
;   extruderRetractionZLift,0
;   extruderRetractionSpeed,1800
;   extruderUseCoasting,1
;   extruderCoastingDistance,0.2
;   extruderUseWipe,1
;   extruderWipeDistance,2
;   primaryExtruder,0
;   layerHeight,0.3
;   topSolidLayers,3
;   bottomSolidLayers,3
;   perimeterOutlines,2
;   printPerimetersInsideOut,0
;   startPointOption,2
;   startPointOriginX,250
;   startPointOriginY,210
;   sequentialIslands,0
;   spiralVaseMode,0
;   firstLayerHeightPercentage,90
;   firstLayerWidthPercentage,150
;   firstLayerUnderspeed,0.5
;   useRaft,0
;   raftExtruder,0
;   raftTopLayers,2
;   raftBaseLayers,1
;   raftOffset,2
;   raftSeparationDistance,0.14
;   raftTopInfill,100
;   aboveRaftSpeedMultiplier,0.3
;   useSkirt,0
;   skirtExtruder,0
;   skirtLayers,1
;   skirtOutlines,1
;   skirtOffset,4
;   usePrimePillar,0
;   primePillarExtruder,999
;   primePillarWidth,12
;   primePillarLocation,7
;   primePillarSpeedMultiplier,1
;   useOozeShield,0
;   oozeShieldExtruder,999
;   oozeShieldOffset,2
;   oozeShieldOutlines,1
;   oozeShieldSidewallShape,1
;   oozeShieldSidewallAngle,30
;   oozeShieldSpeedMultiplier,1
;   infillExtruder,0
;   internalInfillPattern,Fast Honeycomb
;   externalInfillPattern,Rectilinear
;   infillPercentage,15
;   outlineOverlapPercentage,30
;   infillExtrusionWidthPercentage,125
;   minInfillLength,1
;   infillLayerInterval,1
;   internalInfillAngles,0
;   overlapInternalInfillAngles,0
;   externalInfillAngles,45,-45
;   generateSupport,0
;   supportExtruder,0
;   supportInfillPercentage,25
;   supportExtraInflation,0.3
;   supportBaseLayers,0
;   denseSupportExtruder,0
;   denseSupportLayers,0
;   denseSupportInfillPercentage,70
;   supportLayerInterval,1
;   supportHorizontalPartOffset,0.2
;   supportUpperSeparationLayers,1
;   supportLowerSeparationLayers,1
;   supportType,0
;   supportGridSpacing,4
;   maxOverhangAngle,45
;   supportAngles,0
;   temperatureName,Primary Extruder,Heated Bed
;   temperatureNumber,0,0
;   temperatureSetpointCount,1,1
;   temperatureSetpointLayers,1,1
;   temperatureSetpointTemperatures,220,55
;   temperatureStabilizeAtStartup,1,1
;   temperatureHeatedBed,0,1
;   temperatureRelayBetweenLayers,1,1
;   temperatureRelayBetweenLoops,0,0
;   fanLayers,1,2
;   fanSpeeds,0,100
;   blipFanToFullPower,0
;   adjustSpeedForCooling,1
;   minSpeedLayerTime,15
;   minCoolingSpeedSlowdown,5
;   increaseFanForCooling,1
;   minFanLayerTime,45
;   maxCoolingFanSpeed,100
;   increaseFanForBridging,1
;   bridgingFanSpeed,100
;   use5D,1
;   relativeEdistances,0
;   allowEaxisZeroing,1
;   independentExtruderAxes,0
;   includeM10123,0
;   stickySupport,1
;   applyToolheadOffsets,0
;   gcodeXoffset,0
;   gcodeYoffset,0
;   gcodeZoffset,0
;   overrideMachineDefinition,1
;   machineTypeOverride,0
;   strokeXoverride,250
;   strokeYoverride,210
;   strokeZoverride,200
;   originOffsetXoverride,0
;   originOffsetYoverride,0
;   originOffsetZoverride,0
;   homeXdirOverride,-1
;   homeYdirOverride,-1
;   homeZdirOverride,-1
;   flipXoverride,1
;   flipYoverride,-1
;   flipZoverride,1
;   toolheadOffsets,0,0|0,0|0,0|0,0|0,0|0,0
;   overrideFirmwareConfiguration,1
;   firmwareTypeOverride,RepRap (Marlin/Repetier/Sprinter)
;   GPXconfigOverride,r2
;   baudRateOverride,250000
;   overridePrinterModels,1
;   printerModelsOverride
;   startingGcode,M115 U3.0.7 ; use the latest firmware version,G28 W ; home all axes without mesh bed leveling,G80 ; run mesh bed leveling routine,G1 Y-3.0 F1000.0 ; prepare to prime,G92 E0 ; reset extrusion distance,G1 X60.0 E9.0  F1000.0 ; priming,G1 X100.0 E12.5  F1000.0 ; priming
;   layerChangeGcode,
;   retractionGcode,
;   toolChangeGcode,
;   endingGcode,M106 S0 ; turn off cooling fan,M104 S0 ; turn off extruder,M140 S0 ; turn off bed,G1 X0 Y200 ; part removal,M84 ; disable motors
;   exportFileFormat,gcode
;   celebration,0
;   celebrationSong,Random Song
;   postProcessing,
;   defaultSpeed,2400
;   outlineUnderspeed,0.8
;   solidInfillUnderspeed,0.8
;   supportUnderspeed,0.8
;   rapidXYspeed,4800
;   rapidZspeed,1002
;   minBridgingArea,50
;   bridgingExtraInflation,0
;   bridgingExtrusionMultiplier,1
;   bridgingSpeedMultiplier,1
;   useFixedBridgingAngle,0
;   fixedBridgingAngle,0
;   applyBridgingToPerimeters,0
;   filamentDiameters,1.75|1.75|1.75|1.75|1.75|1.75
;   filamentPricesPerKg,46|46|46|46|46|46
;   filamentDensities,1.25|1.25|1.25|1.25|1.25|1.25
;   useMinPrintHeight,0
;   minPrintHeight,10.34
;   useMaxPrintHeight,0
;   maxPrintHeight,0
;   useDiaphragm,0
;   diaphragmLayerInterval,20
;   robustSlicing,1
;   mergeAllIntoSolid,0
;   onlyRetractWhenCrossingOutline,1
;   retractBetweenLayers,0
;   useRetractionMinTravel,1
;   retractionMinTravel,3
;   retractWhileWiping,1
;   onlyWipeOutlines,1
;   avoidCrossingOutline,1
;   maxMovementDetourFactor,3
;   toolChangeRetractionDistance,12
;   toolChangeExtraRestartDistance,-0.5
;   toolChangeRetractionSpeed,600
;   externalThinWallType,1
;   internalThinWallType,1
;   thinWallAllowedOverlapPercentage,25
;   singleExtrusionMinLength,1
;   singleExtrusionMinPrintingWidthPercentage,50
;   singleExtrusionMaxPrintingWidthPercentage,200
;   singleExtrusionEndpointExtension,0.2
;   horizontalSizeCompensation,0
G90
M82
M106 S0
M140 S55
M190 S55
M104 S220 T0
M109 S220 T0
M115 U3.0.7 ; use the latest firmware version
G28 W ; home all axes without mesh bed leveling
G80 ; run mesh bed leveling routine
G1 Y-3.0 F1000.0 ; prepare to prime
G92 E0 ; reset extrusion distance
G1 X60.0 E9.0  F1000.0 ; priming
G1 X100.0 E12.5  F1000.0 ; priming
G92 E0
G1 E-1.5000 F1800
G1 Z0.270 F1002
; process Process1
; layer 1, Z = 0.270
M105
M105
T0
; tool H0.300 W0.600
; outer perimeter
G1 X114.538 Y82.603 F4800
G1 E0.0000 F540
G92 E0
G1 X116.102 Y80.696 E0.1846 F960
G1 X118.009 Y79.132 E0.3692
G1 X120.185 Y77.969 E0.5538
G1 X122.545 Y77.253 E0.7384
G1 X125.000 Y77.011 E0.9230
G1 X127.455 Y77.253 E1.1076
G1 X129.815 Y77.969 E1.2922
G1 X131.991 Y79.132 E1.4768
G1 X133.898 Y80.696 E1.6614
G1 X135.462 Y82.603 E1.8460
G1 X136.625 Y84.779 E2.0306
G1 X137.341 Y87.139 E2.2152
G1 X137.583 Y89.594 E2.3998
G1 X137.341 Y92.049 E2.5844
G1 X136.625 Y94.409 E2.7690
G1 X135.462 Y96.585 E2.9536
G1 X133.898 Y98.492 E3.1382
G1 X131.991 Y100.057 E3.3228
G1 X129.815 Y101.219 E3.5074
G1 X127.455 Y101.935 E3.6920
G1 X125.000 Y102.177 E3.8766
G1 X122.545 Y101.935 E4.0612
G1 X120.185 Y101.219 E4.2457
G1 X118.009 Y100.057 E4.4303
G1 X116.102 Y98.492 E4.6149
G1 X114.538 Y96.585 E4.7995
G1 X113.375 Y94.409 E4.9841
G1 X112.659 Y92.049 E5.1687
G1 X112.417 Y89.594 E5.3533
G1 X112.659 Y87.139 E5.5379
G1 X113.375 Y84.779 E5.7225
G1 X114.443 Y82.780 E5.8922
G1 X114.538 Y82.603 F960
G1 X115.806 Y81.057 F2400
; inner perimeter
G1 X116.529 Y81.123 F4800
G92 E0
G1 X118.344 Y79.633 E0.1758 F1080
G1 X120.415 Y78.526 E0.3515
G1 X122.663 Y77.844 E0.5273
G1 X125.000 Y77.614 E0.7030
G1 X127.337 Y77.844 E0.8788
G1 X129.585 Y78.526 E1.0545
G1 X131.656 Y79.633 E1.2303
G1 X133.471 Y81.123 E1.4060
G1 X134.961 Y82.938 E1.5818
G1 X136.068 Y85.009 E1.7575
G1 X136.750 Y87.257 E1.9333
G1 X136.980 Y89.594 E2.1090
G1 X136.750 Y91.931 E2.2848
G1 X136.068 Y94.179 E2.4605
G1 X134.961 Y96.250 E2.6363
G1 X133.471 Y98.065 E2.8120
G1 X131.656 Y99.555 E2.9878
G1 X129.585 Y100.662 E3.1636
G1 X127.337 Y101.344 E3.3393
G1 X125.000 Y101.574 E3.5151
G1 X122.663 Y101.344 E3.6908
G1 X120.415 Y100.662 E3.8666
G1 X118.344 Y99.555 E4.0423
G1 X116.529 Y98.065 E4.2181
G1 X115.039 Y96.250 E4.3938
G1 X113.932 Y94.179 E4.5696
G1 X113.250 Y91.931 E4.7453
G1 X113.020 Y89.594 E4.9211
G1 X113.250 Y87.257 E5.0968
G1 X113.932 Y85.009 E5.2726
G1 X115.039 Y82.938 E5.4483
G1 X116.402 Y81.277 E5.6091
G1 X116.529 Y81.123 F1080
; solid layer
G1 X131.331 Y79.936 F4800
G92 E0
G1 X134.659 Y83.263 E0.3521 F960
G1 X135.633 Y85.086 E0.5068
G1 X129.508 Y78.961 E1.1550
G1 X129.423 Y78.916 E1.1622
G1 X128.262 Y78.563 E1.2530
G1 X136.031 Y86.332 E2.0752
G1 X136.336 Y87.339 E2.1540
G1 X136.352 Y87.502 E2.1662
G1 X127.092 Y78.242 E3.1462
G1 X126.151 Y78.149 E3.2170
G1 X136.445 Y88.443 E4.3065
G1 X136.537 Y89.385 E4.3773
G1 X125.209 Y78.057 E5.5761
G1 X125.000 Y78.036 E5.5919
G1 X124.399 Y78.095 E5.6370
G1 X136.499 Y90.195 E6.9176
G1 X136.423 Y90.967 E6.9757
G1 X123.627 Y78.171 E8.3299
G1 X122.855 Y78.247 E8.3880
G1 X136.347 Y91.740 E9.8159
G1 X136.336 Y91.849 E9.8241
G1 X136.167 Y92.408 E9.8678
G1 X122.186 Y78.427 E11.3474
G1 X121.535 Y78.625 E11.3983
G1 X135.969 Y93.059 E12.9259
G1 X135.772 Y93.710 E12.9768
G1 X120.884 Y78.822 E14.5524
G1 X120.577 Y78.916 E14.5764
G1 X120.285 Y79.072 E14.6012
G1 X135.522 Y94.309 E16.2138
G1 X135.227 Y94.862 E16.2607
G1 X119.732 Y79.367 E17.9006
G1 X119.179 Y79.663 E17.9475
G1 X134.931 Y95.415 E19.6146
G1 X134.636 Y95.968 E19.6615
G1 X118.626 Y79.958 E21.3559
G1 X118.579 Y79.984 E21.3599
G1 X118.153 Y80.333 E21.4011
G1 X134.261 Y96.441 E23.1059
G1 X133.878 Y96.908 E23.1510
G1 X117.687 Y80.716 E24.8646
G1 X117.220 Y81.098 E24.9097
G1 X133.496 Y97.374 E26.6322
G1 X133.173 Y97.767 E26.6703
G1 X133.100 Y97.827 E26.6773
G1 X116.767 Y81.494 E28.4059
G1 X116.385 Y81.960 E28.4510
G1 X132.634 Y98.209 E30.1707
G1 X132.168 Y98.592 E30.2158
G1 X116.003 Y82.426 E31.9266
G1 X115.620 Y82.892 E31.9718
G1 X131.702 Y98.974 E33.6738
G1 X131.421 Y99.204 E33.7009
G1 X131.201 Y99.322 E33.7196
G1 X115.272 Y83.393 E35.4054
G1 X114.977 Y83.946 E35.4523
G1 X130.648 Y99.617 E37.1109
G1 X130.095 Y99.913 E37.1579
G1 X114.681 Y84.499 E38.7892
G1 X114.385 Y85.052 E38.8361
G1 X129.542 Y100.209 E40.4403
G1 X129.423 Y100.272 E40.4504
G1 X128.913 Y100.427 E40.4903
G1 X114.167 Y85.681 E42.0509
G1 X113.969 Y86.333 E42.1018
G1 X128.262 Y100.625 E43.6144
G1 X127.611 Y100.822 E43.6653
G1 X113.772 Y86.984 E45.1299
G1 X113.664 Y87.339 E45.1577
G1 X113.629 Y87.690 E45.1841
G1 X126.904 Y100.965 E46.5890
G1 X126.132 Y101.041 E46.6471
G1 X113.553 Y88.462 E47.9783
G1 X113.477 Y89.235 E48.0364
G1 X125.359 Y101.117 E49.2939
G1 X125.000 Y101.152 E49.3210
G1 X124.497 Y101.103 E49.3588
G1 X113.491 Y90.097 E50.5236
G1 X113.584 Y91.039 E50.5943
G1 X123.556 Y101.010 E51.6496
G1 X122.745 Y100.930 E51.7106
G1 X122.576 Y100.879 E51.7238
G1 X113.715 Y92.018 E52.6616
G1 X114.085 Y93.236 E52.7568
G1 X121.358 Y100.509 E53.5265
G1 X120.577 Y100.272 E53.5876
G1 X119.923 Y99.923 E53.6431
G1 X114.671 Y94.671 E54.1989
G1 X115.390 Y96.015 E54.3130
G1 X116.409 Y97.258 E54.4333
G1 X117.195 Y98.043 E54.5164
G1 X117.336 Y98.185 F960
G92 E0
G1 E-1.5000 F1800
; outer perimeter
G1 X117.794 Y99.888 F4800
G1 X118.006 Y100.062 F4800
G1 X120.182 Y101.225 F4800
G1 X122.544 Y101.941 F4800
G1 X120.185 Y108.781 F4800
G1 E0.0000 F1800
G92 E0
G1 X122.545 Y108.065 E0.1846 F960
G1 X125.000 Y107.823 E0.3692
G1 X127.455 Y108.065 E0.5538
G1 X129.815 Y108.781 E0.7384
G1 X131.991 Y109.943 E0.9230
G1 X133.898 Y111.508 E1.1076
G1 X135.462 Y113.415 E1.2922
G1 X136.625 Y115.591 E1.4768
G1 X137.341 Y117.951 E1.6614
G1 X137.583 Y120.406 E1.8460
G1 X137.341 Y122.861 E2.0306
G1 X136.625 Y125.221 E2.2152
G1 X135.462 Y127.397 E2.3998
G1 X133.898 Y129.304 E2.5844
G1 X131.991 Y130.868 E2.7690
G1 X129.815 Y132.031 E2.9536
G1 X127.455 Y132.747 E3.1382
G1 X125.000 Y132.989 E3.3228
G1 X122.545 Y132.747 E3.5074
G1 X120.185 Y132.031 E3.6920
G1 X118.009 Y130.868 E3.8765
G1 X116.102 Y129.304 E4.0611
G1 X114.538 Y127.397 E4.2457
G1 X113.375 Y125.221 E4.4303
G1 X112.659 Y122.861 E4.6149
G1 X112.417 Y120.406 E4.7995
G1 X112.659 Y117.951 E4.9841
G1 X113.375 Y115.591 E5.1687
G1 X114.538 Y113.415 E5.3533
G1 X116.102 Y111.508 E5.5379
G1 X118.009 Y109.943 E5.7225
G1 X120.008 Y108.875 E5.8922
G1 X120.185 Y108.781 F960
G1 X122.099 Y108.200 F2400
; inner perimeter
G1 X122.663 Y108.656 F4800
G92 E0
G1 X125.000 Y108.426 E0.1758 F1080
G1 X127.337 Y108.656 E0.3515
G1 X129.585 Y109.338 E0.5273
G1 X131.656 Y110.445 E0.7030
G1 X133.471 Y111.935 E0.8788
G1 X134.961 Y113.750 E1.0545
G1 X136.068 Y115.821 E1.2303
G1 X136.750 Y118.069 E1.4060
G1 X136.980 Y120.406 E1.5818
G1 X136.750 Y122.743 E1.7575
G1 X136.068 Y124.991 E1.9333
G1 X134.961 Y127.062 E2.1090
G1 X133.471 Y128.877 E2.2848
G1 X131.656 Y130.367 E2.4605
G1 X129.585 Y131.474 E2.6363
G1 X127.337 Y132.156 E2.8120
G1 X125.000 Y132.386 E2.9878
G1 X122.663 Y132.156 E3.1635
G1 X120.415 Y131.474 E3.3393
G1 X118.344 Y130.367 E3.5151
G1 X116.529 Y128.877 E3.6908
G1 X115.039 Y127.062 E3.8666
G1 X113.932 Y124.991 E4.0423
G1 X113.250 Y122.743 E4.2181
G1 X113.020 Y120.406 E4.3938
G1 X113.250 Y118.069 E4.5696
G1 X113.932 Y115.821 E4.7453
G1 X115.039 Y113.750 E4.9211
G1 X116.529 Y111.935 E5.0968
G1 X118.344 Y110.445 E5.2726
G1 X120.415 Y109.338 E5.4483
G1 X122.471 Y108.714 E5.6091
G1 X122.663 Y108.656 F1080
; solid layer
G1 X132.664 Y111.816 F4800
G92 E0
G1 X133.590 Y112.742 E0.0980 F960
G1 X134.610 Y113.985 E0.2183
G1 X135.329 Y115.329 E0.3324
G1 X130.077 Y110.077 E0.8882
G1 X129.423 Y109.728 E0.9437
G1 X128.642 Y109.491 E1.0047
G1 X135.915 Y116.764 E1.7745
G1 X136.285 Y117.982 E1.8697
G1 X127.424 Y109.121 E2.8075
G1 X127.255 Y109.070 E2.8207
G1 X126.444 Y108.990 E2.8817
G1 X136.416 Y118.961 E3.9370
G1 X136.509 Y119.903 E4.0077
G1 X125.503 Y108.897 E5.1725
G1 X125.000 Y108.848 E5.2103
G1 X124.641 Y108.883 E5.2373
G1 X136.523 Y120.765 E6.4949
G1 X136.447 Y121.538 E6.5529
G1 X123.868 Y108.959 E7.8842
G1 X123.096 Y109.035 E7.9423
G1 X136.371 Y122.310 E9.3472
G1 X136.336 Y122.661 E9.3735
G1 X136.228 Y123.016 E9.4013
G1 X122.390 Y109.178 E10.8659
G1 X121.738 Y109.375 E10.9169
G1 X136.031 Y123.667 E12.4294
G1 X135.833 Y124.318 E12.4804
G1 X121.087 Y109.573 E14.0409
G1 X120.577 Y109.728 E14.0809
G1 X120.458 Y109.791 E14.0910
G1 X135.615 Y124.948 E15.6951
G1 X135.319 Y125.501 E15.7420
G1 X119.905 Y110.087 E17.3734
G1 X119.352 Y110.382 E17.4203
G1 X135.023 Y126.054 E19.0789
G1 X134.728 Y126.607 E19.1258
G1 X118.799 Y110.678 E20.8117
G1 X118.579 Y110.796 E20.8303
G1 X118.298 Y111.026 E20.8575
G1 X134.380 Y127.108 E22.5595
G1 X133.997 Y127.574 E22.6046
G1 X117.832 Y111.408 E24.3155
G1 X117.366 Y111.791 E24.3606
G1 X133.615 Y128.040 E26.0803
G1 X133.233 Y128.506 E26.1254
G1 X116.900 Y112.173 E27.8539
G1 X116.827 Y112.233 E27.8610
G1 X116.504 Y112.626 E27.8990
G1 X132.780 Y128.902 E29.6215
G1 X132.313 Y129.284 E29.6666
G1 X116.122 Y113.092 E31.3802
G1 X115.739 Y113.558 E31.4253
G1 X131.847 Y129.667 E33.1301
G1 X131.421 Y130.016 E33.1714
G1 X131.374 Y130.042 E33.1754
G1 X115.364 Y114.032 E34.8697
G1 X115.069 Y114.585 E34.9166
G1 X130.821 Y130.337 E36.5837
G1 X130.268 Y130.633 E36.6307
G1 X114.773 Y115.138 E38.2705
G1 X114.478 Y115.691 E38.3174
G1 X129.715 Y130.928 E39.9301
G1 X129.423 Y131.084 E39.9548
G1 X129.116 Y131.178 E39.9789
G1 X114.228 Y116.290 E41.5544
G1 X114.031 Y116.941 E41.6054
G1 X128.465 Y131.375 E43.1329
G1 X127.814 Y131.572 E43.1838
G1 X113.833 Y117.592 E44.6634
G1 X113.664 Y118.151 E44.7071
G1 X113.653 Y118.260 E44.7153
G1 X127.145 Y131.753 E46.1433
G1 X126.373 Y131.829 E46.2014
G1 X113.577 Y119.033 E47.5556
G1 X113.501 Y119.805 E47.6137
G1 X125.601 Y131.905 E48.8942
G1 X125.000 Y131.964 E48.9394
G1 X124.791 Y131.943 E48.9551
G1 X113.462 Y120.615 E50.1540
G1 X113.555 Y121.557 E50.2248
G1 X123.849 Y131.851 E51.3143
G1 X122.908 Y131.758 E51.3850
G1 X113.648 Y122.498 E52.3651
G1 X113.664 Y122.661 E52.3773
G1 X113.969 Y123.668 E52.4561
G1 X121.738 Y131.437 E53.2783
G1 X120.577 Y131.084 E53.3691
G1 X120.492 Y131.039 E53.3763
G1 X114.367 Y124.914 E54.0245
G1 X115.341 Y126.737 E54.1792
G1 X118.527 Y129.923 E54.5163
G1 X118.669 Y130.064 F960
