; generated by PrusaSlicer 2.2.0+win64 on 2020-08-21 at 19:33:55 UTC

; 

; external perimeters extrusion width = 0.45mm
; perimeters extrusion width = 0.45mm
; infill extrusion width = 0.45mm
; solid infill extrusion width = 0.45mm
; top infill extrusion width = 0.40mm
; support material extrusion width = 0.35mm
; first layer extrusion width = 0.42mm

; external perimeters extrusion width = 0.45mm
; perimeters extrusion width = 0.45mm
; infill extrusion width = 0.45mm
; solid infill extrusion width = 0.45mm
; top infill extrusion width = 0.40mm
; support material extrusion width = 0.35mm
; first layer extrusion width = 0.42mm

M73 P0 R35
M73 Q0 S35
M201 X1000 Y1000 Z1000 E5000 ; sets maximum accelerations, mm/sec^2
M203 X200 Y200 Z12 E120 ; sets maximum feedrates, mm/sec
M204 P1250 R1250 T1250 ; sets acceleration (P, T) and retract acceleration (R), mm/sec^2
M205 X8.00 Y8.00 Z0.40 E1.50 ; sets the jerk limits, mm/sec
M205 S0 T0 ; sets the minimum extruding and travel feed rate, mm/sec
M107
M862.3 P "MK3S" ; printer model check
M862.1 P0.4 ; nozzle diameter check
M115 U3.8.0 ; tell printer latest fw version
G90 ; use absolute coordinates
M83 ; extruder relative mode
M104 S215 ; set extruder temp
M140 S60 ; set bed temp
M190 S60 ; wait for bed temp
M109 S215 ; wait for extruder temp
G28 W ; home all without mesh bed level
G80 ; mesh bed leveling
G1 Y-3.0 F1000.0 ; go outside print area
G92 E0.0
G1 X60.0 E9.0 F1000.0 ; intro line
M73 Q0 S35
M73 P0 R35
G1 X100.0 E12.5 F1000.0 ; intro line
G92 E0.0
M221 S95
G21 ; set units to millimeters
G90 ; use absolute coordinates
M83 ; use relative distances for extrusion
M900 K0.06 ; Filament gcode LA 1.5
M900 K30 ; Filament gcode LA 1.0
;BEFORE_LAYER_CHANGE
G92 E0.0
;0.2


G1 E-0.80000 F2100.00000
G1 Z0.600 F10800.000
;AFTER_LAYER_CHANGE
;0.2
G1 X111.175 Y79.857
G1 Z0.200
G1 E0.80000 F2100.00000
M204 S1000
G1 F1200.000
G1 X111.608 Y79.894 E0.01361
G1 X112.027 Y80.007 E0.01361
G1 X112.420 Y80.190 E0.01361
G1 X112.776 Y80.439 E0.01361
G1 X113.082 Y80.746 E0.01361
G1 X113.331 Y81.101 E0.01361
G1 X113.515 Y81.494 E0.01361
G1 X113.627 Y81.914 E0.01361
G1 X113.665 Y82.346 E0.01361
G1 X113.627 Y82.778 E0.01361
G1 X113.515 Y83.197 E0.01361
G1 X113.331 Y83.591 E0.01361
G1 X113.082 Y83.946 E0.01361
G1 X112.776 Y84.253 E0.01361
G1 X112.420 Y84.502 E0.01361
G1 X112.027 Y84.685 E0.01361
G1 X111.608 Y84.797 E0.01361
G1 X111.176 Y84.835 E0.01361
G1 X110.743 Y84.797 E0.01361
G1 X110.324 Y84.685 E0.01361
G1 X109.931 Y84.502 E0.01361
G1 X109.575 Y84.253 E0.01361
G1 X109.269 Y83.946 E0.01361
G1 X109.020 Y83.591 E0.01361
G1 X108.836 Y83.197 E0.01361
G1 X108.724 Y82.778 E0.01361
G1 X108.686 Y82.346 E0.01361
G1 X108.724 Y81.914 E0.01361
G1 X108.836 Y81.494 E0.01361
G1 X109.020 Y81.101 E0.01361
G1 X109.269 Y80.746 E0.01361
G1 X109.575 Y80.439 E0.01361
G1 X109.931 Y80.190 E0.01361
G1 X110.324 Y80.007 E0.01361
G1 X110.743 Y79.894 E0.01361
G1 X111.116 Y79.862 E0.01172
G1 E-0.80000 F2100.00000
G1 Z0.800 F10800.000
G1 X111.176 Y84.457
G1 Z0.200
G1 E0.80000 F2100.00000
G1 F1200.000
G1 X110.809 Y84.425 E0.01154
G1 X110.454 Y84.329 E0.01154
G1 X110.120 Y84.174 E0.01154
G1 X109.819 Y83.963 E0.01154
G1 X109.559 Y83.703 E0.01154
G1 X109.348 Y83.401 E0.01154
G1 X109.192 Y83.068 E0.01154
G1 X109.097 Y82.712 E0.01154
G1 X109.065 Y82.346 E0.01154
G1 X109.097 Y81.979 E0.01154
G1 X109.192 Y81.624 E0.01154
G1 X109.348 Y81.290 E0.01154
G1 X109.559 Y80.989 E0.01154
G1 X109.819 Y80.729 E0.01154
G1 X110.120 Y80.518 E0.01154
G1 X110.454 Y80.362 E0.01154
G1 X110.809 Y80.267 E0.01154
G1 X111.175 Y80.235 E0.01153
G1 X111.542 Y80.267 E0.01154
G1 X111.897 Y80.362 E0.01154
G1 X112.231 Y80.518 E0.01154
G1 X112.532 Y80.729 E0.01154
G1 X112.792 Y80.989 E0.01154
G1 X113.004 Y81.290 E0.01154
G1 X113.159 Y81.624 E0.01154
G1 X113.254 Y81.979 E0.01154
G1 X113.286 Y82.346 E0.01154
G1 X113.254 Y82.712 E0.01154
G1 X113.159 Y83.068 E0.01154
G1 X113.004 Y83.401 E0.01154
G1 X112.792 Y83.703 E0.01154
G1 X112.532 Y83.963 E0.01154
G1 X112.231 Y84.174 E0.01154
G1 X111.897 Y84.329 E0.01154
G1 X111.542 Y84.425 E0.01154
G1 X111.235 Y84.451 E0.00966
G1 X110.992 Y84.775 F10800.000
G1 E-0.80000 F2100.00000
G1 Z0.800 F10800.000
G1 X111.176 Y87.251
G1 Z0.200
G1 E0.80000 F2100.00000
G1 F1200.000
G1 X110.914 Y87.251 E0.00820
G1 X110.394 Y87.195 E0.01639
G1 X109.883 Y87.085 E0.01639
G1 X109.387 Y86.921 E0.01639
G1 X108.911 Y86.705 E0.01639
G1 X108.460 Y86.439 E0.01639
G1 X108.040 Y86.127 E0.01639
G1 X107.656 Y85.773 E0.01639
G1 X107.330 Y85.400 E0.01552
G1 X107.011 Y84.950 E0.01731
G1 X106.758 Y84.494 E0.01635
G1 X106.555 Y84.012 E0.01639
G1 X106.404 Y83.512 E0.01639
G1 X106.307 Y82.998 E0.01639
G1 X106.265 Y82.477 E0.01639
G1 X106.279 Y81.954 E0.01639
G1 X106.348 Y81.436 E0.01639
G1 X106.473 Y80.928 E0.01639
G1 X106.650 Y80.436 E0.01639
G1 X106.879 Y79.966 E0.01639
G1 X107.156 Y79.522 E0.01639
G1 X107.462 Y79.133 E0.01552
G1 X107.845 Y78.736 E0.01731
G1 X108.246 Y78.403 E0.01635
G1 X108.682 Y78.114 E0.01639
G1 X109.146 Y77.873 E0.01639
G1 X109.633 Y77.682 E0.01639
G1 X110.137 Y77.545 E0.01639
G1 X110.653 Y77.462 E0.01639
G1 X111.176 Y77.434 E0.01639
G1 X111.670 Y77.460 E0.01552
G1 X112.215 Y77.545 E0.01731
G1 X112.718 Y77.682 E0.01635
G1 X113.205 Y77.873 E0.01639
G1 X113.669 Y78.114 E0.01639
G1 X114.105 Y78.403 E0.01639
G1 X114.507 Y78.737 E0.01639
G1 X114.872 Y79.111 E0.01639
G1 X115.195 Y79.522 E0.01639
G1 X115.472 Y79.966 E0.01639
G1 X115.701 Y80.436 E0.01639
G1 X115.878 Y80.928 E0.01639
G1 X116.003 Y81.436 E0.01639
G1 X116.068 Y81.926 E0.01552
G1 X116.086 Y82.478 E0.01731
G1 X116.044 Y82.998 E0.01635
G1 X115.947 Y83.512 E0.01639
G1 X115.796 Y84.012 E0.01639
G1 X115.593 Y84.494 E0.01639
G1 X115.340 Y84.951 E0.01639
G1 X115.039 Y85.379 E0.01639
G1 X114.695 Y85.773 E0.01639
G1 X114.311 Y86.127 E0.01639
G1 X113.891 Y86.439 E0.01639
G1 X113.440 Y86.705 E0.01639
G1 X112.964 Y86.921 E0.01639
G1 X112.468 Y87.085 E0.01639
G1 X111.957 Y87.195 E0.01639
G1 X111.437 Y87.251 E0.01639
G1 X111.236 Y87.251 E0.00632
G1 X111.176 Y87.628 F10800.000
G1 F1200.000
G1 X110.894 Y87.628 E0.00883
G1 X110.334 Y87.568 E0.01765
G1 X109.784 Y87.449 E0.01765
G1 X109.249 Y87.272 E0.01765
G1 X108.736 Y87.040 E0.01765
G1 X108.251 Y86.754 E0.01765
G1 X107.799 Y86.418 E0.01765
G1 X107.386 Y86.036 E0.01765
G1 X107.034 Y85.634 E0.01675
G1 X106.691 Y85.151 E0.01857
G1 X106.418 Y84.659 E0.01764
G1 X106.199 Y84.140 E0.01765
G1 X106.037 Y83.601 E0.01765
G1 X105.933 Y83.048 E0.01765
G1 X105.888 Y82.487 E0.01765
G1 X105.903 Y81.924 E0.01765
G1 X105.977 Y81.366 E0.01765
G1 X106.111 Y80.819 E0.01765
G1 X106.302 Y80.289 E0.01765
G1 X106.548 Y79.783 E0.01765
G1 X106.847 Y79.305 E0.01765
G1 X107.177 Y78.885 E0.01675
G1 X107.588 Y78.459 E0.01857
G1 X108.021 Y78.100 E0.01764
G1 X108.490 Y77.788 E0.01765
G1 X108.990 Y77.529 E0.01765
G1 X109.514 Y77.324 E0.01765
G1 X110.057 Y77.176 E0.01765
G1 X110.613 Y77.086 E0.01765
G1 X111.176 Y77.056 E0.01765
G1 X111.709 Y77.085 E0.01675
G1 X112.294 Y77.176 E0.01857
G1 X112.837 Y77.324 E0.01764
G1 X113.361 Y77.529 E0.01765
G1 X113.861 Y77.788 E0.01765
G1 X114.330 Y78.100 E0.01765
G1 X114.764 Y78.459 E0.01765
G1 X115.156 Y78.863 E0.01765
G1 X115.504 Y79.305 E0.01765
G1 X115.803 Y79.783 E0.01765
G1 X116.049 Y80.289 E0.01765
G1 X116.240 Y80.819 E0.01765
G1 X116.374 Y81.366 E0.01765
G1 X116.445 Y81.895 E0.01675
G1 X116.463 Y82.487 E0.01857
G1 X116.418 Y83.048 E0.01764
G1 X116.314 Y83.601 E0.01765
G1 X116.152 Y84.140 E0.01765
G1 X115.933 Y84.659 E0.01765
G1 X115.660 Y85.152 E0.01765
G1 X115.336 Y85.612 E0.01765
G1 X114.965 Y86.036 E0.01765
G1 X114.552 Y86.418 E0.01765
G1 X114.100 Y86.754 E0.01765
G1 X113.615 Y87.040 E0.01765
G1 X113.102 Y87.272 E0.01765
G1 X112.567 Y87.449 E0.01765
G1 X112.017 Y87.568 E0.01765
G1 X111.457 Y87.628 E0.01765
G1 X111.236 Y87.628 E0.00695
G1 X111.029 Y87.388 F10800.000
G1 E-0.80000 F2100.00000
G1 Z0.800 F10800.000
G1 X110.374 Y84.815
G1 Z0.200
G1 E0.80000 F2100.00000
G1 F1200.000
G1 X112.374 Y86.816 E0.09062
G1 X112.393 Y86.812 E0.00063
G1 X112.785 Y86.682 E0.01322
G1 X111.218 Y85.115 E0.07098
G1 X111.711 Y85.063 E0.01585
G1 X113.166 Y86.518 E0.06595
G1 X113.521 Y86.329 E0.01290
G1 X112.138 Y84.945 E0.06267
G1 X112.510 Y84.772 E0.01313
G1 X113.853 Y86.115 E0.06085
G1 X114.162 Y85.880 E0.01245
G1 X112.837 Y84.555 E0.06001
G1 X112.958 Y84.470 E0.00473
G1 X113.128 Y84.301 E0.00769
G1 X114.445 Y85.618 E0.05969
G1 X114.704 Y85.332 E0.01236
G1 X113.382 Y84.010 E0.05988
G1 X113.600 Y83.683 E0.01259
G1 X114.942 Y85.025 E0.06080
G1 X115.158 Y84.696 E0.01261
G1 X113.773 Y83.312 E0.06271
G1 X113.891 Y82.885 E0.01419
G1 X115.350 Y84.343 E0.06607
G1 X115.511 Y83.960 E0.01332
G1 X113.945 Y82.393 E0.07098
G1 X113.907 Y81.864 E0.01699
G1 X113.887 Y81.791 E0.00244
G1 X115.642 Y83.546 E0.07949
G1 X115.738 Y83.097 E0.01470
G1 X110.426 Y77.785 E0.24065
G1 X110.683 Y77.743 E0.00837
G1 X110.916 Y77.731 E0.00747
G1 X115.792 Y82.606 E0.22086
G1 X115.790 Y82.059 E0.01753
G1 X111.463 Y77.732 E0.19601
G1 X111.641 Y77.742 E0.00570
G1 X112.087 Y77.811 E0.01446
G1 X115.712 Y81.436 E0.16421
G1 X115.607 Y81.010 E0.01407
G1 X115.482 Y80.662 E0.01184
G1 X112.863 Y78.042 E0.11866
G1 X113.088 Y78.131 E0.00776
G1 X113.525 Y78.358 E0.01578
G1 X113.936 Y78.630 E0.01578
G1 X114.282 Y78.917 E0.01440
G1 X115.353 Y79.988 E0.04851
G1 E-0.80000 F2100.00000
G1 Z0.800 F10800.000
G1 X111.971 Y79.874
G1 Z0.200
G1 E0.80000 F2100.00000
G1 F1200.000
G1 X109.978 Y77.881 E0.09029
G1 X109.722 Y77.951 E0.00849
G1 X109.564 Y78.013 E0.00542
G1 X111.128 Y79.577 E0.07085
G1 X110.637 Y79.630 E0.01584
G1 X109.180 Y78.174 E0.06598
G1 X108.822 Y78.360 E0.01294
G1 X110.210 Y79.748 E0.06287
G1 X109.838 Y79.921 E0.01313
G1 X108.494 Y78.578 E0.06087
G1 X108.189 Y78.817 E0.01243
G1 X109.511 Y80.139 E0.05987
G1 X109.393 Y80.221 E0.00461
G1 X109.221 Y80.394 E0.00780
G1 X107.906 Y79.079 E0.05955
G1 X107.643 Y79.360 E0.01235
G1 X108.967 Y80.684 E0.05997
G1 X108.749 Y81.012 E0.01259
G1 X107.403 Y79.666 E0.06099
G1 X107.192 Y79.999 E0.01264
G1 X108.576 Y81.383 E0.06272
G1 X108.459 Y81.811 E0.01420
G1 X107.003 Y80.356 E0.06593
G1 X106.841 Y80.738 E0.01332
G1 X108.406 Y82.303 E0.07088
G1 X108.444 Y82.827 E0.01684
G1 X108.466 Y82.908 E0.00266
G1 X106.709 Y81.151 E0.07958
G1 X106.612 Y81.599 E0.01467
G1 X111.926 Y86.913 E0.24074
G1 X111.435 Y86.967 E0.01582
G1 X106.558 Y82.090 E0.22094
G1 X106.562 Y82.638 E0.01756
G1 X110.888 Y86.964 E0.19597
G1 X110.439 Y86.916 E0.01444
G1 X110.255 Y86.876 E0.00604
G1 X106.645 Y83.266 E0.16353
G1 X106.679 Y83.444 E0.00581
G1 X106.873 Y84.039 E0.02002
G1 X109.492 Y86.658 E0.11864
G1 X109.041 Y86.453 E0.01585
G1 X108.617 Y86.203 E0.01578
G1 X108.221 Y85.909 E0.01578
G1 X107.016 Y84.727 E0.05407
G1 E-0.80000 F2100.00000
G1 Z0.800 F10800.000
G1 X108.968 Y105.447
G1 Z0.200
G1 E0.80000 F2100.00000
G1 F1200.000
G1 X107.475 Y106.940 E0.05392
G1 X107.834 Y107.299 E0.01295
G1 X109.074 Y106.058 E0.04479
G1 X109.206 Y106.643 E0.01532
G1 X108.192 Y107.657 E0.03661
G1 X108.551 Y108.016 E0.01295
G1 X109.417 Y107.150 E0.03127
G1 X109.848 Y107.293 E0.01160
G1 X108.838 Y108.303 E0.03647
G1 X108.909 Y108.374 E0.00258
G1 X107.652 Y109.632 E0.04541
G1 X107.842 Y109.545 E0.00534
G1 X108.167 Y109.834 E0.01109
G1 X109.268 Y108.733 E0.03976
G1 X109.626 Y109.091 E0.01295
G1 X108.132 Y110.586 E0.05397
G1 X108.071 Y110.798 E0.00564
G1 X108.354 Y111.081 E0.01021
G1 X109.985 Y109.450 E0.05891
G1 X110.343 Y109.808 E0.01295
G1 X108.614 Y111.537 E0.06244
G1 X107.742 Y111.784 F10800.000
G1 F1200.000
G1 X108.157 Y111.369 E0.01841
G1 X108.691 Y111.902 E0.02365
G1 X107.640 Y112.953 E0.04660
G1 X107.998 Y115.794 F10800.000
G1 F1200.000
G1 X115.892 Y107.901 E0.35000
G1 X115.358 Y107.367 E0.02365
G1 X107.926 Y114.800 E0.32958
G1 X107.822 Y113.837 E0.03037
G1 X114.825 Y106.834 E0.31052
G1 X114.292 Y106.301 E0.02365
G1 X110.806 Y109.787 E0.15457
G1 X110.272 Y109.254 E0.02365
G1 X113.758 Y105.768 E0.15457
G1 X113.225 Y105.234 E0.02365
G1 X109.739 Y108.720 E0.15457
G1 X109.322 Y108.303 E0.01851
G1 X110.953 Y106.671 E0.07234
G1 X110.837 Y106.556 E0.00513
G1 X112.290 Y105.103 E0.06443
G1 X106.131 Y110.196 F10800.000
G1 F1200.000
G1 X108.189 Y108.138 E0.09127
G1 X107.656 Y107.604 E0.02365
G1 X105.350 Y109.910 E0.10225
G1 X105.253 Y109.888 E0.00311
G1 X104.772 Y109.687 E0.01635
G1 X104.610 Y109.584 E0.00602
G1 X107.122 Y107.071 E0.11141
G1 X106.723 Y106.671 E0.01772
G1 X108.477 Y104.917 E0.07778
G1 X108.348 Y104.779 E0.00593
G1 X104.011 Y109.116 E0.19232
G1 X103.945 Y109.057 E0.00276
G1 X103.623 Y108.647 E0.01635
G1 X103.550 Y108.510 E0.00486
G1 X107.745 Y104.315 E0.18602
G1 X107.381 Y104.125 E0.01287
G1 X106.993 Y104.001 E0.01278
G1 X103.232 Y107.762 E0.16678
G1 X103.128 Y107.179 E0.01857
G1 X103.134 Y106.794 E0.01208
G1 X106.025 Y103.902 E0.12823
G1 X105.847 Y103.907 E0.00558
G1 X105.336 Y104.010 E0.01635
G1 X104.850 Y104.197 E0.01635
G1 X104.402 Y104.464 E0.01635
G1 X103.246 Y105.615 E0.05115
G1 E-0.80000 F2100.00000
G1 Z0.800 F10800.000
G1 X128.639 Y110.084
G1 Z0.200
G1 E0.80000 F2100.00000
G1 F1200.000
G1 X130.653 Y108.071 E0.08929
G1 X130.780 Y107.694 E0.01246
G1 X130.861 Y107.179 E0.01635
G1 X130.856 Y106.801 E0.01183
G1 X127.631 Y110.026 E0.14297
G1 X127.221 Y109.979 E0.01294
G1 X127.267 Y109.934 E0.00200
G1 X126.962 Y109.629 E0.01352
G1 X130.674 Y105.917 E0.16462
G1 X130.578 Y105.656 E0.00872
G1 X130.318 Y105.206 E0.01628
G1 X126.428 Y109.096 E0.17248
G1 X125.895 Y108.563 E0.02365
G1 X129.806 Y104.651 E0.17343
G1 X129.588 Y104.464 E0.00903
G1 X129.174 Y104.217 E0.01511
G1 X126.993 Y106.398 E0.09669
G1 X126.460 Y105.865 E0.02365
G1 X128.372 Y103.953 E0.08477
G1 X128.142 Y103.907 E0.00734
G1 X127.621 Y103.892 E0.01635
G1 X127.324 Y103.935 E0.00941
G1 X125.807 Y105.451 E0.06726
G1 E-0.80000 F2100.00000
G1 Z0.800 F10800.000
G1 X124.748 Y106.161
G1 Z0.200
G1 E0.80000 F2100.00000
G1 F1200.000
G1 X125.510 Y105.399 E0.02753
G1 X125.869 Y105.757 E0.01295
G1 X124.237 Y107.389 E0.05891
G1 X124.596 Y107.747 E0.01295
G1 X126.227 Y106.116 E0.05891
G1 X126.586 Y106.474 E0.01295
G1 X124.954 Y108.106 E0.05891
G1 X125.151 Y108.303 E0.00712
G1 X123.520 Y109.934 E0.05891
G1 X123.681 Y110.096 E0.00583
G1 X125.313 Y108.464 E0.05891
G1 X125.671 Y108.823 E0.01295
G1 X123.942 Y110.552 E0.06244
G1 E-0.80000 F2100.00000
G1 Z0.800 F10800.000
G1 X125.018 Y111.628
G1 Z0.200
G1 E0.80000 F2100.00000
G1 F1200.000
G1 X125.904 Y110.741 E0.03201
G1 X125.740 Y110.188 E0.01473
G1 X124.757 Y111.171 E0.03549
G1 X124.399 Y110.813 E0.01295
G1 X126.030 Y109.181 E0.05891
G1 X126.389 Y109.540 E0.01295
G1 X126.205 Y109.723 E0.00662
G1 E-0.80000 F2100.00000
G1 Z0.800 F10800.000
G1 X123.781 Y107.128
G1 Z0.200
G1 E0.80000 F2100.00000
G1 F1200.000
G1 X123.881 Y107.028 E0.00362
G1 X123.529 Y106.663 E0.01295
G1 X123.422 Y106.769 E0.00385
G1 X121.816 Y105.176 F10800.000
G1 F1200.000
G1 X118.192 Y108.800 E0.16069
G1 X118.726 Y109.333 E0.02365
G1 X122.351 Y105.707 E0.16076
G1 X122.937 Y106.188 E0.02376
G1 X119.259 Y109.866 E0.16309
G1 X119.792 Y110.399 E0.02365
G1 X123.278 Y106.913 E0.15457
G1 X123.811 Y107.447 E0.02365
G1 X120.325 Y110.933 E0.15457
G1 X120.859 Y111.466 E0.02365
G1 X124.345 Y107.980 E0.15457
G1 X124.668 Y108.303 E0.01432
G1 X123.036 Y109.934 E0.07234
G1 X123.247 Y110.145 E0.00933
G1 X121.392 Y111.999 E0.08224
G1 X121.925 Y112.532 E0.02365
G1 X123.780 Y110.678 E0.08224
G1 X124.313 Y111.211 E0.02365
G1 X122.459 Y113.066 E0.08224
G1 X122.992 Y113.599 E0.02365
G1 X124.846 Y111.744 E0.08224
G1 X125.151 Y112.049 E0.01352
G1 X125.978 Y111.223 E0.03666
G1 X126.045 Y111.612 E0.01239
G1 X123.525 Y114.132 E0.11175
G1 X124.058 Y114.666 E0.02365
G1 X126.167 Y112.557 E0.09351
G1 X126.193 Y113.598 E0.03265
G1 X124.592 Y115.199 E0.07100
G1 X125.125 Y115.732 E0.02365
G1 X126.064 Y114.792 E0.04166
G1 X125.751 Y116.053 E0.04073
G1 X125.670 Y116.253 E0.00678
G1 X125.538 Y116.385 E0.00585
G1 E-0.80000 F2100.00000
G1 Z0.800 F10800.000
G1 X117.548 Y115.843
G1 Z0.200
G1 E0.80000 F2100.00000
G1 F1200.000
G1 X112.291 Y121.101 E0.23314
G1 X112.985 Y121.473 E0.02470
G1 X117.962 Y116.496 E0.22067
G1 X118.495 Y117.029 E0.02365
G1 X113.736 Y121.788 E0.21102
