; generated by PrusaSlicer 2.4.2+win64 on 2022-07-07 at 01:35:58 UTC

; 

; external perimeters extrusion width = 0.45mm
; perimeters extrusion width = 0.45mm
; infill extrusion width = 0.45mm
; solid infill extrusion width = 0.45mm
; top infill extrusion width = 0.40mm
; support material extrusion width = 0.35mm
; first layer extrusion width = 0.42mm

; external perimeters extrusion width = 0.45mm
; perimeters extrusion width = 0.45mm
; infill extrusion width = 0.45mm
; solid infill extrusion width = 0.45mm
; top infill extrusion width = 0.40mm
; support material extrusion width = 0.35mm
; first layer extrusion width = 0.42mm

; external perimeters extrusion width = 0.45mm
; perimeters extrusion width = 0.45mm
; infill extrusion width = 0.45mm
; solid infill extrusion width = 0.45mm
; top infill extrusion width = 0.40mm
; support material extrusion width = 0.35mm
; first layer extrusion width = 0.42mm

M73 P0 R39
M73 C38
M73 Q0 S39
M73 D38
M107
;TYPE:Custom
M862.3 P "MK3S" ; printer model check
M862.1 P0.4 ; nozzle diameter check
M115 U3.8.0 ; tell printer latest fw version
G90 ; use absolute coordinates
M83 ; extruder relative mode
M104 S215 ; set extruder temp
M140 S60 ; set bed temp
M190 S60 ; wait for bed temp
M109 S215 ; wait for extruder temp
G28 W ; home all without mesh bed level
G80 ; mesh bed leveling
G1 Y-3.0 F1000.0 ; go outside print area
G92 E0.0
G1 X60.0 E9.0 F1000.0 ; intro line
G1 X100.0 E12.5 F1000.0 ; intro line
G92 E0.0
M221 S95
G21 ; set units to millimeters
G90 ; use absolute coordinates
M83 ; use relative distances for extrusion
M900 K0.05 ; Filament gcode LA 1.5
M900 K30 ; Filament gcode LA 1.0
M107
;LAYER_CHANGE
;Z:0.2
;HEIGHT:0.2
;BEFORE_LAYER_CHANGE
G92 E0.0
;0.2


G1 E-.8 F2100
G1 Z.6 F10800
;AFTER_LAYER_CHANGE
;0.2
G1 X104.472 Y54.31
G1 Z.2
G1 E.8 F2100
M204 S1000
;TYPE:Skirt/Brim
;WIDTH:0.42
G1 F1200
G1 X105.339 Y53.256 E.04278
G1 X106.664 Y52.853 E.04342
G1 X141.355 Y52.875 E1.08772
G1 X142.694 Y52.924 E.04201
G1 X143.562 Y53.169 E.02829
G1 X144.228 Y53.65 E.02577
G1 X144.746 Y54.444 E.02971
G1 X155.725 Y82.138 E.93407
G1 X155.892 Y82.961 E.02632
G1 X156.73 Y112.55 E.92812
G1 X154.708 Y145.345 E1.03021
G1 X154.049 Y146.845 E.05138
G1 X146.822 Y154.364 E.32699
G1 X145.779 Y154.997 E.03825
G1 X138.799 Y157.051 E.22813
G1 X138.01 Y157.144 E.02491
G1 X105.645 Y155.536 E1.01604
G1 X98.651 Y154.783 E.22056
G1 X97.535 Y154.512 E.03601
G1 X95.922 Y153.987 E.05319
G1 X95.111 Y153.599 E.02819
G1 X94.461 Y153.038 E.02692
G1 X94.053 Y152.332 E.02556
G1 X93.889 Y151.369 E.03062
G1 X93.269 Y83.006 E2.14356
G1 X93.436 Y82.147 E.02745
G1 X104.45 Y54.365 E.93702
; printing object gnr-left-frame.STL id:0 copy 0
G1 E-.8 F2100
G1 Z.8 F10800
G1 X100.728 Y80.261
G1 Z.2
G1 E.8 F2100
;TYPE:Perimeter
G1 F1200
G1 X148.433 Y80.261 E1.49575
G1 X149.382 Y83.74 E.11306
M73 P1 R38
M73 C37
M73 Q1 S39
G1 X149.532 Y84.207 E.01538
G1 X149.639 Y84.453 E.00842
G1 X149.754 Y84.636 E.00677
G1 X150.015 Y84.88 E.01119
G1 X150.32 Y85.041 E.01082
G1 X150.67 Y85.095 E.0111
G1 X151.05 Y85.032 E.01208
G1 X151.363 Y84.919 E.01043
G1 X151.783 Y84.729 E.01445
G1 X152.533 Y84.344 E.02645
G1 X152.675 Y84.252 E.00531
G1 X152.549 Y86.787 E.07956
G1 X152.291 Y87.003 E.01056
G1 X151.38 Y87.66 E.03522
G1 X150.696 Y88.097 E.02544
G1 X149.944 Y88.539 E.02734
G1 X149.102 Y88.999 E.03008
G1 X148.192 Y89.462 E.03205
G1 X147.167 Y89.949 E.03557
G1 X146.213 Y90.373 E.03275
G1 X145.191 Y90.799 E.0347
G1 X143.308 Y91.512 E.06314
G1 X142.083 Y91.934 E.04061
G1 X140.863 Y92.325 E.04018
G1 X139.65 Y92.685 E.03967
G1 X138.46 Y93.011 E.03867
G1 X137.144 Y93.342 E.04256
G1 X135.857 Y93.636 E.04139
G1 X134.61 Y93.892 E.03992
G1 X133.398 Y94.114 E.03862
G1 X132.068 Y94.33 E.04226
G1 X130.777 Y94.51 E.04088
G1 X129.538 Y94.656 E.03909
G1 X128.294 Y94.774 E.0392
G1 X126.663 Y94.826 E.05118
G1 X124.618 Y94.839 E.06409
G1 X121.362 Y94.8 E.10211
G1 X120.873 Y94.775 E.01534
G1 X119.989 Y94.693 E.02784
G1 X118.742 Y94.555 E.03935
G1 X117.443 Y94.382 E.04107
G1 X116.167 Y94.183 E.0405
G1 X114.914 Y93.961 E.0399
G1 X113.701 Y93.719 E.03877
G1 X112.375 Y93.427 E.04259
G1 X111.117 Y93.119 E.04058
G1 X109.871 Y92.787 E.04045
G1 X108.615 Y92.422 E.04099
G1 X107.398 Y92.04 E.04
G1 X106.222 Y91.643 E.03891
G1 X105.092 Y91.234 E.03768
G1 X103.832 Y90.743 E.04242
G1 X102.782 Y90.301 E.0357
G1 X101.73 Y89.826 E.03622
G1 X100.842 Y89.399 E.03088
G1 X99.972 Y88.952 E.03066
G1 X99.185 Y88.521 E.02815
G1 X98.485 Y88.108 E.02549
G1 X97.881 Y87.727 E.02238
G1 X96.917 Y87.039 E.03713
G1 X96.612 Y86.784 E.01247
G1 X96.471 Y84.221 E.0805
G1 X96.846 Y84.455 E.01386
G1 X97.655 Y84.857 E.02831
G1 X98.013 Y85 E.01211
G1 X98.474 Y85.096 E.01475
G1 X98.831 Y85.044 E.0113
G1 X99.116 Y84.9 E.01003
G1 X99.321 Y84.73 E.00836
G1 X99.505 Y84.492 E.00941
G1 X99.63 Y84.204 E.00985
G1 X99.77 Y83.771 E.01428
G1 X100.712 Y80.319 E.1122
G1 X100.44 Y79.884 F10800
;TYPE:External perimeter
G1 F1200
G1 X148.721 Y79.884 E1.51381
G1 X149.744 Y83.632 E.12183
G1 X149.886 Y84.074 E.01455
G1 X149.973 Y84.277 E.00692
G1 X150.047 Y84.394 E.00433
G1 X150.235 Y84.57 E.0081
G1 X150.44 Y84.678 E.00724
G1 X150.667 Y84.713 E.00722
G1 X150.954 Y84.665 E.00912
G1 X151.221 Y84.569 E.00889
G1 X151.619 Y84.389 E.0137
G1 X152.344 Y84.017 E.02557
G1 X152.695 Y83.791 E.01306
G1 X152.895 Y83.558 E.00964
G1 X153.088 Y83.549 E.00606
G1 X152.917 Y86.97 E.1074
G1 X152.523 Y87.301 E.01615
M73 D37
G1 X151.592 Y87.972 E.03599
G1 X150.893 Y88.418 E.02599
G1 X150.13 Y88.867 E.02774
G1 X149.278 Y89.332 E.03044
G1 X148.358 Y89.801 E.03238
G1 X147.324 Y90.291 E.03588
G1 X146.362 Y90.72 E.03303
G1 X145.33 Y91.149 E.03503
G1 X143.436 Y91.867 E.06351
G1 X142.202 Y92.292 E.04092
G1 X140.974 Y92.686 E.04044
G1 X139.753 Y93.048 E.03993
G1 X138.556 Y93.376 E.03892
G1 X137.232 Y93.709 E.04282
G1 X135.937 Y94.004 E.04164
G1 X134.682 Y94.262 E.04017
G1 X133.463 Y94.486 E.03887
G1 X132.124 Y94.703 E.04252
G1 X130.825 Y94.884 E.04114
M73 Q1 S38
G1 X129.578 Y95.03 E.03934
G1 X128.318 Y95.151 E.0397
G1 X126.67 Y95.203 E.05171
G1 X124.617 Y95.216 E.06435
G1 X121.35 Y95.177 E.10246
G1 X120.846 Y95.151 E.01581
G1 X119.951 Y95.068 E.02819
G1 X118.696 Y94.929 E.03958
G1 X117.389 Y94.755 E.04133
G1 X116.105 Y94.555 E.04076
G1 X114.844 Y94.332 E.04015
G1 X113.624 Y94.089 E.03902
G1 X112.289 Y93.794 E.04285
G1 X111.024 Y93.485 E.04084
G1 X109.77 Y93.15 E.0407
G1 X108.506 Y92.783 E.04124
G1 X107.282 Y92.398 E.04026
G1 X106.098 Y91.998 E.03917
G1 X104.96 Y91.587 E.03795
G1 X103.69 Y91.092 E.04272
G1 X102.632 Y90.647 E.03601
G1 X101.57 Y90.168 E.03651
G1 X100.674 Y89.737 E.03117
G1 X99.796 Y89.285 E.03098
G1 X98.999 Y88.848 E.02849
G1 X98.288 Y88.43 E.02586
G1 X97.671 Y88.04 E.0229
G1 X96.686 Y87.338 E.03791
G1 X96.244 Y86.969 E.01806
G1 X96.096 Y84.267 E.08484
G1 X96.015 Y83.841 E.0136
G1 X95.897 Y83.516 E.01085
G1 X96.245 Y83.58 E.0111
G1 X96.483 Y83.784 E.00982
G1 X97.03 Y84.125 E.02024
G1 X97.809 Y84.512 E.02727
G1 X98.123 Y84.638 E.0106
G1 X98.486 Y84.714 E.01162
G1 X98.715 Y84.68 E.00728
G1 X98.908 Y84.583 E.00676
G1 X99.048 Y84.466 E.00573
G1 X99.178 Y84.299 E.00664
G1 X99.277 Y84.071 E.0078
G1 X99.409 Y83.663 E.01342
G1 X100.424 Y79.942 E.12095
G1 X100.767 Y80.114 F10800
G1 E-.8 F2100
G1 Z.8 F10800
G1 X148.583 Y81.242
G1 Z.2
G1 E.8 F2100
;TYPE:Solid infill
;WIDTH:0.420326
G1 F1200
G1 X147.885 Y80.544 E.03097
G1 X147.352 Y80.544 E.01675
G1 X148.542 Y81.734 E.05281
G1 X148.742 Y82.468 E.02388
G1 X146.818 Y80.544 E.08539
G1 X146.284 Y80.544 E.01675
G1 X149.184 Y83.444 E.1287
G1 E-.8 F2100
G1 Z.8 F10800
G1 X152.057 Y84.715
G1 Z.2
G1 E.8 F2100
G1 F1200
G1 X152.354 Y85.013 E.01319
G1 X152.329 Y85.521 E.01597
G1 X151.827 Y85.019 E.02227
G1 X151.459 Y85.185 E.01267
G1 X152.304 Y86.029 E.03749
G1 X152.278 Y86.538 E.01597
G1 X150.91 Y85.17 E.06072
G1 E-.8 F2100
G1 Z.8 F10800
G1 X152.163 Y86.956
G1 Z.2
G1 E.8 F2100
G1 F1200
G1 X150.573 Y85.366 E.07056
G1 X150.23 Y85.314 E.01088
G1 X149.849 Y85.113 E.01352
G1 X149.534 Y84.818 E.01353
G1 X149.388 Y84.586 E.00861
G1 X149.267 Y84.306 E.00955
G1 X149.151 Y83.944 E.01194
G1 X145.751 Y80.544 E.15091
G1 X145.217 Y80.544 E.01675
G1 X151.731 Y87.058 E.28911
G1 X151.421 Y87.282 E.012
G1 X144.683 Y80.544 E.29904
G1 X144.149 Y80.544 E.01675
G1 X151.105 Y87.5 E.30871
G1 X150.78 Y87.708 E.01213
G1 X143.616 Y80.544 E.31795
G1 X143.082 Y80.544 E.01675
G1 X150.451 Y87.913 E.32704
G1 X150.115 Y88.111 E.01224
G1 X142.548 Y80.544 E.33581
G1 X142.014 Y80.544 E.01675
G1 X149.778 Y88.307 E.34455
G1 X149.433 Y88.496 E.01234
G1 X141.481 Y80.544 E.35292
G1 X140.947 Y80.544 E.01675
G1 X149.088 Y88.684 E.36128
G1 X148.737 Y88.867 E.01242
G1 X140.413 Y80.544 E.3694
G1 X139.879 Y80.544 E.01675
G1 X148.383 Y89.047 E.37739
G1 X148.029 Y89.227 E.01247
G1 X139.346 Y80.544 E.38535
G1 X138.812 Y80.544 E.01675
G1 X147.667 Y89.398 E.39297
G1 X147.305 Y89.57 E.01257
G1 X138.278 Y80.544 E.40059
G1 X137.745 Y80.544 E.01675
G1 X146.941 Y89.74 E.40812
G1 X146.571 Y89.904 E.01269
M73 Q2 S38
G1 X137.211 Y80.544 E.41542
G1 X136.677 Y80.544 E.01675
M73 P2 R38
G1 X146.202 Y90.069 E.42271
G1 X145.827 Y90.228 E.01277
G1 X136.143 Y80.544 E.42977
G1 X135.61 Y80.544 E.01675
G1 X145.45 Y90.385 E.43673
G1 X145.073 Y90.541 E.01281
G1 X135.076 Y80.544 E.44368
G1 X134.542 Y80.544 E.01675
G1 X144.686 Y90.688 E.45019
G1 X144.299 Y90.834 E.01299
G1 X134.008 Y80.544 E.4567
G1 X133.475 Y80.544 E.01675
G1 X143.912 Y90.981 E.46321
G1 X143.525 Y91.128 E.01299
G1 X132.941 Y80.544 E.46971
G1 X132.407 Y80.544 E.01675
G1 X143.136 Y91.272 E.47614
G1 X142.739 Y91.409 E.01317
G1 X131.873 Y80.544 E.48221
G1 X131.34 Y80.544 E.01675
G1 X142.342 Y91.546 E.48828
G1 X141.944 Y91.682 E.01319
G1 X130.806 Y80.544 E.49432
G1 X130.272 Y80.544 E.01675
G1 X141.54 Y91.812 E.50006
G1 X141.136 Y91.941 E.01332
G1 X129.739 Y80.544 E.50581
G1 X129.205 Y80.544 E.01675
G1 X140.731 Y92.07 E.51152
G1 X140.319 Y92.192 E.01347
G1 X128.671 Y80.544 E.51694
G1 X128.137 Y80.544 E.01675
G1 X139.907 Y92.314 E.52236
G1 X139.495 Y92.435 E.0135
G1 X127.604 Y80.544 E.52772
G1 X127.07 Y80.544 E.01675
G1 X139.076 Y92.549 E.53281
G1 X138.657 Y92.664 E.01363
G1 X126.536 Y80.544 E.5379
G1 X126.002 Y80.544 E.01675
G1 X138.235 Y92.776 E.54288
G1 X137.808 Y92.884 E.0138
G1 X125.469 Y80.544 E.54764
G1 X124.935 Y80.544 E.01675
G1 X137.382 Y92.991 E.5524
G1 X136.953 Y93.096 E.01385
G1 X124.401 Y80.544 E.55706
G1 X123.867 Y80.544 E.01675
G1 X136.518 Y93.195 E.56145
G1 X136.084 Y93.294 E.01399
G1 X123.334 Y80.544 E.56585
G1 X122.8 Y80.544 E.01675
G1 X135.646 Y93.39 E.57012
G1 X135.204 Y93.481 E.01418
G1 X122.266 Y80.544 E.57416
G1 X121.733 Y80.544 E.01675
M73 P3 R38
M73 Q3 S38
G1 X134.761 Y93.572 E.5782
G1 X134.314 Y93.659 E.01429
G1 X121.199 Y80.544 E.58204
G1 X120.665 Y80.544 E.01675
G1 X133.863 Y93.742 E.58572
G1 X133.412 Y93.824 E.01439
G1 X120.131 Y80.544 E.58939
G1 X119.598 Y80.544 E.01675
G1 X132.954 Y93.9 E.59275
G1 X132.495 Y93.975 E.0146
G1 X119.064 Y80.544 E.59606
G1 X118.53 Y80.544 E.01675
G1 X132.035 Y94.049 E.59936
G1 X131.567 Y94.115 E.01484
G1 X117.996 Y80.544 E.60227
G1 X117.463 Y80.544 E.01675
G1 X131.099 Y94.18 E.60516
G1 X130.628 Y94.243 E.0149
G1 X116.929 Y80.544 E.60796
G1 X116.395 Y80.544 E.01675
G1 X130.15 Y94.299 E.61045
G1 X129.673 Y94.355 E.01509
G1 X115.861 Y80.544 E.61294
G1 X115.328 Y80.544 E.01675
G1 X129.189 Y94.405 E.61515
G1 X128.702 Y94.451 E.01536
M73 C36
G1 X114.794 Y80.544 E.61722
G1 X114.26 Y80.544 E.01675
M73 P3 R37
G1 X128.211 Y94.494 E.61912
G1 X127.693 Y94.51 E.01625
G1 X113.727 Y80.544 E.61984
G1 X113.193 Y80.544 E.01675
G1 X127.176 Y94.527 E.62056
G1 X126.658 Y94.543 E.01625
G1 X112.659 Y80.544 E.62127
G1 X112.125 Y80.544 E.01675
G1 X126.128 Y94.546 E.62143
G1 X125.597 Y94.55 E.01664
G1 X111.592 Y80.544 E.62158
G1 X111.058 Y80.544 E.01675
G1 X125.067 Y94.553 E.62173
G1 X124.535 Y94.555 E.01669
M73 D36
G1 X110.524 Y80.544 E.62182
G1 X109.99 Y80.544 E.01675
M73 Q3 S37
G1 X123.995 Y94.549 E.62153
G1 X123.455 Y94.542 E.01695
G1 X109.457 Y80.544 E.62125
G1 X108.923 Y80.544 E.01675
M73 P4 R37
M73 Q4 S37
G1 X122.915 Y94.536 E.62097
G1 X122.375 Y94.529 E.01695
G1 X108.389 Y80.544 E.62068
G1 X107.855 Y80.544 E.01675
G1 X121.835 Y94.523 E.6204
G1 X121.371 Y94.517 E.01456
G1 X121.291 Y94.513 E.00249
G1 X107.322 Y80.544 E.61997
G1 X106.788 Y80.544 E.01675
G1 X120.719 Y94.475 E.61826
G1 X120.124 Y94.413 E.01878
G1 X106.254 Y80.544 E.61553
G1 X105.721 Y80.544 E.01675
G1 X119.528 Y94.352 E.6128
G1 X118.933 Y94.29 E.01878
G1 X105.187 Y80.544 E.61007
G1 X104.653 Y80.544 E.01675
G1 X118.323 Y94.214 E.60667
G1 X117.707 Y94.132 E.0195
G1 X104.119 Y80.544 E.60303
G1 X103.586 Y80.544 E.01675
G1 X117.081 Y94.039 E.59893
G1 X116.449 Y93.941 E.02007
G1 X103.052 Y80.544 E.59457
G1 X102.518 Y80.544 E.01675
G1 X115.807 Y93.832 E.58974
G1 X115.158 Y93.717 E.02068
G1 X101.984 Y80.544 E.58463
G1 X101.451 Y80.544 E.01675
G1 X114.496 Y93.59 E.57897
G1 X113.83 Y93.457 E.02133
G1 X100.938 Y80.565 E.57213
G1 X100.824 Y80.984 E.01364
G1 X113.147 Y93.307 E.5469
G1 X112.462 Y93.156 E.02202
G1 X100.709 Y81.404 E.52157
G1 X100.595 Y81.823 E.01364
G1 X111.756 Y92.984 E.49534
G1 X111.046 Y92.808 E.02298
G1 X100.481 Y82.242 E.46889
G1 X100.366 Y82.662 E.01364
G1 X110.318 Y92.613 E.44165
G1 X109.578 Y92.407 E.02411
G1 X100.252 Y83.081 E.41389
G1 X100.137 Y83.5 E.01364
G1 X108.825 Y92.188 E.38559
G1 X108.052 Y91.948 E.02542
G1 X100.02 Y83.917 E.35644
G1 X99.889 Y84.319 E.01328
G1 X107.266 Y91.697 E.32741
G1 X106.46 Y91.424 E.02669
G1 X99.717 Y84.681 E.29928
M73 P5 R37
G1 X99.473 Y84.971 E.01189
M73 Q5 S37
G1 X105.629 Y91.127 E.27321
G1 X104.775 Y90.806 E.02864
G1 X99.162 Y85.194 E.24909
G1 X98.917 Y85.318 E.00862
G1 X98.773 Y85.339 E.00456
G1 X103.899 Y90.464 E.22747
G1 X102.977 Y90.076 E.03137
G1 X98.236 Y85.336 E.21039
G1 X97.931 Y85.272 E.00978
G1 X97.425 Y85.058 E.01724
G1 X102.008 Y89.641 E.2034
G1 X100.989 Y89.156 E.03542
G1 X96.795 Y84.962 E.18615
G1 X96.826 Y85.526 E.01775
G1 X99.877 Y88.578 E.13542
G1 X98.634 Y87.868 E.04492
G1 X96.677 Y85.911 E.08685
G1 E-.8 F2100
G1 Z.8 F10800
G1 X146.229 Y75.125
G1 Z.2
G1 E.8 F2100
;TYPE:Perimeter
;WIDTH:0.42
G1 F1200
G1 X147.062 Y74.393 E.03476
G1 X147.259 Y75.125 E.02376
G1 X146.289 Y75.125 E.0304
G1 E-.8 F2100
G1 Z.8 F10800
G1 X145.229 Y75.502
G1 Z.2
G1 E.8 F2100
;TYPE:External perimeter
G1 F1200
G1 X147.269 Y73.71 E.08514
G1 X147.751 Y75.502 E.05819
G1 X145.289 Y75.502 E.0772
G1 X145.307 Y75.894 F10800
G1 E-.8 F2100
G1 Z.8 F10800
G1 X102.933 Y75.125
G1 Z.2
G1 E.8 F2100
;TYPE:Perimeter
G1 F1200
G1 X101.903 Y75.125 E.03228
G1 X102.099 Y74.393 E.02377
G1 X102.888 Y75.085 E.03291
G1 E-.8 F2100
G1 Z.8 F10800
G1 X103.933 Y75.502
G1 Z.2
G1 E.8 F2100
;TYPE:External perimeter
G1 F1200
G1 X101.412 Y75.502 E.07906
G1 X101.892 Y73.709 E.05821
G1 X103.888 Y75.462 E.08331
G1 X104.133 Y75.156 F10800
G1 E-.8 F2100
G1 Z.8 F10800
G1 X113.056 Y74.959
G1 Z.2
G1 E.8 F2100
;TYPE:Perimeter
G1 F1200
G1 X113.767 Y74.379 E.02878
G1 X124.581 Y64.878 E.45132
G1 X135.579 Y74.538 E.45895
G1 X136.116 Y74.959 E.02141
G1 X135.157 Y74.925 E.03008
G1 X114.498 Y74.925 E.64775
G1 X113.496 Y74.931 E.03142
G1 X113.116 Y74.955 E.01195
G1 E-.8 F2100
G1 Z.8 F10800
G1 X111.615 Y75.502
G1 Z.2
G1 E.8 F2100
;TYPE:External perimeter
G1 F1200
G1 X111.914 Y75.239 E.0125
G1 X112.746 Y74.721 E.0307
G1 X113.145 Y74.415 E.01579
G1 X113.52 Y74.094 E.01547
G1 X124.581 Y64.377 E.46163
G1 X135.823 Y74.25 E.46913
G1 X136.216 Y74.571 E.01591
G1 X136.645 Y74.863 E.01627
G1 X137.083 Y75.094 E.01552
G1 X137.547 Y75.502 E.01938
G1 X137.138 Y75.502 E.01283
G1 X136.161 Y75.34 E.03105
G1 X135.653 Y75.308 E.01595
G1 X135.155 Y75.302 E.01563
G1 X114.499 Y75.302 E.64764
G1 X113.509 Y75.308 E.03105
G1 X113.001 Y75.34 E.01597
G1 X112.024 Y75.502 E.03105
G1 X111.675 Y75.502 E.01094
G1 X111.961 Y75.304 F10800
G1 X112.301 Y75.244
;TYPE:Gap fill
;WIDTH:0.139706
G1 F1200
G1 X112.445 Y75.19 E.00125
;WIDTH:0.186092
G1 X112.59 Y75.135 E.00184
;WIDTH:0.232478
G1 X112.735 Y75.081 E.00244
;WIDTH:0.278864
G1 X112.88 Y75.026 E.00304
G1 E-.8 F2100
G1 Z.8 F10800
G1 X129.243 Y69.124
G1 Z.2
G1 E.8 F2100
;TYPE:Solid infill
;WIDTH:0.425319
G1 F1200
