; generated by PrusaSlicer 2.2.0+win64 on 2021-01-20 at 22:46:05 UTC

; 

; external perimeters extrusion width = 0.45mm
; perimeters extrusion width = 0.45mm
; infill extrusion width = 0.45mm
; solid infill extrusion width = 0.45mm
; top infill extrusion width = 0.40mm
; support material extrusion width = 0.35mm
; first layer extrusion width = 0.42mm

M73 P0 R29
M73 Q0 S29
M201 X1000 Y1000 Z1000 E5000 ; sets maximum accelerations, mm/sec^2
M203 X200 Y200 Z12 E120 ; sets maximum feedrates, mm/sec
M204 P1250 R1250 T1250 ; sets acceleration (P, T) and retract acceleration (R), mm/sec^2
M205 X8.00 Y8.00 Z0.40 E1.50 ; sets the jerk limits, mm/sec
M205 S0 T0 ; sets the minimum extruding and travel feed rate, mm/sec
M107
M862.3 P "MK3S" ; printer model check
M862.1 P0.4 ; nozzle diameter check
M115 U3.8.0 ; tell printer latest fw version
G90 ; use absolute coordinates
M83 ; extruder relative mode
M104 S215 ; set extruder temp
M140 S60 ; set bed temp
M190 S60 ; wait for bed temp
M109 S215 ; wait for extruder temp
G28 W ; home all without mesh bed level
G80 ; mesh bed leveling
G1 Y-3.0 F1000.0 ; go outside print area
G92 E0.0
G1 X60.0 E9.0 F1000.0 ; intro line
M73 Q0 S29
M73 P0 R29
G1 X100.0 E12.5 F1000.0 ; intro line
G92 E0.0
M221 S95
G21 ; set units to millimeters
G90 ; use absolute coordinates
M83 ; use relative distances for extrusion
M900 K0.05 ; Filament gcode LA 1.5
M900 K30 ; Filament gcode LA 1.0
;BEFORE_LAYER_CHANGE
G92 E0.0
;0.2


G1 E-0.80000 F2100.00000
G1 Z0.600 F10800.000
;AFTER_LAYER_CHANGE
;0.2
G1 X103.832 Y80.177
G1 Z0.200
G1 E0.80000 F2100.00000
M204 S1000
G1 F1200.000
G1 X102.274 Y80.177 E0.04887
G1 X102.571 Y79.068 E0.03598
G1 X103.787 Y80.137 E0.05077
G1 E-0.80000 F2100.00000
G1 Z0.800 F10800.000
G1 X104.833 Y80.554
G1 Z0.200
G1 E0.80000 F2100.00000
G1 F1200.000
G1 X101.782 Y80.554 E0.09565
G1 X102.364 Y78.384 E0.07042
G1 X104.788 Y80.514 E0.10117
G1 X105.033 Y80.207 F10800.000
G1 E-0.80000 F2100.00000
G1 Z0.800 F10800.000
G1 X108.193 Y77.919
G1 Z0.200
G1 E0.80000 F2100.00000
G1 F1200.000
G1 X103.894 Y74.143 E0.17941
G1 X105.833 Y66.985 E0.23251
G1 X120.639 Y66.985 E0.46423
G1 X108.238 Y77.880 E0.51756
G1 X108.193 Y78.421 F10800.000
G1 F1200.000
G1 X103.469 Y74.271 E0.19716
G1 X105.544 Y66.608 E0.24893
G1 X121.639 Y66.608 E0.50465
G1 X108.238 Y78.382 E0.55932
G1 X107.954 Y78.100 F10800.000
G1 E-0.80000 F2100.00000
G1 Z0.800 F10800.000
G1 X119.941 Y67.448
G1 Z0.200
G1 E0.80000 F2100.00000
G1 F1200.000
G1 X119.760 Y67.268 E0.00816
G1 X119.216 Y67.268 E0.01744
G1 X119.530 Y67.582 E0.01425
G1 X119.241 Y67.837 E0.01236
G1 X118.671 Y67.268 E0.02579
G1 X118.126 Y67.268 E0.01744
G1 X118.951 Y68.092 E0.03732
G1 X118.661 Y68.346 E0.01236
G1 X117.582 Y67.268 E0.04886
G1 X117.037 Y67.268 E0.01744
G1 X118.371 Y68.601 E0.06039
G1 X118.081 Y68.856 E0.01236
G1 X116.493 Y67.268 E0.07193
G1 X115.948 Y67.268 E0.01744
G1 X117.791 Y69.111 E0.08346
G1 X117.501 Y69.365 E0.01236
G1 X115.403 Y67.268 E0.09500
G1 X114.859 Y67.268 E0.01744
G1 X117.211 Y69.620 E0.10654
G1 X116.921 Y69.875 E0.01236
G1 X114.314 Y67.268 E0.11807
G1 X113.769 Y67.268 E0.01744
G1 X116.631 Y70.129 E0.12961
G1 X116.341 Y70.384 E0.01236
G1 X113.225 Y67.268 E0.14114
G1 X112.680 Y67.268 E0.01744
G1 X116.051 Y70.639 E0.15268
G1 X115.761 Y70.894 E0.01236
G1 X112.135 Y67.268 E0.16421
G1 X111.591 Y67.268 E0.01744
G1 X115.471 Y71.148 E0.17575
G1 X115.182 Y71.403 E0.01236
G1 X111.046 Y67.268 E0.18728
G1 X110.501 Y67.268 E0.01744
G1 X114.892 Y71.658 E0.19882
G1 X114.602 Y71.912 E0.01236
G1 X109.957 Y67.268 E0.21035
G1 X109.412 Y67.268 E0.01744
G1 X114.312 Y72.167 E0.22189
G1 X114.022 Y72.422 E0.01236
G1 X108.868 Y67.268 E0.23343
G1 X108.323 Y67.268 E0.01744
G1 X113.732 Y72.677 E0.24496
G1 X113.442 Y72.931 E0.01236
G1 X107.778 Y67.268 E0.25650
G1 X107.234 Y67.268 E0.01744
G1 X113.152 Y73.186 E0.26803
G1 X112.862 Y73.441 E0.01236
G1 X106.689 Y67.268 E0.27957
G1 X106.144 Y67.268 E0.01744
G1 X112.572 Y73.695 E0.29110
G1 X112.282 Y73.950 E0.01236
G1 X105.954 Y67.621 E0.28661
G1 X105.837 Y68.050 E0.01422
G1 X111.992 Y74.205 E0.27874
G1 X111.702 Y74.460 E0.01236
G1 X105.721 Y68.479 E0.27087
G1 X105.605 Y68.907 E0.01422
G1 X111.413 Y74.714 E0.26299
G1 X111.123 Y74.969 E0.01236
G1 X105.489 Y69.336 E0.25512
G1 X105.373 Y69.764 E0.01422
G1 X110.833 Y75.224 E0.24725
G1 X110.543 Y75.478 E0.01236
G1 X105.257 Y70.193 E0.23937
G1 X105.141 Y70.621 E0.01422
G1 X110.253 Y75.733 E0.23150
G1 X109.963 Y75.988 E0.01236
G1 X105.025 Y71.050 E0.22363
G1 X104.909 Y71.479 E0.01422
G1 X109.673 Y76.243 E0.21575
G1 X109.383 Y76.497 E0.01236
G1 X104.793 Y71.907 E0.20788
G1 X104.677 Y72.336 E0.01422
G1 X109.093 Y76.752 E0.20000
G1 X108.803 Y77.007 E0.01236
G1 X104.561 Y72.764 E0.19213
G1 X104.445 Y73.193 E0.01422
G1 X108.513 Y77.262 E0.18426
G1 X108.223 Y77.516 E0.01236
G1 X104.190 Y73.483 E0.18265
G1 E-0.80000 F2100.00000
G1 Z0.800 F10800.000
G1 X125.000 Y62.411
G1 Z0.200
G1 E0.80000 F2100.00000
G1 F1200.000
G1 X107.046 Y62.411 E0.56293
G1 X107.515 Y60.688 E0.05599
G1 X124.090 Y60.688 E0.51967
G1 X141.966 Y60.713 E0.56051
G1 X142.496 Y60.733 E0.01663
G1 X142.954 Y62.411 E0.05451
G1 X125.060 Y62.411 E0.56104
G1 X125.000 Y62.788 F10800.000
G1 F1200.000
G1 X106.553 Y62.788 E0.57840
G1 X107.227 Y60.311 E0.08050
G1 X141.974 Y60.336 E1.08944
G1 X142.787 Y60.367 E0.02553
G1 X143.447 Y62.788 E0.07867
G1 X125.060 Y62.788 E0.57652
G1 X124.785 Y62.451 F10800.000
G1 E-0.80000 F2100.00000
G1 Z0.800 F10800.000
G1 X142.700 Y61.912
G1 Z0.200
G1 E0.80000 F2100.00000
G1 F1200.000
G1 X141.784 Y60.996 E0.04119
G1 X141.243 Y60.995 E0.01719
G1 X142.376 Y62.128 E0.05090
G1 X141.835 Y62.128 E0.01717
G1 X140.702 Y60.994 E0.05094
G1 X140.160 Y60.993 E0.01719
G1 X141.295 Y62.128 E0.05097
G1 X140.754 Y62.128 E0.01717
G1 X139.619 Y60.993 E0.05100
G1 X139.078 Y60.992 E0.01719
G1 X140.214 Y62.128 E0.05104
G1 X139.674 Y62.128 E0.01717
G1 X138.537 Y60.991 E0.05107
G1 X137.996 Y60.990 E0.01719
G1 X139.133 Y62.128 E0.05111
G1 X138.593 Y62.128 E0.01717
G1 X137.455 Y60.990 E0.05114
G1 X136.914 Y60.989 E0.01719
G1 X138.053 Y62.128 E0.05117
G1 X137.512 Y62.128 E0.01717
G1 X136.373 Y60.988 E0.05121
G1 X135.831 Y60.987 E0.01719
G1 X136.972 Y62.128 E0.05124
G1 X136.431 Y62.128 E0.01717
G1 X135.290 Y60.987 E0.05128
G1 X134.749 Y60.986 E0.01719
G1 X135.891 Y62.128 E0.05131
G1 X135.351 Y62.128 E0.01717
G1 X134.208 Y60.985 E0.05134
G1 X133.667 Y60.984 E0.01719
G1 X134.810 Y62.128 E0.05138
G1 X134.270 Y62.128 E0.01717
G1 X133.126 Y60.984 E0.05141
G1 X132.585 Y60.983 E0.01719
G1 X133.730 Y62.128 E0.05145
G1 X133.189 Y62.128 E0.01717
G1 X132.043 Y60.982 E0.05148
G1 X131.502 Y60.981 E0.01719
G1 X132.649 Y62.128 E0.05151
G1 X132.108 Y62.128 E0.01717
G1 X130.961 Y60.981 E0.05155
G1 X130.420 Y60.980 E0.01719
G1 X131.568 Y62.128 E0.05158
G1 X131.028 Y62.128 E0.01717
G1 X129.879 Y60.979 E0.05162
G1 X129.338 Y60.978 E0.01719
G1 X130.487 Y62.128 E0.05165
G1 X129.947 Y62.128 E0.01717
G1 X128.797 Y60.978 E0.05168
G1 X128.256 Y60.977 E0.01719
G1 X129.407 Y62.128 E0.05172
G1 X128.866 Y62.128 E0.01717
G1 X127.714 Y60.976 E0.05175
G1 X127.173 Y60.975 E0.01719
G1 X128.326 Y62.128 E0.05179
G1 X127.785 Y62.128 E0.01717
G1 X126.632 Y60.975 E0.05182
G1 X126.091 Y60.974 E0.01719
G1 X127.245 Y62.128 E0.05185
G1 X126.705 Y62.128 E0.01717
G1 X125.550 Y60.973 E0.05189
G1 X125.009 Y60.972 E0.01719
G1 X126.164 Y62.128 E0.05192
G1 X125.624 Y62.128 E0.01717
G1 X124.468 Y60.972 E0.05195
G1 X123.927 Y60.971 E0.01719
G1 X125.084 Y62.128 E0.05198
G1 X124.543 Y62.128 E0.01717
G1 X123.386 Y60.971 E0.05198
G1 X122.846 Y60.971 E0.01717
G1 X124.003 Y62.128 E0.05198
G1 X123.462 Y62.128 E0.01717
G1 X122.306 Y60.971 E0.05198
G1 X121.765 Y60.971 E0.01717
G1 X122.922 Y62.128 E0.05198
G1 X122.382 Y62.128 E0.01717
G1 X121.225 Y60.971 E0.05198
G1 X120.684 Y60.971 E0.01717
G1 X121.841 Y62.128 E0.05198
G1 X121.301 Y62.128 E0.01717
G1 X120.144 Y60.971 E0.05198
G1 X119.604 Y60.971 E0.01717
G1 X120.761 Y62.128 E0.05199
G1 X120.220 Y62.128 E0.01717
G1 X119.063 Y60.971 E0.05199
G1 X118.523 Y60.971 E0.01717
G1 X119.680 Y62.128 E0.05199
G1 X119.139 Y62.128 E0.01717
G1 X117.982 Y60.971 E0.05199
G1 X117.442 Y60.971 E0.01717
G1 X118.599 Y62.128 E0.05199
G1 X118.059 Y62.128 E0.01717
G1 X116.902 Y60.971 E0.05199
G1 X116.361 Y60.971 E0.01717
G1 X117.518 Y62.128 E0.05199
G1 X116.978 Y62.128 E0.01717
G1 X115.821 Y60.971 E0.05199
G1 X115.280 Y60.971 E0.01717
G1 X116.438 Y62.128 E0.05199
G1 X115.897 Y62.128 E0.01717
G1 X114.740 Y60.971 E0.05199
G1 X114.200 Y60.971 E0.01717
G1 X115.357 Y62.128 E0.05199
G1 X114.816 Y62.128 E0.01717
G1 X113.659 Y60.971 E0.05199
G1 X113.119 Y60.971 E0.01717
G1 X114.276 Y62.128 E0.05200
G1 X113.736 Y62.128 E0.01717
G1 X112.578 Y60.971 E0.05200
G1 X112.038 Y60.971 E0.01717
G1 X113.195 Y62.128 E0.05200
G1 X112.655 Y62.128 E0.01717
G1 X111.498 Y60.971 E0.05200
G1 X110.957 Y60.971 E0.01717
G1 X112.115 Y62.128 E0.05200
G1 X111.574 Y62.128 E0.01717
G1 X110.417 Y60.971 E0.05200
G1 X109.876 Y60.971 E0.01717
G1 X111.034 Y62.128 E0.05200
G1 X110.493 Y62.128 E0.01717
G1 X109.336 Y60.970 E0.05200
G1 X108.796 Y60.970 E0.01717
G1 X109.953 Y62.128 E0.05200
G1 X109.413 Y62.128 E0.01717
G1 X108.255 Y60.970 E0.05200
G1 X107.731 Y60.970 E0.01665
G1 X108.872 Y62.128 E0.05163
G1 X108.332 Y62.128 E0.01717
G1 X107.612 Y61.408 E0.03234
G1 X107.497 Y61.833 E0.01399
G1 X107.961 Y62.297 E0.02088
G1 E-0.80000 F2100.00000
G1 Z0.800 F10800.000
G1 X141.807 Y77.919
G1 Z0.200
G1 E0.80000 F2100.00000
G1 F1200.000
G1 X129.361 Y66.985 E0.51944
G1 X144.183 Y66.985 E0.46472
G1 X146.106 Y74.142 E0.23237
G1 X141.852 Y77.880 E0.17756
G1 X141.807 Y78.421 F10800.000
G1 F1200.000
G1 X128.361 Y66.608 E0.56120
G1 X144.472 Y66.608 E0.50515
G1 X146.531 Y74.270 E0.24879
G1 X141.852 Y78.382 E0.19530
G1 X141.618 Y78.069 F10800.000
G1 E-0.80000 F2100.00000
G1 Z0.800 F10800.000
G1 X130.435 Y67.098
G1 Z0.200
G1 E0.80000 F2100.00000
G1 F1200.000
G1 X134.177 Y70.840 E0.16708
G1 X138.600 Y74.725 E0.18586
G1 X131.142 Y67.268 E0.33299
G1 X131.679 Y67.268 E0.01696
G1 X141.885 Y77.474 E0.45573
G1 X142.171 Y77.223 E0.01201
G1 X132.216 Y67.268 E0.44452
G1 X132.753 Y67.268 E0.01696
G1 X142.457 Y76.972 E0.43330
G1 X142.743 Y76.720 E0.01201
G1 X133.290 Y67.268 E0.42209
G1 X133.827 Y67.268 E0.01696
G1 X143.029 Y76.469 E0.41088
G1 X143.315 Y76.218 E0.01201
G1 X134.364 Y67.268 E0.39966
G1 X134.901 Y67.268 E0.01696
G1 X143.601 Y75.967 E0.38845
G1 X143.886 Y75.716 E0.01201
G1 X135.438 Y67.268 E0.37723
G1 X135.975 Y67.268 E0.01696
G1 X144.172 Y75.465 E0.36602
G1 X144.458 Y75.214 E0.01201
G1 X136.512 Y67.268 E0.35481
G1 X137.049 Y67.268 E0.01696
G1 X144.744 Y74.962 E0.34359
G1 X145.030 Y74.711 E0.01201
G1 X137.586 Y67.268 E0.33238
G1 X138.123 Y67.268 E0.01696
G1 X145.316 Y74.460 E0.32116
G1 X145.602 Y74.209 E0.01201
G1 X138.660 Y67.268 E0.30995
G1 X139.197 Y67.268 E0.01696
G1 X145.719 Y73.789 E0.29119
G1 X145.521 Y73.055 E0.02401
G1 X139.734 Y67.268 E0.25840
G1 X140.271 Y67.268 E0.01696
G1 X145.324 Y72.320 E0.22561
G1 X145.126 Y71.586 E0.02401
G1 X140.808 Y67.268 E0.19282
G1 X141.345 Y67.268 E0.01696
G1 X144.929 Y70.851 E0.16002
G1 X144.732 Y70.117 E0.02401
G1 X141.882 Y67.268 E0.12723
G1 X142.419 Y67.268 E0.01696
G1 X144.534 Y69.383 E0.09444
G1 X144.337 Y68.648 E0.02401
G1 X142.956 Y67.268 E0.06165
G1 X143.493 Y67.268 E0.01696
G1 X144.380 Y68.154 E0.03958
G1 E-0.80000 F2100.00000
G1 Z0.800 F10800.000
G1 X125.000 Y80.177
G1 Z0.200
G1 E0.80000 F2100.00000
G1 F1200.000
G1 X112.554 Y80.177 E0.39023
G1 X125.000 Y69.242 E0.51944
G1 X137.446 Y80.177 E0.51944
M73 Q3 S28
M73 P3 R28
G1 X125.060 Y80.177 E0.38835
G1 X125.000 Y80.554 F10800.000
G1 F1200.000
G1 X111.554 Y80.554 E0.42160
G1 X125.000 Y68.740 E0.56120
G1 X138.446 Y80.554 E0.56120
G1 X125.060 Y80.554 E0.41972
G1 X124.654 Y80.354 F10800.000
G1 E-0.80000 F2100.00000
G1 Z0.800 F10800.000
G1 X113.250 Y79.715
G1 Z0.200
G1 E0.80000 F2100.00000
G1 F1200.000
G1 X113.429 Y79.894 E0.00804
G1 X113.971 Y79.894 E0.01727
G1 X113.659 Y79.582 E0.01404
G1 X113.948 Y79.329 E0.01224
G1 X114.513 Y79.894 E0.02547
G1 X115.055 Y79.894 E0.01727
G1 X114.236 Y79.075 E0.03689
G1 X114.525 Y78.822 E0.01224
G1 X115.597 Y79.894 E0.04832
G1 X116.139 Y79.894 E0.01727
G1 X114.813 Y78.568 E0.05974
G1 X115.102 Y78.315 E0.01224
G1 X116.681 Y79.894 E0.07117
G1 X117.223 Y79.894 E0.01727
G1 X115.390 Y78.061 E0.08259
G1 X115.679 Y77.808 E0.01224
G1 X117.765 Y79.894 E0.09402
G1 X118.307 Y79.894 E0.01727
G1 X115.967 Y77.554 E0.10545
G1 X116.256 Y77.301 E0.01224
G1 X118.849 Y79.894 E0.11687
G1 X119.391 Y79.894 E0.01727
G1 X116.545 Y77.047 E0.12830
G1 X116.833 Y76.794 E0.01224
G1 X119.933 Y79.894 E0.13972
G1 X120.475 Y79.894 E0.01727
G1 X117.122 Y76.540 E0.15115
G1 X117.410 Y76.287 E0.01224
G1 X121.017 Y79.894 E0.16257
G1 X121.559 Y79.894 E0.01727
G1 X117.699 Y76.033 E0.17400
G1 X117.987 Y75.780 E0.01224
G1 X122.101 Y79.894 E0.18542
G1 X122.643 Y79.894 E0.01727
G1 X118.276 Y75.526 E0.19685
G1 X118.564 Y75.273 E0.01224
G1 X123.185 Y79.894 E0.20827
G1 X123.727 Y79.894 E0.01727
G1 X118.853 Y75.019 E0.21970
G1 X119.141 Y74.766 E0.01224
G1 X124.269 Y79.894 E0.23112
G1 X124.811 Y79.894 E0.01727
G1 X119.430 Y74.512 E0.24255
G1 X119.718 Y74.259 E0.01224
G1 X125.353 Y79.894 E0.25397
G1 X125.895 Y79.894 E0.01727
G1 X120.007 Y74.005 E0.26540
G1 X120.295 Y73.752 E0.01224
G1 X126.438 Y79.894 E0.27682
G1 X126.980 Y79.894 E0.01727
G1 X120.584 Y73.498 E0.28825
G1 X120.873 Y73.245 E0.01224
G1 X127.522 Y79.894 E0.29967
G1 X128.064 Y79.894 E0.01727
G1 X121.161 Y72.991 E0.31110
G1 X121.450 Y72.738 E0.01224
G1 X128.606 Y79.894 E0.32252
G1 X129.148 Y79.894 E0.01727
G1 X121.738 Y72.484 E0.33395
G1 X122.027 Y72.231 E0.01224
G1 X129.690 Y79.894 E0.34537
G1 X130.232 Y79.894 E0.01727
G1 X122.315 Y71.977 E0.35680
G1 X122.604 Y71.724 E0.01224
G1 X130.774 Y79.894 E0.36822
G1 X131.316 Y79.894 E0.01727
G1 X122.892 Y71.470 E0.37965
G1 X123.181 Y71.217 E0.01224
G1 X131.858 Y79.894 E0.39107
G1 X132.400 Y79.894 E0.01727
G1 X123.469 Y70.963 E0.40250
G1 X123.758 Y70.710 E0.01224
G1 X132.942 Y79.894 E0.41393
G1 X133.484 Y79.894 E0.01727
G1 X124.046 Y70.456 E0.42535
G1 X124.335 Y70.203 E0.01224
G1 X134.026 Y79.894 E0.43678
G1 X134.568 Y79.894 E0.01727
G1 X124.623 Y69.949 E0.44820
G1 X124.912 Y69.696 E0.01224
G1 X135.110 Y79.894 E0.45963
G1 X135.652 Y79.894 E0.01727
G1 X128.103 Y72.344 E0.34025
G1 X132.566 Y76.266 E0.18936
G1 X136.364 Y80.063 E0.17115
G1 E-0.80000 F2100.00000
G1 Z0.800 F10800.000
G1 X146.168 Y80.177
G1 Z0.200
G1 E0.80000 F2100.00000
G1 F1200.000
G1 X147.428 Y79.069 E0.05261
G1 X147.726 Y80.177 E0.03596
G1 X146.228 Y80.177 E0.04699
G1 E-0.80000 F2100.00000
G1 Z0.800 F10800.000
G1 X145.167 Y80.554
G1 Z0.200
G1 E0.80000 F2100.00000
G1 F1200.000
G1 X147.635 Y78.386 E0.10299
G1 X148.218 Y80.554 E0.07039
G1 X145.227 Y80.554 E0.09378
G1 X145.246 Y80.946 F10800.000
G1 E-0.80000 F2100.00000
G1 Z0.800 F10800.000
G1 X147.300 Y80.063
G1 Z0.200
G1 E0.80000 F2100.00000
G1 F1200.000
G1 X146.911 Y79.674 E0.01942
G1 E-0.80000 F2100.00000
G1 Z0.800 F10800.000
G1 X124.685 Y99.895
G1 Z0.200
G1 E0.80000 F2100.00000
G1 F1200.000
G1 X123.248 Y99.900 E0.04505
G1 X121.342 Y99.847 E0.05980
G1 X118.144 Y99.494 E0.10088
G1 X114.857 Y98.944 E0.10449
G1 X111.621 Y98.218 E0.10399
G1 X108.463 Y97.326 E0.10287
G1 X105.384 Y96.271 E0.10207
G1 X104.055 Y95.749 E0.04477
G1 X101.526 Y94.622 E0.08679
G1 X99.468 Y93.544 E0.07286
G1 X97.958 Y92.608 E0.05571
G1 X96.838 Y91.758 E0.04408
G1 X96.699 Y88.843 E0.09149
G1 X98.007 Y89.477 E0.04555
G1 X98.559 Y89.703 E0.01870
G1 X98.929 Y89.767 E0.01178
G1 X99.222 Y89.713 E0.00935
G1 X99.480 Y89.568 E0.00928
G1 X99.762 Y89.256 E0.01319
G1 X100.021 Y88.506 E0.02486
G1 X101.043 Y84.751 E0.12203
G1 X148.956 Y84.751 E1.50227
G1 X149.566 Y87.020 E0.07368
G1 X150.136 Y88.998 E0.06453
G1 X150.314 Y89.374 E0.01305
G1 X150.597 Y89.621 E0.01178
G1 X150.851 Y89.736 E0.00875
G1 X151.154 Y89.763 E0.00954
G1 X151.560 Y89.664 E0.01310
G1 X153.301 Y88.836 E0.06046
G1 X153.163 Y91.753 E0.09157
G1 X152.788 Y92.066 E0.01531
G1 X151.562 Y92.923 E0.04691
G1 X149.709 Y93.996 E0.06712
G1 X147.284 Y95.176 E0.08458
G1 X144.611 Y96.272 E0.09057
