; generated by PrusaSlicer 2.1.1+win64 on 2020-05-22 at 17:18:23 UTC

; 

; external perimeters extrusion width = 0.45mm
; perimeters extrusion width = 0.45mm
; infill extrusion width = 0.45mm
; solid infill extrusion width = 0.45mm
; top infill extrusion width = 0.40mm
; first layer extrusion width = 0.42mm

M73 P0 R124
M73 Q0 S126
M201 X1000 Y1000 Z1000 E5000 ; sets maximum accelerations, mm/sec^2
M203 X200 Y200 Z12 E120 ; sets maximum feedrates, mm/sec
M204 P1250 R1250 T1250 ; sets acceleration (P, T) and retract acceleration (R), mm/sec^2
M205 X8.00 Y8.00 Z0.40 E1.50 ; sets the jerk limits, mm/sec
M205 S0 T0 ; sets the minimum extruding and travel feed rate, mm/sec
M107
M862.3 P "MK3S" ; printer model check
M862.1 P0.4 ; nozzle diameter check
M115 U3.8.0 ; tell printer latest fw version
G90 ; use absolute coordinates
M83 ; extruder relative mode
M104 S215 ; set extruder temp
M140 S60 ; set bed temp
M190 S60 ; wait for bed temp
M109 S215 ; wait for extruder temp
G28 W ; home all without mesh bed level
G80 ; mesh bed leveling
G1 Y-3.0 F1000.0 ; go outside print area
G92 E0.0
G1 X60.0 E9.0 F1000.0 ; intro line
M73 Q0 S126
M73 P0 R124
G1 X100.0 E12.5 F1000.0 ; intro line
G92 E0.0
M221 S95
G21 ; set units to millimeters
G90 ; use absolute coordinates
M83 ; use relative distances for extrusion
M900 K30 ; Filament gcode
;BEFORE_LAYER_CHANGE
G92 E0.0
;0.2


G1 E-0.80000 F2100.00000
G1 Z0.600 F10800.000
;AFTER_LAYER_CHANGE
;0.2
G1 X125.000 Y117.300
G1 Z0.200
G1 E0.80000 F2100.00000
M204 S1000
G1 F1200
G1 X122.600 Y117.064 E0.07560
G1 X120.293 Y116.364 E0.07560
G1 X118.166 Y115.227 E0.07560
G1 X116.302 Y113.698 E0.07560
G1 X114.773 Y111.834 E0.07560
G1 X113.636 Y109.707 E0.07560
G1 X112.936 Y107.400 E0.07560
G1 X112.700 Y105.000 E0.07560
G1 X112.936 Y102.600 E0.07560
G1 X113.636 Y100.293 E0.07560
G1 X114.773 Y98.166 E0.07560
G1 X116.302 Y96.302 E0.07560
G1 X118.166 Y94.773 E0.07560
G1 X120.293 Y93.636 E0.07560
G1 X122.600 Y92.936 E0.07560
G1 X125.009 Y92.701 E0.07589
G1 X127.400 Y92.936 E0.07531
G1 X129.707 Y93.636 E0.07560
G1 X131.834 Y94.773 E0.07560
G1 X133.698 Y96.302 E0.07560
G1 X135.227 Y98.166 E0.07560
G1 X136.364 Y100.293 E0.07560
G1 X137.064 Y102.600 E0.07560
G1 X137.300 Y105.000 E0.07560
G1 X137.064 Y107.400 E0.07560
G1 X136.364 Y109.707 E0.07560
G1 X135.227 Y111.834 E0.07560
G1 X133.698 Y113.698 E0.07560
G1 X131.834 Y115.227 E0.07560
G1 X129.707 Y116.364 E0.07560
G1 X127.400 Y117.064 E0.07560
G1 X125.060 Y117.294 E0.07372
G1 X125.000 Y117.679 F10800.000
G1 F1200
G1 X122.526 Y117.435 E0.07793
G1 X120.148 Y116.714 E0.07793
G1 X117.956 Y115.542 E0.07793
G1 X116.035 Y113.965 E0.07793
G1 X114.458 Y112.044 E0.07793
G1 X113.286 Y109.852 E0.07793
G1 X112.565 Y107.474 E0.07793
G1 X112.321 Y105.000 E0.07793
G1 X112.565 Y102.526 E0.07793
G1 X113.286 Y100.148 E0.07793
G1 X114.458 Y97.956 E0.07793
G1 X116.035 Y96.035 E0.07793
G1 X117.956 Y94.458 E0.07793
G1 X120.148 Y93.286 E0.07793
G1 X122.526 Y92.565 E0.07793
G1 X125.009 Y92.322 E0.07822
G1 X127.474 Y92.565 E0.07764
G1 X129.852 Y93.286 E0.07793
G1 X132.044 Y94.458 E0.07793
G1 X133.965 Y96.035 E0.07793
G1 X135.542 Y97.956 E0.07793
G1 X136.714 Y100.148 E0.07793
G1 X137.435 Y102.526 E0.07793
G1 X137.679 Y105.000 E0.07793
G1 X137.435 Y107.474 E0.07793
G1 X136.714 Y109.852 E0.07793
G1 X135.542 Y112.044 E0.07793
G1 X133.965 Y113.965 E0.07793
G1 X132.044 Y115.542 E0.07793
G1 X129.852 Y116.714 E0.07793
G1 X127.474 Y117.435 E0.07793
G1 X125.060 Y117.673 E0.07605
G1 X124.800 Y117.333 F10800.000
G1 E-0.80000 F2100.00000
G1 Z0.800 F10800.000
G1 X120.351 Y116.263
G1 Z0.200
G1 E0.80000 F2100.00000
G1 F1200
G1 X114.143 Y110.056 E0.27842
G1 X113.899 Y109.598 E0.01645
G1 X113.756 Y109.130 E0.01553
G1 X120.870 Y116.244 E0.31907
G1 X121.645 Y116.478 E0.02566
G1 X113.522 Y108.355 E0.36433
G1 X113.287 Y107.581 E0.02566
G1 X122.419 Y116.713 E0.40960
G1 X122.656 Y116.785 E0.00785
G1 X123.071 Y116.826 E0.01323
G1 X113.174 Y106.929 E0.44391
G1 X113.115 Y106.331 E0.01907
G1 X123.669 Y116.885 E0.47339
G1 X124.268 Y116.944 E0.01907
G1 X113.056 Y105.732 E0.50287
G1 X112.997 Y105.134 E0.01907
G1 X124.866 Y117.003 E0.53235
G1 X125.000 Y117.016 E0.00427
G1 X125.381 Y116.978 E0.01215
G1 X113.022 Y104.619 E0.55435
G1 X113.070 Y104.128 E0.01565
G1 X125.872 Y116.930 E0.57421
G1 X126.363 Y116.882 E0.01565
G1 X113.118 Y103.637 E0.59407
G1 X113.167 Y103.146 E0.01565
G1 X126.854 Y116.833 E0.61392
G1 X127.345 Y116.785 E0.01564
G1 X113.215 Y102.655 E0.63376
G1 X113.341 Y102.241 E0.01372
G1 X127.759 Y116.659 E0.64669
G1 X128.173 Y116.534 E0.01372
G1 X113.466 Y101.827 E0.65962
G1 X113.592 Y101.413 E0.01372
G1 X128.587 Y116.408 E0.67256
G1 X129.001 Y116.283 E0.01372
G1 X113.717 Y100.999 E0.68549
G1 X113.843 Y100.586 E0.01372
G1 X129.414 Y116.157 E0.69842
G1 X129.598 Y116.101 E0.00609
G1 X129.794 Y115.997 E0.00703
G1 X114.003 Y100.206 E0.70824
G1 X114.191 Y99.855 E0.01264
G1 X130.145 Y115.809 E0.71558
G1 X130.497 Y115.621 E0.01264
G1 X114.379 Y99.503 E0.72292
G1 X114.567 Y99.152 E0.01264
G1 X130.848 Y115.433 E0.73026
G1 X131.200 Y115.245 E0.01264
G1 X114.755 Y98.800 E0.73760
G1 X114.943 Y98.449 E0.01264
G1 X131.551 Y115.057 E0.74494
G1 X131.676 Y114.991 E0.00448
G1 X131.867 Y114.834 E0.00785
G1 X115.166 Y98.133 E0.74908
G1 X115.409 Y97.837 E0.01216
G1 X132.163 Y114.591 E0.75146
G1 X132.460 Y114.348 E0.01216
G1 X115.652 Y97.540 E0.75384
G1 X115.896 Y97.244 E0.01216
G1 X132.756 Y114.104 E0.75622
G1 X133.052 Y113.861 E0.01216
G1 X116.139 Y96.948 E0.75861
G1 X116.382 Y96.652 E0.01216
G1 X133.348 Y113.618 E0.76099
G1 X133.497 Y113.497 E0.00608
G1 X133.618 Y113.348 E0.00608
G1 X116.652 Y96.382 E0.76099
G1 X116.948 Y96.139 E0.01216
G1 X133.861 Y113.052 E0.75861
G1 X134.104 Y112.756 E0.01216
G1 X117.244 Y95.896 E0.75622
G1 X117.540 Y95.652 E0.01216
G1 X134.348 Y112.460 E0.75384
G1 X134.591 Y112.163 E0.01216
G1 X117.837 Y95.409 E0.75146
G1 X118.133 Y95.166 E0.01216
G1 X134.834 Y111.867 E0.74908
G1 X134.991 Y111.676 E0.00785
G1 X135.057 Y111.551 E0.00447
G1 X118.449 Y94.943 E0.74494
G1 X118.800 Y94.755 E0.01264
G1 X135.245 Y111.200 E0.73760
G1 X135.433 Y110.848 E0.01264
G1 X119.152 Y94.567 E0.73026
G1 X119.503 Y94.379 E0.01264
G1 X135.621 Y110.497 E0.72292
G1 X135.809 Y110.145 E0.01264
G1 X119.855 Y94.191 E0.71558
G1 X120.206 Y94.003 E0.01264
G1 X135.997 Y109.794 E0.70824
G1 X136.101 Y109.598 E0.00703
G1 X136.157 Y109.415 E0.00609
G1 X120.585 Y93.843 E0.69842
G1 X120.999 Y93.717 E0.01372
G1 X136.283 Y109.001 E0.68549
G1 X136.408 Y108.587 E0.01372
G1 X121.413 Y93.592 E0.67256
M73 Q0 S125
G1 X121.827 Y93.466 E0.01372
G1 X136.534 Y108.173 E0.65962
M73 P0 R123
G1 X136.659 Y107.759 E0.01372
G1 X122.241 Y93.341 E0.64669
G1 X122.655 Y93.215 E0.01372
G1 X136.785 Y107.345 E0.63376
G1 X136.833 Y106.854 E0.01564
G1 X123.146 Y93.167 E0.61391
G1 X123.637 Y93.119 E0.01566
G1 X136.882 Y106.363 E0.59404
G1 X136.930 Y105.872 E0.01565
G1 X124.129 Y93.071 E0.57417
G1 X124.620 Y93.023 E0.01566
G1 X136.978 Y105.381 E0.55430
G1 X137.016 Y105.000 E0.01215
G1 X137.003 Y104.866 E0.00427
G1 X125.134 Y92.997 E0.53235
G1 X125.732 Y93.056 E0.01907
G1 X136.944 Y104.268 E0.50287
G1 X136.885 Y103.669 E0.01907
G1 X126.331 Y93.115 E0.47339
G1 X126.929 Y93.174 E0.01907
G1 X136.826 Y103.071 E0.44391
G1 X136.785 Y102.656 E0.01324
G1 X136.713 Y102.419 E0.00785
G1 X127.581 Y93.287 E0.40960
G1 X128.355 Y93.522 E0.02566
G1 X136.478 Y101.645 E0.36434
G1 X136.244 Y100.870 E0.02566
G1 X129.130 Y93.756 E0.31908
G1 X129.598 Y93.899 E0.01554
G1 X130.056 Y94.143 E0.01644
G1 X136.263 Y100.351 E0.27842
G1 E-0.80000 F2100.00000
G1 Z0.800 F10800.000
G1 X135.651 Y99.199
G1 Z0.200
G1 E0.80000 F2100.00000
G1 F1200
G1 X130.801 Y94.349 E0.21752
G1 E-0.80000 F2100.00000
G1 Z0.800 F10800.000
G1 X132.262 Y95.271
G1 Z0.200
G1 E0.80000 F2100.00000
G1 F1200
G1 X134.729 Y97.738 E0.11065
G1 E-0.80000 F2100.00000
G1 Z0.800 F10800.000
G1 X119.199 Y115.651
G1 Z0.200
G1 E0.80000 F2100.00000
G1 F1200
G1 X114.349 Y110.801 E0.21751
G1 E-0.80000 F2100.00000
G1 Z0.800 F10800.000
G1 X115.271 Y112.262
G1 Z0.200
G1 E0.80000 F2100.00000
G1 F1200
G1 X117.738 Y114.729 E0.11063
G1 E-0.80000 F2100.00000
G1 Z0.800 F10800.000
G1 X125.000 Y149.141
G1 Z0.200
G1 E0.80000 F2100.00000
G1 F1200
G1 X122.600 Y148.905 E0.07560
G1 X120.293 Y148.205 E0.07560
G1 X118.166 Y147.068 E0.07560
G1 X116.302 Y145.538 E0.07560
G1 X114.773 Y143.675 E0.07560
G1 X113.636 Y141.548 E0.07560
G1 X112.936 Y139.241 E0.07560
G1 X112.700 Y136.841 E0.07560
G1 X112.936 Y134.441 E0.07560
G1 X113.636 Y132.134 E0.07560
G1 X114.773 Y130.007 E0.07560
G1 X116.302 Y128.143 E0.07560
G1 X118.166 Y126.614 E0.07560
G1 X120.293 Y125.477 E0.07560
G1 X122.600 Y124.777 E0.07560
G1 X125.009 Y124.542 E0.07589
G1 X127.400 Y124.777 E0.07531
G1 X129.707 Y125.477 E0.07560
G1 X131.834 Y126.614 E0.07560
G1 X133.698 Y128.143 E0.07560
G1 X135.227 Y130.007 E0.07560
G1 X136.364 Y132.134 E0.07560
G1 X137.064 Y134.441 E0.07560
G1 X137.300 Y136.841 E0.07560
G1 X137.064 Y139.241 E0.07560
G1 X136.364 Y141.548 E0.07560
G1 X135.227 Y143.675 E0.07560
G1 X133.698 Y145.538 E0.07560
G1 X131.834 Y147.068 E0.07560
G1 X129.707 Y148.205 E0.07560
G1 X127.400 Y148.905 E0.07560
G1 X125.060 Y149.135 E0.07372
G1 X125.000 Y149.520 F10800.000
G1 F1200
G1 X122.526 Y149.276 E0.07793
G1 X120.148 Y148.555 E0.07793
G1 X117.956 Y147.383 E0.07793
G1 X116.035 Y145.806 E0.07793
G1 X114.458 Y143.885 E0.07793
G1 X113.286 Y141.693 E0.07793
G1 X112.565 Y139.314 E0.07793
G1 X112.321 Y136.841 E0.07793
G1 X112.565 Y134.367 E0.07793
G1 X113.286 Y131.989 E0.07793
G1 X114.458 Y129.797 E0.07793
G1 X116.035 Y127.875 E0.07793
G1 X117.956 Y126.299 E0.07793
G1 X120.148 Y125.127 E0.07793
G1 X122.526 Y124.405 E0.07793
G1 X125.009 Y124.163 E0.07822
G1 X127.474 Y124.405 E0.07764
G1 X129.852 Y125.127 E0.07793
G1 X132.044 Y126.299 E0.07793
G1 X133.965 Y127.875 E0.07793
G1 X135.542 Y129.797 E0.07793
G1 X136.714 Y131.989 E0.07793
G1 X137.435 Y134.367 E0.07793
G1 X137.679 Y136.841 E0.07793
G1 X137.435 Y139.314 E0.07793
G1 X136.714 Y141.693 E0.07793
G1 X135.542 Y143.885 E0.07793
G1 X133.965 Y145.806 E0.07793
G1 X132.044 Y147.383 E0.07793
G1 X129.852 Y148.555 E0.07793
G1 X127.474 Y149.276 E0.07793
G1 X125.060 Y149.514 E0.07605
G1 X124.800 Y149.174 F10800.000
G1 E-0.80000 F2100.00000
G1 Z0.800 F10800.000
G1 X120.351 Y148.104
G1 Z0.200
G1 E0.80000 F2100.00000
G1 F1200
G1 X114.143 Y141.897 E0.27842
G1 X113.899 Y141.439 E0.01645
G1 X113.756 Y140.971 E0.01553
G1 X120.870 Y148.084 E0.31907
G1 X121.645 Y148.319 E0.02566
G1 X113.522 Y140.196 E0.36433
G1 X113.287 Y139.422 E0.02566
G1 X122.419 Y148.554 E0.40960
G1 X122.656 Y148.626 E0.00785
G1 X123.071 Y148.667 E0.01323
G1 X113.174 Y138.770 E0.44391
G1 X113.115 Y138.171 E0.01907
G1 X123.669 Y148.726 E0.47339
G1 X124.268 Y148.785 E0.01907
G1 X113.056 Y137.573 E0.50287
G1 X112.997 Y136.975 E0.01907
G1 X124.866 Y148.844 E0.53235
G1 X125.000 Y148.857 E0.00427
G1 X125.381 Y148.819 E0.01215
G1 X113.022 Y136.460 E0.55435
G1 X113.070 Y135.969 E0.01565
G1 X125.872 Y148.771 E0.57421
G1 X126.363 Y148.723 E0.01565
G1 X113.118 Y135.478 E0.59407
G1 X113.167 Y134.987 E0.01565
G1 X126.854 Y148.674 E0.61392
G1 X127.345 Y148.626 E0.01564
G1 X113.215 Y134.496 E0.63376
G1 X113.341 Y134.082 E0.01372
G1 X127.759 Y148.500 E0.64669
G1 X128.173 Y148.375 E0.01372
G1 X113.466 Y133.668 E0.65962
G1 X113.592 Y133.254 E0.01372
G1 X128.587 Y148.249 E0.67256
G1 X129.001 Y148.124 E0.01372
G1 X113.717 Y132.840 E0.68549
G1 X113.843 Y132.426 E0.01372
G1 X129.414 Y147.998 E0.69842
G1 X129.598 Y147.942 E0.00609
G1 X129.794 Y147.838 E0.00703
G1 X114.003 Y132.047 E0.70824
G1 X114.191 Y131.696 E0.01264
G1 X130.145 Y147.650 E0.71558
G1 X130.497 Y147.462 E0.01264
G1 X114.379 Y131.344 E0.72292
G1 X114.567 Y130.993 E0.01264
G1 X130.848 Y147.274 E0.73026
G1 X131.200 Y147.086 E0.01264
G1 X114.755 Y130.641 E0.73760
G1 X114.943 Y130.290 E0.01264
G1 X131.551 Y146.898 E0.74494
G1 X131.676 Y146.832 E0.00448
G1 X131.867 Y146.675 E0.00785
G1 X115.166 Y129.974 E0.74908
G1 X115.409 Y129.678 E0.01216
G1 X132.163 Y146.432 E0.75146
G1 X132.460 Y146.189 E0.01216
G1 X115.652 Y129.381 E0.75384
G1 X115.896 Y129.085 E0.01216
G1 X132.756 Y145.945 E0.75622
G1 X133.052 Y145.702 E0.01216
G1 X116.139 Y128.789 E0.75861
G1 X116.382 Y128.492 E0.01216
G1 X133.348 Y145.459 E0.76099
G1 X133.497 Y145.338 E0.00608
G1 X133.618 Y145.189 E0.00608
G1 X116.652 Y128.223 E0.76099
G1 X116.948 Y127.980 E0.01216
G1 X133.861 Y144.893 E0.75861
G1 X134.104 Y144.597 E0.01216
G1 X117.244 Y127.736 E0.75622
G1 X117.540 Y127.493 E0.01216
G1 X134.348 Y144.301 E0.75384
G1 X134.591 Y144.004 E0.01216
G1 X117.837 Y127.250 E0.75146
M73 Q1 S124
G1 X118.133 Y127.007 E0.01216
G1 X134.834 Y143.708 E0.74908
M73 P1 R122
G1 X134.991 Y143.517 E0.00785
G1 X135.057 Y143.392 E0.00447
G1 X118.449 Y126.783 E0.74494
G1 X118.800 Y126.596 E0.01264
G1 X135.245 Y143.041 E0.73760
G1 X135.433 Y142.689 E0.01264
G1 X119.152 Y126.408 E0.73026
G1 X119.503 Y126.220 E0.01264
G1 X135.621 Y142.338 E0.72292
G1 X135.809 Y141.986 E0.01264
G1 X119.855 Y126.032 E0.71558
G1 X120.206 Y125.844 E0.01264
G1 X135.997 Y141.635 E0.70824
G1 X136.101 Y141.439 E0.00703
G1 X136.157 Y141.255 E0.00609
G1 X120.585 Y125.684 E0.69842
G1 X120.999 Y125.558 E0.01372
G1 X136.283 Y140.842 E0.68549
G1 X136.408 Y140.428 E0.01372
G1 X121.413 Y125.433 E0.67256
G1 X121.827 Y125.307 E0.01372
G1 X136.534 Y140.014 E0.65962
G1 X136.659 Y139.600 E0.01372
G1 X122.241 Y125.182 E0.64669
G1 X122.655 Y125.056 E0.01372
G1 X136.785 Y139.186 E0.63376
G1 X136.833 Y138.695 E0.01564
G1 X123.146 Y125.008 E0.61391
G1 X123.637 Y124.960 E0.01566
G1 X136.882 Y138.204 E0.59404
G1 X136.930 Y137.713 E0.01565
G1 X124.129 Y124.912 E0.57417
G1 X124.620 Y124.864 E0.01566
G1 X136.978 Y137.222 E0.55430
G1 X137.016 Y136.841 E0.01215
G1 X137.003 Y136.707 E0.00427
G1 X125.134 Y124.838 E0.53235
G1 X125.732 Y124.897 E0.01907
G1 X136.944 Y136.109 E0.50287
G1 X136.885 Y135.510 E0.01907
G1 X126.331 Y124.956 E0.47339
G1 X126.929 Y125.015 E0.01907
G1 X136.826 Y134.912 E0.44391
G1 X136.785 Y134.497 E0.01324
G1 X136.713 Y134.260 E0.00785
G1 X127.581 Y125.128 E0.40960
G1 X128.355 Y125.362 E0.02566
G1 X136.478 Y133.486 E0.36434
G1 X136.244 Y132.711 E0.02566
G1 X129.130 Y125.597 E0.31908
G1 X129.598 Y125.740 E0.01554
G1 X130.056 Y125.984 E0.01644
G1 X136.263 Y132.192 E0.27842
G1 E-0.80000 F2100.00000
G1 Z0.800 F10800.000
G1 X135.651 Y131.040
G1 Z0.200
G1 E0.80000 F2100.00000
G1 F1200
G1 X130.801 Y126.190 E0.21752
G1 E-0.80000 F2100.00000
G1 Z0.800 F10800.000
G1 X132.262 Y127.112
G1 Z0.200
G1 E0.80000 F2100.00000
G1 F1200
G1 X134.729 Y129.579 E0.11065
G1 E-0.80000 F2100.00000
G1 Z0.800 F10800.000
G1 X119.199 Y147.492
G1 Z0.200
G1 E0.80000 F2100.00000
G1 F1200
G1 X114.349 Y142.642 E0.21751
G1 E-0.80000 F2100.00000
G1 Z0.800 F10800.000
G1 X115.271 Y144.103
G1 Z0.200
G1 E0.80000 F2100.00000
G1 F1200
G1 X117.738 Y146.570 E0.11063
G1 E-0.80000 F2100.00000
G1 Z0.800 F10800.000
G1 X156.841 Y117.300
G1 Z0.200
G1 E0.80000 F2100.00000
G1 F1200
G1 X154.441 Y117.064 E0.07560
G1 X152.134 Y116.364 E0.07560
G1 X150.007 Y115.227 E0.07560
G1 X148.143 Y113.698 E0.07560
G1 X146.614 Y111.834 E0.07560
G1 X145.477 Y109.707 E0.07560
G1 X144.777 Y107.400 E0.07560
G1 X144.541 Y105.000 E0.07560
G1 X144.777 Y102.600 E0.07560
G1 X145.477 Y100.293 E0.07560
G1 X146.614 Y98.166 E0.07560
G1 X148.143 Y96.302 E0.07560
G1 X150.007 Y94.773 E0.07560
G1 X152.134 Y93.636 E0.07560
G1 X154.441 Y92.936 E0.07560
G1 X156.850 Y92.701 E0.07589
G1 X159.241 Y92.936 E0.07531
G1 X161.548 Y93.636 E0.07560
G1 X163.675 Y94.773 E0.07560
G1 X165.538 Y96.302 E0.07560
G1 X167.068 Y98.166 E0.07560
G1 X168.205 Y100.293 E0.07560
G1 X168.905 Y102.600 E0.07560
G1 X169.141 Y105.000 E0.07560
G1 X168.905 Y107.400 E0.07560
G1 X168.205 Y109.707 E0.07560
G1 X167.068 Y111.834 E0.07560
G1 X165.538 Y113.698 E0.07560
G1 X163.675 Y115.227 E0.07560
G1 X161.548 Y116.364 E0.07560
G1 X159.241 Y117.064 E0.07560
G1 X156.901 Y117.294 E0.07372
G1 X156.841 Y117.679 F10800.000
G1 F1200
G1 X154.367 Y117.435 E0.07793
G1 X151.989 Y116.714 E0.07793
G1 X149.797 Y115.542 E0.07793
G1 X147.875 Y113.965 E0.07793
G1 X146.299 Y112.044 E0.07793
