; generated by PrusaSlicer 2.4.2+win64 on 2022-08-08 at 20:14:59 UTC

; 

; external perimeters extrusion width = 0.45mm
; perimeters extrusion width = 0.45mm
; infill extrusion width = 0.45mm
; solid infill extrusion width = 0.45mm
; top infill extrusion width = 0.40mm
; support material extrusion width = 0.35mm
; first layer extrusion width = 0.42mm

M73 P0 R5
M73 Q0 S5
M201 X1000 Y1000 Z200 E5000 ; sets maximum accelerations, mm/sec^2
M203 X200 Y200 Z12 E120 ; sets maximum feedrates, mm / sec
M204 P1250 R1250 T1250 ; sets acceleration (P, T) and retract acceleration (R), mm/sec^2
M205 X8.00 Y8.00 Z0.40 E4.50 ; sets the jerk limits, mm/sec
M205 S0 T0 ; sets the minimum extruding and travel feed rate, mm/sec
M107
;TYPE:Custom
M862.3 P "MK3S" ; printer model check
M862.1 P0.4 ; nozzle diameter check
M115 U3.10.1 ; tell printer latest fw version
G90 ; use absolute coordinates
M83 ; extruder relative mode
M104 S215 ; set extruder temp
M140 S60 ; set bed temp
M190 S60 ; wait for bed temp
M109 S215 ; wait for extruder temp
G28 W ; home all without mesh bed level
G80 ; mesh bed leveling
G1 Z0.2 F720
G1 Y-3 F1000 ; go outside print area
G92 E0
G1 X60 E9 F1000 ; intro line
G1 X100 E12.5 F1000 ; intro line
G92 E0
M221 S95

; Don't change E values below. Excessive value can damage the printer.

G21 ; set units to millimeters
G90 ; use absolute coordinates
M83 ; use relative distances for extrusion
M900 K0.05 ; Filament gcode LA 1.5
M900 K30 ; Filament gcode LA 1.0
M107
;LAYER_CHANGE
;Z:0.2
;HEIGHT:0.2
;BEFORE_LAYER_CHANGE
G92 E0.0
;0.2


M73 P1 R5
M73 Q1 S5
G1 E-.8 F2100
G1 Z.4 F720
;AFTER_LAYER_CHANGE
;0.2
G1 X207.188 Y46.072 F10800
M73 P2 R5
G1 Z.2 F720
M73 Q2 S5
G1 E.8 F2100
M204 S800
;TYPE:Skirt/Brim
;WIDTH:0.42
G1 F450
G1 X207.583 Y44.396 E.05397
G1 X208.684 Y43.073 E.05397
G1 X210.942 Y42.318 E.07467
G1 X223.277 Y42.318 E.38674
G1 X224.952 Y42.713 E.05397
M73 P3 R5
M73 Q3 S5
G1 X226.276 Y43.814 E.05397
G1 X227.031 Y46.072 E.07467
G1 X227.031 Y57.999 E.37395
G1 X226.636 Y59.674 E.05397
G1 X225.535 Y60.998 E.05397
G1 X223.277 Y61.753 E.07467
M73 Q4 S5
G1 X210.942 Y61.753 E.38674
M73 P4 R5
G1 X209.267 Y61.358 E.05397
G1 X207.944 Y60.257 E.05397
G1 X207.188 Y57.999 E.07467
G1 X207.188 Y46.132 E.37207
M204 S1000
G1 X207.565 Y46.132 F10800
M204 S800
M73 P5 R4
M73 Q5 S5
G1 F450
G1 X207.565 Y46.072 E.00188
G1 X207.959 Y44.489 E.05115
G1 X209.05 Y43.275 E.05115
G1 X210.942 Y42.695 E.06207
G1 X223.277 Y42.695 E.38674
M73 Q5 S4
G1 X224.86 Y43.089 E.05115
M73 P6 R4
M73 Q6 S4
G1 X226.074 Y44.179 E.05115
G1 X226.654 Y46.072 E.06207
G1 X226.654 Y57.999 E.37395
G1 X226.26 Y59.582 E.05115
G1 X225.17 Y60.796 E.05115
G1 X223.277 Y61.376 E.06207
M73 Q7 S4
G1 X210.942 Y61.376 E.38674
M73 P7 R4
G1 X209.359 Y60.982 E.05115
G1 X208.146 Y59.891 E.05115
G1 X207.565 Y57.999 E.06207
G1 X207.565 Y46.192 E.37019
M204 S1000
; printing object MineTrackInsert.stl id:0 copy 0
;WIPE_START
G1 F8640
M73 P8 R4
M73 Q8 S4
G1 X207.565 Y46.072 E-.02771
G1 X207.959 Y44.489 E-.37671
G1 X208.988 Y43.343 E-.35558
;WIPE_END
G1 E-.04 F2100
G1 Z.6 F720
G1 X220.427 Y48.884 F10800
G1 Z.2 F720
G1 E.8 F2100
M204 S800
;TYPE:Perimeter
G1 F180
G1 X221.348 Y48.882 E.02885
G1 X221.741 Y48.86 E.01235
G1 X221.736 Y56.457 E.23822
G1 X220.427 Y56.457 E.04102
M73 P9 R4
M73 Q9 S4
G1 X220.427 Y48.944 E.23557
M204 S1000
G1 X220.05 Y48.508 F10800
M204 S800
M73 P10 R4
M73 Q10 S4
G1 F180
G1 X221.336 Y48.505 E.04033
G1 X222.13 Y48.446 E.02495
G1 X222.113 Y49.04 E.01863
G1 X222.113 Y56.835 E.2444
G1 X220.05 Y56.835 E.06467
M73 P11 R4
M73 Q11 S4
G1 X220.05 Y48.568 E.25919
M204 S1000
G1 X219.673 Y48.132 F10800
M204 S800
M73 P12 R4
M73 Q12 S4
G1 F180
G1 X221.325 Y48.128 E.0518
G1 X221.842 Y48.099 E.01622
G1 X222.519 Y48.023 E.02138
G1 X222.49 Y49.045 E.03208
G1 X222.49 Y57.212 E.25605
G1 X219.673 Y57.212 E.08832
M73 P13 R4
M73 Q13 S4
G1 X219.673 Y48.192 E.28281
M204 S1000
M73 P14 R4
M73 Q14 S4
G1 X219.296 Y47.756 F10800
M204 S800
;TYPE:External perimeter
M73 P15 R4
M73 Q15 S4
G1 F180
G1 X221.314 Y47.751 E.06328
G1 X221.81 Y47.723 E.01557
G1 X222.588 Y47.635 E.02455
G1 X222.588 Y46.938 E.02188
G1 X222.656 Y46.471 E.01479
G1 X222.949 Y46.462 E.0092
G1 X222.965 Y46.582 E.00377
G1 X222.954 Y47.549 E.03035
G1 X222.896 Y48.045 E.01563
G1 X222.867 Y49.051 E.03156
G1 X222.867 Y57.589 E.2677
G1 X219.296 Y57.589 E.11196
M73 P16 R4
M73 Q16 S4
G1 X219.296 Y47.816 E.30643
M204 S1000
M73 P17 R4
M73 Q17 S4
G1 X219.663 Y47.914 F10800
M73 P18 R4
M73 Q18 S4
G1 E-.8 F2100
G1 Z.6 F720
G1 X221.623 Y49.793 F10800
G1 Z.2 F720
G1 E.8 F2100
M204 S800
;TYPE:Solid infill
;WIDTH:0.444726
G1 F720
G1 X220.995 Y49.166 E.02966
G1 X220.71 Y49.166 E.00952
G1 X220.71 Y49.449 E.00944
G1 X221.453 Y50.192 E.03511
G1 X221.453 Y50.76 E.01898
G1 X220.71 Y50.017 E.03511
G1 X220.71 Y50.585 E.01899
G1 X221.453 Y51.328 E.03511
G1 X221.453 Y51.897 E.01898
G1 X220.71 Y51.154 E.03511
G1 X220.71 Y51.722 E.01899
G1 X221.453 Y52.465 E.03511
G1 X221.453 Y53.033 E.01898
G1 X220.71 Y52.29 E.0351
G1 X220.71 Y52.858 E.01899
G1 X221.453 Y53.601 E.0351
G1 X221.453 Y54.169 E.01898
G1 X220.71 Y53.426 E.0351
G1 X220.71 Y53.995 E.01899
G1 X221.453 Y54.738 E.0351
G1 X221.453 Y55.306 E.01898
G1 X220.71 Y54.563 E.0351
G1 X220.71 Y55.131 E.01899
G1 X221.453 Y55.874 E.0351
G1 X221.453 Y56.175 E.01004
G1 X221.185 Y56.175 E.00894
G1 X220.54 Y55.53 E.03047
M204 S1000
;WIPE_START
G1 F8640
G1 X221.185 Y56.175 E-.21059
G1 X221.453 Y56.175 E-.06179
G1 X221.453 Y55.874 E-.06941
G1 X220.71 Y55.131 E-.24258
G1 X220.71 Y54.563 E-.13121
G1 X220.846 Y54.699 E-.04441
;WIPE_END
G1 E-.04 F2100
G1 Z.6 F720
G1 X219.452 Y53.726 F10800
G1 X214.768 Y50.457
G1 X212.478 Y48.86
G1 Z.2 F720
G1 E.8 F2100
M204 S800
;TYPE:Perimeter
;WIDTH:0.42
M73 P19 R4
G1 F180
M73 Q19 S4
G1 X212.872 Y48.882 E.01235
G1 X213.792 Y48.884 E.02885
G1 X213.792 Y56.457 E.23745
G1 X212.484 Y56.457 E.04102
G1 X212.48 Y48.92 E.23634
M204 S1000
M73 P20 R4
M73 Q20 S4
G1 X212.089 Y48.446 F10800
M204 S800
G1 F180
G1 X212.883 Y48.505 E.02495
G1 X214.169 Y48.508 E.04033
G1 X214.169 Y56.835 E.26107
M73 P21 R4
M73 Q21 S4
G1 X212.107 Y56.835 E.06467
M73 P22 R4
G1 X212.106 Y49.04 E.2444
M73 Q22 S4
G1 X212.091 Y48.506 E.01675
M204 S1000
M73 P23 R4
M73 Q23 S4
G1 X211.7 Y48.023 F10800
M204 S800
G1 F180
G1 X212.377 Y48.099 E.02138
G1 X212.894 Y48.128 E.01622
G1 X214.546 Y48.132 E.0518
G1 X214.546 Y57.212 E.28469
G1 X211.729 Y57.212 E.08832
M73 P24 R3
M73 Q24 S4
G1 X211.729 Y49.045 E.25605
M73 Q24 S3
G1 X211.702 Y48.083 E.0302
M204 S1000
M73 P25 R3
M73 Q25 S3
G1 X211.631 Y47.635 F10800
M204 S800
;TYPE:External perimeter
G1 F180
G1 X212.409 Y47.723 E.02455
G1 X212.905 Y47.751 E.01557
G1 X214.923 Y47.756 E.06328
G1 X214.923 Y57.589 E.30831
M73 P26 R3
G1 X211.352 Y57.589 E.11196
M73 P27 R3
M73 Q26 S3
G1 X211.352 Y49.051 E.2677
M73 Q27 S3
G1 X211.323 Y48.045 E.03156
M73 P28 R3
M73 Q28 S3
G1 X211.265 Y47.549 E.01563
G1 X211.254 Y46.581 E.03035
G1 X211.268 Y46.473 E.00344
G1 X211.563 Y46.476 E.00925
G1 X211.631 Y46.938 E.01464
G1 X211.631 Y47.575 E.02
M204 S1000
G1 X211.609 Y48.035 F10800
G1 E-.8 F2100
G1 Z.6 F720
G1 X212.864 Y48.995 F10800
G1 Z.2 F720
G1 E.8 F2100
M204 S800
;TYPE:Solid infill
;WIDTH:0.443848
G1 F720
G1 X213.509 Y49.64 E.03043
G1 X213.509 Y50.207 E.0189
G1 X212.762 Y49.46 E.03525
G1 X212.762 Y50.027 E.01892
G1 X213.509 Y50.774 E.03523
G1 X213.509 Y51.341 E.0189
G1 X212.762 Y50.594 E.03521
G1 X212.763 Y51.162 E.01892
M73 P29 R3
G1 X213.509 Y51.908 E.0352
G1 X213.509 Y52.475 E.0189
G1 X212.763 Y51.729 E.03518
G1 X212.763 Y52.297 E.01892
M73 Q29 S3
G1 X213.509 Y53.042 E.03516
G1 X213.509 Y53.609 E.0189
G1 X212.764 Y52.864 E.03514
G1 X212.764 Y53.431 E.01892
G1 X213.509 Y54.176 E.03512
G1 X213.509 Y54.743 E.0189
G1 X212.765 Y53.999 E.0351
G1 X212.765 Y54.566 E.01892
G1 X213.509 Y55.31 E.03508
G1 X213.509 Y55.877 E.0189
G1 X212.765 Y55.133 E.03507
G1 X212.766 Y55.701 E.01892
G1 X213.409 Y56.344 E.03034
M204 S1000
; stop printing object MineTrackInsert.stl id:0 copy 0
M106 S84.15
;LAYER_CHANGE
;Z:0.4
;HEIGHT:0.2
;BEFORE_LAYER_CHANGE
G92 E0.0
;0.4


;WIPE_START
G1 F8640
G1 X212.766 Y55.701 E-.21013
G1 X212.765 Y55.133 E-.13101
G1 X213.509 Y55.877 E-.24287
G1 X213.509 Y55.31 E-.13092
G1 X213.371 Y55.172 E-.04506
;WIPE_END
G1 E-.04 F2100
G1 Z.6 F720
;AFTER_LAYER_CHANGE
;0.4
M104 S210 ; set temperature
; printing object MineTrackInsert.stl id:0 copy 0
G1 X212.389 Y48.792 F10800
G1 Z.4 F720
G1 E.8 F2100
M204 S800
;TYPE:Perimeter
;WIDTH:0.45
G1 F1035
G1 X213.887 Y48.792 E.05072
G1 X213.887 Y56.552 E.26267
G1 X212.389 Y56.552 E.05072
G1 X212.389 Y48.852 E.26064
M204 S1000
G1 X211.982 Y48.385 F10800
M204 S800
G1 F1035
G1 X214.294 Y48.385 E.07828
G1 X214.294 Y56.96 E.29023
G1 X211.982 Y56.96 E.07828
M73 P30 R3
M73 Q30 S3
G1 X211.982 Y48.445 E.2882
M204 S1000
G1 X211.717 Y47.978 F10800
M204 S800
G1 F1035
G1 X214.701 Y47.978 E.101
G1 X214.701 Y57.367 E.31779
G1 X211.574 Y57.367 E.10583
G1 X211.574 Y47.978 E.31779
G1 X211.657 Y47.978 E.00281
M204 S1000
G1 X211.717 Y47.571 F10800
M204 S800
;TYPE:External perimeter
G1 F1035
G1 X215.108 Y47.571 E.11478
G1 X215.108 Y57.774 E.34534
G1 X211.167 Y57.774 E.13339
M73 P31 R3
G1 X211.167 Y46.297 E.38847
M73 Q31 S3
G1 X211.717 Y46.297 E.01862
G1 X211.717 Y47.511 E.0411
M204 S1000
G1 X211.772 Y47.967 F10800
G1 X211.442 Y47.775
;TYPE:Gap fill
;WIDTH:0.185846
G1 F1035
G1 X211.442 Y46.501 E.01514
G1 E-.8 F2100
G1 Z.8 F720
G1 X212.92 Y56.43 F10800
G1 Z.4 F720
G1 E.8 F2100
;TYPE:Solid infill
;WIDTH:0.460178
G1 F1035
G1 X213.582 Y55.769 E.03245
G1 X213.582 Y55.179 E.02047
G1 X212.694 Y56.067 E.04356
G1 X212.694 Y55.477 E.02047
G1 X213.582 Y54.589 E.04356
G1 X213.582 Y53.999 E.02047
G1 X212.694 Y54.887 E.04356
G1 X212.694 Y54.296 E.02047
G1 X213.582 Y53.409 E.04356
G1 X213.582 Y52.819 E.02047
G1 X212.694 Y53.706 E.04356
G1 X212.694 Y53.116 E.02047
G1 X213.582 Y52.228 E.04356
G1 X213.582 Y51.638 E.02047
G1 X212.694 Y52.526 E.04356
G1 X212.694 Y51.936 E.02047
G1 X213.582 Y51.048 E.04356
G1 X213.582 Y50.458 E.02047
G1 X212.694 Y51.346 E.04356
G1 X212.694 Y50.756 E.02047
G1 X213.582 Y49.868 E.04356
G1 X213.582 Y49.278 E.02047
G1 X212.694 Y50.166 E.04356
G1 X212.694 Y49.576 E.02047
G1 X213.355 Y48.915 E.03244
;WIPE_START
G1 F8640
M73 P32 R3
G1 X212.694 Y49.576 E-.21591
G1 X212.694 Y50.166 E-.13625
G1 X213.582 Y49.278 E-.2899
G1 X213.582 Y49.789 E-.11794
;WIPE_END
G1 E-.04 F2100
G1 Z.8 F720
G1 X214.723 Y49.62 F10800
G1 X219.497 Y48.916
M73 Q32 S3
G1 X220.332 Y48.792
G1 Z.4 F720
G1 E.8 F2100
M204 S800
;TYPE:Perimeter
;WIDTH:0.45
G1 F1035
G1 X221.831 Y48.792 E.05072
G1 X221.831 Y56.552 E.26267
G1 X220.332 Y56.552 E.05072
G1 X220.332 Y48.852 E.26064
M204 S1000
G1 X219.925 Y48.385 F10800
M204 S800
G1 F1035
G1 X222.238 Y48.385 E.07828
G1 X222.238 Y56.96 E.29023
G1 X219.925 Y56.96 E.07828
G1 X219.925 Y48.445 E.2882
M204 S1000
G1 X219.518 Y47.978 F10800
M204 S800
G1 F1035
G1 X222.645 Y47.978 E.10583
G1 X222.645 Y57.367 E.31779
M73 P33 R3
G1 X219.518 Y57.367 E.10583
M73 Q33 S3
G1 X219.518 Y48.038 E.31575
M204 S1000
G1 X219.296 Y47.571 F10800
M204 S800
;TYPE:External perimeter
G1 F1035
G1 X222.502 Y47.571 E.10851
G1 X222.502 Y46.297 E.04313
G1 X223.052 Y46.297 E.01862
G1 X223.052 Y57.774 E.38847
G1 X219.111 Y57.774 E.13339
G1 X219.111 Y47.571 E.34534
G1 X219.236 Y47.571 E.00423
M204 S1000
M73 P34 R3
G1 X219.641 Y47.773 F10800
G1 E-.8 F2100
G1 Z.8 F720
G1 X222.777 Y47.775 F10800
G1 Z.4 F720
G1 E.8 F2100
;TYPE:Gap fill
;WIDTH:0.185842
M73 Q34 S3
G1 F1035
G1 X222.777 Y46.501 E.01514
G1 E-.8 F2100
G1 Z.8 F720
G1 X220.864 Y56.43 F10800
G1 Z.4 F720
G1 E.8 F2100
;TYPE:Solid infill
;WIDTH:0.460178
G1 F1035
G1 X221.525 Y55.769 E.03245
G1 X221.525 Y55.179 E.02047
G1 X220.638 Y56.067 E.04356
G1 X220.638 Y55.477 E.02047
G1 X221.525 Y54.589 E.04356
G1 X221.525 Y53.999 E.02047
G1 X220.638 Y54.887 E.04356
G1 X220.638 Y54.296 E.02047
G1 X221.525 Y53.409 E.04356
G1 X221.525 Y52.819 E.02047
G1 X220.638 Y53.706 E.04356
G1 X220.638 Y53.116 E.02047
G1 X221.525 Y52.228 E.04356
G1 X221.525 Y51.638 E.02047
G1 X220.638 Y52.526 E.04356
G1 X220.638 Y51.936 E.02047
G1 X221.525 Y51.048 E.04356
G1 X221.525 Y50.458 E.02047
G1 X220.638 Y51.346 E.04356
G1 X220.638 Y50.756 E.02047
G1 X221.525 Y49.868 E.04356
G1 X221.525 Y49.278 E.02047
G1 X220.638 Y50.166 E.04356
G1 X220.638 Y49.576 E.02047
G1 X221.299 Y48.915 E.03244
; stop printing object MineTrackInsert.stl id:0 copy 0
M106 S170.85
;LAYER_CHANGE
;Z:0.6
;HEIGHT:0.2
;BEFORE_LAYER_CHANGE
G92 E0.0
;0.6


;WIPE_START
G1 F8640
G1 X220.638 Y49.576 E-.21591
G1 X220.638 Y50.166 E-.13625
G1 X221.525 Y49.278 E-.2899
G1 X221.525 Y49.789 E-.11794
;WIPE_END
G1 E-.04 F2100
G1 Z.8 F720
;AFTER_LAYER_CHANGE
;0.6
; printing object MineTrackInsert.stl id:0 copy 0
G1 X219.497 Y49.568 F10800
G1 X214.723 Y49.047
G1 X212.389 Y48.792
G1 Z.6 F720
G1 E.8 F2100
M204 S800
;TYPE:Perimeter
;WIDTH:0.45
G1 F1032
G1 X213.887 Y48.792 E.05072
G1 X213.887 Y56.552 E.26267
G1 X212.389 Y56.552 E.05072
M73 P35 R3
G1 X212.389 Y48.852 E.26064
M204 S1000
M73 Q35 S3
G1 X211.982 Y48.385 F10800
M204 S800
G1 F1032
G1 X214.294 Y48.385 E.07828
G1 X214.294 Y56.96 E.29023
G1 X211.982 Y56.96 E.07828
G1 X211.982 Y48.445 E.2882
M204 S1000
G1 X211.717 Y47.978 F10800
M204 S800
G1 F1032
G1 X214.701 Y47.978 E.101
G1 X214.701 Y57.367 E.31779
G1 X211.574 Y57.367 E.10583
G1 X211.574 Y47.978 E.31779
G1 X211.657 Y47.978 E.00281
M204 S1000
M73 P36 R3
M73 Q36 S3
G1 X211.717 Y47.571 F10800
M204 S800
;TYPE:External perimeter
G1 F1032
G1 X215.108 Y47.571 E.11478
G1 X215.108 Y57.774 E.34534
G1 X211.167 Y57.774 E.13339
G1 X211.167 Y46.297 E.38847
G1 X211.717 Y46.297 E.01862
G1 X211.717 Y47.511 E.0411
M204 S1000
G1 X211.772 Y47.967 F10800
G1 X211.442 Y47.775
;TYPE:Gap fill
;WIDTH:0.185846
G1 F1032
G1 X211.442 Y46.501 E.01514
;WIPE_START
G1 F8640
G1 X211.442 Y47.775 E-.29421
;WIPE_END
G1 E-.50579 F2100
G1 Z1 F720
G1 X212.92 Y48.915 F10800
G1 Z.6 F720
G1 E.8 F2100
;TYPE:Solid infill
;WIDTH:0.460178
G1 F1032
G1 X213.582 Y49.576 E.03245
G1 X213.582 Y50.166 E.02047
G1 X212.694 Y49.278 E.04356
G1 X212.694 Y49.868 E.02047
G1 X213.582 Y50.756 E.04356
G1 X213.582 Y51.346 E.02047
G1 X212.694 Y50.458 E.04356
G1 X212.694 Y51.048 E.02047
M73 P37 R3
G1 X213.582 Y51.936 E.04356
G1 X213.582 Y52.526 E.02047
G1 X212.694 Y51.639 E.04356
G1 X212.694 Y52.229 E.02047
M73 Q37 S3
G1 X213.582 Y53.116 E.04356
G1 X213.582 Y53.706 E.02047
G1 X212.694 Y52.819 E.04356
G1 X212.694 Y53.409 E.02047
G1 X213.582 Y54.297 E.04356
G1 X213.582 Y54.887 E.02047
G1 X212.694 Y53.999 E.04356
G1 X212.694 Y54.589 E.02047
G1 X213.582 Y55.477 E.04356
G1 X213.582 Y56.067 E.02047
G1 X212.694 Y55.179 E.04356
G1 X212.694 Y55.769 E.02047
G1 X213.355 Y56.43 E.03244
;WIPE_START
G1 F8640
G1 X212.694 Y55.769 E-.21591
G1 X212.694 Y55.179 E-.13625
G1 X213.582 Y56.067 E-.2899
G1 X213.582 Y55.556 E-.11794
;WIPE_END
G1 E-.04 F2100
G1 Z1 F720
G1 X214.723 Y54.413 F10800
G1 X219.497 Y49.63
G1 X220.332 Y48.792
G1 Z.6 F720
G1 E.8 F2100
M204 S800
;TYPE:Perimeter
;WIDTH:0.45
G1 F1032
G1 X221.831 Y48.792 E.05072
G1 X221.831 Y56.552 E.26267
G1 X220.332 Y56.552 E.05072
G1 X220.332 Y48.852 E.26064
M204 S1000
G1 X219.925 Y48.385 F10800
M204 S800
G1 F1032
G1 X222.238 Y48.385 E.07828
G1 X222.238 Y56.96 E.29023
G1 X219.925 Y56.96 E.07828
M73 P38 R3
G1 X219.925 Y48.445 E.2882
M204 S1000
M73 Q38 S3
G1 X219.518 Y47.978 F10800
M204 S800
G1 F1032
G1 X222.645 Y47.978 E.10583
G1 X222.645 Y57.367 E.31779
G1 X219.518 Y57.367 E.10583
G1 X219.518 Y48.038 E.31575
M204 S1000
G1 X219.296 Y47.571 F10800
M204 S800
;TYPE:External perimeter
G1 F1032
G1 X222.502 Y47.571 E.10851
G1 X222.502 Y46.297 E.04313
G1 X223.052 Y46.297 E.01862
G1 X223.052 Y57.774 E.38847
G1 X219.111 Y57.774 E.13339
M73 P39 R3
G1 X219.111 Y47.571 E.34534
M73 Q39 S3
G1 X219.236 Y47.571 E.00423
M204 S1000
G1 X219.641 Y47.773 F10800
G1 E-.8 F2100
G1 Z1 F720
G1 X220.864 Y48.915 F10800
G1 Z.6 F720
G1 E.8 F2100
;TYPE:Solid infill
;WIDTH:0.460178
G1 F1032
G1 X221.525 Y49.576 E.03245
G1 X221.525 Y50.166 E.02047
G1 X220.638 Y49.278 E.04356
G1 X220.638 Y49.868 E.02047
G1 X221.525 Y50.756 E.04356
G1 X221.525 Y51.346 E.02047
G1 X220.638 Y50.458 E.04356
