; generated by PrusaSlicer 2.4.2+win64 on 2022-07-20 at 23:59:11 UTC

; 

; external perimeters extrusion width = 0.45mm
; perimeters extrusion width = 0.45mm
; infill extrusion width = 0.45mm
; solid infill extrusion width = 0.45mm
; top infill extrusion width = 0.40mm
; support material extrusion width = 0.35mm
; first layer extrusion width = 0.42mm

M73 P0 R5
M73 Q0 S5
M201 X1000 Y1000 Z200 E5000 ; sets maximum accelerations, mm/sec^2
M203 X200 Y200 Z12 E120 ; sets maximum feedrates, mm / sec
M204 P1250 R1250 T1250 ; sets acceleration (P, T) and retract acceleration (R), mm/sec^2
M205 X8.00 Y8.00 Z0.40 E4.50 ; sets the jerk limits, mm/sec
M205 S0 T0 ; sets the minimum extruding and travel feed rate, mm/sec
M107
;TYPE:Custom
M862.3 P "MK3S" ; printer model check
M862.1 P0.4 ; nozzle diameter check
M115 U3.10.1 ; tell printer latest fw version
G90 ; use absolute coordinates
M83 ; extruder relative mode
M104 S215 ; set extruder temp
M140 S60 ; set bed temp
M190 S60 ; wait for bed temp
M109 S215 ; wait for extruder temp
G28 W ; home all without mesh bed level
G80 ; mesh bed leveling
G1 Z0.2 F720
G1 Y-3 F1000 ; go outside print area
G92 E0
G1 X60 E9 F1000 ; intro line
G1 X100 E12.5 F1000 ; intro line
G92 E0
M221 S95

; Don't change E values below. Excessive value can damage the printer.

G21 ; set units to millimeters
G90 ; use absolute coordinates
M83 ; use relative distances for extrusion
M900 K0.05 ; Filament gcode LA 1.5
M900 K30 ; Filament gcode LA 1.0
M107
;LAYER_CHANGE
;Z:0.2
;HEIGHT:0.2
;BEFORE_LAYER_CHANGE
G92 E0.0
;0.2


M73 P1 R5
M73 Q1 S5
G1 E-.8 F2100
G1 Z.4 F720
;AFTER_LAYER_CHANGE
;0.2
M73 P2 R5
G1 X66.033 Y43.064 F10800
M73 Q2 S5
G1 Z.2 F720
G1 E.8 F2100
M204 S800
;TYPE:Skirt/Brim
;WIDTH:0.42
G1 F450
G1 X67.134 Y41.741 E.05397
G1 X69.393 Y40.985 E.07467
G1 X81.727 Y40.985 E.38674
G1 X83.403 Y41.38 E.05397
G1 X84.726 Y42.481 E.05397
G1 X85.481 Y44.74 E.07467
M73 P3 R5
M73 Q3 S5
G1 X85.481 Y56.666 E.37395
G1 X85.087 Y58.342 E.05397
G1 X83.986 Y59.665 E.05397
G1 X81.727 Y60.421 E.07467
G1 X69.393 Y60.421 E.38674
G1 X67.717 Y60.026 E.05397
M73 P4 R4
M73 Q4 S5
G1 X66.394 Y58.925 E.05397
G1 X65.639 Y56.666 E.07467
G1 X65.639 Y44.74 E.37395
G1 X66.02 Y43.122 E.05209
M204 S1000
M73 P5 R4
M73 Q5 S4
G1 X66.395 Y43.216 F10800
M204 S800
G1 F450
G1 X66.41 Y43.156 E.00192
G1 X67.5 Y41.943 E.05115
G1 X69.393 Y41.363 E.06207
G1 X81.727 Y41.363 E.38674
G1 X83.31 Y41.757 E.05115
G1 X84.524 Y42.847 E.05115
M73 P6 R4
M73 Q6 S4
G1 X85.104 Y44.74 E.06207
G1 X85.104 Y56.666 E.37395
G1 X84.71 Y58.25 E.05115
G1 X83.62 Y59.463 E.05115
G1 X81.727 Y60.043 E.06207
G1 X69.393 Y60.043 E.38674
G1 X67.81 Y59.649 E.05115
M73 P7 R4
M73 Q7 S4
G1 X66.596 Y58.559 E.05115
G1 X66.016 Y56.666 E.06207
G1 X66.016 Y44.74 E.37395
G1 X66.38 Y43.274 E.04735
M204 S1000
; printing object MineTrackInsert.stl id:0 copy 0
;WIPE_START
M73 P8 R4
M73 Q8 S4
G1 F8640
G1 X66.41 Y43.156 E-.028
G1 X67.5 Y41.943 E-.37671
G1 X68.971 Y41.492 E-.3553
;WIPE_END
G1 E-.04 F2100
G1 Z.6 F720
G1 X78.878 Y47.552 F10800
G1 Z.2 F720
G1 E.8 F2100
M204 S800
;TYPE:Perimeter
G1 F180
G1 X79.798 Y47.55 E.02885
G1 X80.191 Y47.527 E.01235
G1 X80.186 Y55.125 E.23822
G1 X78.878 Y55.125 E.04102
M73 P9 R4
M73 Q9 S4
G1 X78.878 Y47.612 E.23557
M204 S1000
G1 X78.501 Y47.176 F10800
M204 S800
M73 P10 R4
M73 Q10 S4
G1 F180
G1 X79.787 Y47.173 E.04033
G1 X80.58 Y47.113 E.02495
G1 X80.563 Y47.707 E.01863
G1 X80.563 Y55.502 E.2444
G1 X78.501 Y55.502 E.06467
M73 P11 R4
M73 Q11 S4
G1 X78.501 Y47.236 E.25919
M204 S1000
G1 X78.123 Y46.799 F10800
M204 S800
M73 P12 R4
M73 Q12 S4
G1 F180
G1 X79.776 Y46.796 E.0518
G1 X80.292 Y46.766 E.01622
G1 X80.97 Y46.69 E.02138
G1 X80.94 Y47.713 E.03208
G1 X80.94 Y55.879 E.25605
G1 X78.123 Y55.879 E.08832
M73 P13 R4
M73 Q13 S4
G1 X78.123 Y46.859 E.28281
M204 S1000
M73 P14 R4
M73 Q14 S4
G1 X77.746 Y46.423 F10800
M204 S800
;TYPE:External perimeter
M73 P15 R4
M73 Q15 S4
G1 F180
G1 X79.765 Y46.418 E.06328
G1 X80.26 Y46.39 E.01557
G1 X81.039 Y46.303 E.02455
G1 X81.039 Y45.605 E.02188
G1 X81.107 Y45.138 E.01479
G1 X81.4 Y45.13 E.0092
G1 X81.416 Y45.249 E.00377
G1 X81.404 Y46.217 E.03035
G1 X81.346 Y46.712 E.01563
G1 X81.318 Y47.718 E.03156
G1 X81.317 Y56.256 E.2677
G1 X77.746 Y56.256 E.11196
M73 P16 R4
M73 Q16 S4
G1 X77.746 Y46.483 E.30643
M204 S1000
M73 P17 R4
M73 Q17 S4
G1 X78.114 Y46.581 F10800
M73 P18 R4
M73 Q18 S4
G1 E-.8 F2100
G1 Z.6 F720
G1 X80.073 Y48.461 F10800
G1 Z.2 F720
G1 E.8 F2100
M204 S800
;TYPE:Solid infill
;WIDTH:0.444726
G1 F720
G1 X79.445 Y47.833 E.02966
G1 X79.16 Y47.834 E.00952
G1 X79.16 Y48.116 E.00944
G1 X79.903 Y48.86 E.03511
G1 X79.903 Y49.428 E.01898
G1 X79.16 Y48.685 E.03511
G1 X79.16 Y49.253 E.01899
G1 X79.903 Y49.996 E.03511
G1 X79.903 Y50.564 E.01898
G1 X79.16 Y49.821 E.03511
G1 X79.16 Y50.389 E.01899
G1 X79.903 Y51.132 E.03511
G1 X79.903 Y51.701 E.01898
G1 X79.16 Y50.958 E.0351
G1 X79.16 Y51.526 E.01899
G1 X79.903 Y52.269 E.0351
G1 X79.903 Y52.837 E.01898
G1 X79.16 Y52.094 E.0351
G1 X79.16 Y52.662 E.01899
G1 X79.903 Y53.405 E.0351
G1 X79.903 Y53.973 E.01898
G1 X79.16 Y53.231 E.0351
G1 X79.16 Y53.799 E.01899
G1 X79.903 Y54.542 E.0351
G1 X79.903 Y54.842 E.01004
G1 X79.636 Y54.842 E.00894
G1 X78.991 Y54.197 E.03047
M204 S1000
;WIPE_START
G1 F8640
G1 X79.636 Y54.842 E-.21059
G1 X79.903 Y54.842 E-.06179
G1 X79.903 Y54.542 E-.06941
G1 X79.16 Y53.799 E-.24258
G1 X79.16 Y53.231 E-.13121
G1 X79.296 Y53.367 E-.04441
;WIPE_END
G1 E-.04 F2100
G1 Z.6 F720
G1 X77.902 Y52.394 F10800
G1 X73.218 Y49.125
G1 X70.929 Y47.527
G1 Z.2 F720
M73 P19 R4
G1 E.8 F2100
M204 S800
;TYPE:Perimeter
;WIDTH:0.42
G1 F180
G1 X71.322 Y47.55 E.01235
G1 X72.242 Y47.552 E.02885
M73 Q19 S4
G1 X72.242 Y55.125 E.23745
G1 X70.934 Y55.125 E.04102
G1 X70.93 Y47.587 E.23634
M204 S1000
M73 P20 R4
M73 Q20 S4
G1 X70.54 Y47.113 F10800
M204 S800
G1 F180
G1 X71.333 Y47.173 E.02495
G1 X72.619 Y47.176 E.04033
M73 P21 R4
G1 X72.619 Y55.502 E.26107
M73 Q21 S4
G1 X70.557 Y55.502 E.06467
M73 P22 R4
G1 X70.557 Y47.707 E.2444
M73 Q22 S4
G1 X70.541 Y47.173 E.01675
M204 S1000
M73 P23 R4
M73 Q23 S4
G1 X70.15 Y46.69 F10800
M204 S800
G1 F180
G1 X70.828 Y46.766 E.02138
G1 X71.344 Y46.796 E.01622
G1 X72.997 Y46.799 E.0518
G1 X72.997 Y55.879 E.28469
M73 P23 R3
G1 X70.18 Y55.879 E.08832
M73 P24 R3
M73 Q24 S3
G1 X70.18 Y47.713 E.25605
G1 X70.152 Y46.75 E.0302
M204 S1000
M73 P25 R3
M73 Q25 S3
G1 X70.081 Y46.303 F10800
M204 S800
;TYPE:External perimeter
G1 F180
G1 X70.86 Y46.39 E.02455
G1 X71.355 Y46.418 E.01557
G1 X73.374 Y46.423 E.06328
G1 X73.374 Y56.256 E.30831
M73 P26 R3
G1 X69.803 Y56.256 E.11196
M73 P27 R3
M73 Q27 S3
G1 X69.802 Y47.718 E.2677
G1 X69.774 Y46.712 E.03156
M73 P28 R3
M73 Q28 S3
G1 X69.716 Y46.217 E.01563
G1 X69.704 Y45.249 E.03035
G1 X69.719 Y45.14 E.00344
G1 X70.014 Y45.143 E.00925
G1 X70.081 Y45.605 E.01464
G1 X70.081 Y46.243 E.02
M204 S1000
G1 X70.059 Y46.702 F10800
G1 E-.8 F2100
G1 Z.6 F720
G1 X71.314 Y47.662 F10800
G1 Z.2 F720
G1 E.8 F2100
M204 S800
;TYPE:Solid infill
;WIDTH:0.443848
G1 F720
G1 X71.96 Y48.308 E.03043
G1 X71.96 Y48.875 E.0189
G1 X71.212 Y48.127 E.03525
G1 X71.212 Y48.695 E.01892
M73 P29 R3
G1 X71.96 Y49.442 E.03523
G1 X71.96 Y50.009 E.0189
G1 X71.213 Y49.262 E.03521
G1 X71.213 Y49.829 E.01892
G1 X71.96 Y50.576 E.0352
G1 X71.96 Y51.143 E.0189
M73 Q29 S3
G1 X71.213 Y50.397 E.03518
G1 X71.214 Y50.964 E.01892
G1 X71.96 Y51.71 E.03516
G1 X71.96 Y52.277 E.0189
G1 X71.214 Y51.532 E.03514
G1 X71.215 Y52.099 E.01892
G1 X71.96 Y52.844 E.03512
G1 X71.96 Y53.411 E.0189
G1 X71.215 Y52.666 E.0351
G1 X71.215 Y53.234 E.01892
G1 X71.96 Y53.978 E.03508
G1 X71.96 Y54.545 E.0189
G1 X71.216 Y53.801 E.03507
G1 X71.216 Y54.369 E.01892
G1 X71.86 Y55.012 E.03034
M204 S1000
; stop printing object MineTrackInsert.stl id:0 copy 0
M106 S84.15
;LAYER_CHANGE
;Z:0.4
;HEIGHT:0.2
;BEFORE_LAYER_CHANGE
G92 E0.0
;0.4


;WIPE_START
G1 F8640
G1 X71.216 Y54.369 E-.21013
G1 X71.216 Y53.801 E-.13101
G1 X71.96 Y54.545 E-.24287
G1 X71.96 Y53.978 E-.13092
G1 X71.822 Y53.84 E-.04506
;WIPE_END
G1 E-.04 F2100
G1 Z.6 F720
;AFTER_LAYER_CHANGE
;0.4
M104 S210 ; set temperature
; printing object MineTrackInsert.stl id:0 copy 0
G1 X70.839 Y47.46 F10800
G1 Z.4 F720
G1 E.8 F2100
M204 S800
;TYPE:Perimeter
;WIDTH:0.45
G1 F1035
G1 X72.337 Y47.46 E.05072
G1 X72.337 Y55.22 E.26267
G1 X70.839 Y55.22 E.05072
G1 X70.839 Y47.52 E.26064
M204 S1000
G1 X70.432 Y47.053 F10800
M204 S800
M73 P30 R3
G1 F1035
G1 X72.744 Y47.053 E.07828
G1 X72.744 Y55.627 E.29023
G1 X70.432 Y55.627 E.07828
M73 Q30 S3
G1 X70.432 Y47.113 E.2882
M204 S1000
G1 X70.168 Y46.646 F10800
M204 S800
G1 F1035
G1 X73.152 Y46.646 E.101
G1 X73.152 Y56.034 E.31779
G1 X70.025 Y56.034 E.10583
G1 X70.025 Y46.646 E.31779
G1 X70.108 Y46.646 E.00281
M204 S1000
G1 X70.168 Y46.239 F10800
M204 S800
;TYPE:External perimeter
G1 F1035
G1 X73.559 Y46.239 E.11478
G1 X73.559 Y56.441 E.34534
G1 X69.618 Y56.441 E.13339
M73 P31 R3
M73 Q31 S3
G1 X69.618 Y44.965 E.38847
G1 X70.168 Y44.965 E.01862
G1 X70.168 Y46.179 E.0411
M204 S1000
G1 X70.222 Y46.635 F10800
G1 X69.893 Y46.442
;TYPE:Gap fill
;WIDTH:0.185846
G1 F1035
G1 X69.893 Y45.168 E.01514
G1 E-.8 F2100
G1 Z.8 F720
G1 X71.371 Y55.098 F10800
G1 Z.4 F720
G1 E.8 F2100
;TYPE:Solid infill
;WIDTH:0.460178
G1 F1035
G1 X72.032 Y54.437 E.03245
G1 X72.032 Y53.847 E.02047
G1 X71.144 Y54.734 E.04356
G1 X71.144 Y54.144 E.02047
G1 X72.032 Y53.257 E.04356
G1 X72.032 Y52.666 E.02047
G1 X71.144 Y53.554 E.04356
G1 X71.144 Y52.964 E.02047
G1 X72.032 Y52.076 E.04356
G1 X72.032 Y51.486 E.02047
G1 X71.144 Y52.374 E.04356
G1 X71.144 Y51.784 E.02047
G1 X72.032 Y50.896 E.04356
G1 X72.032 Y50.306 E.02047
G1 X71.144 Y51.194 E.04356
G1 X71.144 Y50.604 E.02047
G1 X72.032 Y49.716 E.04356
G1 X72.032 Y49.126 E.02047
G1 X71.144 Y50.014 E.04356
M73 P32 R3
G1 X71.144 Y49.424 E.02047
G1 X72.032 Y48.536 E.04356
G1 X72.032 Y47.946 E.02047
G1 X71.144 Y48.833 E.04356
G1 X71.144 Y48.243 E.02047
G1 X71.805 Y47.582 E.03244
;WIPE_START
G1 F8640
G1 X71.144 Y48.243 E-.21591
G1 X71.144 Y48.833 E-.13625
G1 X72.032 Y47.946 E-.2899
M73 Q32 S3
G1 X72.032 Y48.456 E-.11794
;WIPE_END
G1 E-.04 F2100
G1 Z.8 F720
G1 X73.173 Y48.288 F10800
G1 X77.947 Y47.583
G1 X78.783 Y47.46
G1 Z.4 F720
G1 E.8 F2100
M204 S800
;TYPE:Perimeter
;WIDTH:0.45
G1 F1035
G1 X80.281 Y47.46 E.05072
G1 X80.281 Y55.22 E.26267
G1 X78.783 Y55.22 E.05072
G1 X78.783 Y47.52 E.26064
M204 S1000
G1 X78.376 Y47.053 F10800
M204 S800
G1 F1035
G1 X80.688 Y47.053 E.07828
G1 X80.688 Y55.627 E.29023
G1 X78.376 Y55.627 E.07828
G1 X78.376 Y47.113 E.2882
M204 S1000
G1 X77.968 Y46.646 F10800
M204 S800
M73 P33 R3
G1 F1035
G1 X81.095 Y46.646 E.10583
G1 X81.095 Y56.034 E.31779
G1 X77.968 Y56.034 E.10583
M73 Q33 S3
G1 X77.968 Y46.706 E.31575
M204 S1000
G1 X77.746 Y46.239 F10800
M204 S800
;TYPE:External perimeter
G1 F1035
G1 X80.952 Y46.239 E.10851
G1 X80.952 Y44.965 E.04313
G1 X81.502 Y44.965 E.01862
G1 X81.502 Y56.441 E.38847
G1 X77.561 Y56.441 E.13339
G1 X77.561 Y46.239 E.34534
G1 X77.686 Y46.239 E.00423
M204 S1000
M73 P34 R3
G1 X78.092 Y46.441 F10800
G1 E-.8 F2100
M73 Q34 S3
G1 Z.8 F720
G1 X81.227 Y46.442 F10800
G1 Z.4 F720
G1 E.8 F2100
;TYPE:Gap fill
;WIDTH:0.185842
G1 F1035
G1 X81.227 Y45.168 E.01514
G1 E-.8 F2100
G1 Z.8 F720
G1 X79.314 Y55.098 F10800
G1 Z.4 F720
G1 E.8 F2100
;TYPE:Solid infill
;WIDTH:0.460178
G1 F1035
G1 X79.976 Y54.437 E.03245
G1 X79.976 Y53.847 E.02047
G1 X79.088 Y54.734 E.04356
G1 X79.088 Y54.144 E.02047
G1 X79.976 Y53.257 E.04356
G1 X79.976 Y52.666 E.02047
G1 X79.088 Y53.554 E.04356
G1 X79.088 Y52.964 E.02047
G1 X79.976 Y52.076 E.04356
G1 X79.976 Y51.486 E.02047
G1 X79.088 Y52.374 E.04356
G1 X79.088 Y51.784 E.02047
G1 X79.976 Y50.896 E.04356
G1 X79.976 Y50.306 E.02047
G1 X79.088 Y51.194 E.04356
G1 X79.088 Y50.604 E.02047
G1 X79.976 Y49.716 E.04356
G1 X79.976 Y49.126 E.02047
G1 X79.088 Y50.014 E.04356
G1 X79.088 Y49.424 E.02047
G1 X79.976 Y48.536 E.04356
G1 X79.976 Y47.946 E.02047
G1 X79.088 Y48.833 E.04356
G1 X79.088 Y48.243 E.02047
G1 X79.749 Y47.582 E.03244
; stop printing object MineTrackInsert.stl id:0 copy 0
M106 S170.85
;LAYER_CHANGE
;Z:0.6
;HEIGHT:0.2
;BEFORE_LAYER_CHANGE
G92 E0.0
;0.6


;WIPE_START
G1 F8640
G1 X79.088 Y48.243 E-.21591
G1 X79.088 Y48.833 E-.13625
G1 X79.976 Y47.946 E-.2899
G1 X79.976 Y48.456 E-.11794
;WIPE_END
G1 E-.04 F2100
G1 Z.8 F720
;AFTER_LAYER_CHANGE
;0.6
; printing object MineTrackInsert.stl id:0 copy 0
G1 X77.947 Y48.235 F10800
G1 X73.173 Y47.715
G1 X70.839 Y47.46
G1 Z.6 F720
M73 P35 R3
G1 E.8 F2100
M204 S800
;TYPE:Perimeter
;WIDTH:0.45
G1 F1032
G1 X72.337 Y47.46 E.05072
G1 X72.337 Y55.22 E.26267
G1 X70.839 Y55.22 E.05072
M73 Q35 S3
G1 X70.839 Y47.52 E.26064
M204 S1000
G1 X70.432 Y47.053 F10800
M204 S800
G1 F1032
G1 X72.744 Y47.053 E.07828
G1 X72.744 Y55.627 E.29023
G1 X70.432 Y55.627 E.07828
G1 X70.432 Y47.113 E.2882
M204 S1000
G1 X70.168 Y46.646 F10800
M204 S800
G1 F1032
G1 X73.152 Y46.646 E.101
G1 X73.152 Y56.034 E.31779
G1 X70.025 Y56.034 E.10583
M73 P36 R3
G1 X70.025 Y46.646 E.31779
G1 X70.108 Y46.646 E.00281
M204 S1000
M73 Q36 S3
G1 X70.168 Y46.239 F10800
M204 S800
;TYPE:External perimeter
G1 F1032
G1 X73.559 Y46.239 E.11478
G1 X73.559 Y56.441 E.34534
G1 X69.618 Y56.441 E.13339
G1 X69.618 Y44.965 E.38847
G1 X70.168 Y44.965 E.01862
G1 X70.168 Y46.179 E.0411
M204 S1000
G1 X70.222 Y46.635 F10800
G1 X69.893 Y46.442
;TYPE:Gap fill
;WIDTH:0.185846
G1 F1032
G1 X69.893 Y45.168 E.01514
;WIPE_START
G1 F8640
G1 X69.893 Y46.442 E-.29421
;WIPE_END
G1 E-.50579 F2100
G1 Z1 F720
G1 X71.371 Y47.582 F10800
G1 Z.6 F720
M73 P37 R3
G1 E.8 F2100
;TYPE:Solid infill
;WIDTH:0.460178
G1 F1032
G1 X72.032 Y48.243 E.03245
G1 X72.032 Y48.834 E.02047
G1 X71.144 Y47.946 E.04356
G1 X71.144 Y48.536 E.02047
G1 X72.032 Y49.424 E.04356
G1 X72.032 Y50.014 E.02047
G1 X71.144 Y49.126 E.04356
M73 Q37 S3
G1 X71.144 Y49.716 E.02047
G1 X72.032 Y50.604 E.04356
G1 X72.032 Y51.194 E.02047
G1 X71.144 Y50.306 E.04356
G1 X71.144 Y50.896 E.02047
G1 X72.032 Y51.784 E.04356
G1 X72.032 Y52.374 E.02047
G1 X71.144 Y51.486 E.04356
G1 X71.144 Y52.076 E.02047
G1 X72.032 Y52.964 E.04356
G1 X72.032 Y53.554 E.02047
G1 X71.144 Y52.667 E.04356
G1 X71.144 Y53.257 E.02047
G1 X72.032 Y54.144 E.04356
G1 X72.032 Y54.734 E.02047
G1 X71.144 Y53.847 E.04356
G1 X71.144 Y54.437 E.02047
G1 X71.805 Y55.098 E.03244
;WIPE_START
G1 F8640
G1 X71.144 Y54.437 E-.21591
G1 X71.144 Y53.847 E-.13625
G1 X72.032 Y54.734 E-.2899
G1 X72.032 Y54.224 E-.11794
;WIPE_END
G1 E-.04 F2100
G1 Z1 F720
G1 X73.173 Y53.081 F10800
G1 X77.947 Y48.297
G1 X78.783 Y47.46
G1 Z.6 F720
G1 E.8 F2100
M204 S800
;TYPE:Perimeter
;WIDTH:0.45
G1 F1032
G1 X80.281 Y47.46 E.05072
G1 X80.281 Y55.22 E.26267
G1 X78.783 Y55.22 E.05072
G1 X78.783 Y47.52 E.26064
M204 S1000
G1 X78.376 Y47.053 F10800
M204 S800
M73 P38 R3
G1 F1032
G1 X80.688 Y47.053 E.07828
G1 X80.688 Y55.627 E.29023
G1 X78.376 Y55.627 E.07828
M73 Q38 S3
G1 X78.376 Y47.113 E.2882
M204 S1000
G1 X77.968 Y46.646 F10800
M204 S800
G1 F1032
G1 X81.095 Y46.646 E.10583
G1 X81.095 Y56.034 E.31779
G1 X77.968 Y56.034 E.10583
G1 X77.968 Y46.706 E.31575
M204 S1000
G1 X77.746 Y46.239 F10800
M204 S800
;TYPE:External perimeter
G1 F1032
G1 X80.952 Y46.239 E.10851
G1 X80.952 Y44.965 E.04313
M73 P39 R3
G1 X81.502 Y44.965 E.01862
G1 X81.502 Y56.441 E.38847
G1 X77.561 Y56.441 E.13339
M73 Q39 S3
G1 X77.561 Y46.239 E.34534
G1 X77.686 Y46.239 E.00423
M204 S1000
G1 X78.092 Y46.441 F10800
G1 E-.8 F2100
G1 Z1 F720
G1 X79.314 Y47.582 F10800
G1 Z.6 F720
G1 E.8 F2100
;TYPE:Solid infill
;WIDTH:0.460178
G1 F1032
G1 X79.976 Y48.243 E.03245
G1 X79.976 Y48.834 E.02047
G1 X79.088 Y47.946 E.04356
G1 X79.088 Y48.536 E.02047
G1 X79.976 Y49.424 E.04356
G1 X79.976 Y50.014 E.02047
G1 X79.088 Y49.126 E.04356
G1 X79.088 Y49.716 E.02047
G1 X79.976 Y50.604 E.04356
G1 X79.976 Y51.194 E.02047
G1 X79.088 Y50.306 E.04356
G1 X79.088 Y50.896 E.02047
G1 X79.976 Y51.784 E.04356
G1 X79.976 Y52.374 E.02047
G1 X79.088 Y51.486 E.04356
G1 X79.088 Y52.076 E.02047
G1 X79.976 Y52.964 E.04356
G1 X79.976 Y53.554 E.02047
G1 X79.088 Y52.667 E.04356
G1 X79.088 Y53.257 E.02047
G1 X79.976 Y54.144 E.04356
G1 X79.976 Y54.735 E.02047
M73 P40 R3
G1 X79.088 Y53.847 E.04356
