; generated by PrusaSlicer 2.5.0+win64 on 2022-11-08 at 19:51:25 UTC

; 

; external perimeters extrusion width = 0.45mm
; perimeters extrusion width = 0.45mm
; infill extrusion width = 0.45mm
; solid infill extrusion width = 0.45mm
; top infill extrusion width = 0.40mm
; support material extrusion width = 0.35mm
; first layer extrusion width = 0.42mm

M73 P0 R6
M73 C4
M73 Q0 S6
M73 D4
M201 X1000 Y1000 Z200 E5000 ; sets maximum accelerations, mm/sec^2
M203 X200 Y200 Z12 E120 ; sets maximum feedrates, mm / sec
M204 P1250 R1250 T1250 ; sets acceleration (P, T) and retract acceleration (R), mm/sec^2
M205 X8.00 Y8.00 Z0.40 E4.50 ; sets the jerk limits, mm/sec
M205 S0 T0 ; sets the minimum extruding and travel feed rate, mm/sec
M107
;TYPE:Custom
M862.3 P "MK3S" ; printer model check
M862.1 P0.4 ; nozzle diameter check
M115 U3.10.1 ; tell printer latest fw version
G90 ; use absolute coordinates
M83 ; extruder relative mode
M104 S215 ; set extruder temp
M140 S60 ; set bed temp
M190 S60 ; wait for bed temp
M109 S215 ; wait for extruder temp
G28 W ; home all without mesh bed level
G80 ; mesh bed leveling
G1 Z0.2 F720
G1 Y-3 F1000 ; go outside print area
G92 E0
G1 X60 E9 F1000 ; intro line
G1 X100 E12.5 F1000 ; intro line
G92 E0
M221 S95

; Don't change E values below. Excessive value can damage the printer.

G21 ; set units to millimeters
G90 ; use absolute coordinates
M83 ; use relative distances for extrusion
M900 K0.05 ; Filament gcode LA 1.5
M900 K30 ; Filament gcode LA 1.0
M107
;LAYER_CHANGE
;Z:0.2
;HEIGHT:0.2
;BEFORE_LAYER_CHANGE
G92 E0.0
;0.2


M73 P1 R6
M73 Q1 S6
G1 E-.8 F2100
G1 Z.4 F720
;AFTER_LAYER_CHANGE
;0.2
G1 X127.158 Y27.942 F10800
G1 Z.2 F720
G1 E.8 F2100
M204 S800
;TYPE:Skirt/Brim
;WIDTH:0.42
G1 F600
G1 X127.549 Y26.673 E.04164
G1 X128.587 Y25.844 E.04164
G1 X129.412 Y25.687 E.02634
G1 X146.293 Y25.687 E.52928
G1 X147.562 Y26.079 E.04164
M73 P2 R6
M73 Q2 S6
G1 X148.39 Y27.116 E.04164
G1 X148.547 Y27.942 E.02634
G1 X148.547 Y57.83 E.93714
G1 X148.156 Y59.099 E.04164
M73 P3 R6
M73 Q3 S6
G1 X147.118 Y59.928 E.04164
G1 X146.293 Y60.084 E.02634
G1 X129.412 Y60.084 E.52928
G1 X128.143 Y59.693 E.04164
G1 X127.314 Y58.656 E.04164
G1 X127.158 Y57.83 E.02634
G1 X127.158 Y28.002 E.93526
M204 S1000
G1 X127.535 Y28.002 F10800
M204 S800
M73 P4 R6
M73 Q4 S6
G1 F600
G1 X127.535 Y27.942 E.00188
G1 X127.924 Y26.797 E.03791
G1 X129.412 Y26.064 E.05199
G1 X146.293 Y26.064 E.52928
M73 P4 R5
G1 X147.437 Y26.454 E.03791
M73 P5 R5
M73 Q5 S5
G1 X148.17 Y27.942 E.05199
G1 X148.17 Y57.83 E.93714
G1 X147.78 Y58.975 E.03791
M73 P6 R5
M73 Q6 S5
G1 X146.293 Y59.707 E.05199
G1 X129.412 Y59.707 E.52928
G1 X128.267 Y59.318 E.03791
G1 X127.535 Y57.83 E.05199
G1 X127.535 Y28.062 E.93338
M204 S1000
; printing object Door.stl id:0 copy 0
;WIPE_START
G1 F8640
M73 P7 R5
M73 Q7 S5
G1 X127.535 Y27.942 E-.02771
G1 X127.924 Y26.797 E-.27916
G1 X129.412 Y26.064 E-.3829
G1 X129.716 Y26.064 E-.07023
;WIPE_END
G1 E-.04 F2100
G1 Z.6 F720
G1 X130.576 Y29.106 F10800
G1 Z.2 F720
G1 E.8 F2100
M204 S800
;TYPE:Perimeter
;WIDTH:0.419999
G1 F540
G1 X145.128 Y29.106 E.45627
G1 X145.128 Y56.666 E.86413
G1 X130.576 Y56.666 E.45627
M73 P8 R5
M73 Q8 S5
G1 X130.576 Y39.442 E.54003
M73 P9 R5
M73 Q9 S5
G1 X130.912 Y38.883 E.02046
G1 X131.064 Y38.528 E.0121
G1 X131.257 Y37.98 E.01822
G1 X131.376 Y37.185 E.02522
G1 X131.339 Y36.381 E.02522
G1 X131.145 Y35.6 E.02522
G1 X130.894 Y35.033 E.01945
G1 X130.576 Y34.55 E.01812
G1 X130.576 Y29.166 E.16883
M204 S1000
G1 X130.199 Y28.729 F10800
M204 S800
M73 P10 R5
M73 Q10 S5
G1 F540
G1 X145.505 Y28.729 E.47992
G1 X145.505 Y57.043 E.88778
G1 X130.199 Y57.043 E.47992
M73 P11 R5
M73 Q11 S5
G1 X130.199 Y39.338 E.55514
G1 X130.589 Y38.689 E.02374
M73 P12 R5
M73 Q12 S5
G1 X130.713 Y38.393 E.01007
G1 X130.885 Y37.916 E.0159
G1 X130.999 Y37.194 E.02291
G1 X130.971 Y36.464 E.02291
G1 X130.8 Y35.753 E.02291
G1 X130.494 Y35.089 E.02291
G1 X130.199 Y34.65 E.01659
G1 X130.199 Y28.789 E.18379
M204 S1000
G1 X129.822 Y28.352 F10800
M204 S800
;TYPE:External perimeter
M73 C3
M73 D3
G1 F360
G1 X145.883 Y28.352 E.50357
G1 X145.883 Y57.42 E.91143
M73 P13 R5
M73 Q13 S5
G1 X129.822 Y57.42 E.50357
M73 P14 R5
M73 Q14 S5
G1 X129.822 Y39.233 E.57024
M73 P15 R5
M73 Q15 S5
G1 X130.28 Y38.465 E.02804
M73 P16 R5
M73 Q16 S5
G1 X130.514 Y37.851 E.0206
G1 X130.623 Y37.203 E.0206
G1 X130.603 Y36.546 E.0206
G1 X130.456 Y35.906 E.0206
G1 X130.204 Y35.338 E.01945
G1 X129.915 Y34.921 E.01591
G1 X129.822 Y34.714 E.00711
G1 X129.822 Y28.412 E.19762
M204 S1000
G1 X130.169 Y28.55 F10800
;WIPE_START
G1 F8640
G1 X133.113 Y28.399 E-.76
;WIPE_END
G1 E-.04 F2100
G1 Z.6 F720
G1 X145.015 Y29.984 F10800
G1 Z.2 F720
G1 E.8 F2100
M204 S800
;TYPE:Solid infill
;WIDTH:0.421272
G1 F960
G1 X144.42 Y29.389 E.02649
G1 X143.885 Y29.389 E.01683
G1 X144.846 Y30.349 E.04274
G1 X144.846 Y30.884 E.01683
G1 X143.35 Y29.389 E.06655
G1 X142.815 Y29.389 E.01683
G1 X144.846 Y31.419 E.09035
G1 X144.846 Y31.954 E.01683
G1 X142.28 Y29.389 E.11416
G1 X141.745 Y29.389 E.01683
G1 X144.846 Y32.489 E.13797
G1 X144.846 Y33.025 E.01683
M73 P17 R5
M73 Q17 S5
G1 X141.21 Y29.389 E.16177
G1 X140.675 Y29.389 E.01683
G1 X144.846 Y33.56 E.18558
G1 X144.846 Y34.095 E.01683
G1 X140.139 Y29.389 E.20938
G1 X139.604 Y29.389 E.01683
G1 X144.846 Y34.63 E.23319
G1 X144.846 Y35.165 E.01683
G1 X139.069 Y29.389 E.257
G1 X138.534 Y29.389 E.01683
G1 X144.846 Y35.7 E.2808
G1 X144.846 Y36.235 E.01683
G1 X137.999 Y29.389 E.30461
G1 X137.464 Y29.389 E.01683
M73 P18 R5
M73 Q18 S5
G1 X144.846 Y36.77 E.32841
G1 X144.846 Y37.305 E.01683
G1 X136.929 Y29.389 E.35222
G1 X136.394 Y29.389 E.01683
G1 X144.846 Y37.84 E.37603
G1 X144.846 Y38.375 E.01683
G1 X135.859 Y29.389 E.39983
G1 X135.324 Y29.389 E.01683
G1 X144.846 Y38.91 E.42364
G1 X144.846 Y39.445 E.01683
M73 P19 R5
M73 Q19 S5
G1 X134.789 Y29.389 E.44744
G1 X134.254 Y29.389 E.01683
G1 X144.846 Y39.98 E.47125
G1 X144.846 Y40.516 E.01683
G1 X133.719 Y29.389 E.49506
G1 X133.184 Y29.389 E.01683
G1 X144.846 Y41.051 E.51886
G1 X144.846 Y41.586 E.01683
M73 P20 R5
M73 Q20 S5
G1 X132.648 Y29.389 E.54267
G1 X132.113 Y29.389 E.01683
G1 X144.846 Y42.121 E.56647
G1 X144.846 Y42.656 E.01683
M73 P20 R4
M73 Q20 S4
G1 X131.578 Y29.389 E.59028
G1 X131.043 Y29.389 E.01683
M73 P21 R4
M73 Q21 S4
G1 X144.846 Y43.191 E.61409
G1 X144.846 Y43.726 E.01683
G1 X130.859 Y29.739 E.62228
G1 X130.859 Y30.274 E.01683
G1 X144.846 Y44.261 E.62228
G1 X144.846 Y44.796 E.01683
M73 P22 R4
M73 Q22 S4
G1 X130.859 Y30.809 E.62228
G1 X130.859 Y31.345 E.01683
G1 X144.846 Y45.331 E.62228
G1 X144.846 Y45.866 E.01683
G1 X130.859 Y31.88 E.62228
G1 X130.859 Y32.415 E.01683
M73 P23 R4
M73 Q23 S4
G1 X144.846 Y46.401 E.62228
G1 X144.846 Y46.936 E.01683
G1 X130.859 Y32.95 E.62228
G1 X130.859 Y33.485 E.01683
G1 X144.846 Y47.471 E.62228
G1 X144.846 Y48.007 E.01683
M73 P24 R4
M73 Q24 S4
G1 X130.859 Y34.02 E.62228
G1 X130.859 Y34.461 E.01387
G1 X131.062 Y34.758 E.01132
G1 X144.846 Y48.542 E.61325
G1 X144.846 Y49.077 E.01683
G1 X131.478 Y35.709 E.59475
G1 X131.619 Y36.385 E.02173
M73 P25 R4
M73 Q25 S4
G1 X144.846 Y49.612 E.58848
G1 X144.846 Y50.147 E.01683
G1 X131.653 Y36.954 E.58696
G1 X131.66 Y37.21 E.00806
G1 X131.632 Y37.469 E.00817
G1 X144.846 Y50.682 E.58787
G1 X144.846 Y51.217 E.01683
M73 P26 R4
M73 Q26 S4
G1 X131.553 Y37.925 E.59139
G1 X131.438 Y38.345 E.0137
G1 X144.846 Y51.752 E.5965
G1 X144.846 Y52.287 E.01683
G1 X131.289 Y38.731 E.60314
G1 X131.116 Y39.093 E.01262
M73 P27 R4
G1 X144.846 Y52.822 E.61084
M73 Q27 S4
G1 X144.846 Y53.357 E.01683
G1 X130.915 Y39.427 E.61977
G1 X130.859 Y39.521 E.00345
G1 X130.859 Y39.906 E.01211
G1 X144.846 Y53.892 E.62228
G1 X144.846 Y54.427 E.01683
M73 P28 R4
M73 Q28 S4
G1 X130.859 Y40.441 E.62228
G1 X130.859 Y40.976 E.01683
G1 X144.846 Y54.962 E.62228
G1 X144.846 Y55.498 E.01683
M73 C2
M73 D2
G1 X130.859 Y41.511 E.62228
G1 X130.859 Y42.046 E.01683
M73 P29 R4
M73 Q29 S4
G1 X144.846 Y56.033 E.62228
G1 X144.846 Y56.383 E.01103
G1 X144.661 Y56.383 E.0058
G1 X130.859 Y42.581 E.61408
G1 X130.859 Y43.116 E.01683
G1 X144.126 Y56.383 E.59027
G1 X143.591 Y56.383 E.01683
M73 P30 R4
M73 Q30 S4
G1 X130.859 Y43.651 E.56647
G1 X130.859 Y44.186 E.01683
G1 X143.056 Y56.383 E.54266
G1 X142.521 Y56.383 E.01683
G1 X130.859 Y44.721 E.51886
G1 X130.859 Y45.256 E.01683
G1 X141.986 Y56.383 E.49505
G1 X141.451 Y56.383 E.01683
M73 P31 R4
M73 Q31 S4
G1 X130.859 Y45.791 E.47124
G1 X130.859 Y46.326 E.01683
G1 X140.916 Y56.383 E.44744
G1 X140.381 Y56.383 E.01683
G1 X130.859 Y46.862 E.42363
G1 X130.859 Y47.397 E.01683
G1 X139.846 Y56.383 E.39983
G1 X139.311 Y56.383 E.01683
M73 P32 R4
M73 Q32 S4
G1 X130.859 Y47.932 E.37602
G1 X130.859 Y48.467 E.01683
G1 X138.775 Y56.383 E.35221
G1 X138.24 Y56.383 E.01683
G1 X130.859 Y49.002 E.32841
G1 X130.859 Y49.537 E.01683
G1 X137.705 Y56.383 E.3046
G1 X137.17 Y56.383 E.01683
G1 X130.859 Y50.072 E.2808
G1 X130.859 Y50.607 E.01683
M73 P33 R4
M73 Q33 S4
G1 X136.635 Y56.383 E.25699
G1 X136.1 Y56.383 E.01683
G1 X130.859 Y51.142 E.23318
G1 X130.859 Y51.677 E.01683
G1 X135.565 Y56.383 E.20938
G1 X135.03 Y56.383 E.01683
G1 X130.859 Y52.212 E.18557
G1 X130.859 Y52.747 E.01683
G1 X134.495 Y56.383 E.16177
G1 X133.96 Y56.383 E.01683
G1 X130.859 Y53.282 E.13796
G1 X130.859 Y53.817 E.01683
G1 X133.425 Y56.383 E.11416
G1 X132.89 Y56.383 E.01683
G1 X130.859 Y54.353 E.09035
G1 X130.859 Y54.888 E.01683
G1 X132.355 Y56.383 E.06654
G1 X131.82 Y56.383 E.01683
G1 X130.859 Y55.423 E.04274
G1 X130.859 Y55.958 E.01683
G1 X131.454 Y56.553 E.02648
M204 S1000
; stop printing object Door.stl id:0 copy 0
M106 S84.15
;LAYER_CHANGE
;Z:0.4
;HEIGHT:0.2
;BEFORE_LAYER_CHANGE
G92 E0.0
;0.4


;WIPE_START
G1 F8640
G1 X130.859 Y55.958 E-.19436
G1 X130.859 Y55.423 E-.12355
G1 X131.82 Y56.383 E-.31367
M73 P34 R4
G1 X132.355 Y56.383 E-.12355
G1 X132.34 Y56.368 E-.00487
;WIPE_END
M73 Q34 S4
G1 E-.04 F2100
G1 Z.6 F720
;AFTER_LAYER_CHANGE
;0.4
; printing object Door.stl id:0 copy 0
G1 X130.451 Y56.791 F10800
G1 Z.4 F720
G1 E.8 F2100
M204 S800
;TYPE:Perimeter
;WIDTH:0.449999
G1 F2700
G1 X130.451 Y39.377 E.58943
G1 X130.784 Y38.852 E.02106
G1 X130.948 Y38.483 E.01365
G1 X131.137 Y37.939 E.01949
G1 X131.251 Y37.168 E.02639
G1 X131.212 Y36.389 E.02639
G1 X131.023 Y35.633 E.02639
G1 X130.787 Y35.102 E.01967
G1 X130.451 Y34.59 E.02073
G1 X130.451 Y28.981 E.18986
G1 X145.253 Y28.981 E.50104
G1 X145.253 Y56.791 E.94135
G1 X130.511 Y56.791 E.49901
M204 S1000
G1 X130.044 Y57.198 F10800
M204 S800
G1 F2700
G1 X130.044 Y39.259 E.60721
G1 X130.495 Y38.527 E.0291
G1 X130.736 Y37.87 E.0237
G1 X130.844 Y37.178 E.0237
G1 X130.815 Y36.478 E.0237
G1 X130.651 Y35.798 E.0237
G1 X130.356 Y35.162 E.0237
G1 X130.044 Y34.679 E.01949
G1 X130.044 Y28.574 E.20665
G1 X145.66 Y28.574 E.5286
G1 X145.66 Y57.198 E.9689
G1 X130.104 Y57.198 E.52656
M204 S1000
M73 P35 R4
M73 Q35 S4
G1 X129.637 Y57.605 F10800
M204 S800
;TYPE:External perimeter
G1 F1800
G1 X129.637 Y39.2 E.62299
G1 X129.669 Y39.091 E.00384
G1 X130.115 Y38.38 E.02841
G1 X130.335 Y37.8 E.02101
G1 X130.437 Y37.188 E.02101
G1 X130.418 Y36.567 E.02101
G1 X130.291 Y36.001 E.01966
G1 X130.086 Y35.528 E.01742
G1 X129.762 Y35.025 E.02026
G1 X129.637 Y34.749 E.01027
G1 X129.637 Y28.167 E.2228
G1 X146.068 Y28.167 E.55615
G1 X146.068 Y57.605 E.99646
G1 X129.697 Y57.605 E.55412
M204 S1000
G1 X129.705 Y57.211 F10800
;WIPE_START
M73 P36 R4
M73 Q36 S4
G1 F8640
G1 X129.686 Y54.314 E-.76
;WIPE_END
G1 E-.04 F2100
G1 Z.8 F720
G1 X145.131 Y55.842 F10800
G1 Z.4 F720
G1 E.8 F2100
;TYPE:Solid infill
;WIDTH:0.451739
G1 F4800
G1 X144.488 Y56.486 E.03093
G1 X143.91 Y56.486 E.01965
G1 X144.948 Y55.447 E.04992
G1 X144.948 Y54.869 E.01965
G1 X143.332 Y56.486 E.07771
G1 X142.753 Y56.486 E.01965
G1 X144.948 Y54.291 E.10551
G1 X144.948 Y53.713 E.01965
G1 X142.175 Y56.486 E.1333
G1 X141.597 Y56.486 E.01965
G1 X144.948 Y53.135 E.1611
G1 X144.948 Y52.557 E.01965
G1 X141.019 Y56.486 E.18889
G1 X140.441 Y56.486 E.01965
G1 X144.948 Y51.978 E.21669
G1 X144.948 Y51.4 E.01965
G1 X139.863 Y56.486 E.24448
G1 X139.284 Y56.486 E.01965
M73 P36 R3
G1 X144.948 Y50.822 E.27227
G1 X144.948 Y50.244 E.01965
G1 X138.706 Y56.486 E.30007
G1 X138.128 Y56.486 E.01965
M73 Q36 S3
G1 X144.948 Y49.666 E.32786
G1 X144.948 Y49.088 E.01965
G1 X137.55 Y56.486 E.35566
G1 X136.972 Y56.486 E.01965
G1 X144.948 Y48.509 E.38345
G1 X144.948 Y47.931 E.01965
G1 X136.394 Y56.486 E.41125
G1 X135.816 Y56.486 E.01965
G1 X144.948 Y47.353 E.43904
G1 X144.948 Y46.775 E.01965
G1 X135.237 Y56.486 E.46683
G1 X134.659 Y56.486 E.01965
M73 P37 R3
M73 Q37 S3
G1 X144.948 Y46.197 E.49463
G1 X144.948 Y45.619 E.01965
G1 X134.081 Y56.486 E.52242
G1 X133.503 Y56.486 E.01965
G1 X144.948 Y45.041 E.55022
G1 X144.948 Y44.462 E.01965
G1 X132.925 Y56.486 E.57801
G1 X132.347 Y56.486 E.01965
G1 X144.948 Y43.884 E.60581
G1 X144.948 Y43.306 E.01965
G1 X131.768 Y56.486 E.6336
G1 X131.19 Y56.486 E.01965
G1 X144.948 Y42.728 E.66139
G1 X144.948 Y42.15 E.01965
G1 X130.756 Y56.341 E.68225
G1 X130.756 Y55.763 E.01965
G1 X144.948 Y41.572 E.68225
G1 X144.948 Y40.993 E.01965
G1 X130.756 Y55.185 E.68225
G1 X130.756 Y54.607 E.01965
G1 X144.948 Y40.415 E.68225
G1 X144.948 Y39.837 E.01965
G1 X130.756 Y54.029 E.68225
G1 X130.756 Y53.451 E.01965
M73 P38 R3
M73 Q38 S3
G1 X144.948 Y39.259 E.68225
G1 X144.948 Y38.681 E.01965
G1 X130.756 Y52.872 E.68225
G1 X130.756 Y52.294 E.01965
G1 X144.948 Y38.103 E.68225
G1 X144.948 Y37.524 E.01965
G1 X130.756 Y51.716 E.68225
G1 X130.756 Y51.138 E.01965
G1 X144.948 Y36.946 E.68225
G1 X144.948 Y36.368 E.01965
G1 X130.756 Y50.56 E.68225
G1 X130.756 Y49.982 E.01965
G1 X144.948 Y35.79 E.68225
G1 X144.948 Y35.212 E.01965
G1 X130.756 Y49.403 E.68225
G1 X130.756 Y48.825 E.01965
G1 X144.948 Y34.634 E.68225
G1 X144.948 Y34.056 E.01965
G1 X130.756 Y48.247 E.68225
G1 X130.756 Y47.669 E.01965
G1 X144.948 Y33.477 E.68225
G1 X144.948 Y32.899 E.01965
M73 P39 R3
M73 Q39 S3
G1 X130.756 Y47.091 E.68225
G1 X130.756 Y46.513 E.01965
G1 X144.948 Y32.321 E.68225
G1 X144.948 Y31.743 E.01965
G1 X130.756 Y45.935 E.68225
G1 X130.756 Y45.356 E.01965
G1 X144.948 Y31.165 E.68225
G1 X144.948 Y30.587 E.01965
G1 X130.756 Y44.778 E.68225
G1 X130.756 Y44.2 E.01965
G1 X144.948 Y30.008 E.68225
G1 X144.948 Y29.43 E.01965
G1 X130.756 Y43.622 E.68225
G1 X130.756 Y43.044 E.01965
G1 X144.514 Y29.286 E.66139
G1 X143.936 Y29.286 E.01965
G1 X130.756 Y42.466 E.63359
G1 X130.756 Y41.887 E.01965
G1 X143.358 Y29.286 E.6058
G1 X142.78 Y29.286 E.01965
G1 X130.756 Y41.309 E.57801
G1 X130.756 Y40.731 E.01965
M73 P40 R3
M73 Q40 S3
G1 X142.202 Y29.286 E.55021
G1 X141.623 Y29.286 E.01965
G1 X130.756 Y40.153 E.52242
G1 X130.756 Y39.575 E.01965
G1 X141.045 Y29.286 E.49462
G1 X140.467 Y29.286 E.01965
G1 X131.278 Y38.475 E.44174
G1 X131.436 Y37.998 E.01706
G1 X131.491 Y37.684 E.01085
G1 X139.889 Y29.286 E.40372
G1 X139.311 Y29.286 E.01965
G1 X131.553 Y37.044 E.37296
G1 X131.534 Y36.485 E.01902
G1 X138.733 Y29.286 E.34607
G1 X138.154 Y29.286 E.01965
G1 X131.431 Y36.009 E.32321
G1 X131.351 Y35.635 E.01301
G1 X131.313 Y35.549 E.00319
G1 X137.576 Y29.286 E.30108
G1 X136.998 Y29.286 E.01965
G1 X131.139 Y35.145 E.28168
G1 X130.945 Y34.761 E.01462
G1 X136.42 Y29.286 E.26322
G1 X135.842 Y29.286 E.01965
G1 X130.756 Y34.371 E.24447
G1 X130.756 Y33.793 E.01965
G1 X135.264 Y29.286 E.21668
G1 X134.686 Y29.286 E.01965
G1 X130.756 Y33.215 E.18889
G1 X130.756 Y32.637 E.01965
G1 X134.107 Y29.286 E.16109
G1 X133.529 Y29.286 E.01965
G1 X130.756 Y32.059 E.1333
G1 X130.756 Y31.481 E.01965
G1 X132.951 Y29.286 E.1055
G1 X132.373 Y29.286 E.01965
G1 X130.756 Y30.902 E.07771
G1 X130.756 Y30.324 E.01965
M73 P41 R3
G1 X131.795 Y29.286 E.04991
M73 Q41 S3
G1 X131.217 Y29.286 E.01965
G1 X130.573 Y29.929 E.03093
; stop printing object Door.stl id:0 copy 0
M106 S170.85
;LAYER_CHANGE
;Z:0.6
;HEIGHT:0.2
;BEFORE_LAYER_CHANGE
G92 E0.0
;0.6


;WIPE_START
G1 F8640
G1 X131.217 Y29.286 E-.21006
G1 X131.795 Y29.286 E-.1335
G1 X130.756 Y30.324 E-.33904
G1 X130.756 Y30.659 E-.0774
;WIPE_END
G1 E-.04 F2100
G1 Z.8 F720
;AFTER_LAYER_CHANGE
;0.6
; printing object Door.stl id:0 copy 0
G1 X130.451 Y28.981 F10800
G1 Z.6 F720
G1 E.8 F2100
M204 S800
;TYPE:Perimeter
;WIDTH:0.449999
