; generated by PrusaSlicer 2.2.0+win64 on 2020-09-22 at 21:00:43 UTC

; 

; external perimeters extrusion width = 0.45mm
; perimeters extrusion width = 0.45mm
; infill extrusion width = 0.45mm
; solid infill extrusion width = 0.45mm
; top infill extrusion width = 0.40mm
; support material extrusion width = 0.35mm
; first layer extrusion width = 0.42mm

M73 P0 R28
M73 Q0 S28
M201 X1000 Y1000 Z1000 E5000 ; sets maximum accelerations, mm/sec^2
M203 X200 Y200 Z12 E120 ; sets maximum feedrates, mm/sec
M204 P1250 R1250 T1250 ; sets acceleration (P, T) and retract acceleration (R), mm/sec^2
M205 X8.00 Y8.00 Z0.40 E1.50 ; sets the jerk limits, mm/sec
M205 S0 T0 ; sets the minimum extruding and travel feed rate, mm/sec
M107
M862.3 P "MK3S" ; printer model check
M862.1 P0.4 ; nozzle diameter check
M115 U3.8.0 ; tell printer latest fw version
G90 ; use absolute coordinates
M83 ; extruder relative mode
M104 S215 ; set extruder temp
M140 S60 ; set bed temp
M190 S60 ; wait for bed temp
M109 S215 ; wait for extruder temp
G28 W ; home all without mesh bed level
G80 ; mesh bed leveling
G1 Y-3.0 F1000.0 ; go outside print area
G92 E0.0
G1 X60.0 E9.0 F1000.0 ; intro line
M73 Q0 S28
M73 P0 R28
G1 X100.0 E12.5 F1000.0 ; intro line
G92 E0.0
M221 S95
G21 ; set units to millimeters
G90 ; use absolute coordinates
M83 ; use relative distances for extrusion
M900 K0.06 ; Filament gcode LA 1.5
M900 K30 ; Filament gcode LA 1.0
;BEFORE_LAYER_CHANGE
G92 E0.0
;0.2


G1 E-0.80000 F2100.00000
G1 Z0.600 F10800.000
;AFTER_LAYER_CHANGE
;0.2
G1 X123.537 Y132.454
G1 Z0.200
G1 E0.80000 F2100.00000
M204 S1000
G1 F1200.000
G1 X124.139 Y132.513 E0.01899
G1 X124.719 Y132.689 E0.01899
G1 X125.253 Y132.975 E0.01899
G1 X125.722 Y133.359 E0.01899
G1 X126.106 Y133.827 E0.01899
G1 X126.391 Y134.361 E0.01899
G1 X126.567 Y134.941 E0.01899
G1 X126.627 Y135.544 E0.01899
G1 X126.567 Y136.147 E0.01899
G1 X126.391 Y136.726 E0.01899
G1 X126.106 Y137.260 E0.01899
G1 X125.722 Y137.729 E0.01899
G1 X125.253 Y138.113 E0.01899
G1 X124.719 Y138.399 E0.01899
G1 X124.139 Y138.574 E0.01899
G1 X123.537 Y138.634 E0.01899
G1 X122.934 Y138.574 E0.01899
G1 X122.354 Y138.399 E0.01899
G1 X121.820 Y138.113 E0.01899
G1 X121.352 Y137.729 E0.01899
G1 X120.967 Y137.260 E0.01899
G1 X120.682 Y136.726 E0.01899
G1 X120.506 Y136.147 E0.01899
G1 X120.447 Y135.544 E0.01899
G1 X120.506 Y134.941 E0.01899
G1 X120.682 Y134.361 E0.01899
G1 X120.967 Y133.827 E0.01899
G1 X121.352 Y133.359 E0.01899
G1 X121.820 Y132.975 E0.01899
G1 X122.357 Y132.687 E0.01911
G1 X122.971 Y132.510 E0.02002
G1 X123.477 Y132.460 E0.01595
G1 E-0.80000 F2100.00000
G1 Z0.800 F10800.000
G1 X123.537 Y138.255
G1 Z0.200
G1 E0.80000 F2100.00000
G1 F1200.000
G1 X123.008 Y138.203 E0.01666
G1 X122.499 Y138.048 E0.01666
G1 X122.030 Y137.798 E0.01666
G1 X121.620 Y137.461 E0.01666
G1 X121.282 Y137.050 E0.01666
G1 X121.032 Y136.581 E0.01666
G1 X120.878 Y136.073 E0.01666
G1 X120.826 Y135.544 E0.01666
G1 X120.878 Y135.015 E0.01666
G1 X121.032 Y134.506 E0.01666
G1 X121.282 Y134.038 E0.01666
G1 X121.620 Y133.627 E0.01666
G1 X122.030 Y133.290 E0.01666
G1 X122.500 Y133.039 E0.01670
G1 X123.042 Y132.882 E0.01769
G1 X123.537 Y132.833 E0.01558
G1 X124.065 Y132.885 E0.01666
G1 X124.574 Y133.039 E0.01666
G1 X125.043 Y133.290 E0.01666
G1 X125.454 Y133.627 E0.01666
G1 X125.791 Y134.038 E0.01666
G1 X126.041 Y134.506 E0.01666
G1 X126.196 Y135.015 E0.01666
G1 X126.248 Y135.544 E0.01666
G1 X126.196 Y136.073 E0.01666
G1 X126.041 Y136.581 E0.01666
G1 X125.791 Y137.050 E0.01666
G1 X125.454 Y137.461 E0.01666
G1 X125.043 Y137.798 E0.01666
G1 X124.574 Y138.048 E0.01666
G1 X124.065 Y138.203 E0.01666
G1 X123.596 Y138.249 E0.01478
G1 X123.337 Y138.601 F10800.000
G1 E-0.80000 F2100.00000
G1 Z0.800 F10800.000
G1 X123.537 Y77.576
G1 Z0.200
G1 E0.80000 F2100.00000
G1 F1200.000
G1 X122.934 Y77.517 E0.01899
G1 X122.354 Y77.341 E0.01899
G1 X121.820 Y77.055 E0.01899
G1 X121.352 Y76.671 E0.01899
G1 X120.967 Y76.203 E0.01899
G1 X120.682 Y75.669 E0.01899
G1 X120.506 Y75.089 E0.01899
G1 X120.447 Y74.486 E0.01899
G1 X120.506 Y73.884 E0.01899
G1 X120.682 Y73.304 E0.01899
G1 X120.967 Y72.770 E0.01899
G1 X121.352 Y72.301 E0.01899
G1 X121.820 Y71.917 E0.01899
G1 X122.357 Y71.630 E0.01911
G1 X122.971 Y71.452 E0.02002
G1 X123.537 Y71.396 E0.01783
G1 X124.139 Y71.456 E0.01899
G1 X124.719 Y71.632 E0.01899
G1 X125.253 Y71.917 E0.01899
G1 X125.722 Y72.301 E0.01899
G1 X126.106 Y72.770 E0.01899
G1 X126.391 Y73.304 E0.01899
G1 X126.567 Y73.883 E0.01899
G1 X126.627 Y74.486 E0.01899
G1 X126.567 Y75.089 E0.01899
G1 X126.391 Y75.669 E0.01899
G1 X126.106 Y76.203 E0.01899
G1 X125.722 Y76.671 E0.01899
G1 X125.253 Y77.055 E0.01899
G1 X124.719 Y77.341 E0.01899
G1 X124.139 Y77.517 E0.01899
G1 X123.596 Y77.570 E0.01711
G1 X123.537 Y77.197 F10800.000
G1 F1200.000
G1 X123.008 Y77.145 E0.01666
G1 X122.499 Y76.991 E0.01666
G1 X122.030 Y76.740 E0.01666
G1 X121.620 Y76.403 E0.01666
G1 X121.282 Y75.992 E0.01666
G1 X121.032 Y75.524 E0.01666
G1 X120.878 Y75.015 E0.01666
G1 X120.826 Y74.486 E0.01666
G1 X120.878 Y73.957 E0.01666
G1 X121.032 Y73.449 E0.01666
G1 X121.282 Y72.980 E0.01666
G1 X121.620 Y72.569 E0.01666
G1 X122.030 Y72.232 E0.01666
G1 X122.500 Y71.981 E0.01670
G1 X123.042 Y71.824 E0.01769
G1 X123.537 Y71.775 E0.01558
G1 X124.065 Y71.827 E0.01666
G1 X124.574 Y71.982 E0.01666
G1 X125.043 Y72.232 E0.01666
G1 X125.454 Y72.569 E0.01666
G1 X125.791 Y72.980 E0.01666
G1 X126.041 Y73.449 E0.01666
G1 X126.196 Y73.957 E0.01666
G1 X126.248 Y74.486 E0.01666
G1 X126.196 Y75.015 E0.01666
G1 X126.041 Y75.524 E0.01666
G1 X125.791 Y75.992 E0.01666
G1 X125.454 Y76.403 E0.01666
G1 X125.043 Y76.740 E0.01666
G1 X124.574 Y76.991 E0.01666
G1 X124.065 Y77.145 E0.01666
G1 X123.596 Y77.191 E0.01478
G1 X123.337 Y77.544 F10800.000
G1 E-0.80000 F2100.00000
G1 Z0.800 F10800.000
G1 X125.008 Y141.559
G1 Z0.200
G1 E0.80000 F2100.00000
G1 F1200.000
G1 X117.692 Y141.558 E0.22938
G1 X117.692 Y68.446 E2.29237
G1 X132.308 Y68.438 E0.45827
G1 X132.308 Y141.560 E2.29271
G1 X125.068 Y141.559 E0.22700
G1 X125.018 Y141.936 F10800.000
G1 F1200.000
G1 X117.315 Y141.935 E0.24152
G1 X117.315 Y68.069 E2.31601
G1 X132.685 Y68.060 E0.48191
G1 X132.685 Y141.937 E2.31636
G1 X125.078 Y141.936 E0.23851
G1 X124.679 Y141.724 F10800.000
G1 X124.468 Y141.446
G1 F1200.000
G1 X117.975 Y134.953 E0.28935
G1 X117.975 Y135.489 E0.01689
G1 X123.762 Y141.276 E0.25790
G1 X123.226 Y141.276 E0.01689
G1 X117.975 Y136.025 E0.23401
G1 X117.975 Y136.561 E0.01689
G1 X122.690 Y141.276 E0.21012
G1 X122.154 Y141.276 E0.01689
G1 X117.975 Y137.097 E0.18624
G1 X117.975 Y137.633 E0.01689
G1 X121.618 Y141.276 E0.16235
G1 X121.082 Y141.276 E0.01689
G1 X117.975 Y138.169 E0.13846
G1 X117.975 Y138.705 E0.01689
G1 X120.546 Y141.276 E0.11457
G1 X120.010 Y141.276 E0.01689
G1 X117.975 Y139.241 E0.09069
G1 X117.975 Y139.777 E0.01689
G1 X119.474 Y141.275 E0.06680
G1 X118.938 Y141.275 E0.01689
G1 X117.975 Y140.312 E0.04291
G1 X117.975 Y140.848 E0.01689
G1 X118.572 Y141.445 E0.02659
G1 E-0.80000 F2100.00000
G1 Z0.800 F10800.000
G1 X132.195 Y140.062
G1 Z0.200
G1 E0.80000 F2100.00000
G1 F1200.000
G1 X126.771 Y134.638 E0.24172
G1 X126.846 Y134.886 E0.00816
G1 X126.886 Y135.289 E0.01276
G1 X132.025 Y140.428 E0.22904
G1 X132.025 Y140.964 E0.01689
G1 X126.883 Y135.822 E0.22914
G1 X126.846 Y136.202 E0.01203
G1 X126.818 Y136.293 E0.00300
G1 X131.803 Y141.277 E0.22212
G1 X131.267 Y141.277 E0.01689
G1 X126.693 Y136.704 E0.20379
G1 X126.654 Y136.835 E0.00430
G1 X126.527 Y137.073 E0.00851
G1 X130.730 Y141.277 E0.18735
G1 X130.194 Y141.277 E0.01689
G1 X126.339 Y137.422 E0.17181
G1 X126.098 Y137.716 E0.01200
G1 X129.658 Y141.277 E0.15868
G1 X129.122 Y141.277 E0.01689
G1 X125.841 Y137.996 E0.14621
G1 X125.547 Y138.238 E0.01200
G1 X128.586 Y141.277 E0.13544
G1 X128.050 Y141.277 E0.01689
G1 X125.223 Y138.450 E0.12599
G1 X124.874 Y138.636 E0.01248
G1 X127.514 Y141.277 E0.11766
G1 X126.978 Y141.277 E0.01689
G1 X124.471 Y138.769 E0.11174
G1 X124.195 Y138.853 E0.00909
G1 X124.035 Y138.869 E0.00508
G1 X126.442 Y141.277 E0.10730
G1 X125.906 Y141.276 E0.01689
G1 X123.547 Y138.917 E0.10515
G1 X122.954 Y138.861 E0.01875
G1 X125.370 Y141.276 E0.10766
G1 X124.834 Y141.276 E0.01689
G1 X122.188 Y138.631 E0.11790
G1 X121.662 Y138.349 E0.01881
G1 X121.151 Y137.930 E0.02084
G1 X120.731 Y137.418 E0.02084
G1 X120.450 Y136.892 E0.01881
G1 X117.975 Y134.417 E0.11029
G1 X117.975 Y133.881 E0.01689
G1 X120.220 Y136.126 E0.10004
G1 X120.164 Y135.534 E0.01875
G1 X117.975 Y133.345 E0.09753
G1 X117.975 Y132.809 E0.01689
G1 X120.212 Y135.046 E0.09967
G1 X120.227 Y134.886 E0.00508
G1 X120.311 Y134.609 E0.00909
G1 X117.975 Y132.273 E0.10411
G1 X117.975 Y131.737 E0.01689
G1 X120.444 Y134.206 E0.11003
G1 X120.631 Y133.857 E0.01248
G1 X117.975 Y131.201 E0.11835
G1 X117.975 Y130.665 E0.01689
G1 X120.843 Y133.533 E0.12780
G1 X121.084 Y133.239 E0.01200
G1 X117.975 Y130.130 E0.13857
G1 X117.975 Y129.594 E0.01689
G1 X121.364 Y132.983 E0.15104
G1 X121.659 Y132.741 E0.01200
G1 X117.975 Y129.058 E0.16416
G1 X117.975 Y128.522 E0.01689
G1 X122.007 Y132.554 E0.17969
G1 X122.250 Y132.424 E0.00868
G1 X122.377 Y132.387 E0.00415
G1 X117.975 Y127.986 E0.19615
G1 X117.975 Y127.450 E0.01689
G1 X122.792 Y132.267 E0.21467
G1 X122.917 Y132.231 E0.00409
G1 X123.258 Y132.197 E0.01081
G1 X117.975 Y126.914 E0.23544
G1 X117.975 Y126.378 E0.01689
G1 X123.792 Y132.195 E0.25923
G1 X124.195 Y132.235 E0.01276
G1 X124.443 Y132.310 E0.00816
G1 X117.975 Y125.842 E0.28823
G1 X117.975 Y125.306 E0.01689
G1 X132.025 Y139.356 E0.62613
G1 X132.025 Y138.820 E0.01689
G1 X117.975 Y124.770 E0.62613
G1 X117.975 Y124.234 E0.01689
G1 X132.025 Y138.284 E0.62613
G1 X132.025 Y137.748 E0.01689
G1 X117.975 Y123.698 E0.62613
G1 X117.975 Y123.162 E0.01689
G1 X132.025 Y137.212 E0.62613
G1 X132.025 Y136.676 E0.01689
G1 X117.975 Y122.626 E0.62613
G1 X117.975 Y122.090 E0.01689
G1 X132.025 Y136.140 E0.62613
G1 X132.025 Y135.605 E0.01689
G1 X117.975 Y121.554 E0.62613
G1 X117.975 Y121.018 E0.01689
G1 X132.025 Y135.069 E0.62613
G1 X132.025 Y134.533 E0.01689
G1 X117.975 Y120.483 E0.62613
G1 X117.975 Y119.947 E0.01689
G1 X132.025 Y133.997 E0.62613
G1 X132.025 Y133.461 E0.01689
G1 X117.975 Y119.411 E0.62613
G1 X117.975 Y118.875 E0.01689
G1 X132.025 Y132.925 E0.62613
G1 X132.025 Y132.389 E0.01689
G1 X117.975 Y118.339 E0.62613
G1 X117.975 Y117.803 E0.01689
G1 X132.025 Y131.853 E0.62613
G1 X132.025 Y131.317 E0.01689
G1 X117.975 Y117.267 E0.62613
G1 X117.975 Y116.731 E0.01689
G1 X132.025 Y130.781 E0.62613
G1 X132.025 Y130.245 E0.01689
G1 X117.975 Y116.195 E0.62613
M73 Q3 S27
G1 X117.975 Y115.659 E0.01689
G1 X132.025 Y129.709 E0.62613
M73 P3 R27
G1 X132.025 Y129.173 E0.01689
G1 X117.975 Y115.123 E0.62613
G1 X117.975 Y114.587 E0.01689
G1 X132.025 Y128.637 E0.62613
G1 X132.025 Y128.101 E0.01689
G1 X117.975 Y114.051 E0.62613
G1 X117.975 Y113.515 E0.01689
G1 X132.025 Y127.565 E0.62613
G1 X132.025 Y127.029 E0.01689
G1 X117.975 Y112.979 E0.62613
G1 X117.975 Y112.443 E0.01689
G1 X132.025 Y126.493 E0.62613
G1 X132.025 Y125.958 E0.01689
G1 X117.975 Y111.907 E0.62613
G1 X117.975 Y111.371 E0.01689
G1 X132.025 Y125.422 E0.62613
G1 X132.025 Y124.886 E0.01689
G1 X117.975 Y110.836 E0.62613
G1 X117.975 Y110.300 E0.01689
G1 X132.025 Y124.350 E0.62613
G1 X132.025 Y123.814 E0.01689
G1 X117.975 Y109.764 E0.62613
G1 X117.975 Y109.228 E0.01689
G1 X132.025 Y123.278 E0.62613
G1 X132.025 Y122.742 E0.01689
G1 X117.975 Y108.692 E0.62613
G1 X117.975 Y108.156 E0.01689
G1 X132.025 Y122.206 E0.62613
G1 X132.025 Y121.670 E0.01689
G1 X117.975 Y107.620 E0.62613
G1 X117.975 Y107.084 E0.01689
G1 X132.025 Y121.134 E0.62613
G1 X132.025 Y120.598 E0.01689
G1 X117.975 Y106.548 E0.62613
G1 X117.975 Y106.012 E0.01689
G1 X132.025 Y120.062 E0.62613
G1 X132.025 Y119.526 E0.01689
G1 X117.975 Y105.476 E0.62613
G1 X117.975 Y104.940 E0.01689
G1 X132.025 Y118.990 E0.62613
G1 X132.025 Y118.454 E0.01689
G1 X117.975 Y104.404 E0.62613
G1 X117.975 Y103.868 E0.01689
G1 X132.025 Y117.918 E0.62613
G1 X132.025 Y117.382 E0.01689
G1 X117.975 Y103.332 E0.62613
G1 X117.975 Y102.796 E0.01689
G1 X132.025 Y116.847 E0.62613
G1 X132.025 Y116.311 E0.01689
G1 X117.975 Y102.260 E0.62613
G1 X117.975 Y101.724 E0.01689
G1 X132.025 Y115.775 E0.62613
G1 X132.025 Y115.239 E0.01689
G1 X117.975 Y101.189 E0.62613
G1 X117.975 Y100.653 E0.01689
G1 X132.025 Y114.703 E0.62613
G1 X132.025 Y114.167 E0.01689
G1 X117.975 Y100.117 E0.62613
G1 X117.975 Y99.581 E0.01689
G1 X132.025 Y113.631 E0.62613
G1 X132.025 Y113.095 E0.01689
G1 X117.975 Y99.045 E0.62613
G1 X117.975 Y98.509 E0.01689
G1 X132.025 Y112.559 E0.62613
G1 X132.025 Y112.023 E0.01689
G1 X117.975 Y97.973 E0.62613
G1 X117.975 Y97.437 E0.01689
G1 X132.025 Y111.487 E0.62613
G1 X132.025 Y110.951 E0.01689
G1 X117.975 Y96.901 E0.62613
G1 X117.975 Y96.365 E0.01689
G1 X132.025 Y110.415 E0.62613
G1 X132.025 Y109.879 E0.01689
G1 X117.975 Y95.829 E0.62613
G1 X117.975 Y95.293 E0.01689
G1 X132.025 Y109.343 E0.62613
G1 X132.025 Y108.807 E0.01689
G1 X117.975 Y94.757 E0.62613
G1 X117.975 Y94.221 E0.01689
G1 X132.025 Y108.271 E0.62613
G1 X132.025 Y107.735 E0.01689
G1 X117.975 Y93.685 E0.62613
G1 X117.975 Y93.149 E0.01689
G1 X132.025 Y107.200 E0.62613
G1 X132.025 Y106.664 E0.01689
G1 X117.975 Y92.613 E0.62613
G1 X117.975 Y92.077 E0.01689
G1 X132.025 Y106.128 E0.62613
G1 X132.025 Y105.592 E0.01689
G1 X117.975 Y91.542 E0.62613
G1 X117.975 Y91.006 E0.01689
G1 X132.025 Y105.056 E0.62613
G1 X132.025 Y104.520 E0.01689
G1 X117.975 Y90.470 E0.62613
G1 X117.975 Y89.934 E0.01689
G1 X132.025 Y103.984 E0.62613
G1 X132.025 Y103.448 E0.01689
G1 X117.975 Y89.398 E0.62613
G1 X117.975 Y88.862 E0.01689
G1 X132.025 Y102.912 E0.62613
G1 X132.025 Y102.376 E0.01689
G1 X117.975 Y88.326 E0.62613
G1 X117.975 Y87.790 E0.01689
G1 X132.025 Y101.840 E0.62613
G1 X132.025 Y101.304 E0.01689
G1 X117.975 Y87.254 E0.62613
G1 X117.975 Y86.718 E0.01689
G1 X132.025 Y100.768 E0.62613
G1 X132.025 Y100.232 E0.01689
G1 X117.975 Y86.182 E0.62613
G1 X117.975 Y85.646 E0.01689
G1 X132.025 Y99.696 E0.62613
G1 X132.025 Y99.160 E0.01689
G1 X117.975 Y85.110 E0.62613
G1 X117.975 Y84.574 E0.01689
G1 X132.025 Y98.624 E0.62613
M73 Q7 S26
G1 X132.025 Y98.088 E0.01689
G1 X117.975 Y84.038 E0.62613
M73 P7 R26
G1 X117.975 Y83.502 E0.01689
G1 X132.025 Y97.553 E0.62613
G1 X132.025 Y97.017 E0.01689
G1 X117.975 Y82.966 E0.62613
G1 X117.975 Y82.430 E0.01689
G1 X132.025 Y96.481 E0.62613
G1 X132.025 Y95.945 E0.01689
G1 X117.975 Y81.895 E0.62613
G1 X117.975 Y81.359 E0.01689
G1 X132.025 Y95.409 E0.62613
G1 X132.025 Y94.873 E0.01689
G1 X117.975 Y80.823 E0.62613
G1 X117.975 Y80.287 E0.01689
G1 X132.025 Y94.337 E0.62613
G1 X132.025 Y93.801 E0.01689
G1 X117.975 Y79.751 E0.62613
G1 X117.975 Y79.215 E0.01689
G1 X132.025 Y93.265 E0.62613
G1 X132.025 Y92.729 E0.01689
G1 X117.975 Y78.679 E0.62613
G1 X117.975 Y78.143 E0.01689
G1 X132.025 Y92.193 E0.62613
G1 X132.025 Y91.657 E0.01689
G1 X117.975 Y77.607 E0.62613
G1 X117.975 Y77.071 E0.01689
G1 X132.025 Y91.121 E0.62613
G1 X132.025 Y90.585 E0.01689
G1 X117.975 Y76.535 E0.62613
G1 X117.975 Y75.999 E0.01689
G1 X132.025 Y90.049 E0.62613
G1 X132.025 Y89.513 E0.01689
G1 X117.975 Y75.463 E0.62613
G1 X117.975 Y74.927 E0.01689
G1 X132.025 Y88.977 E0.62613
G1 X132.025 Y88.441 E0.01689
G1 X117.975 Y74.391 E0.62613
G1 X117.975 Y73.855 E0.01689
G1 X132.195 Y88.075 E0.63369
G1 E-0.80000 F2100.00000
G1 Z0.800 F10800.000
G1 X132.195 Y69.317
G1 Z0.200
G1 E0.80000 F2100.00000
G1 F1200.000
G1 X131.599 Y68.721 E0.02657
G1 X131.063 Y68.721 E0.01688
G1 X132.025 Y69.683 E0.04288
G1 X132.025 Y70.219 E0.01689
G1 X130.527 Y68.722 E0.06675
G1 X129.992 Y68.722 E0.01688
G1 X132.025 Y70.755 E0.09062
G1 X132.025 Y71.291 E0.01689
G1 X129.456 Y68.722 E0.11449
G1 X128.920 Y68.722 E0.01688
G1 X132.025 Y71.827 E0.13836
G1 X132.025 Y72.363 E0.01689
G1 X128.385 Y68.723 E0.16223
G1 X127.849 Y68.723 E0.01688
G1 X132.025 Y72.899 E0.18610
G1 X132.025 Y73.435 E0.01689
G1 X127.313 Y68.723 E0.20997
G1 X126.778 Y68.724 E0.01688
G1 X132.025 Y73.971 E0.23384
G1 X132.025 Y74.507 E0.01689
G1 X126.242 Y68.724 E0.25771
G1 X125.706 Y68.724 E0.01688
G1 X132.025 Y75.043 E0.28158
G1 X132.025 Y75.579 E0.01689
