; generated by PrusaSlicer 2.4.1+win64 on 2022-03-22 at 16:14:09 UTC

; 

; external perimeters extrusion width = 0.45mm
; perimeters extrusion width = 0.45mm
; infill extrusion width = 0.45mm
; solid infill extrusion width = 0.45mm
; top infill extrusion width = 0.40mm
; support material extrusion width = 0.35mm
; first layer extrusion width = 0.42mm

; external perimeters extrusion width = 0.45mm
; perimeters extrusion width = 0.45mm
; infill extrusion width = 0.45mm
; solid infill extrusion width = 0.45mm
; top infill extrusion width = 0.40mm
; support material extrusion width = 0.35mm
; first layer extrusion width = 0.42mm

M73 P0 R214
M73 Q0 S215
M201 X1000 Y1000 Z200 E5000 ; sets maximum accelerations, mm/sec^2
M203 X200 Y200 Z12 E120 ; sets maximum feedrates, mm / sec
M204 P1250 R1250 T1250 ; sets acceleration (P, T) and retract acceleration (R), mm/sec^2
M205 X8.00 Y8.00 Z0.40 E4.50 ; sets the jerk limits, mm/sec
M205 S0 T0 ; sets the minimum extruding and travel feed rate, mm/sec
M107
;TYPE:Custom
M862.3 P "MK3S" ; printer model check
M862.1 P0.4 ; nozzle diameter check
M115 U3.10.1 ; tell printer latest fw version
G90 ; use absolute coordinates
M83 ; extruder relative mode
M104 S215 ; set extruder temp
M140 S60 ; set bed temp
M190 S60 ; wait for bed temp
M109 S215 ; wait for extruder temp
G28 W ; home all without mesh bed level
G80 ; mesh bed leveling
G1 Z0.2 F720
G1 Y-3 F1000 ; go outside print area
G92 E0
G1 X60 E9 F1000 ; intro line
G1 X100 E12.5 F1000 ; intro line
G92 E0
M221 S95

; Don't change E values below. Excessive value can damage the printer.
M907 E430 ; set extruder motor current
G21 ; set units to millimeters
G90 ; use absolute coordinates
M83 ; use relative distances for extrusion
M900 K0.05 ; Filament gcode LA 1.5
M900 K30 ; Filament gcode LA 1.0
M107
;LAYER_CHANGE
;Z:0.2
;HEIGHT:0.2
;BEFORE_LAYER_CHANGE
G92 E0.0
;0.2


M73 P0 R213
G1 E-.9 F2700
G1 Z.5 F720
;AFTER_LAYER_CHANGE
;0.2
G1 X84.933 Y58.312 F10800
G1 Z.2 F720
G1 E.9 F2700
M204 S800
;TYPE:Skirt/Brim
;WIDTH:0.42
G1 F1200
G1 X85.926 Y57.376 E.04278
G1 X86.992 Y57.124 E.03435
G1 X128.455 Y57.124 E1.30006
G1 X147.142 Y57.207 E.58591
G1 X157.621 Y57.832 E.32914
G1 X158.667 Y58.146 E.03425
G1 X171.803 Y65.731 E.47561
G1 X172.74 Y66.724 E.04278
G1 X172.992 Y67.79 E.03437
G1 X172.97 Y137.363 E2.18141
G1 X172.651 Y138.551 E.03856
G1 X165.067 Y151.688 E.47561
G1 X164.074 Y152.624 E.04278
G1 X163.008 Y152.876 E.03435
G1 X121.555 Y152.876 E1.29972
G1 X116.239 Y152.561 E.16697
G1 X115.193 Y152.247 E.03425
G1 X102.057 Y144.663 E.47561
G1 X101.262 Y143.914 E.03425
G1 X78.416 Y109.313 E1.30002
G1 X78.104 Y108.619 E.02388
G1 X77.255 Y105.452 E.10278
G1 X77.175 Y104.848 E.01913
G1 X77.03 Y72.648 E1.00961
G1 X77.349 Y71.449 E.0389
G1 X84.903 Y58.364 E.47373
M204 S1000
; printing object Hammer Glow Purp.stl id:1 copy 0
;WIPE_START
G1 F8640
G1 X85.926 Y57.376 E-.42216
G1 X86.992 Y57.124 E-.32521
G1 X87.354 Y57.124 E-.10763
;WIPE_END
G1 E-.045 F2700
G1 Z.7 F720
G1 X132.459 Y61.819 F10800
G1 Z.2 F720
G1 E.9 F2700
M204 S800
;TYPE:Support material
G1 F1200
G1 X133.618 Y59.811 E.07267
G1 X137.633 Y62.129 E.14535
G1 X138.792 Y60.122 E.07267
G1 X142.806 Y62.44 E.14535
G1 X143.965 Y60.432 E.07267
G1 X145.972 Y61.591 E.07267
G1 X147.131 Y59.584 E.07267
G1 X151.146 Y61.902 E.14535
G1 X152.305 Y59.895 E.07267
G1 X156.319 Y62.212 E.14535
G1 X157.478 Y60.205 E.07267
G1 X170.615 Y67.79 E.47561
G1 X168.297 Y71.804 E.14535
G1 X170.304 Y72.963 E.07267
G1 X167.987 Y76.978 E.14535
G1 X169.994 Y78.136 E.07267
G1 X167.676 Y82.151 E.14535
G1 X169.683 Y83.31 E.07267
G1 X168.524 Y85.317 E.07267
G1 X170.532 Y86.476 E.07267
G1 X168.214 Y90.491 E.14535
G1 X170.221 Y91.65 E.07267
G1 X167.903 Y95.664 E.14535
G1 X169.911 Y96.823 E.07267
G1 X167.593 Y100.838 E.14535
G1 X169.6 Y101.997 E.07267
G1 X168.441 Y104.004 E.07267
G1 X170.448 Y105.163 E.07267
G1 X168.131 Y109.177 E.14535
G1 X170.138 Y110.336 E.07267
G1 X167.82 Y114.351 E.14535
G1 X169.827 Y115.51 E.07267
G1 X167.51 Y119.524 E.14535
G1 X169.517 Y120.683 E.07267
G1 X168.358 Y122.69 E.07267
G1 X170.365 Y123.849 E.07267
G1 X168.047 Y127.864 E.14535
G1 X170.055 Y129.023 E.07267
M73 Q0 S214
G1 X167.737 Y133.037 E.14535
G1 X169.744 Y134.196 E.07267
G1 X168.585 Y136.204 E.07267
G1 X170.593 Y137.362 E.07267
G1 X163.008 Y150.499 E.47561
G1 X158.994 Y148.181 E.14535
G1 X157.835 Y150.189 E.07267
G1 X144.698 Y142.604 E.47561
G1 X145.857 Y140.597 E.07267
G1 X143.85 Y139.438 E.07267
G1 X145.009 Y137.431 E.07267
G1 X143.001 Y136.272 E.07267
G1 X145.319 Y132.257 E.14535
G1 X143.312 Y131.098 E.07267
G1 X144.471 Y129.091 E.07267
G1 X142.463 Y127.932 E.07267
G1 X143.622 Y125.925 E.07267
G1 X139.608 Y123.607 E.14535
G1 X140.767 Y121.6 E.07267
G1 X136.752 Y119.282 E.14535
G1 X137.911 Y117.275 E.07267
G1 X121.853 Y108.003 E.58139
G1 X123.012 Y105.996 E.07267
G1 X121.004 Y104.837 E.07267
G1 X123.322 Y100.823 E.14535
G1 X121.315 Y99.664 E.07267
G1 X123.633 Y95.649 E.14535
G1 X121.625 Y94.49 E.07267
G1 X123.943 Y90.476 E.14535
G1 X121.936 Y89.317 E.07267
G1 X123.095 Y87.309 E.07267
G1 X121.088 Y86.151 E.07267
G1 X123.405 Y82.136 E.14535
G1 X121.398 Y80.977 E.07267
G1 X123.716 Y76.963 E.14535
G1 X121.709 Y75.804 E.07267
G1 X122.868 Y73.796 E.07267
G1 X120.86 Y72.637 E.07267
G1 X128.445 Y59.501 E.47561
G1 X132.41 Y61.79 E.14357
M204 S1000
G1 X145.502 Y83.423 F10800
M204 S800
G1 F1200
G1 X143.796 Y83.601 E.05377
G1 X143.66 Y83.629 E.00434
G1 X142.022 Y84.137 E.05378
G1 X141.895 Y84.191 E.00434
G1 X140.387 Y85.009 E.05378
G1 X140.272 Y85.086 E.00434
G1 X138.952 Y86.183 E.05379
G1 X138.855 Y86.281 E.00434
G1 X137.775 Y87.614 E.0538
G1 X137.698 Y87.73 E.00434
G1 X136.899 Y89.248 E.0538
G1 X136.847 Y89.376 E.00435
G1 X136.359 Y91.022 E.05381
G1 X136.332 Y91.158 E.00435
G1 X136.175 Y92.867 E.05381
G1 X136.176 Y93.006 E.00436
G1 X136.356 Y94.713 E.05383
G1 X136.384 Y94.849 E.00435
G1 X136.895 Y96.488 E.05382
G1 X136.949 Y96.616 E.00435
G1 X137.769 Y98.123 E.05381
G1 X137.847 Y98.238 E.00434
G1 X138.946 Y99.555 E.0538
G1 X139.044 Y99.653 E.00434
G1 X140.379 Y100.731 E.05379
G1 X140.494 Y100.807 E.00434
G1 X142.013 Y101.604 E.05379
G1 X142.141 Y101.656 E.00434
G1 X143.786 Y102.142 E.05378
G1 X143.922 Y102.168 E.00434
G1 X145.63 Y102.325 E.05378
G1 X145.769 Y102.324 E.00435
G1 X147.609 Y102.116 E.05804
G1 X149.248 Y101.609 E.05381
G1 X149.376 Y101.555 E.00437
G1 X150.884 Y100.735 E.05382
G1 X150.999 Y100.657 E.00434
G1 X152.317 Y99.559 E.05378
G1 X152.414 Y99.46 E.00434
G1 X153.492 Y98.126 E.05377
G1 X153.568 Y98.011 E.00434
G1 X154.366 Y96.492 E.05377
G1 X154.418 Y96.364 E.00434
G1 X154.903 Y94.72 E.05376
G1 X154.929 Y94.584 E.00434
G1 X155.085 Y92.876 E.05376
G1 X155.084 Y92.738 E.00434
G1 X154.904 Y91.033 E.05375
G1 X154.876 Y90.897 E.00434
G1 X154.366 Y89.26 E.05375
G1 X154.313 Y89.133 E.00434
G1 X153.494 Y87.627 E.05375
G1 X153.416 Y87.512 E.00434
G1 X152.32 Y86.194 E.05375
G1 X152.221 Y86.097 E.00434
G1 X150.889 Y85.019 E.05375
G1 X150.773 Y84.942 E.00434
G1 X149.256 Y84.144 E.05375
G1 X149.127 Y84.092 E.00434
G1 X147.483 Y83.605 E.05376
G1 X147.347 Y83.579 E.00434
G1 X145.558 Y83.422 E.05632
M204 S1000
;WIPE_START
G1 F8640
G1 X147.347 Y83.579 E-.53325
G1 X147.483 Y83.605 E-.0411
G1 X148.39 Y83.874 E-.28065
;WIPE_END
G1 E-.045 F2700
G1 Z.7 F720
G1 X162.723 Y150.139 F10800
G1 Z.2 F720
G1 E.9 F2700
M204 S800
G1 F1200
G1 X170.053 Y137.443 E.45965
G1 X169.69 Y137.233 E.01314
G1 X162.445 Y149.782 E.45433
G1 X162.082 Y149.573 E.01314
G1 X169.327 Y137.024 E.45433
G1 X168.965 Y136.814 E.01314
G1 X161.719 Y149.363 E.45433
G1 X161.357 Y149.154 E.01314
G1 X168.602 Y136.605 E.45433
G1 X168.239 Y136.395 E.01314
G1 X160.994 Y148.944 E.45433
G1 X160.631 Y148.735 E.01314
G1 X169.035 Y134.179 E.527
G1 X168.672 Y133.969 E.01314
G1 X160.268 Y148.525 E.527
G1 X159.905 Y148.316 E.01314
G1 X168.309 Y133.76 E.527
G1 X167.946 Y133.55 E.01314
G1 X159.542 Y148.106 E.527
G1 X159.18 Y147.897 E.01314
G1 X167.584 Y133.341 E.527
G1 X167.273 Y133.162 E.01123
G1 X169.591 Y129.147 E.14535
G1 X169.538 Y129.117 E.00191
G1 X157.658 Y149.695 E.74502
G1 X157.295 Y149.485 E.01314
G1 X169.176 Y128.907 E.74502
G1 X168.813 Y128.698 E.01314
G1 X156.932 Y149.276 E.74502
G1 X156.569 Y149.066 E.01314
G1 X168.45 Y128.488 E.74502
G1 X168.087 Y128.279 E.01314
G1 X156.206 Y148.857 E.74502
G1 X155.844 Y148.647 E.01314
G1 X167.724 Y128.069 E.74502
G1 X167.584 Y127.988 E.00508
G1 X169.902 Y123.974 E.14535
G1 X169.679 Y123.845 E.00805
G1 X155.481 Y148.438 E.89037
G1 X155.118 Y148.228 E.01314
G1 X169.316 Y123.636 E.89037
G1 X168.954 Y123.426 E.01314
M73 P0 R212
G1 X154.755 Y148.019 E.89037
G1 X154.392 Y147.809 E.01314
G1 X168.591 Y123.217 E.89037
G1 X168.228 Y123.007 E.01314
G1 X154.029 Y147.6 E.89037
G1 X153.667 Y147.39 E.01314
G1 X169.024 Y120.79 E.96304
G1 X168.661 Y120.581 E.01314
G1 X153.304 Y147.181 E.96304
G1 X152.941 Y146.971 E.01314
G1 X168.298 Y120.371 E.96304
G1 X167.935 Y120.162 E.01314
G1 X152.578 Y146.762 E.96304
G1 X152.215 Y146.552 E.01314
G1 X167.573 Y119.952 E.96304
G1 X167.21 Y119.743 E.01314
G1 X151.852 Y146.343 E.96304
G1 X151.489 Y146.133 E.01314
G1 X169.165 Y115.519 E1.10839
G1 X168.802 Y115.309 E.01314
G1 X151.127 Y145.924 E1.10839
G1 X150.764 Y145.714 E.01314
G1 X168.439 Y115.1 E1.10839
G1 X168.076 Y114.89 E.01314
G1 X150.401 Y145.505 E1.10839
G1 X150.038 Y145.295 E.01314
G1 X167.713 Y114.681 E1.10839
G1 X167.357 Y114.475 E.01292
G1 X169.668 Y110.457 E.14535
G1 X149.675 Y145.086 E1.25373
G1 X149.312 Y144.876 E.01314
G1 X169.305 Y110.247 E1.25373
G1 X168.943 Y110.038 E.01314
M73 Q0 S213
G1 X148.95 Y144.667 E1.25373
G1 X148.587 Y144.457 E.01314
G1 X168.58 Y109.828 E1.25373
G1 X168.217 Y109.619 E.01314
G1 X148.224 Y144.248 E1.25373
G1 X147.861 Y144.038 E.01314
G1 X167.854 Y109.409 E1.25373
G1 X167.667 Y109.301 E.00677
G1 X169.985 Y105.287 E.14535
G1 X169.809 Y105.185 E.00637
G1 X147.498 Y143.829 E1.39908
G1 X147.135 Y143.619 E.01314
G1 X169.446 Y104.976 E1.39908
G1 X169.083 Y104.766 E.01314
G1 X146.772 Y143.41 E1.39908
G1 X146.41 Y143.2 E.01314
G1 X168.72 Y104.557 E1.39908
G1 X168.358 Y104.347 E.01314
G1 X146.047 Y142.991 E1.39908
G1 X145.684 Y142.781 E.01314
G1 X167.995 Y104.138 E1.39908
G1 X167.978 Y104.128 E.00062
G1 X169.136 Y102.121 E.07267
G1 X168.791 Y101.921 E.01251
G1 X145.321 Y142.572 E1.47175
G1 X145.162 Y142.48 E.00577
G1 X146.321 Y140.473 E.07267
G1 X146.117 Y140.355 E.00736
G1 X168.428 Y101.712 E1.39908
G1 X168.065 Y101.502 E.01314
G1 X145.754 Y140.146 E1.39908
G1 X145.391 Y139.936 E.01314
G1 X167.702 Y101.293 E1.39908
G1 X167.339 Y101.083 E.01314
G1 X145.029 Y139.727 E1.39908
G1 X144.666 Y139.517 E.01314
M73 P0 R211
G1 X169.294 Y96.859 E1.54443
G1 X168.932 Y96.65 E.01314
G1 X145.462 Y137.3 E1.47175
G1 X145.099 Y137.091 E.01314
M73 P1 R211
M73 Q1 S213
G1 X168.569 Y96.44 E1.47175
G1 X168.206 Y96.231 E.01314
G1 X144.736 Y136.881 E1.47175
G1 X144.373 Y136.672 E.01314
G1 X167.843 Y96.021 E1.47175
G1 X167.48 Y95.812 E.01314
G1 X144.01 Y136.462 E1.47175
G1 X143.648 Y136.253 E.01314
G1 X169.435 Y91.588 E1.6171
G1 X169.072 Y91.378 E.01314
G1 X145.603 Y132.029 E1.47175
G1 X145.24 Y131.819 E.01314
G1 X168.709 Y91.169 E1.47175
G1 X168.347 Y90.959 E.01314
G1 X144.877 Y131.61 E1.47175
G1 X144.514 Y131.4 E.01314
G1 X167.984 Y90.75 E1.47175
G1 X167.75 Y90.615 E.00845
M73 Q1 S212
G1 X170.068 Y86.6 E.14535
G1 X169.939 Y86.526 E.00468
G1 X144.151 Y131.191 E1.6171
G1 X143.788 Y130.981 E.01314
G1 X169.576 Y86.316 E1.6171
G1 X169.213 Y86.107 E.01314
G1 X144.584 Y128.765 E1.54443
G1 X144.222 Y128.555 E.01314
G1 X168.85 Y85.897 E1.54443
G1 X168.487 Y85.688 E.01314
G1 X143.859 Y128.346 E1.54443
G1 X143.496 Y128.136 E.01314
G1 X168.125 Y85.478 E1.54443
G1 X168.061 Y85.441 E.00231
G1 X169.22 Y83.434 E.07267
G1 X168.921 Y83.261 E.01083
G1 X143.133 Y127.927 E1.6171
G1 X142.927 Y127.808 E.00746
G1 X144.086 Y125.801 E.07267
G1 X143.929 Y125.71 E.00568
G1 X168.558 Y83.052 E1.54443
G1 X168.195 Y82.842 E.01314
G1 X143.566 Y125.501 E1.54443
G1 X143.203 Y125.291 E.01314
G1 X167.832 Y82.633 E1.54443
G1 X167.469 Y82.423 E.01314
G1 X142.841 Y125.082 E1.54443
G1 X142.478 Y124.872 E.01314
G1 X169.424 Y78.199 E1.68977
G1 X169.061 Y77.99 E.01314
G1 X142.115 Y124.663 E1.68977
G1 X141.752 Y124.453 E.01314
M73 P1 R210
G1 X168.698 Y77.78 E1.68977
G1 X168.336 Y77.571 E.01314
G1 X141.389 Y124.244 E1.68977
G1 X141.026 Y124.034 E.01314
G1 X167.973 Y77.361 E1.68977
G1 X167.61 Y77.152 E.01314
G1 X140.663 Y123.825 E1.68977
G1 X140.301 Y123.615 E.01314
G1 X169.565 Y72.928 E1.83512
G1 X169.202 Y72.718 E.01314
G1 X141.097 Y121.398 E1.76245
G1 X140.734 Y121.189 E.01314
G1 X168.839 Y72.509 E1.76245
G1 X168.476 Y72.299 E.01314
G1 X154.969 Y95.694 E.84701
G1 X155.234 Y94.8 E.02925
G1 X155.297 Y94.289 E.01615
G1 X168.114 Y72.09 E.8037
G1 X167.833 Y71.928 E.01014
G1 X170.151 Y67.914 E.14535
G1 X170.068 Y67.866 E.003
G1 X155.388 Y93.293 E.9206
G1 X155.425 Y92.89 E.01269
G1 X155.394 Y92.444 E.01402
G1 X169.706 Y67.656 E.89744
G1 X169.343 Y67.447 E.01314
G1 X155.319 Y91.736 E.87938
M73 Q1 S211
G1 X155.245 Y91.028 E.02233
G1 X168.98 Y67.237 E.86133
G1 X168.617 Y67.028 E.01314
G1 X155.093 Y90.453 E.84808
G1 X154.923 Y89.908 E.01788
G1 X168.254 Y66.819 E.83595
G1 X167.891 Y66.609 E.01314
G1 X154.754 Y89.364 E.82383
G1 X154.686 Y89.143 E.00723
G1 X154.556 Y88.869 E.00951
G1 X167.529 Y66.4 E.81351
G1 X167.166 Y66.19 E.01314
G1 X154.321 Y88.438 E.80547
G1 X154.086 Y88.006 E.0154
G1 X166.803 Y65.981 E.79743
G1 X166.44 Y65.771 E.01314
G1 X153.852 Y87.574 E.78939
G1 X153.688 Y87.308 E.00982
G1 X153.59 Y87.19 E.0048
G1 X166.077 Y65.562 E.78306
G1 X165.714 Y65.352 E.01314
G1 X153.304 Y86.847 E.77822
G1 X153.019 Y86.504 E.014
G1 X165.352 Y65.143 E.77338
G1 X164.989 Y64.933 E.01314
G1 X152.733 Y86.161 E.76854
G1 X152.437 Y85.835 E.01379
G1 X164.626 Y64.724 E.76435
G1 X164.263 Y64.514 E.01314
G1 X152.107 Y85.568 E.76227
G1 X151.778 Y85.302 E.0133
G1 X163.9 Y64.305 E.76019
G1 X163.537 Y64.095 E.01314
G1 X151.448 Y85.035 E.75811
G1 X151.118 Y84.768 E.0133
G1 X163.174 Y63.886 E.75603
G1 X162.812 Y63.676 E.01314
G1 X150.759 Y84.552 E.75579
G1 X150.388 Y84.356 E.01315
G1 X162.449 Y63.467 E.75631
G1 X162.086 Y63.257 E.01314
G1 X150.017 Y84.161 E.75683
G1 X149.646 Y83.966 E.01315
G1 X161.723 Y63.048 E.75735
G1 X161.36 Y62.838 E.01314
G1 X149.268 Y83.783 E.7583
G1 X148.856 Y83.658 E.01349
G1 X160.997 Y62.629 E.76136
G1 X160.635 Y62.419 E.01314
G1 X148.443 Y83.535 E.76451
G1 X148.03 Y83.413 E.01351
G1 X160.272 Y62.21 E.76766
G1 X159.909 Y62 E.01314
M73 P1 R209
G1 X147.617 Y83.291 E.77082
G1 X147.395 Y83.243 E.00711
G1 X147.173 Y83.222 E.00701
G1 X159.546 Y61.791 E.77592
G1 X159.183 Y61.581 E.01314
G1 X146.713 Y83.18 E.78197
G1 X146.254 Y83.137 E.01446
G1 X158.82 Y61.372 E.78802
G1 X158.457 Y61.162 E.01314
G1 X145.795 Y83.095 E.79408
G1 X145.483 Y83.083 E.00978
G1 X145.307 Y83.102 E.00554
G1 X158.095 Y60.953 E.8019
G1 X157.732 Y60.743 E.01314
G1 X144.792 Y83.156 E.81144
G1 X144.277 Y83.21 E.01623
G1 X156.21 Y62.541 E.7483
G1 X155.847 Y62.332 E.01314
G1 X143.762 Y83.264 E.75784
G1 X143.576 Y83.3 E.00595
G1 X143.188 Y83.42 E.01274
G1 X155.484 Y62.122 E.7711
G1 X155.121 Y61.913 E.01314
M73 P2 R209
G1 X142.599 Y83.603 E.7853
G1 X142.009 Y83.786 E.01934
M73 Q2 S211
G1 X154.759 Y61.703 E.7995
G1 X154.396 Y61.494 E.01314
G1 X141.341 Y84.105 E.81863
G1 X140.637 Y84.487 E.02512
G1 X154.033 Y61.284 E.84005
G1 X153.67 Y61.075 E.01314
G1 X139.868 Y84.981 E.86552
G1 X138.938 Y85.753 E.0379
G1 X153.307 Y60.865 E.90107
G1 X152.944 Y60.656 E.01314
G1 X124.839 Y109.336 E1.76245
G1 X125.202 Y109.545 E.01314
G1 X136.119 Y90.637 E.68458
G1 X135.996 Y91.11 E.01535
G1 X135.933 Y91.797 E.0216
G1 X125.565 Y109.755 E.65017
G1 X125.928 Y109.964 E.01314
G1 X135.841 Y92.793 E.62167
G1 X135.837 Y93.025 E.00727
M73 Q2 S210
G1 X135.892 Y93.544 E.01636
G1 X126.29 Y110.174 E.60208
G1 X126.653 Y110.383 E.01314
G1 X135.966 Y94.252 E.58401
G1 X136.021 Y94.766 E.01618
G1 X136.056 Y94.935 E.00544
G1 X127.016 Y110.593 E.56686
G1 X127.379 Y110.802 E.01314
G1 X136.225 Y95.48 E.55474
G1 X136.395 Y96.024 E.01788
G1 X127.742 Y111.012 E.54261
G1 X128.105 Y111.221 E.01314
