; generated by PrusaSlicer 2.5.0+win64 on 2023-02-02 at 18:53:09 UTC


;
;
; 

; external perimeters extrusion width = 0.45mm
; perimeters extrusion width = 0.45mm
; infill extrusion width = 0.45mm
; solid infill extrusion width = 0.45mm
; top infill extrusion width = 0.40mm
; first layer extrusion width = 0.42mm

M73 P0 R40
M73 Q0 S40
M201 X1000 Y1000 Z200 E5000 ; sets maximum accelerations, mm/sec^2
M203 X200 Y200 Z12 E120 ; sets maximum feedrates, mm / sec
M204 P1250 R1250 T1250 ; sets acceleration (P, T) and retract acceleration (R), mm/sec^2
M205 X8.00 Y8.00 Z0.40 E4.50 ; sets the jerk limits, mm/sec
M205 S0 T0 ; sets the minimum extruding and travel feed rate, mm/sec
M107
;TYPE:Custom
M862.3 P "MK3S" ; printer model check
M862.1 P0.4 ; nozzle diameter check
M115 U3.11.0 ; tell printer latest fw version
G90 ; use absolute coordinates
M83 ; extruder relative mode
M104 S215 ; set extruder temp
M140 S60 ; set bed temp
M190 S60 ; wait for bed temp
M109 S215 ; wait for extruder temp
G28 W ; home all without mesh bed level
G80 ; mesh bed leveling

G1 Z0.2 F720
G1 Y-3 F1000 ; go outside print area
G92 E0
G1 X60 E9 F1000 ; intro line
G1 X100 E12.5 F1000 ; intro line

G92 E0
M221 S95

; Don't change E values below. Excessive value can damage the printer.

G21 ; set units to millimeters
G90 ; use absolute coordinates
M83 ; use relative distances for extrusion
M900 K0.05 ; Filament gcode LA 1.5
M900 K30 ; Filament gcode LA 1.0
M107
;LAYER_CHANGE
;Z:0.2
;HEIGHT:0.2
;BEFORE_LAYER_CHANGE
G92 E0.0
;0.2


G1 E-.8 F2100
G1 Z.4 F900
;AFTER_LAYER_CHANGE
;0.2
G1 X69.942 Y106.439 F13200
G1 Z.2 F900
G1 E.8 F2100
M204 S800
;TYPE:Skirt/Brim
;WIDTH:0.42
G1 F600
G1 X71.4 Y105.754 E.0505
G1 X73.041 Y105.318 E.05325
G1 X74.173 Y105.215 E.03565
G1 X105.685 Y105.216 E.98803
G1 X106.791 Y105.318 E.03481
G1 X107.951 Y105.576 E.03725
G1 X109.058 Y105.956 E.03672
G1 X110.059 Y106.452 E.03501
G1 X121.522 Y113.376 E.41991
G1 X122.643 Y114.429 E.0482
G1 X123.506 Y115.774 E.05011
G1 X123.996 Y117.228 E.0481
G1 X124.391 Y120.752 E.11121
G1 X124.382 Y134.034 E.41645
G1 X124.264 Y134.963 E.02936
G1 X123.766 Y136.332 E.04566
G1 X123.259 Y137.119 E.02936
G1 X122.306 Y138.073 E.04228
G1 X121.702 Y138.484 E.02289
G1 X109.093 Y145.758 E.45643
G1 X107.782 Y146.257 E.04399
G1 X106.542 Y146.405 E.03916
G1 X73.224 Y146.405 E1.04464
G1 X72.369 Y146.334 E.02691
G1 X71.312 Y146.051 E.03431
G1 X70.536 Y145.685 E.02691
G1 X61.238 Y140.317 E.33661
G1 X60.318 Y139.639 E.03584
G1 X59.682 Y138.952 E.02936
G1 X59.174 Y138.165 E.02936
G1 X58.812 Y137.302 E.02936
G1 X58.559 Y135.867 E.04566
G1 X58.553 Y117.107 E.58823
G1 X58.718 Y115.965 E.03616
M73 Q1 S40
G1 X59.203 Y114.686 E.0429
G1 X59.924 Y113.574 E.04157
M73 P1 R40
G1 X60.899 Y112.636 E.0424
G1 X69.893 Y106.473 E.34185
M204 S1000
; printing object Hinge Bottom.stl id:0 copy 0
;WIPE_START
G1 F10560
G1 X71.4 Y105.754 E-.31545
G1 X73.041 Y105.318 E-.32087
G1 X73.693 Y105.259 E-.12368
;WIPE_END
G1 E-.04 F2100
G1 Z.6 F900
G1 X73.268 Y143.241 F13200
G1 Z.2 F900
G1 E.8 F2100
M204 S800
;TYPE:Perimeter
;WIDTH:0.419999
G1 F600
G1 X72.653 Y143.16 E.01946
G1 X72.08 Y142.922 E.01946
G1 X62.762 Y137.532 E.3375
G1 X62.37 Y137.217 E.01578
G1 X62.013 Y136.765 E.01806
G1 X61.8 Y136.23 E.01806
G1 X61.714 Y135.626 E.01914
G1 X61.714 Y117.265 E.57569
G1 X61.811 Y116.68 E.01861
M73 P1 R39
G1 X62.04 Y116.091 E.01979
G1 X62.318 Y115.676 E.01566
G1 X62.679 Y115.261 E.01727
G1 X71.435 Y109.24 E.33317
G1 X72.025 Y108.914 E.02115
G1 X72.769 Y108.632 E.02495
G1 X73.543 Y108.443 E.02495
G1 X74.214 Y108.379 E.02116
G1 X105.561 Y108.386 E.98285
G1 X106.26 Y108.437 E.02197
G1 X107.061 Y108.613 E.02573
G1 X107.832 Y108.874 E.02552
G1 X108.45 Y109.176 E.02158
G1 X119.572 Y115.879 E.40715
G1 X120.039 Y116.271 E.0191
G1 X120.446 Y116.779 E.02043
G1 X120.679 Y117.236 E.01609
G1 X120.876 Y117.771 E.01787
G1 X121.227 Y120.917 E.09926
G1 X121.217 Y133.9 E.40706
G1 X121.14 Y134.397 E.01578
G1 X120.928 Y134.932 E.01805
G1 X120.571 Y135.384 E.01806
G1 X120.091 Y135.761 E.01914
G1 X107.686 Y142.922 E.4491
G1 X107.113 Y143.16 E.01946
G1 X106.497 Y143.241 E.01946
G1 X73.328 Y143.241 E1.03999
M204 S1000
G1 X73.244 Y143.618 F13200
M204 S800
;TYPE:External perimeter
G1 F360
G1 X72.554 Y143.528 E.0218
G1 X71.912 Y143.261 E.0218
G1 X62.755 Y137.974 E.33155
G1 X62.263 Y137.643 E.01858
G1 X61.944 Y137.324 E.01415
G1 X61.685 Y136.955 E.01415
G1 X61.495 Y136.546 E.01415
G1 X61.378 Y136.11 E.01415
G1 X61.337 Y135.642 E.01471
M73 Q1 S39
G1 X61.337 Y117.401 E.57194
G1 X61.379 Y116.824 E.01815
M73 Q2 S39
G1 X61.505 Y116.369 E.0148
M73 P2 R39
G1 X61.708 Y115.909 E.01576
G1 X62.127 Y115.283 E.02362
G1 X62.436 Y114.97 E.01379
G1 X71.236 Y108.919 E.33486
G1 X71.866 Y108.571 E.02257
G1 X72.658 Y108.271 E.02653
G1 X73.48 Y108.071 E.02653
G1 X74.196 Y108.001 E.02257
G1 X105.821 Y108.009 E.99157
G1 X106.321 Y108.065 E.01579
G1 X107.162 Y108.249 E.027
G1 X107.976 Y108.525 E.02693
G1 X108.631 Y108.845 E.02286
G1 X119.646 Y115.483 E.40325
G1 X120.127 Y115.821 E.01844
G1 X120.463 Y116.166 E.01509
G1 X120.768 Y116.58 E.01611
G1 X121.118 Y117.265 E.02412
G1 X121.247 Y117.694 E.01405
G1 X121.547 Y120.286 E.0818
G1 X121.604 Y120.917 E.01988
G1 X121.604 Y133.686 E.40035
G1 X121.563 Y134.277 E.01858
G1 X121.446 Y134.713 E.01415
G1 X121.256 Y135.121 E.01415
G1 X120.997 Y135.491 E.01415
G1 X120.678 Y135.81 E.01415
G1 X120.293 Y136.079 E.01471
G1 X107.853 Y143.261 E.45038
G1 X107.211 Y143.528 E.0218
G1 X106.522 Y143.618 E.0218
G1 X73.304 Y143.618 E1.04153
M204 S1000
G1 X73.074 Y143.256 F13200
;WIPE_START
G1 F10560
G1 X72.554 Y143.528 E-.14259
G1 X71.912 Y143.261 E-.13134
G1 X69.684 Y141.975 E-.48607
;WIPE_END
G1 E-.04 F2100
G1 Z.6 F900
G1 X117.196 Y128.972 F13200
G1 Z.2 F900
G1 E.8 F2100
M204 S800
;TYPE:Perimeter
G1 F300
G1 X116.754 Y128.94 E.01389
G1 X116.218 Y128.805 E.01732
G1 X115.714 Y128.579 E.01733
G1 X115.256 Y128.27 E.01732
G1 X114.859 Y127.885 E.01733
G1 X114.535 Y127.437 E.01733
G1 X114.294 Y126.94 E.01732
G1 X114.143 Y126.409 E.01733
G1 X114.086 Y125.859 E.01733
M73 Q3 S39
G1 X114.126 Y125.308 E.01732
G1 X114.26 Y124.772 E.01732
M73 P3 R39
G1 X114.486 Y124.268 E.01733
G1 X114.796 Y123.81 E.01732
G1 X115.181 Y123.413 E.01733
G1 X115.628 Y123.089 E.01732
G1 X116.125 Y122.848 E.01733
G1 X116.657 Y122.697 E.01732
G1 X117.173 Y122.643 E.01626
G1 X117.751 Y122.679 E.01816
G1 X118.293 Y122.814 E.01754
G1 X118.798 Y123.04 E.01733
G1 X119.255 Y123.35 E.01732
G1 X119.652 Y123.735 E.01732
G1 X119.976 Y124.182 E.01733
G1 X120.217 Y124.679 E.01733
G1 X120.369 Y125.211 E.01732
G1 X120.427 Y125.81 E.01887
G1 X120.386 Y126.312 E.01579
G1 X120.251 Y126.848 E.01732
G1 X120.025 Y127.352 E.01732
G1 X119.715 Y127.809 E.01733
G1 X119.331 Y128.206 E.01732
G1 X118.883 Y128.53 E.01732
G1 X118.417 Y128.757 E.01626
G1 X117.861 Y128.921 E.01816
G1 X117.256 Y128.976 E.01907
M204 S1000
G1 X117.27 Y128.601 F13200
M204 S800
;TYPE:External perimeter
G1 F300
G1 X116.754 Y128.558 E.01622
G1 X116.285 Y128.43 E.01527
G1 X115.844 Y128.221 E.01527
G1 X115.447 Y127.939 E.01527
G1 X115.105 Y127.593 E.01527
G1 X114.828 Y127.193 E.01527
G1 X114.625 Y126.75 E.01527
G1 X114.501 Y126.279 E.01527
G1 X114.462 Y125.793 E.01527
G1 X114.507 Y125.308 E.01527
G1 X114.636 Y124.839 E.01527
G1 X114.844 Y124.399 E.01527
G1 X115.126 Y124.001 E.01527
G1 X115.472 Y123.659 E.01527
G1 X115.873 Y123.382 E.01527
G1 X116.316 Y123.179 E.01527
G1 X116.787 Y123.055 E.01527
G1 X117.236 Y123.019 E.01413
G1 X117.757 Y123.061 E.01639
G1 X118.227 Y123.19 E.01527
G1 X118.667 Y123.398 E.01527
G1 X119.064 Y123.68 E.01527
G1 X119.406 Y124.026 E.01527
G1 X119.684 Y124.427 E.01527
G1 X119.887 Y124.87 E.01527
G1 X120.01 Y125.341 E.01527
G1 X120.05 Y125.81 E.01476
G1 X120.004 Y126.311 E.01579
G1 X119.875 Y126.781 E.01527
G1 X119.667 Y127.221 E.01527
G1 X119.385 Y127.618 E.01527
G1 X119.039 Y127.961 E.01527
G1 X118.638 Y128.238 E.01527
G1 X118.229 Y128.426 E.01413
G1 X117.725 Y128.564 E.01639
G1 X117.33 Y128.596 E.01243
M204 S1000
G1 X117.072 Y128.949 F13200
;WIPE_START
G1 F10560
G1 X116.754 Y128.558 E-.10892
G1 X116.285 Y128.43 E-.09201
G1 X115.844 Y128.221 E-.09201
G1 X115.447 Y127.939 E-.09201
G1 X115.105 Y127.593 E-.09201
G1 X114.828 Y127.193 E-.09201
G1 X114.625 Y126.75 E-.09201
G1 X114.501 Y126.279 E-.09201
G1 X114.498 Y126.242 E-.00702
;WIPE_END
G1 E-.04 F2100
G1 Z.6 F900
G1 X101.043 Y139.284 F13200
G1 Z.2 F900
G1 E.8 F2100
M204 S800
;TYPE:Perimeter
G1 F600
G1 X78.795 Y139.296 E.69757
G1 X78.443 Y139.248 E.01116
G1 X77.955 Y139.034 E.01669
G1 X77.57 Y138.666 E.01669
G1 X77.335 Y138.191 E.01664
G1 X77.268 Y137.768 E.01341
G1 X77.268 Y116.587 E.66413
G1 X77.316 Y116.234 E.01116
G1 X77.514 Y115.767 E.01592
G1 X77.814 Y115.42 E.01437
G1 X78.277 Y115.152 E.01678
G1 X78.795 Y115.059 E.01651
G1 X95.462 Y115.059 E.52258
G1 X95.675 Y115.101 E.00678
G1 X95.908 Y115.276 E.00915
G1 X96.023 Y115.551 E.00934
G1 X96.556 Y119.597 E.12795
G1 X97.648 Y121.327 E.06416
G1 X98.015 Y121.651 E.01534
G1 X101.419 Y123.883 E.12762
G1 X101.953 Y124.353 E.02231
G1 X102.303 Y124.527 E.01226
G1 X102.461 Y124.756 E.00873
G1 X102.497 Y124.954 E.0063
G1 X102.497 Y137.768 E.40178
G1 X102.449 Y138.121 E.01116
M73 P3 R38
G1 X102.235 Y138.608 E.01669
G1 X101.868 Y138.993 E.01669
G1 X101.392 Y139.229 E.01664
G1 X101.103 Y139.275 E.00919
M204 S1000
G1 X100.987 Y138.916 F13200
M204 S800
;TYPE:External perimeter
G1 F360
G1 X78.795 Y138.919 E.6958
G1 X78.572 Y138.893 E.00706
G1 X78.198 Y138.745 E.01261
G1 X77.897 Y138.478 E.01261
G1 X77.706 Y138.124 E.0126
G1 X77.645 Y137.768 E.01133
G1 X77.645 Y116.587 E.66413
G1 X77.67 Y116.363 E.00706
G1 X77.819 Y115.989 E.01261
G1 X78.086 Y115.688 E.01261
G1 X78.439 Y115.497 E.0126
G1 X78.795 Y115.436 E.01133
G1 X95.462 Y115.436 E.52258
M73 Q4 S39
G1 X95.611 Y115.509 E.00518
M73 P4 R38
G1 X95.649 Y115.6 E.00311
G1 X96.193 Y119.728 E.13054
G1 X97.351 Y121.563 E.06804
G1 X97.639 Y121.855 E.01286
G1 X101.212 Y124.198 E.13396
G1 X101.762 Y124.683 E.02299
G1 X102.078 Y124.835 E.01101
G1 X102.12 Y124.954 E.00394
G1 X102.12 Y137.768 E.40178
G1 X102.095 Y137.992 E.00706
G1 X101.947 Y138.366 E.01261
G1 X101.679 Y138.667 E.01262
G1 X101.326 Y138.858 E.0126
G1 X101.046 Y138.905 E.00889
M204 S1000
G1 X100.828 Y139.283 F13200
;WIPE_START
G1 F10560
G1 X97.023 Y138.908 E-.76
;WIPE_END
G1 E-.04 F2100
G1 Z.6 F900
G1 X65.62 Y128.971 F13200
G1 Z.2 F900
G1 E.8 F2100
M204 S800
;TYPE:Perimeter
G1 F300
G1 X65.183 Y128.94 E.01372
G1 X64.647 Y128.805 E.01732
M73 Q4 S38
G1 X64.143 Y128.579 E.01732
G1 X63.685 Y128.27 E.01733
G1 X63.289 Y127.885 E.01733
G1 X62.965 Y127.437 E.01732
G1 X62.724 Y126.94 E.01732
G1 X62.572 Y126.409 E.01732
G1 X62.516 Y125.859 E.01733
G1 X62.555 Y125.308 E.01732
G1 X62.69 Y124.772 E.01733
G1 X62.916 Y124.268 E.01732
G1 X63.225 Y123.81 E.01733
G1 X63.61 Y123.413 E.01732
G1 X64.058 Y123.089 E.01733
G1 X64.555 Y122.848 E.01733
G1 X65.086 Y122.697 E.01732
G1 X65.602 Y122.643 E.01626
G1 X66.18 Y122.679 E.01816
G1 X66.723 Y122.815 E.01754
G1 X67.227 Y123.04 E.01732
G1 X67.685 Y123.35 E.01733
G1 X68.081 Y123.735 E.01732
G1 X68.405 Y124.182 E.01733
G1 X68.647 Y124.679 E.01733
G1 X68.798 Y125.211 E.01733
G1 X68.855 Y125.76 E.01733
G1 X68.815 Y126.312 E.01733
G1 X68.68 Y126.848 E.01732
G1 X68.455 Y127.352 E.01733
G1 X68.145 Y127.809 E.01732
G1 X67.76 Y128.206 E.01733
G1 X67.313 Y128.53 E.01732
G1 X66.815 Y128.771 E.01733
G1 X66.284 Y128.923 E.01732
G1 X65.68 Y128.975 E.01902
M204 S1000
G1 X65.64 Y128.601 F13200
M204 S800
;TYPE:External perimeter
G1 F300
G1 X65.184 Y128.558 E.01435
G1 X64.714 Y128.43 E.01527
G1 X64.274 Y128.221 E.01527
G1 X63.877 Y127.939 E.01527
G1 X63.534 Y127.593 E.01527
G1 X63.257 Y127.193 E.01527
G1 X63.054 Y126.75 E.01527
G1 X62.931 Y126.279 E.01527
G1 X62.891 Y125.793 E.01527
G1 X62.936 Y125.308 E.01527
G1 X63.054 Y124.87 E.01424
G1 X63.274 Y124.399 E.0163
G1 X63.555 Y124.001 E.01527
G1 X63.902 Y123.659 E.01527
G1 X64.302 Y123.382 E.01527
G1 X64.745 Y123.179 E.01527
G1 X65.216 Y123.055 E.01527
G1 X65.77 Y123.027 E.0174
G1 X66.186 Y123.061 E.01309
G1 X66.656 Y123.19 E.01527
G1 X67.096 Y123.398 E.01527
G1 X67.494 Y123.68 E.01527
G1 X67.836 Y124.026 E.01527
G1 X68.113 Y124.427 E.01527
G1 X68.316 Y124.87 E.01527
G1 X68.439 Y125.341 E.01527
G1 X68.479 Y125.826 E.01527
G1 X68.434 Y126.311 E.01527
G1 X68.305 Y126.781 E.01527
G1 X68.096 Y127.221 E.01527
G1 X67.815 Y127.618 E.01527
G1 X67.468 Y127.961 E.01527
G1 X67.068 Y128.238 E.01527
G1 X66.625 Y128.441 E.01527
G1 X66.154 Y128.564 E.01527
G1 X65.699 Y128.601 E.01431
M204 S1000
G1 X65.437 Y128.946 F13200
;WIPE_START
G1 F10560
G1 X65.184 Y128.558 E-.09774
G1 X64.714 Y128.43 E-.09201
G1 X64.274 Y128.221 E-.09201
G1 X63.877 Y127.939 E-.09201
G1 X63.534 Y127.593 E-.09201
G1 X63.257 Y127.193 E-.09201
G1 X63.054 Y126.75 E-.09201
G1 X62.931 Y126.279 E-.09201
G1 X62.923 Y126.183 E-.0182
;WIPE_END
G1 E-.04 F2100
G1 Z.6 F900
G1 X119.092 Y115.721 F13200
G1 Z.2 F900
G1 E.8 F2100
M204 S800
;TYPE:Solid infill
;WIDTH:0.422395
G1 F960
G1 X119.959 Y116.594 E.03881
G1 X120.205 Y116.928 E.01309
G1 X120.503 Y117.512 E.0207
G1 X120.571 Y117.737 E.00741
G1 X118.24 Y115.406 E.10402
G1 X116.889 Y114.592 E.04975
G1 X120.66 Y118.363 E.16827
G1 X120.731 Y118.97 E.01928
G1 X115.539 Y113.778 E.23167
G1 X114.188 Y112.964 E.04975
G1 X120.801 Y119.577 E.29507
G1 X120.871 Y120.184 E.01928
G1 X112.838 Y112.151 E.35847
G1 X111.487 Y111.337 E.04975
G1 X120.941 Y120.791 E.42187
G1 X120.944 Y121.33 E.01702
G1 X110.137 Y110.523 E.48225
G1 X108.786 Y109.709 E.04975
G1 X120.944 Y121.867 E.54252
G1 X120.944 Y122.403 E.01693
G1 X107.652 Y109.112 E.59312
G1 X106.863 Y108.859 E.02615
G1 X120.944 Y122.94 E.62834
G1 X120.944 Y123.477 E.01693
M73 P5 R38
M73 Q5 S38
G1 X106.18 Y108.713 E.65881
G1 X105.784 Y108.669 E.01258
G1 X105.599 Y108.669 E.00583
G1 X120.944 Y124.013 E.68474
G1 X120.944 Y124.55 E.01693
G1 X105.062 Y108.668 E.70869
G1 X104.526 Y108.668 E.01694
G1 X118.42 Y122.562 E.62
G1 X119.04 Y122.854 E.02164
G1 X119.526 Y123.209 E.01899
G1 X119.943 Y123.642 E.01896
G1 X120.212 Y124.026 E.0148
G1 X120.498 Y124.641 E.0214
G1 X121.114 Y125.256 E.02747
M204 S1000
G1 X120.468 Y125.147 F13200
M204 S800
G1 F960
G1 X120.944 Y125.623 E.02125
G1 X120.944 Y126.16 E.01693
G1 X120.701 Y125.917 E.01084
G1 X120.658 Y126.411 E.01563
G1 X120.944 Y126.697 E.01277
G1 X120.944 Y127.233 E.01693
G1 X120.54 Y126.829 E.01804
G1 X120.477 Y127.054 E.00736
G1 X120.395 Y127.221 E.00587
G1 X120.944 Y127.77 E.02452
G1 X120.944 Y128.307 E.01693
G1 X120.218 Y127.581 E.03239
G1 X119.994 Y127.893 E.01213
G1 X120.944 Y128.843 E.04241
G1 X120.944 Y129.38 E.01693
G1 X119.748 Y128.184 E.05335
G1 X119.475 Y128.448 E.01198
G1 X120.944 Y129.917 E.06556
G1 X120.944 Y130.453 E.01693
G1 X119.167 Y128.676 E.07929
G1 X119.039 Y128.766 E.00492
G1 X118.825 Y128.871 E.00753
G1 X120.944 Y130.99 E.09455
G1 X120.944 Y131.527 E.01693
G1 X118.456 Y129.038 E.11103
G1 X118.043 Y129.162 E.01361
G1 X120.944 Y132.063 E.12947
G1 X120.944 Y132.6 E.01693
G1 X117.576 Y129.232 E.15027
G1 X117.271 Y129.265 E.00969
G1 X117.05 Y129.243 E.007
G1 X120.944 Y133.137 E.17375
G1 X120.944 Y133.673 E.01693
G1 X116.171 Y128.9 E.21301
M204 S1000
;WIPE_START
G1 F10560
G1 X119.015 Y131.744 E-.76
;WIPE_END
G1 E-.04 F2100
G1 Z.6 F900
G1 X117.933 Y122.612 F13200
G1 Z.2 F900
G1 E.8 F2100
M204 S800
G1 F960
G1 X103.989 Y108.668 E.62224
G1 X103.452 Y108.668 E.01694
G1 X117.146 Y122.362 E.61105
G1 X116.661 Y122.414 E.01537
G1 X102.915 Y108.668 E.6134
G1 X102.378 Y108.668 E.01694
G1 X116.229 Y122.519 E.61807
G1 X115.846 Y122.672 E.01302
G1 X101.842 Y108.668 E.62493
G1 X101.305 Y108.668 E.01694
G1 X115.49 Y122.853 E.633
G1 X115.171 Y123.07 E.01219
G1 X100.768 Y108.667 E.64271
G1 X100.231 Y108.667 E.01694
G1 X114.88 Y123.316 E.65368
G1 X114.618 Y123.59 E.01198
G1 X99.695 Y108.667 E.66592
G1 X99.158 Y108.667 E.01694
G1 X114.393 Y123.902 E.67984
G1 X114.266 Y124.079 E.00686
G1 X114.191 Y124.237 E.00553
G1 X98.621 Y108.667 E.69481
G1 X98.084 Y108.667 E.01694
G1 X114.021 Y124.603 E.71114
G1 X113.903 Y125.023 E.01374
M73 P6 R38
M73 Q6 S38
G1 X97.547 Y108.667 E.72986
G1 X97.011 Y108.667 E.01694
