; generated by PrusaSlicer 2.5.0+win64 on 2023-03-31 at 19:03:58 UTC


;
;
; 

; external perimeters extrusion width = 0.45mm
; perimeters extrusion width = 0.45mm
; infill extrusion width = 0.45mm
; solid infill extrusion width = 0.45mm
; top infill extrusion width = 0.40mm
; first layer extrusion width = 0.42mm

M73 P0 R135
M73 Q0 S135
M201 X1000 Y1000 Z200 E5000 ; sets maximum accelerations, mm/sec^2
M203 X200 Y200 Z12 E120 ; sets maximum feedrates, mm / sec
M204 P1250 R1250 T1250 ; sets acceleration (P, T) and retract acceleration (R), mm/sec^2
M205 X8.00 Y8.00 Z0.40 E4.50 ; sets the jerk limits, mm/sec
M205 S0 T0 ; sets the minimum extruding and travel feed rate, mm/sec
M107
;TYPE:Custom
M862.3 P "MK3S" ; printer model check
M862.1 P0.4 ; nozzle diameter check
M115 U3.11.0 ; tell printer latest fw version
G90 ; use absolute coordinates
M83 ; extruder relative mode
M104 S215 ; set extruder temp
M140 S60 ; set bed temp
M190 S60 ; wait for bed temp
M109 S215 ; wait for extruder temp
G28 W ; home all without mesh bed level
G80 ; mesh bed leveling

G1 Z0.2 F720
G1 Y-3 F1000 ; go outside print area
G92 E0
G1 X60 E9 F1000 ; intro line
G1 X100 E12.5 F1000 ; intro line

G92 E0
M221 S95

; Don't change E values below. Excessive value can damage the printer.

G21 ; set units to millimeters
G90 ; use absolute coordinates
M83 ; use relative distances for extrusion
M900 K0.05 ; Filament gcode LA 1.5
M900 K30 ; Filament gcode LA 1.0
M107
;LAYER_CHANGE
;Z:0.2
;HEIGHT:0.2
;BEFORE_LAYER_CHANGE
G92 E0.0
;0.2


G1 E-.8 F2100
M73 P0 R134
G1 Z.4 F900
;AFTER_LAYER_CHANGE
;0.2
G1 X58.683 Y56.153 F13200
G1 Z.2 F900
G1 E.8 F2100
M204 S800
;TYPE:Skirt/Brim
;WIDTH:0.42
G1 F600
G1 X59.972 Y55.004 E.05414
G1 X61.117 Y54.324 E.04174
G1 X62.359 Y53.845 E.04174
G1 X63.663 Y53.58 E.04174
G1 X64.731 Y53.522 E.03352
G1 X129.284 Y53.423 E2.02402
G1 X130.657 Y53.521 E.04317
G1 X131.993 Y53.855 E.04317
G1 X133.252 Y54.414 E.04317
G1 X134.395 Y55.181 E.04317
G1 X135.11 Y55.832 E.03031
G1 X135.981 Y56.898 E.04317
G1 X136.655 Y58.099 E.04317
G1 X137.112 Y59.398 E.04317
G1 X137.338 Y60.756 E.04317
G1 X137.332 Y99.229 E1.20629
G1 X137.117 Y100.577 E.04281
G1 X136.829 Y101.492 E.03005
G1 X136.235 Y102.721 E.04281
G1 X135.439 Y103.83 E.04281
G1 X134.145 Y105.039 E.05553
G1 X132.984 Y105.757 E.04281
G1 X131.717 Y106.266 E.04281
G1 X130.382 Y106.551 E.04281
G1 X129.28 Y106.617 E.0346
G1 X64.95 Y106.821 E2.01702
G1 X64.007 Y106.798 E.0296
G1 X62.681 Y106.573 E.04216
G1 X61.05 Y105.955 E.05469
G1 X60.236 Y105.476 E.0296
G1 X59.187 Y104.636 E.04216
G1 X58.062 Y103.303 E.05469
G1 X57.583 Y102.489 E.0296
G1 X57.074 Y101.244 E.04216
G1 X56.739 Y99.532 E.05469
G1 X56.649 Y60.973 E1.20902
G1 X56.947 Y59.272 E.05414
G1 X57.259 Y58.391 E.0293
G1 X57.877 Y57.212 E.04173
G1 X58.647 Y56.2 E.03986
M204 S1000
; printing object Hinge Top.stl id:0 copy 0
;WIPE_START
G1 F10560
G1 X59.972 Y55.004 E-.33736
G1 X61.117 Y54.324 E-.25147
G1 X61.962 Y53.998 E-.17117
;WIPE_END
G1 E-.04 F2100
G1 Z.6 F900
G1 X64.937 Y103.279 F13200
G1 Z.2 F900
G1 E.8 F2100
M204 S800
;TYPE:Perimeter
;WIDTH:0.419999
G1 F540
G1 X64.191 Y103.261 E.02341
G1 X63.458 Y103.117 E.02341
G1 X62.76 Y102.852 E.02341
G1 X62.116 Y102.474 E.02341
G1 X61.545 Y101.992 E.02341
G1 X61.064 Y101.422 E.02341
G1 X60.685 Y100.778 E.02341
G1 X60.42 Y100.08 E.02341
G1 X60.277 Y99.347 E.02341
G1 X60.259 Y98.601 E.02341
G1 X60.366 Y97.862 E.02341
G1 X60.597 Y97.152 E.02341
G1 X60.943 Y96.493 E.02334
G1 X61.773 Y95.417 E.0426
G1 X62.099 Y94.928 E.01844
G1 X62.428 Y94.326 E.0215
G1 X62.676 Y93.685 E.02154
G1 X62.823 Y93.132 E.01796
G1 X62.947 Y92.416 E.02277
G1 X62.993 Y91.761 E.0206
G1 X62.993 Y68.804 E.71981
G1 X62.963 Y68.24 E.01768
G1 X62.895 Y67.624 E.01945
G1 X62.696 Y66.802 E.02651
G1 X62.485 Y66.262 E.01817
G1 X62.237 Y65.752 E.0178
G1 X61.884 Y65.16 E.02159
G1 X60.895 Y63.907 E.05006
G1 X60.544 Y63.258 E.02311
G1 X60.305 Y62.559 E.02318
G1 X60.186 Y61.83 E.02318
G1 X60.19 Y61.09 E.02318
G1 X60.317 Y60.362 E.02318
G1 X60.557 Y59.684 E.02256
G1 X60.925 Y59.018 E.02384
G1 X61.386 Y58.443 E.02312
G1 X61.938 Y57.951 E.02318
G1 X62.564 Y57.558 E.02318
G1 X63.246 Y57.275 E.02318
G1 X63.967 Y57.11 E.02318
G1 X64.705 Y57.067 E.02318
G1 X65.435 Y57.147 E.02303
G1 X66.57 Y57.481 E.0371
G1 X67.152 Y57.62 E.01876
G1 X67.733 Y57.708 E.01842
G1 X68.319 Y57.741 E.01841
G1 X124.858 Y57.741 E1.77273
G1 X125.567 Y57.733 E.02222
G1 X126.258 Y57.681 E.02175
G1 X127.025 Y57.524 E.02455
G1 X128.469 Y57.062 E.04754
G1 X129.223 Y56.965 E.02384
G1 X129.967 Y56.999 E.02334
G1 X130.735 Y57.167 E.02466
G1 X131.44 Y57.458 E.02391
G1 X132.086 Y57.868 E.02397
G1 X132.651 Y58.382 E.02397
G1 X133.119 Y58.987 E.02397
G1 X133.476 Y59.663 E.02397
G1 X133.695 Y60.34 E.0223
G1 X133.753 Y60.691 E.01115
G1 X133.816 Y61.201 E.01612
G1 X133.792 Y61.912 E.0223
G1 X133.634 Y62.66 E.02397
G1 X133.351 Y63.37 E.02397
G1 X132.949 Y64.019 E.02394
G1 X131.984 Y65.1 E.04542
G1 X131.629 Y65.56 E.01821
G1 X131.26 Y66.137 E.02149
G1 X130.816 Y67.177 E.03546
G1 X130.674 Y67.745 E.01836
G1 X130.568 Y68.368 E.0198
G1 X130.515 Y69.065 E.02193
G1 X130.515 Y90.176 E.66192
G1 X130.518 Y91.056 E.02759
G1 X130.586 Y91.891 E.02628
G1 X130.863 Y93.009 E.03612
G1 X131.15 Y93.676 E.02275
G1 X131.449 Y94.203 E.01902
G1 X131.817 Y94.756 E.02082
G1 X132.938 Y96.014 E.05285
G1 X133.337 Y96.658 E.02374
G1 X133.62 Y97.361 E.02377
G1 X133.779 Y98.102 E.02377
G1 X133.808 Y98.86 E.02377
G1 X133.708 Y99.611 E.02377
G1 X133.481 Y100.335 E.02377
G1 X133.133 Y101.008 E.02377
G1 X132.676 Y101.613 E.02377
G1 X132.122 Y102.13 E.02377
G1 X131.487 Y102.545 E.02377
G1 X130.792 Y102.846 E.02377
G1 X130.054 Y103.023 E.02377
G1 X129.298 Y103.072 E.02377
G1 X128.544 Y102.99 E.02377
G1 X127.767 Y102.768 E.02534
G1 X117.006 Y98.656 E.3612
G1 X116.31 Y98.445 E.02279
G1 X115.572 Y98.316 E.02351
G1 X114.887 Y98.276 E.0215
G1 X78.644 Y98.278 E1.13638
G1 X77.835 Y98.34 E.02543
M73 Q0 S134
G1 X77.035 Y98.51 E.02566
G1 X76.334 Y98.754 E.02327
G1 X66.433 Y102.925 E.33684
G1 X65.676 Y103.171 E.02496
G1 X64.997 Y103.27 E.02153
M204 S1000
G1 X64.96 Y103.656 F13200
M204 S800
G1 F540
G1 X64.15 Y103.637 E.02542
G1 X63.354 Y103.481 E.02542
G1 X62.596 Y103.194 E.02542
G1 X61.897 Y102.783 E.02542
G1 X61.278 Y102.26 E.02542
G1 X60.755 Y101.641 E.02542
G1 X60.344 Y100.942 E.02542
G1 X60.056 Y100.184 E.02542
G1 X59.901 Y99.389 E.02542
G1 X59.881 Y98.578 E.02542
G1 X59.998 Y97.776 E.02542
G1 X60.248 Y97.005 E.02542
G1 X60.624 Y96.288 E.02537
G1 X61.474 Y95.187 E.04363
G1 X61.771 Y94.742 E.01677
G1 X62.076 Y94.19 E.01977
G1 X62.324 Y93.55 E.02154
G1 X62.455 Y93.049 E.01622
G1 X62.571 Y92.388 E.02103
G1 X62.616 Y91.761 E.01973
G1 X62.616 Y68.804 E.71981
G1 X62.587 Y68.268 E.0168
G1 X62.527 Y67.708 E.01768
G1 X62.345 Y66.94 E.02475
G1 X62.134 Y66.4 E.01817
G1 X61.91 Y65.94 E.01604
G1 X61.588 Y65.394 E.01989
G1 X60.579 Y64.115 E.05108
G1 X60.197 Y63.41 E.02512
G1 X59.938 Y62.651 E.02516
G1 X59.808 Y61.859 E.02516
G1 X59.813 Y61.057 E.02516
G1 X59.951 Y60.266 E.02516
G1 X60.212 Y59.529 E.02452
G1 X60.61 Y58.808 E.02582
G1 X61.111 Y58.182 E.02512
G1 X61.71 Y57.649 E.02516
G1 X62.39 Y57.222 E.02516
G1 X63.131 Y56.915 E.02516
G1 X63.913 Y56.735 E.02516
G1 X64.714 Y56.688 E.02516
G1 X65.509 Y56.776 E.02507
G1 X66.676 Y57.119 E.03815
G1 X67.22 Y57.249 E.01751
G1 X67.755 Y57.331 E.017
G1 X68.319 Y57.364 E.0177
G1 X124.858 Y57.364 E1.77273
G1 X125.542 Y57.357 E.02146
M73 P0 R133
G1 X126.186 Y57.311 E.02022
G1 X126.91 Y57.165 E.02318
G1 X128.387 Y56.692 E.04862
G1 X129.208 Y56.587 E.02594
G1 X130.016 Y56.624 E.02537
G1 X130.848 Y56.805 E.02671
G1 X131.614 Y57.122 E.02599
G1 X132.315 Y57.567 E.02603
G1 X132.929 Y58.125 E.02603
G1 X133.437 Y58.782 E.02603
G1 X133.825 Y59.516 E.02603
G1 X134.054 Y60.224 E.02333
G1 X134.127 Y60.638 E.01319
G1 X134.193 Y61.214 E.01816
G1 X134.167 Y61.957 E.02333
G1 X133.997 Y62.77 E.02603
G1 X133.689 Y63.54 E.02603
G1 X133.253 Y64.246 E.026
G1 X132.047 Y65.606 E.05698
G1 X131.515 Y66.475 E.03197
G1 X131.182 Y67.268 E.02696
G1 X131.04 Y67.836 E.01836
G1 X130.944 Y68.398 E.01788
G1 X130.892 Y69.065 E.02097
G1 X130.893 Y91.025 E.68854
G1 X130.942 Y91.62 E.01872
G1 X131.035 Y92.188 E.01806
G1 X131.21 Y92.86 E.02176
G1 X131.496 Y93.527 E.02275
G1 X131.767 Y94 E.0171
G1 X132.098 Y94.505 E.01894
G1 X133.242 Y95.788 E.05388
G1 X133.675 Y96.487 E.02578
G1 X133.982 Y97.25 E.02581
G1 X134.154 Y98.055 E.0258
G1 X134.186 Y98.878 E.02581
G1 X134.078 Y99.693 E.0258
G1 X133.831 Y100.479 E.02581
G1 X133.454 Y101.21 E.0258
G1 X132.957 Y101.866 E.0258
G1 X132.355 Y102.428 E.0258
G1 X131.667 Y102.879 E.02581
G1 X130.911 Y103.205 E.02581
G1 X130.111 Y103.397 E.0258
G1 X129.29 Y103.45 E.0258
G1 X128.471 Y103.362 E.02581
G1 X127.648 Y103.126 E.02687
G1 X116.893 Y99.016 E.36099
G1 X116.242 Y98.816 E.02136
G1 X115.549 Y98.692 E.02207
G1 X114.887 Y98.653 E.02079
G1 X78.669 Y98.654 E1.13559
G1 X77.91 Y98.709 E.02387
M73 P1 R133
M73 Q1 S134
G1 X77.158 Y98.866 E.0241
G1 X76.478 Y99.102 E.02257
G1 X66.565 Y103.278 E.33726
G1 X65.762 Y103.539 E.02646
G1 X65.019 Y103.648 E.02354
M204 S1000
G1 X64.983 Y104.034 F13200
M204 S800
;TYPE:External perimeter
G1 F300
G1 X64.109 Y104.013 E.02742
G1 X63.25 Y103.845 E.02742
G1 X62.433 Y103.535 E.02742
G1 X61.679 Y103.092 E.02742
G1 X61.01 Y102.528 E.02742
G1 X60.446 Y101.859 E.02742
G1 X60.003 Y101.106 E.02742
G1 X59.693 Y100.288 E.02742
G1 X59.524 Y99.43 E.02742
G1 X59.503 Y98.555 E.02742
G1 X59.629 Y97.69 E.02742
G1 X59.899 Y96.858 E.02742
G1 X60.305 Y96.084 E.0274
G1 X61.006 Y95.176 E.03596
G1 X61.443 Y94.556 E.02379
G1 X61.725 Y94.055 E.01803
G1 X61.972 Y93.414 E.02154
G1 X62.087 Y92.966 E.01448
G1 X62.195 Y92.361 E.01929
G1 X62.239 Y91.761 E.01886
G1 X62.239 Y68.804 E.71981
G1 X62.211 Y68.297 E.01592
G1 X62.16 Y67.792 E.01592
G1 X61.994 Y67.077 E.02299
G1 X61.783 Y66.538 E.01817
G1 X61.584 Y66.128 E.01427
G1 X61.292 Y65.627 E.01818
G1 X60.263 Y64.323 E.0521
G1 X59.85 Y63.562 E.02713
G1 X59.571 Y62.743 E.02714
G1 X59.431 Y61.889 E.02714
G1 X59.436 Y61.023 E.02714
G1 X59.585 Y60.17 E.02714
G1 X59.867 Y59.374 E.02648
G1 X60.296 Y58.597 E.02781
G1 X60.837 Y57.922 E.02713
G1 X61.483 Y57.346 E.02714
G1 X62.216 Y56.886 E.02714
G1 X63.016 Y56.554 E.02714
G1 X63.86 Y56.36 E.02714
G1 X64.724 Y56.31 E.02714
G1 X65.584 Y56.404 E.02711
G1 X67.049 Y56.835 E.0479
G1 X67.778 Y56.955 E.02316
G1 X68.319 Y56.987 E.01699
G1 X124.858 Y56.987 E1.77273
G1 X125.518 Y56.981 E.02069
G1 X126.113 Y56.941 E.0187
G1 X126.795 Y56.806 E.02181
G1 X128.305 Y56.322 E.0497
G1 X129.192 Y56.208 E.02805
G1 X130.065 Y56.248 E.02739
G1 X130.961 Y56.444 E.02877
G1 X131.789 Y56.786 E.02807
G1 X132.545 Y57.266 E.02808
G1 X133.207 Y57.869 E.02808
G1 X133.755 Y58.577 E.02808
G1 X134.174 Y59.369 E.02808
G1 X134.412 Y60.108 E.02436
G1 X134.511 Y60.666 E.01776
G1 X134.569 Y61.226 E.01768
G1 X134.543 Y62.003 E.02436
G1 X134.359 Y62.879 E.02808
G1 X134.026 Y63.711 E.02808
G1 X133.556 Y64.472 E.02807
G1 X132.829 Y65.286 E.03419
G1 X132.264 Y65.966 E.02773
G1 X131.861 Y66.625 E.02421
G1 X131.547 Y67.359 E.02504
G1 X131.406 Y67.927 E.01836
G1 X131.32 Y68.429 E.01596
G1 X131.269 Y69.065 E.02001
G1 X131.269 Y90.994 E.68759
G1 X131.318 Y91.59 E.01872
M73 Q1 S133
G1 X131.401 Y92.097 E.01614
G1 X131.556 Y92.711 E.01985
G1 X131.843 Y93.378 E.02275
G1 X132.085 Y93.797 E.01518
G1 X132.379 Y94.254 E.01705
G1 X133.545 Y95.561 E.05491
G1 X134.012 Y96.316 E.02783
G1 X134.344 Y97.14 E.02784
G1 X134.53 Y98.008 E.02784
G1 X134.564 Y98.895 E.02784
G1 X134.447 Y99.775 E.02784
G1 X134.181 Y100.623 E.02784
G1 X133.774 Y101.412 E.02784
G1 X133.238 Y102.12 E.02784
G1 X132.589 Y102.726 E.02784
G1 X131.846 Y103.212 E.02784
G1 X131.031 Y103.564 E.02784
G1 X130.168 Y103.772 E.02784
G1 X129.281 Y103.829 E.02784
G1 X128.399 Y103.733 E.02784
G1 X127.528 Y103.484 E.0284
G1 X116.78 Y99.375 E.36077
G1 X116.173 Y99.186 E.01992
G1 X115.526 Y99.068 E.02064
G1 X114.887 Y99.03 E.02007
G1 X78.694 Y99.03 E1.13481
G1 X77.985 Y99.079 E.0223
M73 P1 R132
G1 X77.281 Y99.223 E.02253
G1 X76.621 Y99.451 E.02187
G1 X66.697 Y103.632 E.33768
G1 X65.848 Y103.908 E.02797
G1 X65.042 Y104.025 E.02554
M204 S1000
G1 X64.762 Y103.7 F13200
;WIPE_START
G1 F10560
G1 X64.109 Y104.013 E-.1764
G1 X63.25 Y103.845 E-.16522
G1 X62.433 Y103.535 E-.16522
G1 X61.679 Y103.092 E-.16522
G1 X61.323 Y102.791 E-.08794
;WIPE_END
G1 E-.04 F2100
G1 Z.6 F900
G1 X129.446 Y64.569 F13200
G1 Z.2 F900
G1 E.8 F2100
M204 S800
;TYPE:Perimeter
G1 F300
G1 X129.349 Y64.576 E.00305
G1 X128.769 Y64.511 E.01832
G1 X128.273 Y64.37 E.01615
G1 X127.809 Y64.151 E.0161
G1 X127.353 Y63.833 E.01743
G1 X126.964 Y63.446 E.01721
G1 X126.637 Y62.981 E.01781
G1 X126.402 Y62.479 E.0174
G1 X126.245 Y61.854 E.02019
G1 X126.211 Y61.298 E.01746
G1 X126.274 Y60.745 E.01746
G1 X126.431 Y60.211 E.01746
G1 X126.657 Y59.746 E.01621
G1 X126.957 Y59.323 E.01626
G1 X127.414 Y58.882 E.01993
G1 X127.839 Y58.594 E.01608
G1 X128.346 Y58.364 E.01744
G1 X128.893 Y58.226 E.0177
G1 X129.415 Y58.187 E.01642
G1 X129.996 Y58.24 E.0183
G1 X130.535 Y58.391 E.01755
G1 X131.036 Y58.632 E.01743
G1 X131.488 Y58.957 E.01743
G1 X131.876 Y59.354 E.01743
G1 X132.19 Y59.813 E.01743
G1 X132.42 Y60.32 E.01743
G1 X132.558 Y60.858 E.01743
G1 X132.601 Y61.413 E.01743
G1 X132.547 Y61.966 E.01743
G1 X132.398 Y62.502 E.01743
G1 X132.158 Y63.003 E.01743
G1 X131.834 Y63.458 E.0175
G1 X131.46 Y63.825 E.01644
G1 X130.962 Y64.171 E.01902
G1 X130.419 Y64.41 E.01858
G1 X129.912 Y64.536 E.01639
G1 X129.506 Y64.565 E.01275
M204 S1000
G1 X129.419 Y64.194 F13200
M204 S800
G1 F300
G1 X128.866 Y64.147 E.0174
G1 X128.394 Y64.012 E.0154
G1 X127.953 Y63.796 E.0154
G1 X127.555 Y63.507 E.0154
G1 X127.214 Y63.154 E.0154
G1 X126.939 Y62.747 E.0154
G1 X126.739 Y62.298 E.0154
G1 X126.621 Y61.821 E.0154
G1 X126.586 Y61.331 E.0154
G1 X126.638 Y60.843 E.0154
G1 X126.773 Y60.371 E.0154
G1 X126.989 Y59.929 E.0154
G1 X127.337 Y59.472 E.01802
G1 X127.685 Y59.152 E.01483
G1 X128.038 Y58.916 E.01331
G1 X128.487 Y58.716 E.0154
G1 X128.963 Y58.597 E.0154
G1 X129.414 Y58.565 E.01416
G1 X129.916 Y58.608 E.0158
G1 X130.414 Y58.75 E.01624
G1 X130.856 Y58.965 E.0154
G1 X131.253 Y59.254 E.0154
G1 X131.594 Y59.607 E.0154
G1 X131.869 Y60.014 E.0154
G1 X132.069 Y60.463 E.0154
G1 X132.188 Y60.94 E.0154
G1 X132.222 Y61.43 E.0154
G1 X132.171 Y61.918 E.0154
G1 X132.035 Y62.391 E.0154
G1 X131.82 Y62.832 E.0154
G1 X131.531 Y63.23 E.0154
G1 X131.206 Y63.544 E.01416
G1 X130.79 Y63.836 E.01596
G1 X130.322 Y64.045 E.01608
G1 X129.845 Y64.164 E.0154
G1 X129.479 Y64.19 E.01149
M204 S1000
G1 X129.369 Y63.821 F13200
M204 S800
;TYPE:External perimeter
G1 F300
G1 X128.964 Y63.783 E.01277
G1 X128.553 Y63.67 E.01335
G1 X128.169 Y63.487 E.01335
G1 X127.822 Y63.241 E.01335
G1 X127.523 Y62.938 E.01335
G1 X127.281 Y62.587 E.01335
G1 X127.104 Y62.2 E.01335
G1 X126.996 Y61.789 E.01335
G1 X126.962 Y61.364 E.01335
G1 X127.002 Y60.94 E.01335
G1 X127.115 Y60.53 E.01335
G1 X127.297 Y60.145 E.01335
G1 X127.604 Y59.739 E.01597
G1 X127.902 Y59.461 E.01277
G1 X128.197 Y59.257 E.01125
G1 X128.584 Y59.08 E.01335
G1 X128.996 Y58.973 E.01335
G1 X129.386 Y58.941 E.01226
G1 X129.844 Y58.978 E.01441
G1 X130.255 Y59.091 E.01335
G1 X130.639 Y59.274 E.01335
G1 X130.986 Y59.52 E.01335
G1 X131.285 Y59.823 E.01335
G1 X131.527 Y60.174 E.01335
G1 X131.705 Y60.561 E.01335
G1 X131.812 Y60.973 E.01335
G1 X131.846 Y61.397 E.01335
G1 X131.806 Y61.821 E.01335
G1 X131.693 Y62.231 E.01335
G1 X131.511 Y62.616 E.01335
G1 X131.264 Y62.963 E.01335
G1 X130.986 Y63.238 E.01226
G1 X130.611 Y63.504 E.01441
G1 X130.224 Y63.681 E.01335
G1 X129.812 Y63.789 E.01335
G1 X129.429 Y63.819 E.01204
M204 S1000
G1 X129.166 Y64.166 F13200
;WIPE_START
G1 F10560
G1 X128.964 Y63.783 E-.08817
G1 X128.553 Y63.67 E-.08042
G1 X128.169 Y63.487 E-.08042
G1 X127.822 Y63.241 E-.08042
G1 X127.523 Y62.938 E-.08042
G1 X127.281 Y62.587 E-.08042
G1 X127.104 Y62.2 E-.08042
G1 X126.996 Y61.789 E-.08042
G1 X126.962 Y61.364 E-.08043
G1 X126.976 Y61.214 E-.02845
;WIPE_END
G1 E-.04 F2100
G1 Z.6 F900
G1 X129.321 Y101.839 F13200
G1 Z.2 F900
G1 E.8 F2100
M204 S800
;TYPE:Perimeter
G1 F300
G1 X128.92 Y101.814 E.0126
