; generated by PrusaSlicer 2.5.0+win64 on 2023-02-02 at 18:55:08 UTC


;
;
; 

; external perimeters extrusion width = 0.45mm
; perimeters extrusion width = 0.45mm
; infill extrusion width = 0.45mm
; solid infill extrusion width = 0.45mm
; top infill extrusion width = 0.40mm
; first layer extrusion width = 0.42mm

M73 P0 R11
M73 Q0 S11
M201 X1000 Y1000 Z200 E5000 ; sets maximum accelerations, mm/sec^2
M203 X200 Y200 Z12 E120 ; sets maximum feedrates, mm / sec
M204 P1250 R1250 T1250 ; sets acceleration (P, T) and retract acceleration (R), mm/sec^2
M205 X8.00 Y8.00 Z0.40 E4.50 ; sets the jerk limits, mm/sec
M205 S0 T0 ; sets the minimum extruding and travel feed rate, mm/sec
M107
;TYPE:Custom
M862.3 P "MK3S" ; printer model check
M862.1 P0.4 ; nozzle diameter check
M115 U3.11.0 ; tell printer latest fw version
G90 ; use absolute coordinates
M83 ; extruder relative mode
M104 S215 ; set extruder temp
M140 S60 ; set bed temp
M190 S60 ; wait for bed temp
M109 S215 ; wait for extruder temp
G28 W ; home all without mesh bed level
G80 ; mesh bed leveling

G1 Z0.2 F720
G1 Y-3 F1000 ; go outside print area
G92 E0
G1 X60 E9 F1000 ; intro line
G1 X100 E12.5 F1000 ; intro line

G92 E0
M221 S95

; Don't change E values below. Excessive value can damage the printer.

G21 ; set units to millimeters
G90 ; use absolute coordinates
M83 ; use relative distances for extrusion
M900 K0.05 ; Filament gcode LA 1.5
M900 K30 ; Filament gcode LA 1.0
M107
;LAYER_CHANGE
;Z:0.2
;HEIGHT:0.2
;BEFORE_LAYER_CHANGE
G92 E0.0
;0.2


G1 E-.8 F2100
G1 Z.4 F900
;AFTER_LAYER_CHANGE
;0.2
G1 X140.929 Y75.346 F13200
G1 Z.2 F900
M73 P1 R11
M73 Q1 S11
G1 E.8 F2100
M204 S800
;TYPE:Skirt/Brim
;WIDTH:0.42
G1 F600
G1 X141.851 Y74.14 E.0476
G1 X142.352 Y73.613 E.0228
G1 X143.703 Y72.572 E.05349
G1 X145.232 Y71.815 E.05349
G1 X146.88 Y71.37 E.05349
G1 X148.558 Y71.254 E.05276
G1 X149.832 Y71.368 E.0401
G1 X171.559 Y73.573 E.68472
G1 X173.275 Y74.053 E.05587
G1 X174.151 Y74.516 E.03108
G1 X175.14 Y75.295 E.03947
G1 X175.781 Y76.013 E.03017
G1 X176.441 Y77.084 E.03947
G1 X176.801 Y78.008 E.03108
G1 X177.034 Y79.209 E.03835
G1 X177.084 Y80.178 E.03043
G1 X176.801 Y81.901 E.05476
G1 X176.441 Y82.825 E.03108
G1 X175.78 Y83.896 E.03947
G1 X175.14 Y84.614 E.03017
G1 X174.151 Y85.393 E.03947
G1 X173.275 Y85.856 E.03108
G1 X171.559 Y86.336 E.05587
G1 X148.48 Y88.662 E.72727
G1 X146.35 Y88.434 E.06718
M73 P2 R11
M73 Q2 S11
G1 X144.734 Y87.888 E.05349
G1 X143.255 Y87.037 E.05349
G1 X142.352 Y86.296 E.03662
G1 X141.229 Y85.012 E.05349
G1 X140.378 Y83.533 E.05349
G1 X139.833 Y81.916 E.05349
G1 X139.613 Y80.225 E.05349
G1 X139.727 Y78.522 E.05349
G1 X140.172 Y76.875 E.05349
G1 X140.902 Y75.4 E.05161
M204 S1000
G1 X141.255 Y75.601 F13200
M204 S800
G1 F600
G1 X141.52 Y75.137 E.01678
G1 X142.591 Y73.904 E.05118
G1 X143.881 Y72.904 E.05118
G1 X145.342 Y72.175 E.05118
G1 X146.917 Y71.746 E.05118
G1 X148.525 Y71.629 E.05055
G1 X149.798 Y71.744 E.0401
G1 X171.521 Y73.948 E.68459
G1 X173.161 Y74.413 E.05347
G1 X173.918 Y74.813 E.02682
G1 X174.907 Y75.591 E.03947
G1 X175.46 Y76.211 E.02604
G1 X176.12 Y77.282 E.03947
G1 X176.431 Y78.079 E.02682
G1 X176.663 Y79.28 E.03835
G1 X176.706 Y80.178 E.02818
G1 X176.431 Y81.83 E.05251
G1 X176.12 Y82.627 E.02682
G1 X175.46 Y83.698 E.03947
G1 X174.907 Y84.318 E.02604
M73 Q3 S11
G1 X173.918 Y85.097 E.03947
M73 P3 R11
G1 X173.161 Y85.496 E.02682
G1 X171.521 Y85.961 E.05347
G1 X148.754 Y88.267 E.71748
G1 X146.917 Y88.164 E.05771
G1 X145.342 Y87.734 E.05118
G1 X143.881 Y87.005 E.05118
G1 X142.591 Y86.005 E.05118
G1 X141.52 Y84.773 E.05118
G1 X140.711 Y83.355 E.05118
G1 X140.194 Y81.807 E.05118
G1 X139.988 Y80.188 E.05118
G1 X140.194 Y78.102 E.0657
G1 X140.711 Y76.554 E.05118
G1 X141.225 Y75.653 E.03252
M204 S1000
; printing object Servo Arm.stl id:0 copy 0
;WIPE_START
G1 F10560
G1 X141.52 Y75.137 E-.11246
G1 X142.591 Y73.904 E-.30838
G1 X143.881 Y72.904 E-.30838
G1 X144.027 Y72.832 E-.03077
;WIPE_END
G1 E-.04 F2100
G1 Z.6 F900
G1 X148.318 Y85.122 F13200
G1 Z.2 F900
G1 E.8 F2100
M204 S800
;TYPE:Perimeter
;WIDTH:0.419999
G1 F600
G1 X147.304 Y85.022 E.03195
G1 X146.334 Y84.728 E.03176
G1 X145.441 Y84.251 E.03176
G1 X144.658 Y83.608 E.03176
G1 X144.016 Y82.825 E.03176
G1 X143.538 Y81.932 E.03176
G1 X143.244 Y80.963 E.03176
G1 X143.145 Y79.955 E.03176
G1 X143.244 Y78.947 E.03176
G1 X143.538 Y77.977 E.03176
G1 X144.016 Y77.084 E.03176
G1 X144.658 Y76.301 E.03176
G1 X145.441 Y75.658 E.03176
G1 X146.334 Y75.181 E.03176
G1 X147.304 Y74.887 E.03176
G1 X148.314 Y74.787 E.03184
G1 X149.485 Y74.893 E.03686
G1 X153.632 Y75.621 E.13201
G1 X155.382 Y75.903 E.0556
M73 P4 R11
M73 Q4 S11
G1 X157.437 Y76.192 E.06506
G1 X159.505 Y76.446 E.06531
G1 X161.272 Y76.626 E.0557
G1 X163.969 Y76.862 E.08488
G1 X171.147 Y77.096 E.22519
G1 X172.074 Y77.388 E.03045
G1 X172.84 Y77.991 E.03058
G1 X173.352 Y78.821 E.03058
G1 X173.542 Y79.91 E.03466
G1 X173.542 Y80.103 E.00604
G1 X173.352 Y81.088 E.03147
G1 X172.84 Y81.918 E.03058
G1 X172.074 Y82.521 E.03058
G1 X171.147 Y82.813 E.03045
G1 X163.929 Y83.049 E.22644
G1 X161.264 Y83.284 E.08388
G1 X159.516 Y83.462 E.05509
G1 X157.775 Y83.675 E.05501
G1 X155.383 Y84.006 E.07569
G1 X153.627 Y84.289 E.05578
G1 X149.481 Y85.017 E.132
G1 X148.378 Y85.117 E.03472
M204 S1000
G1 X148.316 Y85.501 F13200
M204 S800
;TYPE:External perimeter
G1 F360
G1 X147.23 Y85.394 E.03423
G1 X146.189 Y85.078 E.03409
G1 X145.231 Y84.566 E.03409
G1 X144.39 Y83.876 E.03409
G1 X143.701 Y83.036 E.03409
G1 X143.188 Y82.077 E.03409
G1 X142.872 Y81.037 E.03409
G1 X142.766 Y79.955 E.03409
G1 X142.872 Y78.873 E.03409
G1 X143.188 Y77.832 E.03409
G1 X143.701 Y76.873 E.03409
M73 P5 R11
M73 Q5 S11
G1 X144.39 Y76.033 E.03409
G1 X145.231 Y75.343 E.03409
M73 P5 R10
G1 X146.189 Y74.831 E.03409
G1 X147.23 Y74.515 E.03409
G1 X148.313 Y74.409 E.03411
G1 X149.535 Y74.518 E.03847
G1 X153.689 Y75.249 E.13225
G1 X155.435 Y75.53 E.05544
G1 X157.489 Y75.818 E.06506
G1 X159.551 Y76.071 E.06511
G1 X161.302 Y76.25 E.0552
G1 X163.982 Y76.485 E.08436
G1 X171.211 Y76.721 E.22677
G1 X172.253 Y77.049 E.03424
M73 Q5 S10
G1 X173.126 Y77.736 E.03484
G1 X173.709 Y78.682 E.03484
G1 X173.919 Y79.91 E.03907
G1 X173.919 Y80.139 E.00718
G1 X173.709 Y81.227 E.03477
G1 X173.126 Y82.173 E.03484
G1 X172.253 Y82.86 E.03484
G1 X171.211 Y83.188 E.03424
G1 X163.961 Y83.425 E.22746
G1 X161.306 Y83.658 E.08356
M73 P6 R10
M73 Q6 S10
G1 X159.554 Y83.837 E.0552
G1 X157.82 Y84.049 E.05478
G1 X155.435 Y84.379 E.0755
G1 X153.692 Y84.66 E.05537
G1 X149.53 Y85.392 E.13248
G1 X148.376 Y85.496 E.03634
M204 S1000
G1 X148.121 Y85.152 F13200
;WIPE_START
G1 F10560
G1 X147.23 Y85.394 E-.21741
G1 X146.189 Y85.078 E-.20539
G1 X145.231 Y84.566 E-.20539
G1 X144.691 Y84.123 E-.1318
;WIPE_END
G1 E-.04 F2100
G1 Z.6 F900
G1 X169.349 Y82.029 F13200
G1 Z.2 F900
G1 E.8 F2100
M204 S800
;TYPE:Perimeter
G1 F300
G1 X169.246 Y82.036 E.00325
G1 X168.841 Y81.986 E.0128
G1 X168.454 Y81.857 E.0128
G1 X168.099 Y81.655 E.0128
G1 X167.79 Y81.387 E.0128
G1 X167.54 Y81.065 E.0128
G1 X167.357 Y80.7 E.0128
G1 X167.249 Y80.306 E.0128
G1 X167.22 Y79.899 E.0128
G1 X167.271 Y79.494 E.0128
G1 X167.399 Y79.107 E.0128
G1 X167.601 Y78.752 E.0128
G1 X167.869 Y78.443 E.0128
G1 X168.191 Y78.193 E.0128
G1 X168.566 Y78.007 E.01311
G1 X168.979 Y77.899 E.01339
G1 X169.357 Y77.873 E.01188
G1 X169.762 Y77.924 E.0128
G1 X170.047 Y78.01 E.00934
G1 X170.504 Y78.255 E.01625
G1 X170.813 Y78.522 E.0128
G1 X171.063 Y78.844 E.0128
G1 X171.246 Y79.209 E.0128
G1 X171.354 Y79.603 E.0128
G1 X171.383 Y80.01 E.0128
G1 X171.332 Y80.415 E.0128
G1 X171.203 Y80.802 E.0128
G1 X170.982 Y81.181 E.01373
G1 X170.734 Y81.466 E.01185
G1 X170.412 Y81.716 E.0128
G1 X170.047 Y81.899 E.0128
G1 X169.653 Y82.007 E.0128
G1 X169.409 Y82.025 E.00767
M204 S1000
G1 X169.325 Y81.657 F13200
M204 S800
;TYPE:External perimeter
G1 F300
G1 X168.95 Y81.625 E.01178
G1 X168.631 Y81.524 E.01049
G1 X168.338 Y81.363 E.01049
G1 X168.082 Y81.148 E.01049
M73 Q7 S10
G1 X167.872 Y80.887 E.01049
M73 P7 R10
G1 X167.718 Y80.591 E.01049
G1 X167.624 Y80.269 E.01049
G1 X167.595 Y79.936 E.01049
G1 X167.631 Y79.604 E.01049
G1 X167.732 Y79.284 E.01049
G1 X167.893 Y78.991 E.01049
G1 X168.108 Y78.735 E.01049
G1 X168.369 Y78.525 E.01049
G1 X168.669 Y78.37 E.0106
G1 X169.016 Y78.274 E.01128
G1 X169.32 Y78.248 E.00957
G1 X169.652 Y78.285 E.01049
G1 X169.937 Y78.371 E.00934
G1 X170.35 Y78.616 E.01503
G1 X170.71 Y78.991 E.01632
G1 X170.885 Y79.319 E.01164
G1 X170.979 Y79.64 E.01049
G1 X171.008 Y79.973 E.01049
G1 X170.972 Y80.306 E.01049
G1 X170.871 Y80.625 E.01049
G1 X170.691 Y80.941 E.01142
G1 X170.35 Y81.294 E.01538
G1 X169.937 Y81.538 E.01503
G1 X169.616 Y81.632 E.01049
G1 X169.385 Y81.652 E.00729
M204 S1000
G1 X169.139 Y81.984 F13200
;WIPE_START
G1 F10560
G1 X168.95 Y81.625 E-.08218
G1 X168.631 Y81.524 E-.0632
G1 X168.338 Y81.363 E-.0632
G1 X168.082 Y81.148 E-.0632
G1 X167.872 Y80.887 E-.0632
G1 X167.718 Y80.591 E-.0632
G1 X167.624 Y80.269 E-.0632
G1 X167.595 Y79.936 E-.0632
G1 X167.631 Y79.604 E-.0632
G1 X167.732 Y79.284 E-.0632
G1 X167.893 Y78.991 E-.0632
G1 X168.049 Y78.805 E-.0458
;WIPE_END
G1 E-.04 F2100
G1 Z.6 F900
G1 X148.302 Y81.755 F13200
G1 Z.2 F900
G1 E.8 F2100
M204 S800
;TYPE:Perimeter
G1 F300
G1 X147.981 Y81.744 E.01006
G1 X147.595 Y81.626 E.01267
G1 X147.236 Y81.415 E.01306
G1 X146.853 Y81.042 E.01674
G1 X146.623 Y80.626 E.01492
G1 X146.507 Y80.136 E.01577
G1 X146.521 Y79.632 E.01582
G1 X146.701 Y79.122 E.01695
G1 X146.947 Y78.751 E.01397
G1 X147.29 Y78.45 E.0143
G1 X147.662 Y78.262 E.01307
G1 X148.193 Y78.139 E.01709
G1 X148.645 Y78.167 E.01422
G1 X149 Y78.272 E.0116
G1 X149.327 Y78.446 E.0116
G1 X149.611 Y78.682 E.0116
G1 X149.841 Y78.971 E.01159
G1 X150.009 Y79.301 E.01159
G1 X150.108 Y79.704 E.01302
G1 X150.092 Y80.329 E.01959
G1 X149.954 Y80.725 E.01316
G1 X149.595 Y81.243 E.01974
G1 X149.308 Y81.476 E.0116
G1 X148.884 Y81.669 E.01461
G1 X148.478 Y81.761 E.01303
G1 X148.362 Y81.757 E.00365
M204 S1000
G1 X148.311 Y81.388 F13200
M204 S800
;TYPE:External perimeter
G1 F300
G1 X148.049 Y81.373 E.00821
G1 X147.768 Y81.29 E.0092
G1 X147.497 Y81.142 E.00968
G1 X147.132 Y80.785 E.016
G1 X146.981 Y80.505 E.01
G1 X146.87 Y80.003 E.01609
G1 X146.896 Y79.689 E.00989
G1 X147.079 Y79.205 E.01621
G1 X147.258 Y78.969 E.0093
G1 X147.48 Y78.776 E.0092
G1 X147.751 Y78.628 E.00969
G1 X148.254 Y78.513 E.0162
G1 X148.74 Y78.581 E.01537
G1 X149.095 Y78.743 E.01223
G1 X149.324 Y78.927 E.0092
G1 X149.511 Y79.152 E.0092
G1 X149.648 Y79.412 E.0092
G1 X149.731 Y79.708 E.00963
G1 X149.728 Y80.228 E.0163
G1 X149.636 Y80.522 E.00968
G1 X149.348 Y80.958 E.01635
G1 X149.124 Y81.147 E.0092
G1 X148.801 Y81.302 E.01122
G1 X148.371 Y81.391 E.01379
M204 S1000
G1 X148.193 Y81.622 F13200
;WIPE_START
G1 F10560
G1 X148.049 Y81.373 E-.0608
G1 X147.768 Y81.29 E-.05546
G1 X147.497 Y81.142 E-.05832
G1 X147.132 Y80.785 E-.09642
G1 X146.981 Y80.505 E-.06027
G1 X146.87 Y80.003 E-.09698
G1 X146.896 Y79.689 E-.05961
G1 X147.079 Y79.205 E-.09764
G1 X147.258 Y78.969 E-.05605
G1 X147.48 Y78.776 E-.05545
G1 X147.751 Y78.628 E-.05837
G1 X147.774 Y78.623 E-.00463
;WIPE_END
G1 E-.04 F2100
G1 Z.6 F900
G1 X173.146 Y78.703 F13200
M73 Q8 S10
G1 Z.2 F900
M73 P8 R10
G1 E.8 F2100
M204 S800
;TYPE:Solid infill
;WIDTH:0.425325
G1 F960
G1 X172.625 Y78.182 E.02343
G1 X171.939 Y77.642 E.02775
G1 X171.363 Y77.46 E.01922
G1 X173.145 Y79.243 E.08016
G1 X173.26 Y79.898 E.02114
G1 X170.727 Y77.365 E.11389
G1 X170.168 Y77.347 E.01779
G1 X173.201 Y80.38 E.13638
G1 X173.113 Y80.833 E.01468
G1 X171.559 Y79.279 E.06988
G1 X171.493 Y79.057 E.00736
G1 X171.225 Y78.578 E.01747
G1 X170.919 Y78.229 E.01477
G1 X170.551 Y77.946 E.01474
G1 X170.135 Y77.741 E.01474
G1 X169.979 Y77.699 E.00512
G1 X169.433 Y77.153 E.02456
M204 S1000
G1 X169.519 Y77.78 F13200
M204 S800
G1 F960
G1 X169.05 Y77.311 E.02111
G1 X168.491 Y77.292 E.01779
G1 X168.839 Y77.64 E.01565
G1 X168.425 Y77.768 E.01376
G1 X167.932 Y77.274 E.0222
G1 X167.373 Y77.256 E.01779
G1 X168.066 Y77.95 E.0312
G1 X167.924 Y78.032 E.00523
G1 X167.756 Y78.18 E.00713
G1 X166.814 Y77.238 E.04236
G1 X166.255 Y77.219 E.01779
G1 X167.487 Y78.452 E.05544
G1 X167.262 Y78.768 E.01233
G1 X165.696 Y77.201 E.07045
G1 X165.136 Y77.183 E.01779
G1 X167.085 Y79.132 E.08763
G1 X166.971 Y79.558 E.01404
G1 X164.577 Y77.165 E.10762
G1 X164.018 Y77.146 E.01779
G1 X167.142 Y80.27 E.14047
M204 S1000
;WIPE_START
G1 F10560
G1 X164.298 Y77.426 E-.76
;WIPE_END
G1 E-.04 F2100
G1 Z.6 F900
G1 X171.479 Y79.739 F13200
G1 Z.2 F900
G1 E.8 F2100
M204 S800
G1 F960
G1 X172.946 Y81.207 E.066
G1 X172.74 Y81.542 E.0125
G1 X171.621 Y80.423 E.0503
G1 X171.492 Y80.834 E.01372
G1 X172.491 Y81.833 E.04491
G1 X172.188 Y82.071 E.01225
G1 X171.313 Y81.197 E.03933
G1 X171.08 Y81.504 E.01227
G1 X171.866 Y82.29 E.03537
G1 X171.455 Y82.42 E.01371
G1 X170.803 Y81.768 E.0293
G1 X170.679 Y81.877 E.00527
G1 X170.484 Y81.99 E.00715
G1 X171.029 Y82.534 E.02448
G1 X170.505 Y82.551 E.01666
G1 X170.116 Y82.162 E.01749
G1 X169.772 Y82.275 E.01151
G1 X169.696 Y82.283 E.00243
G1 X169.981 Y82.568 E.01282
G1 X169.457 Y82.585 E.01666
G1 X168.996 Y82.124 E.02073
M204 S1000
G1 X169.098 Y82.767 F13200
M204 S800
G1 F960
G1 X168.511 Y82.18 E.02641
G1 X168.052 Y81.963 E.01613
G1 X167.684 Y81.681 E.01474
G1 X167.379 Y81.332 E.01474
G1 X167.147 Y80.93 E.01474
G1 X167.088 Y80.757 E.00583
G1 X163.43 Y77.098 E.16451
G1 X162.837 Y77.047 E.01891
G1 X168.41 Y82.62 E.2506
G1 X167.886 Y82.637 E.01666
G1 X162.245 Y76.995 E.25369
G1 X161.652 Y76.943 E.01891
G1 X167.362 Y82.654 E.25678
G1 X166.839 Y82.671 E.01666
M73 Q9 S10
G1 X161.057 Y76.889 E.26001
G1 X160.454 Y76.827 E.01925
M73 P9 R10
G1 X166.315 Y82.688 E.26355
G1 X165.791 Y82.705 E.01666
G1 X159.852 Y76.766 E.26708
G1 X159.244 Y76.699 E.01944
G1 X165.268 Y82.722 E.27086
G1 X164.744 Y82.739 E.01666
G1 X158.628 Y76.623 E.27503
G1 X158.011 Y76.547 E.01975
G1 X164.22 Y82.756 E.2792
G1 X163.709 Y82.786 E.01628
G1 X157.394 Y76.471 E.28396
G1 X156.765 Y76.383 E.0202
G1 X163.212 Y82.829 E.28988
G1 X162.714 Y82.873 E.01587
G1 X156.136 Y76.295 E.2958
G1 X155.507 Y76.206 E.0202
G1 X162.217 Y82.916 E.30173
G1 X161.72 Y82.96 E.01587
G1 X154.867 Y76.107 E.30817
G1 X154.222 Y76.003 E.02076
G1 X161.223 Y83.004 E.31481
G1 X160.732 Y83.054 E.01568
M73 P10 R10
M73 Q10 S10
G1 X153.577 Y75.899 E.32173
G1 X152.921 Y75.784 E.02118
G1 X160.241 Y83.104 E.32917
G1 X159.751 Y83.154 E.01568
G1 X152.265 Y75.668 E.33661
G1 X151.609 Y75.553 E.02118
G1 X159.264 Y83.208 E.34423
G1 X158.782 Y83.267 E.01544
G1 X150.953 Y75.438 E.35206
G1 X150.297 Y75.322 E.02118
G1 X158.3 Y83.326 E.35989
G1 X157.818 Y83.385 E.01544
G1 X149.641 Y75.207 E.36772
G1 X149.448 Y75.173 E.00622
G1 X149.028 Y75.135 E.0134
G1 X157.342 Y83.449 E.37385
G1 X156.867 Y83.515 E.01525
G1 X148.434 Y75.082 E.37921
G1 X148.315 Y75.071 E.00378
G1 X147.921 Y75.11 E.01259
G1 X156.392 Y83.581 E.3809
G1 X155.917 Y83.646 E.01525
M73 P11 R10
M73 Q11 S10
G1 X147.429 Y75.159 E.38167
G1 X147.003 Y75.274 E.01403
G1 X155.442 Y83.712 E.37946
G1 X154.974 Y83.785 E.01505
G1 X146.588 Y75.399 E.37709
G1 X146.443 Y75.443 E.00482
G1 X146.214 Y75.566 E.00827
G1 X148.515 Y77.867 E.10348
G1 X148.165 Y77.856 E.01114
G1 X148.001 Y77.894 E.00535
G1 X145.861 Y75.754 E.09621
G1 X145.599 Y75.895 E.00946
G1 X145.523 Y75.957 E.00312
G1 X147.564 Y77.998 E.09177
G1 X147.398 Y78.061 E.00566
G1 X147.205 Y78.179 E.00719
G1 X145.226 Y76.201 E.08897
G1 X144.929 Y76.444 E.01222
G1 X146.897 Y78.413 E.08851
G1 X146.73 Y78.569 E.00728
G1 X146.64 Y78.696 E.00495
G1 X144.673 Y76.729 E.08844
G1 X144.429 Y77.026 E.01222
G1 X146.438 Y79.035 E.09034
G1 X146.29 Y79.427 E.01334
G1 X144.2 Y77.338 E.09395
G1 X144.012 Y77.691 E.01271
G1 X146.384 Y80.062 E.10666
M204 S1000
;WIPE_START
G1 F10560
G1 X144.012 Y77.691 E-.63369
G1 X144.2 Y77.338 E-.07549
G1 X144.391 Y77.528 E-.05081
;WIPE_END
G1 E-.04 F2100
G1 Z.6 F900
G1 X150.2 Y79.552 F13200
G1 Z.2 F900
G1 E.8 F2100
M204 S800
G1 F960
G1 X154.508 Y83.86 E.19375
G1 X154.042 Y83.935 E.015
G1 X150.382 Y80.275 E.16461
G1 X150.364 Y80.405 E.00418
G1 X150.271 Y80.705 E.00998
G1 X153.577 Y84.01 E.14865
G1 X153.117 Y84.091 E.01485
