; generated by PrusaSlicer 2.0.0+ on 2019-08-20 at 11:37:49

; 

; external perimeters extrusion width = 0.45mm
; perimeters extrusion width = 0.45mm
; infill extrusion width = 0.45mm
; solid infill extrusion width = 0.45mm
; top infill extrusion width = 0.40mm
; first layer extrusion width = 0.42mm

M73 P0 R41
M73 Q0 S41
M201 X1000 Y1000 Z1000 E5000 ; sets maximum accelerations, mm/sec^2
M203 X200 Y200 Z12 E120 ; sets maximum feedrates, mm/sec
M204 P1250 R1250 T1250 ; sets acceleration (P, T) and retract acceleration (R), mm/sec^2
M205 X8.00 Y8.00 Z0.40 E1.50 ; sets the jerk limits, mm/sec
M205 S0 T0 ; sets the minimum extruding and travel feed rate, mm/sec
M107
M115 U3.7.2 ; tell printer latest fw version
G90 ; use absolute coordinates
M83 ; extruder relative mode
M104 S215 ; set extruder temp
M140 S60 ; set bed temp
M190 S60 ; wait for bed temp
M109 S215 ; wait for extruder temp
G28 W ; home all without mesh bed level
G80 ; mesh bed leveling
G1 Y-3.0 F1000.0 ; go outside print area
G92 E0.0
G1 X60.0 E9.0 F1000.0 ; intro line
M73 Q0 S41
M73 P0 R41
G1 X100.0 E12.5 F1000.0 ; intro line
G92 E0.0
M221 S95
M900 K30 ; Filament gcode
G21 ; set units to millimeters
G90 ; use absolute coordinates
M83 ; use relative distances for extrusion
;BEFORE_LAYER_CHANGE
G92 E0.0
;0.2


G1 E-0.80000 F2100.00000
G1 Z0.600 F10800.000
;AFTER_LAYER_CHANGE
;0.2
G1 X104.951 Y84.950
G1 Z0.200
G1 E0.80000 F2100.00000
M204 S1000
G1 F1200
G1 X109.248 Y81.424 E0.17428
G1 X114.150 Y78.804 E0.17428
G1 X119.469 Y77.190 E0.17428
G1 X125.004 Y76.645 E0.17440
G1 X130.532 Y77.190 E0.17417
G1 X135.852 Y78.804 E0.17428
G1 X140.754 Y81.424 E0.17428
G1 X145.050 Y84.951 E0.17428
G1 X148.576 Y89.248 E0.17428
G1 X151.196 Y94.150 E0.17428
G1 X152.810 Y99.469 E0.17428
G1 X153.355 Y105.001 E0.17428
G1 X152.810 Y110.532 E0.17428
G1 X151.196 Y115.852 E0.17428
G1 X148.576 Y120.754 E0.17428
G1 X145.049 Y125.050 E0.17428
G1 X140.752 Y128.576 E0.17428
G1 X135.850 Y131.196 E0.17428
G1 X130.531 Y132.810 E0.17428
G1 X124.999 Y133.355 E0.17428
G1 X119.468 Y132.810 E0.17428
G1 X114.149 Y131.196 E0.17428
G1 X109.246 Y128.576 E0.17428
G1 X104.950 Y125.049 E0.17428
G1 X101.424 Y120.752 E0.17428
G1 X98.804 Y115.850 E0.17428
G1 X97.190 Y110.531 E0.17428
G1 X96.645 Y104.999 E0.17428
G1 X97.190 Y99.468 E0.17428
G1 X98.804 Y94.148 E0.17428
G1 X101.424 Y89.246 E0.17428
G1 X104.913 Y84.996 E0.17240
G1 F8640
G1 X107.453 Y82.903 E-0.76000
G1 E-0.04000 F2100.00000
G1 Z0.800 F10800.000
G1 X132.786 Y118.576
G1 Z0.200
G1 E0.80000 F2100.00000
G1 F1200
G1 X134.885 Y118.576 E0.06582
G1 X145.606 Y108.498 E0.46134
G1 X146.436 Y109.013 E0.03064
G1 X145.125 Y113.336 E0.14164
G1 X143.112 Y117.102 E0.13389
G1 X140.403 Y120.403 E0.13389
G1 X137.102 Y123.112 E0.13389
G1 X133.388 Y125.097 E0.13204
G1 X127.842 Y126.795 E0.18186
G1 X132.755 Y118.627 E0.29886
G1 X132.999 Y118.953 F10800.000
G1 F1200
G1 X135.035 Y118.953 E0.06382
G1 X145.653 Y108.971 E0.45695
G1 X145.991 Y109.181 E0.01247
G1 X144.775 Y113.191 E0.13139
G1 X142.797 Y116.891 E0.13156
G1 X140.135 Y120.135 E0.13156
G1 X136.891 Y122.797 E0.13156
G1 X133.242 Y124.747 E0.12973
G1 X128.672 Y126.147 E0.14987
G1 X132.968 Y119.005 E0.26133
G1 X132.994 Y118.553 F10800.000
G1 F8640
G1 X135.035 Y118.953 E-0.47730
G1 X135.927 Y118.115 E-0.28270
G1 E-0.04000 F2100.00000
G1 Z0.800 F10800.000
G1 X128.420 Y83.384
G1 Z0.200
G1 E0.80000 F2100.00000
G1 F1200
G1 X133.336 Y84.875 E0.16106
G1 X137.102 Y86.888 E0.13389
G1 X140.403 Y89.597 E0.13389
G1 X143.112 Y92.898 E0.13389
G1 X145.125 Y96.664 E0.13389
G1 X146.449 Y101.031 E0.14309
G1 X135.361 Y112.145 E0.49223
G1 X132.610 Y112.145 E0.08627
G1 X128.429 Y83.444 E0.90941
G1 X128.879 Y83.917 F10800.000
G1 F1200
G1 X133.191 Y85.225 E0.14128
G1 X136.891 Y87.203 E0.13156
G1 X140.135 Y89.865 E0.13156
G1 X142.797 Y93.109 E0.13156
G1 X144.775 Y96.809 E0.13156
G1 X146.023 Y100.925 E0.13485
G1 X135.205 Y111.768 E0.48025
G1 X132.936 Y111.768 E0.07114
G1 X128.888 Y83.977 E0.88057
G1 X128.928 Y83.520 F10800.000
G1 F8640
G1 X132.049 Y84.894 E-0.76000
G1 E-0.04000 F2100.00000
G1 Z0.800 F10800.000
G1 X121.577 Y83.385
G1 Z0.200
G1 E0.80000 F2100.00000
G1 F1200
G1 X117.477 Y112.145 E0.91086
G1 X114.726 Y112.145 E0.08627
G1 X103.550 Y101.033 E0.49414
G1 X104.875 Y96.664 E0.14314
G1 X106.888 Y92.898 E0.13389
G1 X109.597 Y89.597 E0.13389
G1 X112.853 Y86.926 E0.13204
G1 X116.663 Y84.876 E0.13568
G1 X121.519 Y83.403 E0.15911
G1 X121.120 Y83.918 F10800.000
G1 F1200
G1 X117.150 Y111.768 E0.88205
G1 X114.881 Y111.768 E0.07114
G1 X103.977 Y100.925 E0.48215
G1 X105.225 Y96.809 E0.13487
G1 X107.203 Y93.109 E0.13156
G1 X109.865 Y89.865 E0.13156
G1 X113.064 Y87.240 E0.12973
G1 X116.809 Y85.226 E0.13335
G1 X121.062 Y83.935 E0.13937
G1 X121.520 Y83.903 F10800.000
G1 F8640
G1 X120.604 Y87.195 E-0.76000
G1 E-0.04000 F2100.00000
G1 Z0.800 F10800.000
G1 X104.391 Y108.497
G1 Z0.200
G1 E0.80000 F2100.00000
G1 F1200
G1 X115.199 Y118.576 E0.46336
G1 X117.304 Y118.576 E0.06598
G1 X121.485 Y125.681 E0.25848
G1 X121.288 Y126.672 E0.03169
G1 X116.611 Y125.253 E0.15324
G1 X112.301 Y122.949 E0.15324
G1 X112.442 Y122.737 E0.00799
G1 X109.597 Y120.403 E0.11539
G1 X106.888 Y117.102 E0.13389
G1 X104.875 Y113.336 E0.13389
G1 X103.564 Y109.013 E0.14165
G1 X104.340 Y108.529 E0.02869
G1 X104.346 Y108.970 F10800.000
G1 F1200
G1 X115.051 Y118.953 E0.45896
G1 X117.088 Y118.953 E0.06388
G1 X121.087 Y125.748 E0.24721
G1 X120.999 Y126.190 E0.01414
G1 X116.756 Y124.903 E0.13903
G1 X112.845 Y122.813 E0.13903
G1 X112.946 Y122.663 E0.00566
G1 X109.865 Y120.135 E0.12494
G1 X107.203 Y116.891 E0.13156
G1 X105.225 Y113.191 E0.13156
G1 X104.009 Y109.180 E0.13143
G1 X104.295 Y109.001 E0.01057
G1 X104.513 Y108.606 F10800.000
G1 F8640
G1 X106.711 Y111.237 E-0.76000
G1 E-0.04000 F2100.00000
G1 Z0.800 F10800.000
G1 X99.915 Y109.990
G1 Z0.200
G1 E0.80000 F2100.00000
G1 F1200
G1 X99.424 Y105.000 E0.15720
G1 X99.915 Y100.010 E0.15720
G1 X101.371 Y95.212 E0.15720
G1 X103.734 Y90.791 E0.15720
G1 X106.915 Y86.915 E0.15720
G1 X110.791 Y83.734 E0.15720
G1 X115.212 Y81.371 E0.15720
G1 X120.010 Y79.915 E0.15720
G1 X125.000 Y79.424 E0.15720
G1 X129.990 Y79.915 E0.15720
G1 X134.788 Y81.371 E0.15720
G1 X139.209 Y83.734 E0.15720
G1 X143.085 Y86.915 E0.15720
G1 X146.266 Y90.791 E0.15720
G1 X148.629 Y95.212 E0.15720
G1 X150.085 Y100.010 E0.15720
G1 X150.576 Y105.000 E0.15720
G1 X150.085 Y109.990 E0.15720
G1 X148.629 Y114.788 E0.15720
G1 X146.266 Y119.209 E0.15720
G1 X143.085 Y123.085 E0.15720
G1 X139.209 Y126.266 E0.15720
G1 X134.788 Y128.629 E0.15720
G1 X129.990 Y130.085 E0.15720
G1 X125.000 Y130.576 E0.15720
G1 X120.010 Y130.085 E0.15720
G1 X115.212 Y128.629 E0.15720
G1 X110.791 Y126.266 E0.15720
G1 X106.915 Y123.085 E0.15720
G1 X103.734 Y119.209 E0.15720
G1 X101.371 Y114.788 E0.15720
G1 X99.933 Y110.047 E0.15532
G1 X99.572 Y110.157 F10800.000
G1 F1200
G1 X99.544 Y110.064 E0.00305
G1 X99.045 Y105.000 E0.15953
G1 X99.544 Y99.936 E0.15953
G1 X101.021 Y95.067 E0.15953
G1 X103.419 Y90.580 E0.15953
G1 X106.647 Y86.647 E0.15953
G1 X110.580 Y83.419 E0.15953
G1 X115.067 Y81.021 E0.15953
G1 X119.936 Y79.544 E0.15953
G1 X125.000 Y79.045 E0.15953
G1 X130.064 Y79.544 E0.15953
G1 X134.933 Y81.021 E0.15953
G1 X139.420 Y83.419 E0.15953
G1 X143.353 Y86.647 E0.15953
G1 X146.581 Y90.580 E0.15953
G1 X148.979 Y95.067 E0.15953
G1 X150.456 Y99.936 E0.15953
G1 X150.955 Y105.000 E0.15953
G1 X150.456 Y110.064 E0.15953
G1 X148.979 Y114.933 E0.15953
G1 X146.581 Y119.420 E0.15953
G1 X143.353 Y123.353 E0.15953
G1 X139.420 Y126.581 E0.15953
G1 X134.933 Y128.979 E0.15953
G1 X130.064 Y130.456 E0.15953
G1 X125.000 Y130.955 E0.15953
G1 X119.936 Y130.456 E0.15953
G1 X115.067 Y128.979 E0.15953
G1 X110.580 Y126.581 E0.15953
G1 X106.647 Y123.353 E0.15953
G1 X103.419 Y119.420 E0.15953
G1 X101.021 Y114.933 E0.15953
G1 X99.589 Y110.214 E0.15461
G1 X99.636 Y110.083 F10800.000
G1 F8640
G1 X99.544 Y110.064 E-0.03628
G1 X99.237 Y106.944 E-0.72372
G1 E-0.04000 F2100.00000
G1 Z0.800 F10800.000
G1 X101.402 Y114.502
G1 Z0.200
G1 E0.80000 F2100.00000
G1 F1200
G1 X115.205 Y128.304 E0.61270
G1 X115.321 Y128.367 E0.00415
G1 X116.010 Y128.576 E0.02258
G1 X101.424 Y113.990 E0.64745
G1 X101.192 Y113.224 E0.02514
G1 X116.776 Y128.808 E0.69179
M73 Q2 S40
M73 P2 R40
G1 X117.542 Y129.040 E0.02514
G1 X100.960 Y112.458 E0.73613
G1 X100.727 Y111.691 E0.02514
G1 X108.284 Y119.248 E0.33547
G1 F8640
G1 X105.957 Y116.921 E-0.76000
G1 E-0.04000 F2100.00000
G1 Z0.800 F10800.000
G1 X107.065 Y117.495
G1 Z0.200
G1 E0.80000 F2100.00000
G1 F1200
G1 X100.495 Y110.925 E0.29166
G1 X100.262 Y110.159 E0.02514
G1 X106.249 Y116.145 E0.26576
G1 F8640
G1 X103.921 Y113.818 E-0.76000
G1 E-0.04000 F2100.00000
G1 Z0.800 F10800.000
G1 X105.636 Y114.998
G1 Z0.200
G1 E0.80000 F2100.00000
G1 F1200
G1 X100.153 Y109.515 E0.24340
G1 X100.094 Y108.923 E0.01868
G1 X104.612 Y113.440 E0.20052
G1 X104.379 Y112.674 E0.02514
G1 X100.036 Y108.331 E0.19279
G1 X99.978 Y107.739 E0.01868
G1 X104.147 Y111.908 E0.18506
G1 X103.914 Y111.141 E0.02514
G1 X99.920 Y107.147 E0.17733
G1 X99.861 Y106.555 E0.01868
G1 X103.682 Y110.375 E0.16960
G1 X103.449 Y109.609 E0.02514
G1 X99.803 Y105.962 E0.16187
G1 X99.745 Y105.370 E0.01868
G1 X103.250 Y108.875 E0.15560
G1 X103.579 Y108.670 E0.01216
G1 X99.726 Y104.818 E0.17102
G1 X99.774 Y104.332 E0.01533
G1 X103.907 Y108.465 E0.18349
G1 X104.236 Y108.260 E0.01216
G1 X99.822 Y103.846 E0.19597
G1 X99.870 Y103.360 E0.01533
G1 X111.225 Y114.715 E0.50408
G1 F8640
G1 X108.898 Y112.388 E-0.76000
G1 E-0.04000 F2100.00000
G1 Z0.800 F10800.000
G1 X114.810 Y112.428
G1 Z0.200
G1 E0.80000 F2100.00000
G1 F1200
G1 X128.138 Y125.755 E0.59162
G1 X128.338 Y125.422 E0.01221
G1 X115.344 Y112.428 E0.57683
G1 X115.878 Y112.428 E0.01676
G1 X128.539 Y125.089 E0.56203
G1 X128.739 Y124.755 E0.01221
G1 X116.412 Y112.428 E0.54723
G1 X116.946 Y112.428 E0.01676
G1 X128.940 Y124.422 E0.53243
G1 X129.140 Y124.088 E0.01221
G1 X117.479 Y112.428 E0.51763
G1 X117.723 Y112.428 E0.00763
G1 X117.759 Y112.173 E0.00807
G1 X129.341 Y123.755 E0.51413
G1 X129.541 Y123.422 E0.01221
G1 X117.825 Y111.706 E0.52008
G1 X117.892 Y111.239 E0.01482
G1 X129.742 Y123.088 E0.52602
G1 X129.942 Y122.755 E0.01221
G1 X117.959 Y110.771 E0.53197
G1 X118.025 Y110.304 E0.01482
G1 X130.143 Y122.422 E0.53791
G1 X130.343 Y122.088 E0.01221
G1 X118.092 Y109.837 E0.54386
G1 X118.158 Y109.370 E0.01482
G1 X130.544 Y121.755 E0.54980
G1 X130.744 Y121.422 E0.01221
G1 X118.225 Y108.902 E0.55574
G1 X118.292 Y108.435 E0.01482
G1 X130.945 Y121.088 E0.56169
G1 X131.145 Y120.755 E0.01221
G1 X118.358 Y107.968 E0.56763
G1 X118.425 Y107.501 E0.01482
G1 X131.346 Y120.422 E0.57358
G1 X131.546 Y120.088 E0.01221
G1 X118.491 Y107.033 E0.57952
G1 X118.558 Y106.566 E0.01482
G1 X131.747 Y119.755 E0.58547
G1 X131.947 Y119.421 E0.01221
G1 X118.625 Y106.099 E0.59141
G1 X118.691 Y105.632 E0.01482
G1 X132.148 Y119.088 E0.59735
G1 X132.348 Y118.755 E0.01221
G1 X118.758 Y105.164 E0.60330
G1 X118.825 Y104.697 E0.01482
G1 X132.549 Y118.421 E0.60924
G1 X132.626 Y118.293 E0.00470
G1 X132.955 Y118.293 E0.01031
G1 X118.891 Y104.230 E0.62430
G1 X118.958 Y103.763 E0.01482
G1 X133.488 Y118.293 E0.64504
G1 X134.022 Y118.293 E0.01676
G1 X119.024 Y103.295 E0.66578
G1 X119.091 Y102.828 E0.01482
G1 X134.556 Y118.293 E0.68652
G1 X134.773 Y118.293 E0.00681
G1 X134.937 Y118.140 E0.00704
G1 X119.158 Y102.361 E0.70045
G1 X119.224 Y101.893 E0.01482
G1 X135.212 Y117.881 E0.70971
G1 X135.487 Y117.622 E0.01186
G1 X119.291 Y101.426 E0.71897
G1 X119.357 Y100.959 E0.01482
G1 X135.762 Y117.364 E0.72823
G1 X136.037 Y117.105 E0.01186
G1 X119.424 Y100.492 E0.73748
G1 X119.491 Y100.024 E0.01482
G1 X136.312 Y116.846 E0.74674
G1 X136.588 Y116.588 E0.01186
G1 X119.407 Y99.407 E0.76266
G1 F8640
G1 X121.735 Y101.735 E-0.76000
G1 E-0.04000 F2100.00000
G1 Z0.800 F10800.000
G1 X103.292 Y100.910
G1 Z0.200
G1 E0.80000 F2100.00000
G1 F1200
G1 X100.719 Y98.336 E0.11423
G1 X100.843 Y97.927 E0.01344
G1 X103.416 Y100.500 E0.11423
G1 X103.541 Y100.090 E0.01344
G1 X100.967 Y97.517 E0.11423
G1 X101.091 Y97.107 E0.01344
G1 X103.665 Y99.681 E0.11423
G1 X103.789 Y99.271 E0.01344
G1 X101.216 Y96.698 E0.11423
G1 X101.340 Y96.288 E0.01344
G1 X103.913 Y98.862 E0.11423
G1 X104.038 Y98.452 E0.01344
G1 X101.464 Y95.879 E0.11423
G1 X101.588 Y95.469 E0.01344
G1 X104.162 Y98.042 E0.11423
G1 X104.286 Y97.633 E0.01344
G1 X101.752 Y95.099 E0.11248
G1 X101.938 Y94.751 E0.01238
G1 X104.410 Y97.223 E0.10974
G1 X104.535 Y96.813 E0.01344
G1 X102.124 Y94.403 E0.10700
G1 X102.310 Y94.055 E0.01238
G1 X104.682 Y96.427 E0.10528
G1 X104.868 Y96.079 E0.01238
G1 X102.496 Y93.707 E0.10528
G1 X102.682 Y93.359 E0.01238
G1 X105.054 Y95.731 E0.10528
G1 X105.240 Y95.383 E0.01238
G1 X102.868 Y93.011 E0.10528
G1 X103.054 Y92.663 E0.01238
G1 X105.425 Y95.035 E0.10528
G1 X105.611 Y94.687 E0.01238
G1 X103.240 Y92.316 E0.10528
G1 X103.426 Y91.968 E0.01238
G1 X105.797 Y94.339 E0.10528
G1 X105.983 Y93.991 E0.01238
G1 X103.612 Y91.620 E0.10528
G1 X103.798 Y91.272 E0.01238
G1 X106.169 Y93.643 E0.10528
G1 X106.355 Y93.296 E0.01238
G1 X103.988 Y90.928 E0.10511
G1 X104.228 Y90.635 E0.01191
G1 X106.541 Y92.948 E0.10268
G1 X106.652 Y92.740 E0.00738
G1 X106.749 Y92.622 E0.00481
G1 X104.469 Y90.341 E0.10123
G1 X104.709 Y90.048 E0.01191
G1 X106.990 Y92.329 E0.10123
G1 X107.231 Y92.035 E0.01191
G1 X104.950 Y89.755 E0.10123
G1 X105.191 Y89.462 E0.01191
G1 X107.471 Y91.742 E0.10123
G1 X107.712 Y91.449 E0.01191
G1 X105.431 Y89.168 E0.10123
G1 X105.672 Y88.875 E0.01191
G1 X107.952 Y91.156 E0.10123
G1 X108.193 Y90.862 E0.01191
G1 X105.913 Y88.582 E0.10123
G1 X106.153 Y88.289 E0.01191
G1 X108.434 Y90.569 E0.10123
G1 X108.674 Y90.276 E0.01191
G1 X106.394 Y87.996 E0.10123
G1 X106.635 Y87.702 E0.01191
G1 X108.915 Y89.983 E0.10123
G1 X109.156 Y89.690 E0.01191
G1 X106.875 Y87.409 E0.10123
G1 X107.116 Y87.116 E0.01191
G1 X109.396 Y89.396 E0.10123
G1 X109.690 Y89.156 E0.01191
G1 X107.409 Y86.875 E0.10123
G1 X107.702 Y86.635 E0.01191
G1 X109.983 Y88.915 E0.10123
G1 X110.276 Y88.674 E0.01191
G1 X107.996 Y86.394 E0.10123
G1 X108.289 Y86.153 E0.01191
G1 X110.569 Y88.434 E0.10123
G1 X110.862 Y88.193 E0.01191
G1 X108.582 Y85.913 E0.10123
G1 X108.875 Y85.672 E0.01191
G1 X111.156 Y87.952 E0.10123
G1 X111.449 Y87.712 E0.01191
G1 X109.168 Y85.431 E0.10123
G1 X109.462 Y85.191 E0.01191
G1 X111.742 Y87.471 E0.10123
G1 X112.035 Y87.231 E0.01191
G1 X109.755 Y84.950 E0.10123
G1 X110.048 Y84.709 E0.01191
G1 X112.329 Y86.990 E0.10123
G1 X112.622 Y86.749 E0.01191
G1 X110.341 Y84.469 E0.10123
G1 X110.635 Y84.228 E0.01191
G1 X112.956 Y86.549 E0.10303
G1 X113.303 Y86.362 E0.01237
G1 X110.928 Y83.988 E0.10542
G1 X110.949 Y83.971 E0.00084
G1 X111.272 Y83.798 E0.01151
G1 X113.650 Y86.176 E0.10556
G1 X113.997 Y85.989 E0.01237
G1 X111.620 Y83.612 E0.10553
G1 X111.968 Y83.426 E0.01238
G1 X114.344 Y85.802 E0.10549
G1 X114.691 Y85.615 E0.01237
G1 X112.316 Y83.240 E0.10546
G1 X112.663 Y83.054 E0.01238
G1 X115.038 Y85.429 E0.10542
G1 X115.385 Y85.242 E0.01237
G1 X113.011 Y82.868 E0.10539
G1 X113.359 Y82.682 E0.01238
G1 X115.733 Y85.055 E0.10535
G1 X116.080 Y84.868 E0.01237
G1 X113.707 Y82.496 E0.10532
G1 X114.055 Y82.310 E0.01238
G1 X116.427 Y84.682 E0.10528
G1 X116.554 Y84.613 E0.00454
G1 X116.813 Y84.535 E0.00850
G1 X114.403 Y82.124 E0.10700
G1 X114.751 Y81.938 E0.01238
G1 X117.223 Y84.410 E0.10974
G1 X117.633 Y84.286 E0.01344
G1 X115.099 Y81.752 E0.11248
G1 X115.321 Y81.633 E0.00791
G1 X115.469 Y81.588 E0.00485
G1 X118.042 Y84.162 E0.11423
G1 X118.452 Y84.038 E0.01344
G1 X115.879 Y81.464 E0.11423
G1 X116.288 Y81.340 E0.01344
G1 X118.862 Y83.913 E0.11423
G1 X119.271 Y83.789 E0.01344
G1 X116.698 Y81.216 E0.11423
G1 X117.107 Y81.091 E0.01344
G1 X119.681 Y83.665 E0.11423
G1 X120.090 Y83.541 E0.01344
G1 X117.517 Y80.967 E0.11423
G1 X117.927 Y80.843 E0.01344
G1 X120.500 Y83.416 E0.11423
G1 X120.910 Y83.292 E0.01344
G1 X118.336 Y80.719 E0.11423
G1 X118.746 Y80.594 E0.01344
G1 X121.455 Y83.304 E0.12027
G1 F8640
G1 X119.128 Y80.976 E-0.76000
G1 E-0.04000 F2100.00000
G1 Z0.800 F10800.000
G1 X133.852 Y85.023
G1 Z0.200
G1 E0.80000 F2100.00000
G1 F1200
G1 X128.923 Y80.094 E0.21877
