; generated by PrusaSlicer 2.3.1+win64 on 2021-12-01 at 22:19:39 UTC

; 

; external perimeters extrusion width = 0.45mm
; perimeters extrusion width = 0.45mm
; infill extrusion width = 0.45mm
; solid infill extrusion width = 0.45mm
; top infill extrusion width = 0.40mm
; support material extrusion width = 0.35mm
; first layer extrusion width = 0.42mm

M73 P0 R63
M73 Q0 S64
M201 X1000 Y1000 Z1000 E5000 ; sets maximum accelerations, mm/sec^2
M203 X200 Y200 Z12 E120 ; sets maximum feedrates, mm/sec
M204 P1250 R1250 T1250 ; sets acceleration (P, T) and retract acceleration (R), mm/sec^2
M205 X8.00 Y8.00 Z0.40 E1.50 ; sets the jerk limits, mm/sec
M205 S0 T0 ; sets the minimum extruding and travel feed rate, mm/sec
M107
;TYPE:Custom
M862.3 P "MK3S" ; printer model check
M862.1 P0.4 ; nozzle diameter check
M115 U3.8.0 ; tell printer latest fw version
G90 ; use absolute coordinates
M83 ; extruder relative mode
M104 S215 ; set extruder temp
M140 S60 ; set bed temp
M190 S60 ; wait for bed temp
M109 S215 ; wait for extruder temp
G28 W ; home all without mesh bed level
G80 ; mesh bed leveling
G1 Y-3.0 F1000.0 ; go outside print area
G92 E0.0
G1 X60.0 E9.0 F1000.0 ; intro line
G1 X100.0 E12.5 F1000.0 ; intro line
G92 E0.0
M221 S95
G21 ; set units to millimeters
G90 ; use absolute coordinates
M83 ; use relative distances for extrusion
M900 K0.05 ; Filament gcode LA 1.5
M900 K30 ; Filament gcode LA 1.0
;LAYER_CHANGE
;Z:0.2
;HEIGHT:0.2
;BEFORE_LAYER_CHANGE
G92 E0.0
;0.2


G1 E-0.80000 F2100.000
G1 Z0.600 F10800.000
;AFTER_LAYER_CHANGE
;0.2
G1 X116.079 Y84.935
G1 Z0.200
G1 E0.80000 F2100.000
M204 S1000
;TYPE:Perimeter
;WIDTH:0.42
G1 F1200.000
G1 X116.845 Y84.607 E0.02612
G1 X117.856 Y84.231 E0.03380
G1 X118.883 Y83.906 E0.03380
G1 X119.926 Y83.631 E0.03380
G1 X120.980 Y83.408 E0.03380
G1 X122.045 Y83.237 E0.03380
G1 X123.116 Y83.118 E0.03380
G1 X124.192 Y83.052 E0.03381
G1 X125.158 Y83.039 E0.03028
G1 X126.348 Y83.078 E0.03733
G1 X127.421 Y83.171 E0.03377
G1 X128.489 Y83.316 E0.03380
G1 X129.549 Y83.513 E0.03380
G1 X130.598 Y83.762 E0.03380
G1 X131.633 Y84.063 E0.03380
G1 X132.653 Y84.413 E0.03380
G1 X133.654 Y84.814 E0.03380
G1 X134.634 Y85.263 E0.03380
G1 X135.590 Y85.759 E0.03380
G1 X136.522 Y86.302 E0.03380
G1 X137.425 Y86.890 E0.03380
G1 X138.299 Y87.521 E0.03380
G1 X139.141 Y88.195 E0.03380
G1 X139.948 Y88.909 E0.03380
G1 X140.720 Y89.662 E0.03380
G1 X141.454 Y90.452 E0.03380
G1 X142.148 Y91.276 E0.03380
G1 X142.800 Y92.134 E0.03380
G1 X143.410 Y93.023 E0.03380
G1 X143.976 Y93.941 E0.03380
G1 X144.495 Y94.885 E0.03380
G1 X144.968 Y95.854 E0.03380
G1 X145.393 Y96.845 E0.03380
G1 X145.769 Y97.856 E0.03380
G1 X146.094 Y98.883 E0.03380
G1 X146.369 Y99.926 E0.03380
G1 X146.592 Y100.980 E0.03380
G1 X146.763 Y102.045 E0.03380
G1 X146.882 Y103.116 E0.03380
G1 X146.948 Y104.192 E0.03380
G1 X146.961 Y105.270 E0.03380
G1 X146.922 Y106.347 E0.03380
G1 X146.829 Y107.421 E0.03380
G1 X146.684 Y108.489 E0.03380
G1 X146.487 Y109.549 E0.03380
G1 X146.238 Y110.598 E0.03380
G1 X145.937 Y111.633 E0.03380
G1 X145.587 Y112.653 E0.03380
G1 X145.186 Y113.654 E0.03380
G1 X144.737 Y114.634 E0.03380
G1 X144.241 Y115.590 E0.03380
G1 X143.698 Y116.522 E0.03380
G1 X143.110 Y117.425 E0.03380
G1 X142.479 Y118.299 E0.03380
G1 X141.805 Y119.141 E0.03380
G1 X141.091 Y119.948 E0.03380
G1 X140.338 Y120.720 E0.03380
G1 X139.548 Y121.454 E0.03380
G1 X138.724 Y122.148 E0.03380
G1 X137.866 Y122.800 E0.03380
G1 X136.977 Y123.410 E0.03380
G1 X136.059 Y123.976 E0.03380
G1 X135.115 Y124.495 E0.03380
G1 X134.146 Y124.968 E0.03380
G1 X133.155 Y125.393 E0.03380
G1 X132.144 Y125.769 E0.03380
G1 X131.117 Y126.094 E0.03380
G1 X130.074 Y126.369 E0.03380
G1 X129.020 Y126.592 E0.03380
G1 X127.955 Y126.763 E0.03380
G1 X126.884 Y126.882 E0.03380
G1 X125.808 Y126.948 E0.03380
G1 X124.730 Y126.961 E0.03380
G1 X123.653 Y126.922 E0.03380
G1 X122.579 Y126.829 E0.03380
G1 X121.511 Y126.684 E0.03380
G1 X120.451 Y126.487 E0.03380
G1 X119.402 Y126.238 E0.03380
G1 X118.367 Y125.937 E0.03380
G1 X117.347 Y125.587 E0.03380
G1 X116.346 Y125.186 E0.03380
G1 X115.366 Y124.737 E0.03380
G1 X114.410 Y124.241 E0.03380
G1 X113.478 Y123.698 E0.03380
G1 X112.575 Y123.110 E0.03380
G1 X111.701 Y122.479 E0.03380
G1 X110.859 Y121.805 E0.03380
G1 X110.052 Y121.091 E0.03380
G1 X109.280 Y120.338 E0.03380
G1 X108.546 Y119.548 E0.03380
G1 X107.852 Y118.724 E0.03380
G1 X107.200 Y117.866 E0.03380
G1 X106.590 Y116.977 E0.03380
G1 X106.024 Y116.059 E0.03380
G1 X105.505 Y115.115 E0.03380
G1 X105.032 Y114.146 E0.03380
G1 X104.607 Y113.155 E0.03380
G1 X104.231 Y112.144 E0.03380
G1 X103.906 Y111.117 E0.03380
G1 X103.631 Y110.074 E0.03380
G1 X103.408 Y109.020 E0.03380
G1 X103.237 Y107.955 E0.03380
G1 X103.118 Y106.884 E0.03380
G1 X103.052 Y105.808 E0.03380
G1 X103.039 Y104.730 E0.03380
G1 X103.078 Y103.653 E0.03380
G1 X103.171 Y102.579 E0.03380
G1 X103.316 Y101.511 E0.03380
G1 X103.513 Y100.451 E0.03380
G1 X103.762 Y99.402 E0.03380
G1 X104.063 Y98.367 E0.03380
G1 X104.413 Y97.347 E0.03380
G1 X104.814 Y96.346 E0.03380
G1 X105.263 Y95.366 E0.03380
G1 X105.759 Y94.410 E0.03380
G1 X106.302 Y93.478 E0.03380
G1 X106.890 Y92.575 E0.03380
G1 X107.521 Y91.701 E0.03380
G1 X108.195 Y90.859 E0.03380
G1 X108.909 Y90.052 E0.03380
G1 X109.662 Y89.280 E0.03380
G1 X110.452 Y88.546 E0.03380
G1 X111.276 Y87.852 E0.03380
G1 X112.134 Y87.200 E0.03380
G1 X113.023 Y86.590 E0.03380
G1 X113.941 Y86.024 E0.03380
G1 X114.885 Y85.505 E0.03380
G1 X116.024 Y84.959 E0.03959
G1 X115.876 Y84.612 F10800.000
;TYPE:External perimeter
G1 F1200.000
G1 X116.705 Y84.257 E0.02829
G1 X117.733 Y83.875 E0.03438
G1 X118.778 Y83.544 E0.03438
G1 X119.838 Y83.264 E0.03438
G1 X120.911 Y83.037 E0.03438
G1 X121.994 Y82.863 E0.03438
G1 X123.084 Y82.742 E0.03438
G1 X124.178 Y82.675 E0.03438
G1 X125.162 Y82.662 E0.03084
G1 X126.371 Y82.702 E0.03792
G1 X127.463 Y82.796 E0.03437
G1 X128.549 Y82.944 E0.03438
G1 X129.627 Y83.144 E0.03438
G1 X130.694 Y83.398 E0.03438
G1 X131.747 Y83.703 E0.03438
G1 X132.784 Y84.060 E0.03438
G1 X133.802 Y84.467 E0.03438
G1 X134.799 Y84.924 E0.03438
G1 X135.772 Y85.429 E0.03438
G1 X136.720 Y85.981 E0.03438
G1 X137.639 Y86.579 E0.03438
G1 X138.528 Y87.221 E0.03438
G1 X139.384 Y87.906 E0.03438
G1 X140.205 Y88.633 E0.03438
G1 X140.990 Y89.398 E0.03438
G1 X141.736 Y90.202 E0.03438
G1 X142.442 Y91.041 E0.03438
G1 X143.106 Y91.913 E0.03438
G1 X143.726 Y92.818 E0.03438
G1 X144.302 Y93.751 E0.03438
G1 X144.830 Y94.712 E0.03438
G1 X145.311 Y95.697 E0.03438
G1 X145.743 Y96.705 E0.03438
G1 X146.125 Y97.733 E0.03438
G1 X146.456 Y98.778 E0.03438
G1 X146.736 Y99.838 E0.03438
G1 X146.963 Y100.911 E0.03438
G1 X147.137 Y101.994 E0.03438
G1 X147.258 Y103.084 E0.03438
G1 X147.325 Y104.178 E0.03438
G1 X147.338 Y105.274 E0.03438
G1 X147.298 Y106.370 E0.03438
G1 X147.204 Y107.463 E0.03438
G1 X147.056 Y108.549 E0.03438
G1 X146.856 Y109.627 E0.03438
G1 X146.602 Y110.694 E0.03438
G1 X146.297 Y111.747 E0.03438
G1 X145.940 Y112.784 E0.03438
G1 X145.533 Y113.802 E0.03438
G1 X145.076 Y114.799 E0.03438
G1 X144.571 Y115.772 E0.03438
G1 X144.019 Y116.720 E0.03438
G1 X143.421 Y117.639 E0.03438
G1 X142.779 Y118.528 E0.03438
G1 X142.094 Y119.384 E0.03438
G1 X141.367 Y120.205 E0.03438
G1 X140.602 Y120.990 E0.03438
G1 X139.798 Y121.736 E0.03438
G1 X138.959 Y122.442 E0.03438
G1 X138.087 Y123.106 E0.03438
G1 X137.182 Y123.726 E0.03438
G1 X136.249 Y124.302 E0.03438
G1 X135.288 Y124.830 E0.03438
G1 X134.303 Y125.311 E0.03438
G1 X133.295 Y125.743 E0.03438
G1 X132.267 Y126.125 E0.03438
G1 X131.222 Y126.456 E0.03438
G1 X130.162 Y126.736 E0.03438
G1 X129.089 Y126.963 E0.03438
G1 X128.006 Y127.137 E0.03438
G1 X126.916 Y127.258 E0.03438
G1 X125.822 Y127.325 E0.03438
G1 X124.726 Y127.338 E0.03438
G1 X123.630 Y127.298 E0.03438
G1 X122.537 Y127.204 E0.03438
G1 X121.451 Y127.056 E0.03438
G1 X120.373 Y126.856 E0.03438
G1 X119.306 Y126.602 E0.03438
G1 X118.253 Y126.297 E0.03438
G1 X117.216 Y125.940 E0.03438
G1 X116.198 Y125.533 E0.03438
G1 X115.201 Y125.076 E0.03438
G1 X114.228 Y124.571 E0.03438
G1 X113.280 Y124.019 E0.03438
G1 X112.361 Y123.421 E0.03438
G1 X111.472 Y122.779 E0.03438
G1 X110.616 Y122.094 E0.03438
G1 X109.795 Y121.367 E0.03438
G1 X109.010 Y120.602 E0.03438
G1 X108.264 Y119.798 E0.03438
G1 X107.558 Y118.959 E0.03438
G1 X106.894 Y118.087 E0.03438
G1 X106.274 Y117.182 E0.03438
G1 X105.698 Y116.249 E0.03438
G1 X105.170 Y115.288 E0.03438
G1 X104.689 Y114.303 E0.03438
G1 X104.257 Y113.295 E0.03438
G1 X103.875 Y112.267 E0.03438
G1 X103.544 Y111.222 E0.03438
G1 X103.264 Y110.162 E0.03438
G1 X103.037 Y109.089 E0.03438
G1 X102.863 Y108.006 E0.03438
G1 X102.742 Y106.916 E0.03438
G1 X102.675 Y105.822 E0.03438
G1 X102.662 Y104.725 E0.03438
G1 X102.702 Y103.630 E0.03438
G1 X102.796 Y102.537 E0.03438
G1 X102.944 Y101.451 E0.03438
G1 X103.144 Y100.373 E0.03438
G1 X103.398 Y99.306 E0.03438
G1 X103.703 Y98.253 E0.03438
G1 X104.060 Y97.216 E0.03438
G1 X104.467 Y96.198 E0.03438
G1 X104.924 Y95.201 E0.03438
G1 X105.429 Y94.228 E0.03438
G1 X105.981 Y93.280 E0.03438
G1 X106.579 Y92.361 E0.03438
G1 X107.221 Y91.472 E0.03438
G1 X107.906 Y90.616 E0.03438
G1 X108.633 Y89.795 E0.03438
G1 X109.398 Y89.010 E0.03438
G1 X110.202 Y88.264 E0.03438
G1 X111.041 Y87.558 E0.03438
G1 X111.913 Y86.894 E0.03438
G1 X112.818 Y86.274 E0.03438
G1 X113.751 Y85.698 E0.03438
G1 X114.712 Y85.170 E0.03438
G1 X115.821 Y84.636 E0.03858
G1 X116.201 Y84.845 F10800.000
G1 E-0.80000 F2100.000
G1 Z0.800 F10800.000
G1 X107.761 Y118.417
G1 Z0.200
G1 E0.80000 F2100.000
;TYPE:Solid infill
;WIDTH:0.423215
G1 F1200.000
G1 X110.244 Y120.884 E0.11067
G1 X111.041 Y121.589 E0.03365
G1 X111.872 Y122.254 E0.03365
G1 X112.805 Y122.923 E0.03629
G1 X107.095 Y117.213 E0.25535
G1 X106.827 Y116.822 E0.01496
G1 X106.186 Y115.766 E0.03908
G1 X114.228 Y123.808 E0.35962
G1 X114.546 Y123.993 E0.01165
G1 X115.388 Y124.430 E0.02999
G1 X105.578 Y114.620 E0.43869
M73 Q0 S63
G1 X105.289 Y114.028 E0.02084
G1 X105.113 Y113.617 E0.01412
G1 X116.392 Y124.896 E0.50437
G1 X117.294 Y125.261 E0.03079
G1 X104.743 Y112.710 E0.56127
G1 X104.441 Y111.870 E0.02823
G1 X118.127 Y125.556 E0.61203
G1 X118.909 Y125.800 E0.02592
G1 X104.192 Y111.083 E0.65817
G1 X103.996 Y110.349 E0.02400
G1 X119.654 Y126.007 E0.70020
G1 X120.359 Y126.174 E0.02292
G1 X103.829 Y109.645 E0.73920
G1 X103.685 Y108.963 E0.02204
G1 X121.029 Y126.307 E0.77562
G1 X121.682 Y126.422 E0.02097
G1 X103.582 Y108.322 E0.80943
G1 X103.492 Y107.694 E0.02005
G1 X122.305 Y126.507 E0.84129
G1 X122.910 Y126.574 E0.01925
G1 X103.425 Y107.089 E0.87135
G1 X103.378 Y106.504 E0.01856
G1 X123.498 Y126.625 E0.89978
G1 X124.065 Y126.654 E0.01796
G1 X103.343 Y105.931 E0.92671
M73 P1 R63
M73 Q1 S63
G1 X103.330 Y105.380 E0.01743
G1 X124.624 Y126.674 E0.95228
G1 X125.160 Y126.673 E0.01697
G1 X103.323 Y104.836 E0.97657
G1 X103.337 Y104.312 E0.01656
G1 X125.692 Y126.667 E0.99970
G1 X126.203 Y126.640 E0.01620
G1 X103.356 Y103.793 E1.02172
G1 X103.393 Y103.292 E0.01588
G1 X126.710 Y126.609 E1.04273
G1 X127.201 Y126.562 E0.01559
G1 X103.436 Y102.797 E1.06277
G1 X103.492 Y102.316 E0.01533
G1 X127.685 Y126.509 E1.08191
G1 X128.158 Y126.444 E0.01510
G1 X103.556 Y101.842 E1.10020
G1 X103.629 Y101.377 E0.01490
G1 X128.622 Y126.370 E1.11768
G1 X129.080 Y126.290 E0.01471
G1 X103.713 Y100.923 E1.13440
G1 X103.799 Y100.471 E0.01454
G1 X129.524 Y126.196 E1.15040
M73 P1 R62
G1 X129.968 Y126.102 E0.01435
G1 X103.902 Y100.037 E1.16564
G1 X104.005 Y99.602 E0.01413
G1 X130.395 Y125.992 E1.18014
G1 X130.821 Y125.880 E0.01392
G1 X104.121 Y99.180 E1.19400
G1 X104.242 Y98.763 E0.01373
G1 X131.238 Y125.759 E1.20725
G1 X131.646 Y125.630 E0.01355
G1 X104.367 Y98.351 E1.21992
G1 X104.505 Y97.950 E0.01338
G1 X132.055 Y125.500 E1.23202
G1 X132.447 Y125.354 E0.01323
G1 X104.643 Y97.550 E1.24339
G1 X104.792 Y97.162 E0.01316
G1 X132.839 Y125.209 E1.25424
G1 X133.224 Y125.056 E0.01310
G1 X104.946 Y96.778 E1.26458
G1 X105.102 Y96.396 E0.01304
G1 X133.600 Y124.894 E1.27443
M73 P2 R62
M73 Q2 S63
G1 X133.977 Y124.733 E0.01295
G1 X105.271 Y96.027 E1.28371
G1 X105.440 Y95.658 E0.01283
G1 X134.340 Y124.559 E1.29241
G1 X134.702 Y124.382 E0.01272
G1 X105.617 Y95.298 E1.30066
G1 X105.801 Y94.943 E0.01261
G1 X135.060 Y124.203 E1.30847
M73 Q2 S62
G1 X135.407 Y124.012 E0.01252
G1 X105.984 Y94.589 E1.31576
G1 X106.181 Y94.248 E0.01246
G1 X135.754 Y123.821 E1.32250
G1 X136.093 Y123.622 E0.01243
G1 X106.379 Y93.908 E1.32882
G1 X106.579 Y93.571 E0.01241
G1 X136.426 Y123.417 E1.33474
G1 X136.759 Y123.212 E0.01236
G1 X106.791 Y93.245 E1.34014
G1 X107.003 Y92.919 E0.01229
G1 X137.080 Y122.996 E1.34504
G1 X137.399 Y122.777 E0.01223
G1 X107.221 Y92.599 E1.34956
G1 X107.447 Y92.287 E0.01218
G1 X137.717 Y122.558 E1.35370
G1 X138.023 Y122.325 E0.01214
G1 X107.672 Y91.975 E1.35727
G1 X107.907 Y91.672 E0.01212
G1 X138.328 Y122.093 E1.36044
G1 X138.547 Y121.927 E0.00869
G1 X138.630 Y121.857 E0.00343
G1 X108.146 Y91.373 E1.36323
G1 X108.385 Y91.074 E0.01210
G1 X138.922 Y121.611 E1.36560
G1 X139.214 Y121.365 E0.01207
G1 X108.636 Y90.787 E1.36744
G1 X108.888 Y90.502 E0.01205
G1 X139.500 Y121.113 E1.36892
M73 P3 R62
M73 Q3 S62
G1 X139.778 Y120.854 E0.01203
G1 X109.142 Y90.218 E1.37004
M73 P3 R61
G1 X109.408 Y89.946 E0.01203
G1 X140.057 Y120.595 E1.37063
G1 X140.327 Y120.327 E0.01203
G1 X109.673 Y89.673 E1.37081
G1 X109.943 Y89.405 E0.01203
G1 X140.592 Y120.054 E1.37063
G1 X140.858 Y119.782 E0.01203
G1 X110.222 Y89.146 E1.37004
G1 X110.500 Y88.887 E0.01203
G1 X141.112 Y119.498 E1.36892
G1 X141.364 Y119.213 E0.01205
G1 X110.786 Y88.635 E1.36744
G1 X111.078 Y88.389 E0.01207
G1 X141.615 Y118.926 E1.36560
G1 X141.854 Y118.627 E0.01210
G1 X111.370 Y88.143 E1.36323
G1 X111.672 Y87.907 E0.01211
G1 X142.093 Y118.328 E1.36044
G1 X142.328 Y118.025 E0.01212
G1 X111.977 Y87.675 E1.35727
G1 X112.283 Y87.442 E0.01214
G1 X142.553 Y117.713 E1.35370
G1 X142.779 Y117.401 E0.01218
G1 X112.601 Y87.223 E1.34956
M73 Q3 S61
G1 X112.920 Y87.004 E0.01223
G1 X142.997 Y117.081 E1.34504
G1 X143.209 Y116.755 E0.01229
G1 X113.241 Y86.788 E1.34014
G1 X113.574 Y86.583 E0.01236
G1 X143.421 Y116.429 E1.33474
G1 X143.621 Y116.092 E0.01241
G1 X113.907 Y86.378 E1.32882
M73 P4 R61
G1 X114.246 Y86.179 E0.01243
G1 X143.819 Y115.752 E1.32250
M73 Q4 S61
G1 X144.016 Y115.411 E0.01246
G1 X114.593 Y85.988 E1.31576
G1 X114.940 Y85.797 E0.01252
G1 X144.199 Y115.057 E1.30847
G1 X144.383 Y114.702 E0.01261
G1 X115.298 Y85.618 E1.30066
G1 X115.660 Y85.441 E0.01272
G1 X144.560 Y114.342 E1.29241
G1 X144.729 Y113.973 E0.01283
G1 X116.023 Y85.267 E1.28371
G1 X116.400 Y85.106 E0.01295
G1 X144.898 Y113.604 E1.27443
G1 X145.054 Y113.222 E0.01304
G1 X116.776 Y84.944 E1.26458
G1 X117.161 Y84.791 E0.01310
G1 X145.208 Y112.838 E1.25424
G1 X145.357 Y112.450 E0.01316
G1 X117.553 Y84.646 E1.24339
G1 X117.945 Y84.500 E0.01323
G1 X145.495 Y112.050 E1.23202
G1 X145.633 Y111.649 E0.01338
G1 X118.354 Y84.370 E1.21992
M73 P4 R60
G1 X118.762 Y84.241 E0.01355
G1 X145.758 Y111.237 E1.20725
G1 X145.879 Y110.820 E0.01373
G1 X119.179 Y84.120 E1.19400
G1 X119.605 Y84.008 E0.01392
G1 X145.995 Y110.398 E1.18013
G1 X146.098 Y109.963 E0.01413
G1 X120.032 Y83.898 E1.16564
G1 X120.476 Y83.804 E0.01435
G1 X146.201 Y109.529 E1.15040
G1 X146.287 Y109.077 E0.01454
G1 X120.920 Y83.710 E1.13440
G1 X121.378 Y83.630 E0.01471
G1 X146.371 Y108.623 E1.11768
G1 X146.444 Y108.158 E0.01490
G1 X121.842 Y83.556 E1.10020
M73 P5 R60
M73 Q5 S61
G1 X122.315 Y83.491 E0.01510
G1 X146.508 Y107.684 E1.08191
G1 X146.564 Y107.203 E0.01533
G1 X122.799 Y83.438 E1.06277
G1 X123.290 Y83.391 E0.01559
G1 X146.607 Y106.708 E1.04273
G1 X146.644 Y106.207 E0.01588
G1 X123.797 Y83.360 E1.02172
G1 X124.308 Y83.333 E0.01619
G1 X146.663 Y105.688 E0.99970
G1 X146.677 Y105.164 E0.01656
G1 X124.839 Y83.326 E0.97662
G1 X125.380 Y83.329 E0.01711
G1 X146.671 Y104.620 E0.95212
G1 X146.657 Y104.069 E0.01743
G1 X125.936 Y83.348 E0.92665
M73 Q5 S60
G1 X126.502 Y83.375 E0.01791
G1 X146.622 Y103.496 E0.89978
G1 X146.575 Y102.911 E0.01856
G1 X127.090 Y83.426 E0.87135
G1 X127.695 Y83.494 E0.01925
G1 X146.508 Y102.306 E0.84129
G1 X146.418 Y101.678 E0.02005
G1 X128.318 Y83.578 E0.80943
G1 X128.971 Y83.693 E0.02097
