; generated by PrusaSlicer 2.2.0+win64 on 2021-12-02 at 22:59:38 UTC

; 

; external perimeters extrusion width = 0.45mm
; perimeters extrusion width = 0.45mm
; infill extrusion width = 0.45mm
; solid infill extrusion width = 0.45mm
; top infill extrusion width = 0.40mm
; support material extrusion width = 0.35mm
; first layer extrusion width = 0.42mm

M73 P0 R5
M73 Q0 S5
M201 X1000 Y1000 Z200 E5000 ; sets maximum accelerations, mm/sec^2
M203 X200 Y200 Z12 E120 ; sets maximum feedrates, mm/sec
M204 P1250 R1250 T1250 ; sets acceleration (P, T) and retract acceleration (R), mm/sec^2
M205 X8.00 Y8.00 Z0.40 E4.50 ; sets the jerk limits, mm/sec
M205 S0 T0 ; sets the minimum extruding and travel feed rate, mm/sec
M107
M862.3 P "MK3S" ; printer model check
M862.1 P0.4 ; nozzle diameter check
G90 ; use absolute coordinates
M83 ; extruder relative mode
M104 S215 ; set extruder temp
M140 S60 ; set bed temp
M190 S60 ; wait for bed temp
M109 S215 ; wait for extruder temp
G28 W ; home all without mesh bed level
G80 ; mesh bed leveling
G1 Y-3.0 F1000.0 ; go outside print area
G92 E0.0
G1 X60.0 E9.0 F1000.0 ; intro line
M73 Q1 S5
M73 P1 R5
G1 X100.0 E12.5 F1000.0 ; intro line
G92 E0.0
M221 S95

; Don't change E values below. Excessive value can damage the printer.

M907 E538 ; set extruder motor current
G21 ; set units to millimeters
G90 ; use absolute coordinates
M83 ; use relative distances for extrusion
M900 K0.05 ; Filament gcode LA 1.5
M900 K30 ; Filament gcode LA 1.0
;BEFORE_LAYER_CHANGE
G92 E0.0
;0.2


G1 E-0.80000 F2100.00000
G1 Z0.400 F10800.000
;AFTER_LAYER_CHANGE
;0.2
G1 X114.383 Y96.684
G1 Z0.200
G1 E0.80000 F2100.00000
M204 S1000
G1 F1200.000
G1 X115.396 Y95.531 E0.04812
G1 X116.535 Y94.501 E0.04815
G1 X117.298 Y93.928 E0.02993
G1 X118.610 Y93.122 E0.04828
G1 X120.002 Y92.473 E0.04815
G1 X120.904 Y92.149 E0.03006
G1 X122.391 Y91.766 E0.04815
G1 X123.916 Y91.556 E0.04828
G1 X124.845 Y91.512 E0.02916
G1 X126.343 Y91.578 E0.04699
G1 X127.293 Y91.708 E0.03008
G1 X128.785 Y92.052 E0.04799
G1 X130.239 Y92.570 E0.04840
G1 X131.101 Y92.969 E0.02980
G1 X132.433 Y93.742 E0.04828
G1 X133.667 Y94.663 E0.04828
G1 X134.380 Y95.304 E0.03006
G1 X135.421 Y96.433 E0.04815
G1 X136.329 Y97.676 E0.04828
G1 X136.819 Y98.496 E0.02993
G1 X137.484 Y99.884 E0.04828
G1 X137.985 Y101.340 E0.04828
G1 X138.211 Y102.267 E0.02993
G1 X138.437 Y103.790 E0.04828
G1 X138.487 Y105.321 E0.04802
G1 X138.430 Y106.282 E0.03018
G1 X138.197 Y107.804 E0.04828
G1 X137.791 Y109.289 E0.04828
G1 X137.455 Y110.183 E0.02993
G1 X136.784 Y111.569 E0.04828
G1 X135.960 Y112.865 E0.04815
G1 X135.374 Y113.623 E0.03006
G1 X134.333 Y114.741 E0.04789
G1 X133.661 Y115.342 E0.02828
G1 X132.427 Y116.262 E0.04825
G1 X131.102 Y117.030 E0.04802
G1 X130.232 Y117.433 E0.03006
G1 X128.786 Y117.948 E0.04815
G1 X127.289 Y118.293 E0.04815
G1 X126.343 Y118.422 E0.02993
G1 X124.842 Y118.488 E0.04712
G1 X123.917 Y118.445 E0.02903
G1 X122.392 Y118.234 E0.04828
G1 X120.905 Y117.851 E0.04815
G1 X120.003 Y117.527 E0.03006
G1 X118.611 Y116.879 E0.04815
G1 X117.299 Y116.072 E0.04828
G1 X116.535 Y115.500 E0.02993
G1 X115.396 Y114.470 E0.04815
G1 X114.383 Y113.316 E0.04815
G1 X113.853 Y112.592 E0.02813
G1 X113.065 Y111.279 E0.04802
G1 X112.647 Y110.411 E0.03021
G1 X112.113 Y108.976 E0.04799
G1 X111.744 Y107.481 E0.04828
G1 X111.602 Y106.538 E0.02993
G1 X111.513 Y105.000 E0.04828
G1 X111.602 Y103.463 E0.04828
G1 X111.744 Y102.519 E0.02993
G1 X112.112 Y101.024 E0.04828
G1 X112.647 Y99.589 E0.04802
G1 X113.064 Y98.722 E0.03019
G1 X113.852 Y97.408 E0.04802
G1 X114.347 Y96.732 E0.02627
G1 X114.165 Y97.619 F10800.000
G1 F1200.000
G1 X115.665 Y95.794 E0.07406
G1 X116.778 Y94.789 E0.04703
G1 X117.509 Y94.241 E0.02865
G1 X118.790 Y93.453 E0.04715
G1 X120.150 Y92.820 E0.04703
G1 X121.010 Y92.511 E0.02865
G1 X122.466 Y92.136 E0.04715
G1 X123.955 Y91.931 E0.04715
G1 X124.846 Y91.889 E0.02794
G1 X126.314 Y91.954 E0.04607
G1 X127.220 Y92.078 E0.02870
G1 X128.681 Y92.414 E0.04699
G1 X130.101 Y92.920 E0.04726
G1 X130.926 Y93.303 E0.02854
G1 X132.227 Y94.058 E0.04715
G1 X133.432 Y94.957 E0.04715
G1 X134.111 Y95.569 E0.02865
G1 X135.131 Y96.673 E0.04715
G1 X136.015 Y97.885 E0.04703
G1 X136.486 Y98.673 E0.02877
G1 X137.136 Y100.029 E0.04715
G1 X137.624 Y101.451 E0.04715
G1 X137.841 Y102.339 E0.02865
G1 X138.062 Y103.826 E0.04715
G1 X138.110 Y105.321 E0.04691
G1 X138.055 Y106.237 E0.02877
G1 X137.828 Y107.724 E0.04715
G1 X137.430 Y109.178 E0.04726
G1 X137.111 Y110.030 E0.02853
G1 X136.454 Y111.387 E0.04727
G1 X135.649 Y112.652 E0.04703
G1 X135.090 Y113.375 E0.02865
G1 X134.071 Y114.470 E0.04691
G1 X132.222 Y115.946 E0.07418
G1 X130.924 Y116.698 E0.04703
G1 X130.095 Y117.082 E0.02865
G1 X128.678 Y117.586 E0.04715
G1 X127.217 Y117.923 E0.04703
G1 X126.311 Y118.046 E0.02865
G1 X124.843 Y118.111 E0.04607
G1 X123.957 Y118.070 E0.02782
G1 X122.467 Y117.865 E0.04715
G1 X121.011 Y117.489 E0.04715
G1 X120.151 Y117.181 E0.02865
G1 X118.788 Y116.546 E0.04715
G1 X117.510 Y115.760 E0.04703
G1 X116.776 Y115.210 E0.02877
G1 X115.663 Y114.204 E0.04703
G1 X114.166 Y112.382 E0.07394
G1 X113.394 Y111.096 E0.04703
G1 X112.996 Y110.268 E0.02881
G1 X112.472 Y108.864 E0.04699
G1 X112.113 Y107.404 E0.04715
G1 X111.977 Y106.500 E0.02865
G1 X111.890 Y104.999 E0.04715
G1 X111.977 Y103.498 E0.04715
G1 X112.114 Y102.594 E0.02865
G1 X112.473 Y101.134 E0.04715
G1 X112.996 Y99.732 E0.04691
G1 X113.394 Y98.905 E0.02877
G1 X114.134 Y97.670 E0.04515
; printing object ColoredeDiffuserLite.stl id:0 copy 0
G1 F8640.000
G1 X115.665 Y95.794 E-0.55912
G1 X116.311 Y95.211 E-0.20088
G1 E-0.04000 F2100.00000
G1 Z0.600 F10800.000
G1 X116.472 Y99.184
G1 Z0.200
G1 E0.80000 F2100.00000
G1 F1200.000
G1 X116.835 Y98.684 E0.01937
G1 X117.227 Y98.207 E0.01937
G1 X117.647 Y97.754 E0.01937
G1 X118.094 Y97.327 E0.01937
G1 X118.565 Y96.928 E0.01937
G1 X119.059 Y96.557 E0.01937
G1 X119.575 Y96.217 E0.01937
G1 X120.386 Y95.770 E0.02904
G1 X121.230 Y95.389 E0.02904
G1 X121.812 Y95.181 E0.01937
G1 X122.405 Y95.007 E0.01937
G1 X123.007 Y94.870 E0.01937
G1 X123.616 Y94.769 E0.01937
G1 X124.231 Y94.704 E0.01937
G1 X124.848 Y94.676 E0.01937
G1 X125.466 Y94.686 E0.01937
G1 X126.082 Y94.732 E0.01937
G1 X126.694 Y94.815 E0.01937
G1 X127.300 Y94.934 E0.01937
G1 X127.898 Y95.089 E0.01937
G1 X128.485 Y95.280 E0.01937
G1 X129.060 Y95.506 E0.01937
G1 X129.621 Y95.766 E0.01937
G1 X130.165 Y96.058 E0.01937
G1 X130.690 Y96.383 E0.01937
G1 X131.195 Y96.739 E0.01937
G1 X131.678 Y97.124 E0.01937
G1 X132.137 Y97.537 E0.01937
G1 X132.571 Y97.977 E0.01937
G1 X132.977 Y98.443 E0.01937
G1 X133.355 Y98.931 E0.01937
G1 X133.703 Y99.442 E0.01937
G1 X134.020 Y99.972 E0.01937
G1 X134.305 Y100.520 E0.01937
G1 X134.556 Y101.085 E0.01937
G1 X134.773 Y101.663 E0.01937
G1 X134.955 Y102.253 E0.01937
G1 X135.102 Y102.853 E0.01937
G1 X135.212 Y103.461 E0.01937
G1 X135.286 Y104.074 E0.01937
G1 X135.323 Y104.691 E0.01937
G1 X135.323 Y105.309 E0.01937
G1 X135.286 Y105.926 E0.01937
G1 X135.212 Y106.539 E0.01937
G1 X135.102 Y107.147 E0.01937
G1 X134.955 Y107.747 E0.01937
G1 X134.773 Y108.337 E0.01937
G1 X134.556 Y108.915 E0.01937
G1 X134.305 Y109.480 E0.01937
G1 X134.020 Y110.028 E0.01937
G1 X133.703 Y110.558 E0.01937
G1 X133.355 Y111.069 E0.01937
G1 X132.977 Y111.557 E0.01937
G1 X132.571 Y112.023 E0.01937
G1 X132.137 Y112.463 E0.01937
G1 X131.678 Y112.876 E0.01937
G1 X131.195 Y113.261 E0.01937
G1 X130.690 Y113.617 E0.01937
G1 X130.165 Y113.942 E0.01937
G1 X129.621 Y114.234 E0.01937
G1 X129.060 Y114.494 E0.01937
G1 X128.485 Y114.720 E0.01937
G1 X127.898 Y114.911 E0.01937
G1 X127.300 Y115.066 E0.01937
G1 X126.694 Y115.185 E0.01937
G1 X126.082 Y115.268 E0.01937
G1 X125.466 Y115.314 E0.01937
G1 X124.848 Y115.324 E0.01937
G1 X124.231 Y115.296 E0.01937
G1 X123.616 Y115.231 E0.01937
G1 X122.706 Y115.061 E0.02904
G1 X121.812 Y114.819 E0.02904
G1 X121.230 Y114.611 E0.01937
G1 X120.662 Y114.368 E0.01937
G1 X120.110 Y114.092 E0.01937
G1 X119.575 Y113.783 E0.01937
G1 X119.059 Y113.443 E0.01937
G1 X118.565 Y113.072 E0.01937
G1 X118.094 Y112.673 E0.01937
G1 X117.647 Y112.246 E0.01937
G1 X117.227 Y111.793 E0.01937
G1 X116.835 Y111.316 E0.01937
G1 X116.472 Y110.816 E0.01937
G1 X116.139 Y110.296 E0.01937
G1 X115.838 Y109.756 E0.01937
G1 X115.570 Y109.199 E0.01937
G1 X115.336 Y108.628 E0.01937
G1 X115.136 Y108.043 E0.01937
G1 X114.972 Y107.448 E0.01937
G1 X114.844 Y106.844 E0.01937
G1 X114.751 Y106.233 E0.01937
G1 X114.696 Y105.617 E0.01937
G1 X114.678 Y105.000 E0.01937
G1 X114.696 Y104.383 E0.01937
G1 X114.751 Y103.767 E0.01937
G1 X114.844 Y103.156 E0.01937
G1 X114.972 Y102.552 E0.01937
G1 X115.136 Y101.957 E0.01937
G1 X115.336 Y101.372 E0.01937
G1 X115.570 Y100.801 E0.01937
G1 X115.838 Y100.244 E0.01937
G1 X116.139 Y99.704 E0.01937
G1 X116.439 Y99.234 E0.01749
G1 X116.871 Y99.214 F10800.000
G1 X116.757 Y99.437
G1 F1200.000
G1 X117.133 Y98.915 E0.02019
G1 X117.511 Y98.455 E0.01866
G1 X117.916 Y98.019 E0.01866
G1 X118.346 Y97.608 E0.01866
G1 X118.800 Y97.223 E0.01866
G1 X119.276 Y96.866 E0.01866
G1 X119.773 Y96.538 E0.01866
G1 X120.289 Y96.240 E0.01866
G1 X120.821 Y95.974 E0.01866
G1 X121.368 Y95.740 E0.01866
G1 X121.928 Y95.539 E0.01866
G1 X122.500 Y95.372 E0.01866
G1 X123.080 Y95.240 E0.01866
G1 X123.667 Y95.142 E0.01866
G1 X124.259 Y95.080 E0.01866
G1 X124.854 Y95.054 E0.01866
G1 X125.449 Y95.062 E0.01866
G1 X126.042 Y95.107 E0.01866
G1 X126.632 Y95.187 E0.01866
G1 X127.216 Y95.302 E0.01866
G1 X127.792 Y95.452 E0.01866
G1 X128.358 Y95.635 E0.01866
G1 X128.912 Y95.853 E0.01866
G1 X129.452 Y96.103 E0.01866
G1 X129.976 Y96.385 E0.01866
G1 X130.482 Y96.698 E0.01866
G1 X130.969 Y97.041 E0.01866
G1 X131.434 Y97.412 E0.01866
G1 X131.877 Y97.810 E0.01866
G1 X132.294 Y98.234 E0.01866
G1 X132.686 Y98.682 E0.01866
G1 X133.050 Y99.153 E0.01866
G1 X133.385 Y99.645 E0.01866
G1 X133.691 Y100.156 E0.01866
G1 X133.965 Y100.684 E0.01866
G1 X134.207 Y101.228 E0.01866
G1 X134.416 Y101.785 E0.01866
G1 X134.591 Y102.354 E0.01866
G1 X134.733 Y102.932 E0.01866
G1 X134.839 Y103.517 E0.01866
G1 X134.910 Y104.108 E0.01866
G1 X134.946 Y104.702 E0.01866
G1 X134.946 Y105.298 E0.01866
G1 X134.910 Y105.892 E0.01866
G1 X134.839 Y106.483 E0.01866
G1 X134.733 Y107.068 E0.01866
G1 X134.591 Y107.646 E0.01866
G1 X134.416 Y108.215 E0.01866
G1 X134.207 Y108.772 E0.01866
G1 X133.965 Y109.316 E0.01866
G1 X133.691 Y109.844 E0.01866
G1 X133.385 Y110.355 E0.01866
G1 X133.050 Y110.847 E0.01866
G1 X132.686 Y111.318 E0.01866
G1 X132.294 Y111.766 E0.01866
G1 X131.877 Y112.190 E0.01866
G1 X131.434 Y112.588 E0.01866
G1 X130.969 Y112.959 E0.01866
G1 X130.482 Y113.302 E0.01866
G1 X129.976 Y113.615 E0.01866
G1 X129.452 Y113.897 E0.01866
G1 X128.912 Y114.147 E0.01866
G1 X128.358 Y114.365 E0.01866
G1 X127.792 Y114.548 E0.01866
G1 X127.216 Y114.698 E0.01866
G1 X126.632 Y114.813 E0.01866
G1 X126.042 Y114.893 E0.01866
G1 X125.449 Y114.938 E0.01866
G1 X124.854 Y114.946 E0.01866
G1 X124.259 Y114.920 E0.01866
G1 X123.667 Y114.858 E0.01866
G1 X123.080 Y114.760 E0.01866
G1 X122.500 Y114.628 E0.01866
G1 X121.928 Y114.461 E0.01866
G1 X121.368 Y114.260 E0.01866
G1 X120.821 Y114.026 E0.01866
G1 X120.289 Y113.760 E0.01866
G1 X119.773 Y113.462 E0.01866
G1 X119.276 Y113.134 E0.01866
G1 X118.800 Y112.777 E0.01866
G1 X118.346 Y112.392 E0.01866
G1 X117.916 Y111.981 E0.01866
G1 X117.511 Y111.545 E0.01866
G1 X117.133 Y111.085 E0.01866
G1 X116.783 Y110.604 E0.01866
G1 X116.463 Y110.102 E0.01866
G1 X116.173 Y109.582 E0.01866
G1 X115.915 Y109.046 E0.01866
G1 X115.689 Y108.495 E0.01866
G1 X115.497 Y107.932 E0.01866
G1 X115.338 Y107.358 E0.01866
G1 X115.215 Y106.776 E0.01866
G1 X115.126 Y106.188 E0.01866
G1 X115.073 Y105.595 E0.01866
G1 X115.055 Y105.000 E0.01866
G1 X115.073 Y104.405 E0.01866
G1 X115.126 Y103.812 E0.01866
G1 X115.215 Y103.224 E0.01866
G1 X115.338 Y102.642 E0.01866
G1 X115.497 Y102.068 E0.01866
G1 X115.689 Y101.505 E0.01866
G1 X115.915 Y100.954 E0.01866
G1 X116.173 Y100.418 E0.01866
G1 X116.463 Y99.898 E0.01866
G1 X116.725 Y99.488 E0.01525
G1 F8640.000
G1 X117.133 Y98.915 E-0.16249
G1 X117.511 Y98.455 E-0.13743
G1 X117.916 Y98.019 E-0.13743
G1 X118.346 Y97.608 E-0.13743
G1 X118.800 Y97.223 E-0.13743
G1 X118.966 Y97.099 E-0.04780
G1 E-0.04000 F2100.00000
G1 Z0.600 F10800.000
G1 X119.088 Y100.995
G1 Z0.200
G1 E0.80000 F2100.00000
G1 F1200.000
G1 X119.452 Y100.500 E0.01928
G1 X119.809 Y100.093 E0.01696
G1 X120.195 Y99.714 E0.01696
G1 X120.608 Y99.366 E0.01696
G1 X121.047 Y99.050 E0.01696
G1 X121.487 Y98.780 E0.01617
G1 X121.989 Y98.521 E0.01772
G1 X122.488 Y98.312 E0.01697
G1 X123.001 Y98.141 E0.01696
G1 X123.526 Y98.009 E0.01696
G1 X124.059 Y97.917 E0.01696
G1 X124.597 Y97.866 E0.01696
G1 X125.113 Y97.856 E0.01617
G1 X125.677 Y97.887 E0.01772
G1 X126.214 Y97.958 E0.01697
G1 X126.743 Y98.070 E0.01696
G1 X127.262 Y98.221 E0.01696
G1 X127.768 Y98.412 E0.01696
G1 X128.258 Y98.640 E0.01696
G1 X128.730 Y98.904 E0.01696
G1 X129.180 Y99.203 E0.01696
G1 X129.607 Y99.536 E0.01696
G1 X130.007 Y99.900 E0.01696
G1 X130.378 Y100.293 E0.01696
G1 X130.719 Y100.713 E0.01696
G1 X131.012 Y101.137 E0.01617
G1 X131.300 Y101.624 E0.01772
G1 X131.537 Y102.110 E0.01697
G1 X131.737 Y102.613 E0.01696
G1 X131.898 Y103.129 E0.01696
G1 X132.020 Y103.656 E0.01696
G1 X132.102 Y104.190 E0.01696
G1 X132.143 Y104.730 E0.01696
G1 X132.143 Y105.270 E0.01696
G1 X132.102 Y105.810 E0.01696
G1 X132.020 Y106.344 E0.01696
G1 X131.904 Y106.847 E0.01617
G1 X131.737 Y107.387 E0.01772
G1 X131.537 Y107.890 E0.01697
G1 X131.300 Y108.376 E0.01696
G1 X131.027 Y108.842 E0.01696
G1 X130.719 Y109.287 E0.01696
G1 X130.378 Y109.707 E0.01696
G1 X130.007 Y110.100 E0.01696
G1 X129.607 Y110.464 E0.01696
G1 X129.180 Y110.797 E0.01696
G1 X128.730 Y111.096 E0.01696
G1 X128.258 Y111.360 E0.01696
G1 X127.791 Y111.578 E0.01617
G1 X127.262 Y111.779 E0.01772
G1 X126.743 Y111.930 E0.01697
G1 X126.214 Y112.042 E0.01696
G1 X125.678 Y112.113 E0.01696
G1 X125.138 Y112.144 E0.01696
G1 X124.597 Y112.134 E0.01696
G1 X124.059 Y112.083 E0.01696
G1 X123.526 Y111.991 E0.01696
G1 X123.001 Y111.859 E0.01696
G1 X122.488 Y111.688 E0.01696
G1 X121.989 Y111.479 E0.01696
G1 X121.508 Y111.233 E0.01696
G1 X121.047 Y110.950 E0.01696
G1 X120.608 Y110.634 E0.01696
G1 X120.195 Y110.286 E0.01696
G1 X119.809 Y109.907 E0.01696
G1 X119.469 Y109.519 E0.01617
G1 X119.128 Y109.068 E0.01772
G1 X118.837 Y108.612 E0.01697
G1 X118.582 Y108.135 E0.01696
G1 X118.363 Y107.640 E0.01696
G1 X118.182 Y107.131 E0.01696
G1 X118.041 Y106.609 E0.01696
G1 X117.944 Y106.102 E0.01617
G1 X117.878 Y105.541 E0.01772
G1 X117.857 Y105.000 E0.01697
G1 X117.878 Y104.460 E0.01696
G1 X117.939 Y103.922 E0.01696
G1 X118.036 Y103.416 E0.01617
G1 X118.182 Y102.870 E0.01772
G1 X118.363 Y102.360 E0.01697
G1 X118.582 Y101.865 E0.01696
G1 X118.837 Y101.388 E0.01696
G1 X119.056 Y101.046 E0.01274
G1 X118.914 Y100.635 F10800.000
G1 X118.738 Y100.843
G1 F1200.000
G1 X119.159 Y100.262 E0.02250
G1 X119.534 Y99.834 E0.01785
G1 X119.941 Y99.435 E0.01785
G1 X120.376 Y99.068 E0.01785
G1 X120.838 Y98.735 E0.01785
G1 X121.302 Y98.452 E0.01705
G1 X121.829 Y98.179 E0.01862
G1 X122.355 Y97.958 E0.01788
G1 X122.895 Y97.778 E0.01785
G1 X123.448 Y97.640 E0.01785
G1 X124.009 Y97.543 E0.01785
G1 X124.576 Y97.489 E0.01785
G1 X125.119 Y97.479 E0.01705
G1 X125.712 Y97.511 E0.01862
G1 X126.278 Y97.586 E0.01788
G1 X126.835 Y97.704 E0.01785
G1 X127.381 Y97.863 E0.01785
G1 X127.914 Y98.064 E0.01785
G1 X128.430 Y98.304 E0.01785
G1 X128.927 Y98.582 E0.01785
G1 X129.401 Y98.897 E0.01785
G1 X129.850 Y99.248 E0.01785
G1 X130.271 Y99.631 E0.01785
G1 X130.662 Y100.044 E0.01785
G1 X131.021 Y100.487 E0.01785
G1 X131.330 Y100.934 E0.01705
G1 X131.632 Y101.445 E0.01862
G1 X131.882 Y101.958 E0.01788
G1 X132.093 Y102.487 E0.01785
G1 X132.263 Y103.030 E0.01785
G1 X132.391 Y103.585 E0.01785
G1 X132.477 Y104.148 E0.01785
G1 X132.520 Y104.715 E0.01785
G1 X132.520 Y105.285 E0.01785
G1 X132.477 Y105.852 E0.01785
G1 X132.391 Y106.415 E0.01785
G1 X132.268 Y106.945 E0.01705
G1 X132.093 Y107.512 E0.01862
G1 X131.882 Y108.042 E0.01788
G1 X131.633 Y108.554 E0.01785
G1 X131.345 Y109.045 E0.01785
G1 X131.021 Y109.513 E0.01785
G1 X130.662 Y109.956 E0.01785
