; G-Code generated by Simplify3D(R) Version 4.0.0
; Nov 16, 2017 at 11:15:56 AM
; Settings Summary
;   processName,Process1
;   applyToModels,BOB bkt,Bob Specials A V2R1,Bob Specials B V2R1
;   profileName,Prusa Research Original Prusa i3 MK2
;   profileVersion,2017-11-08 15:55:28
;   baseProfile,
;   printMaterial,PLA
;   printQuality,Fast
;   printExtruders,
;   extruderName,Primary Extruder
;   extruderToolheadNumber,0
;   extruderDiameter,0.4
;   extruderAutoWidth,0
;   extruderWidth,0.4
;   extrusionMultiplier,1
;   extruderUseRetract,1
;   extruderRetractionDistance,1.5
;   extruderExtraRestartDistance,0
;   extruderRetractionZLift,0
;   extruderRetractionSpeed,1800
;   extruderUseCoasting,1
;   extruderCoastingDistance,0.2
;   extruderUseWipe,1
;   extruderWipeDistance,2
;   primaryExtruder,0
;   layerHeight,0.3
;   topSolidLayers,3
;   bottomSolidLayers,3
;   perimeterOutlines,2
;   printPerimetersInsideOut,0
;   startPointOption,2
;   startPointOriginX,125
;   startPointOriginY,210
;   sequentialIslands,0
;   spiralVaseMode,0
;   firstLayerHeightPercentage,90
;   firstLayerWidthPercentage,105
;   firstLayerUnderspeed,0.5
;   useRaft,0
;   raftExtruder,0
;   raftTopLayers,2
;   raftBaseLayers,1
;   raftOffset,2
;   raftSeparationDistance,0.14
;   raftTopInfill,100
;   aboveRaftSpeedMultiplier,0.3
;   useSkirt,0
;   skirtExtruder,0
;   skirtLayers,1
;   skirtOutlines,1
;   skirtOffset,4
;   usePrimePillar,0
;   primePillarExtruder,999
;   primePillarWidth,12
;   primePillarLocation,7
;   primePillarSpeedMultiplier,1
;   useOozeShield,0
;   oozeShieldExtruder,999
;   oozeShieldOffset,2
;   oozeShieldOutlines,1
;   oozeShieldSidewallShape,1
;   oozeShieldSidewallAngle,30
;   oozeShieldSpeedMultiplier,1
;   infillExtruder,0
;   internalInfillPattern,Rectilinear
;   externalInfillPattern,Rectilinear
;   infillPercentage,15
;   outlineOverlapPercentage,30
;   infillExtrusionWidthPercentage,125
;   minInfillLength,1
;   infillLayerInterval,1
;   internalInfillAngles,45,-45
;   overlapInternalInfillAngles,0
;   externalInfillAngles,45,-45
;   generateSupport,1
;   supportExtruder,0
;   supportInfillPercentage,25
;   supportExtraInflation,0.3
;   supportBaseLayers,0
;   denseSupportExtruder,0
;   denseSupportLayers,0
;   denseSupportInfillPercentage,70
;   supportLayerInterval,1
;   supportHorizontalPartOffset,0.2
;   supportUpperSeparationLayers,1
;   supportLowerSeparationLayers,1
;   supportType,0
;   supportGridSpacing,4
;   maxOverhangAngle,45
;   supportAngles,0
;   temperatureName,Primary Extruder,Heated Bed
;   temperatureNumber,0,0
;   temperatureSetpointCount,1,1
;   temperatureSetpointLayers,1,1
;   temperatureSetpointTemperatures,220,55
;   temperatureStabilizeAtStartup,1,1
;   temperatureHeatedBed,0,1
;   temperatureRelayBetweenLayers,1,1
;   temperatureRelayBetweenLoops,0,0
;   fanLayers,1,2
;   fanSpeeds,0,100
;   blipFanToFullPower,0
;   adjustSpeedForCooling,1
;   minSpeedLayerTime,5
;   minCoolingSpeedSlowdown,10
;   increaseFanForCooling,1
;   minFanLayerTime,45
;   maxCoolingFanSpeed,100
;   increaseFanForBridging,1
;   bridgingFanSpeed,100
;   use5D,1
;   relativeEdistances,0
;   allowEaxisZeroing,1
;   independentExtruderAxes,0
;   includeM10123,0
;   stickySupport,1
;   applyToolheadOffsets,0
;   gcodeXoffset,0
;   gcodeYoffset,0
;   gcodeZoffset,0
;   overrideMachineDefinition,1
;   machineTypeOverride,0
;   strokeXoverride,250
;   strokeYoverride,210
;   strokeZoverride,200
;   originOffsetXoverride,0
;   originOffsetYoverride,0
;   originOffsetZoverride,0
;   homeXdirOverride,-1
;   homeYdirOverride,-1
;   homeZdirOverride,-1
;   flipXoverride,1
;   flipYoverride,-1
;   flipZoverride,1
;   toolheadOffsets,0,0|0,0|0,0|0,0|0,0|0,0
;   overrideFirmwareConfiguration,1
;   firmwareTypeOverride,RepRap (Marlin/Repetier/Sprinter)
;   GPXconfigOverride,r2
;   baudRateOverride,250000
;   overridePrinterModels,1
;   printerModelsOverride
;   startingGcode,M115 U3.0.7 ; use the latest firmware version,G28 W ; home all axes without mesh bed leveling,G80 ; run mesh bed leveling routine,G1 Y-3.0 F1000.0 ; prepare to prime,G92 E0 ; reset extrusion distance,G1 X60.0 E9.0  F1000.0 ; priming,G1 X100.0 E12.5  F1000.0 ; priming
;   layerChangeGcode,
;   retractionGcode,
;   toolChangeGcode,
;   endingGcode,M106 S0 ; turn off cooling fan,M104 S0 ; turn off extruder,M140 S0 ; turn off bed,G1 X0 Y200 ; part removal,M84 ; disable motors
;   exportFileFormat,gcode
;   celebration,0
;   celebrationSong,Random Song
;   postProcessing,
;   defaultSpeed,2400
;   outlineUnderspeed,1
;   solidInfillUnderspeed,1
;   supportUnderspeed,1
;   rapidXYspeed,4800
;   rapidZspeed,1002
;   minBridgingArea,50
;   bridgingExtraInflation,0
;   bridgingExtrusionMultiplier,1
;   bridgingSpeedMultiplier,1
;   useFixedBridgingAngle,0
;   fixedBridgingAngle,0
;   applyBridgingToPerimeters,0
;   filamentDiameters,1.75|1.75|1.75|1.75|1.75|1.75
;   filamentPricesPerKg,46|46|46|46|46|46
;   filamentDensities,1.25|1.25|1.25|1.25|1.25|1.25
;   useMinPrintHeight,0
;   minPrintHeight,4
;   useMaxPrintHeight,0
;   maxPrintHeight,50
;   useDiaphragm,0
;   diaphragmLayerInterval,20
;   robustSlicing,1
;   mergeAllIntoSolid,0
;   onlyRetractWhenCrossingOutline,1
;   retractBetweenLayers,0
;   useRetractionMinTravel,1
;   retractionMinTravel,3
;   retractWhileWiping,1
;   onlyWipeOutlines,1
;   avoidCrossingOutline,1
;   maxMovementDetourFactor,3
;   toolChangeRetractionDistance,12
;   toolChangeExtraRestartDistance,-0.5
;   toolChangeRetractionSpeed,600
;   externalThinWallType,0
;   internalThinWallType,2
;   thinWallAllowedOverlapPercentage,25
;   singleExtrusionMinLength,1
;   singleExtrusionMinPrintingWidthPercentage,50
;   singleExtrusionMaxPrintingWidthPercentage,200
;   singleExtrusionEndpointExtension,0.2
;   horizontalSizeCompensation,0
G90
M82
M106 S0
M140 S55
M190 S55
M104 S220 T0
M109 S220 T0
M115 U3.0.7 ; use the latest firmware version
G28 W ; home all axes without mesh bed leveling
G80 ; run mesh bed leveling routine
G1 Y-3.0 F1000.0 ; prepare to prime
G92 E0 ; reset extrusion distance
G1 X60.0 E9.0  F1000.0 ; priming
G1 X100.0 E12.5  F1000.0 ; priming
G92 E0
G1 E-1.5000 F1800
G1 Z0.270 F1002
; process Process1
; layer 1, Z = 0.270
M105
M105
T0
; tool H0.300 W0.420
; outer perimeter
G1 X114.238 Y59.679 F4800
G1 E0.0000 F540
G92 E0
G1 X120.901 Y59.679 E0.3490 F1200
G1 X120.901 Y150.321 E5.0972
G1 X65.369 Y150.321 E8.0062
G1 X65.369 Y140.679 E8.5113
G1 X114.238 Y140.679 E11.0713
G1 X114.238 Y130.922 E11.5825
G1 X105.352 Y112.379 E12.6596
G1 X108.428 Y112.379 E12.8207
G1 X108.428 Y96.559 E13.6495
G1 X105.352 Y96.559 E13.8106
G1 X114.238 Y78.017 E14.8877
G1 X114.238 Y59.879 E15.8379
G1 X114.238 Y59.679 F1200
G1 X116.238 Y59.679 F2400
; inner perimeter
G1 X114.658 Y60.099 F4800
G92 E0
G1 X120.481 Y60.099 E0.3050 F1200
G1 X120.481 Y149.901 E5.0092
G1 X65.789 Y149.901 E7.8742
G1 X65.789 Y146.138 E8.0713
G1 X66.027 Y146.079 E8.0842
G1 X66.369 Y146.718 E8.1221
G1 X66.758 Y147.192 E8.1543
G1 X67.233 Y147.582 E8.1865
G1 X67.775 Y147.872 E8.2187
G1 X68.363 Y148.050 E8.2508
G1 X68.974 Y148.110 E8.2830
G1 X69.585 Y148.050 E8.3152
G1 X70.173 Y147.872 E8.3474
G1 X70.714 Y147.582 E8.3795
G1 X71.189 Y147.192 E8.4117
G1 X71.579 Y146.718 E8.4439
G1 X71.868 Y146.176 E8.4761
G1 X72.047 Y145.588 E8.5082
G1 X72.107 Y144.977 E8.5404
G1 X72.047 Y144.366 E8.5726
G1 X71.868 Y143.778 E8.6048
G1 X71.579 Y143.236 E8.6369
G1 X71.189 Y142.762 E8.6691
G1 X70.714 Y142.372 E8.7013
G1 X70.173 Y142.083 E8.7335
G1 X69.585 Y141.904 E8.7656
G1 X68.974 Y141.844 E8.7978
G1 X68.363 Y141.904 E8.8300
G1 X67.775 Y142.083 E8.8622
G1 X67.233 Y142.372 E8.8943
G1 X66.758 Y142.762 E8.9265
G1 X66.369 Y143.236 E8.9587
G1 X66.027 Y143.875 E8.9966
G1 X65.789 Y143.816 E9.0095
G1 X65.789 Y141.099 E9.1518
G1 X114.658 Y141.099 E11.7118
G1 X114.658 Y130.826 E12.2500
G1 X106.019 Y112.799 E13.2971
G1 X108.848 Y112.799 E13.4454
G1 X108.848 Y96.139 E14.3181
G1 X106.019 Y96.139 E14.4663
G1 X114.658 Y78.113 E15.5135
G1 X114.658 Y60.299 E16.4466
G1 X114.658 Y60.099 F1200
; outer perimeter
G1 X114.234 Y60.893 F4800
G1 X114.234 Y78.016 F4800
G1 X105.345 Y96.564 F4800
G1 X108.424 Y96.564 F4800
G1 X108.424 Y112.375 F4800
G1 X105.345 Y112.375 F4800
G1 X114.234 Y130.923 F4800
G1 X114.234 Y140.675 F4800
G1 X71.575 Y140.675 F4800
G1 X70.480 Y142.723 F4800
G92 E0
G1 X70.011 Y142.472 E0.0278 F1200
G1 X69.503 Y142.318 E0.0557
G1 X68.974 Y142.266 E0.0835
G1 X68.445 Y142.318 E0.1114
G1 X67.936 Y142.472 E0.1392
G1 X67.468 Y142.723 E0.1670
G1 X67.057 Y143.060 E0.1949
G1 X66.720 Y143.471 E0.2227
G1 X66.469 Y143.940 E0.2506
G1 X66.315 Y144.448 E0.2784
G1 X66.263 Y144.977 E0.3062
G1 X66.315 Y145.506 E0.3341
G1 X66.469 Y146.015 E0.3619
G1 X66.720 Y146.483 E0.3898
G1 X67.057 Y146.894 E0.4176
G1 X67.468 Y147.231 E0.4454
G1 X67.936 Y147.482 E0.4733
G1 X68.445 Y147.636 E0.5011
G1 X68.974 Y147.688 E0.5290
G1 X69.503 Y147.636 E0.5568
G1 X70.011 Y147.482 E0.5846
G1 X70.480 Y147.231 E0.6125
G1 X70.891 Y146.894 E0.6403
G1 X71.228 Y146.483 E0.6682
G1 X71.478 Y146.015 E0.6960
G1 X71.633 Y145.506 E0.7238
G1 X71.685 Y144.977 E0.7517
G1 X71.633 Y144.448 E0.7795
G1 X71.478 Y143.940 E0.8074
G1 X71.228 Y143.471 E0.8352
G1 X70.891 Y143.060 E0.8630
G1 X70.635 Y142.850 E0.8804
G1 X70.480 Y142.723 F1200
G1 X70.011 Y142.472 F2400
G1 X69.503 Y142.318 F2400
G1 X68.974 Y142.266 F2400
G1 X68.570 Y142.306 F2400
; gap fill
G1 X68.563 Y142.311 F4800
G1 X68.446 Y142.322 F4800
G1 X67.938 Y142.476 F4800
G1 X67.470 Y142.726 F4800
G1 X67.060 Y143.063 F4800
G1 X66.723 Y143.473 F4800
G1 X66.657 Y143.598 F4800
G1 X65.667 Y144.266 F4800
G92 E0
G1 X66.000 Y144.599 E0.0247 F1200
G1 X65.963 Y144.977 E0.0446
G1 X65.983 Y145.176 E0.0550
G1 X65.667 Y144.860 E0.0784
G1 X65.667 Y145.454 E0.1095
G1 X65.852 Y145.638 E0.1232
G1 X65.993 Y145.780 F1200
; solid layer
G1 X66.083 Y142.900 F4800
G92 E0
G1 X66.183 Y143.000 E0.0074 F1200
G1 X66.450 Y142.674 E0.0295
G1 X66.083 Y142.306 E0.0568
G1 X66.083 Y141.712 E0.0879
G1 X66.755 Y142.384 E0.1377
G1 X67.069 Y142.126 E0.1590
G1 X67.084 Y142.119 E0.1598
G1 X66.358 Y141.393 E0.2135
G1 X66.952 Y141.393 E0.2447
G1 X67.471 Y141.912 E0.2831
G1 X67.662 Y141.810 E0.2944
G1 X67.892 Y141.740 E0.3070
G1 X67.546 Y141.393 E0.3327
G1 X68.140 Y141.393 E0.3638
G1 X68.356 Y141.609 E0.3798
G1 X68.897 Y141.556 E0.4083
G1 X68.734 Y141.393 E0.4203
G1 X69.328 Y141.393 E0.4514
G1 X69.539 Y141.604 E0.4671
G1 X69.643 Y141.614 E0.4725
G1 X70.286 Y141.810 E0.5077
G1 X70.398 Y141.870 E0.5144
G1 X69.922 Y141.393 E0.5497
G1 X70.516 Y141.393 E0.5808
G1 X78.729 Y149.607 E1.1893
G1 X79.323 Y149.607 E1.2204
G1 X71.110 Y141.393 E1.8289
G1 X71.704 Y141.393 E1.8600
G1 X79.917 Y149.607 E2.4684
G1 X80.511 Y149.607 E2.4995
G1 X72.298 Y141.393 E3.1080
G1 X72.892 Y141.393 E3.1391
G1 X81.105 Y149.607 E3.7476
G1 X81.699 Y149.607 E3.7787
G1 X73.486 Y141.393 E4.3871
G1 X74.080 Y141.393 E4.4183
G1 X82.293 Y149.607 E5.0267
G1 X82.887 Y149.607 E5.0578
G1 X74.674 Y141.393 E5.6663
G1 X75.268 Y141.393 E5.6974
G1 X83.481 Y149.607 E6.3059
G1 X84.075 Y149.607 E6.3370
G1 X75.862 Y141.393 E6.9454
G1 X76.456 Y141.393 E6.9765
G1 X84.669 Y149.607 E7.5850
G1 X85.263 Y149.607 E7.6161
G1 X77.050 Y141.393 E8.2246
G1 X77.644 Y141.393 E8.2557
G1 X85.857 Y149.607 E8.8641
G1 X86.451 Y149.607 E8.8952
G1 X78.238 Y141.393 E9.5037
G1 X78.832 Y141.393 E9.5348
G1 X87.045 Y149.607 E10.1433
G1 X87.639 Y149.607 E10.1744
G1 X79.426 Y141.393 E10.7828
G1 X80.020 Y141.393 E10.8140
G1 X88.233 Y149.607 E11.4224
G1 X88.827 Y149.607 E11.4535
G1 X80.614 Y141.393 E12.0620
G1 X81.208 Y141.393 E12.0931
G1 X89.421 Y149.607 E12.7016
G1 X90.015 Y149.607 E12.7327
G1 X81.801 Y141.393 E13.3411
G1 X82.395 Y141.393 E13.3722
G1 X90.609 Y149.607 E13.9807
G1 X91.203 Y149.607 E14.0118
G1 X82.989 Y141.393 E14.6203
G1 X83.583 Y141.393 E14.6514
G1 X91.797 Y149.607 E15.2598
G1 X92.390 Y149.607 E15.2909
G1 X84.177 Y141.393 E15.8994
G1 X84.771 Y141.393 E15.9305
G1 X92.984 Y149.607 E16.5390
G1 X93.578 Y149.607 E16.5701
G1 X85.365 Y141.393 E17.1785
G1 X85.959 Y141.393 E17.2097
G1 X94.172 Y149.607 E17.8181
G1 X94.766 Y149.607 E17.8492
G1 X86.553 Y141.393 E18.4577
G1 X87.147 Y141.393 E18.4888
G1 X95.360 Y149.607 E19.0973
G1 X95.954 Y149.607 E19.1284
G1 X87.741 Y141.393 E19.7368
G1 X88.335 Y141.393 E19.7679
G1 X96.548 Y149.607 E20.3764
G1 X97.142 Y149.607 E20.4075
G1 X88.929 Y141.393 E21.0160
G1 X89.523 Y141.393 E21.0471
G1 X97.736 Y149.607 E21.6555
G1 X98.330 Y149.607 E21.6866
G1 X90.117 Y141.393 E22.2951
G1 X90.711 Y141.393 E22.3262
G1 X98.924 Y149.607 E22.9347
G1 X99.518 Y149.607 E22.9658
G1 X91.305 Y141.393 E23.5742
G1 X91.899 Y141.393 E23.6054
G1 X100.112 Y149.607 E24.2138
G1 X100.706 Y149.607 E24.2449
G1 X92.493 Y141.393 E24.8534
G1 X93.087 Y141.393 E24.8845
G1 X101.300 Y149.607 E25.4929
G1 X101.894 Y149.607 E25.5241
G1 X93.681 Y141.393 E26.1325
G1 X94.275 Y141.393 E26.1636
G1 X102.488 Y149.607 E26.7721
G1 X103.082 Y149.607 E26.8032
G1 X94.869 Y141.393 E27.4117
G1 X95.463 Y141.393 E27.4428
G1 X103.676 Y149.607 E28.0512
G1 X104.270 Y149.607 E28.0823
G1 X96.057 Y141.393 E28.6908
G1 X96.651 Y141.393 E28.7219
G1 X104.864 Y149.607 E29.3304
G1 X105.458 Y149.607 E29.3615
G1 X97.245 Y141.393 E29.9699
G1 X97.839 Y141.393 E30.0011
G1 X106.052 Y149.607 E30.6095
G1 X106.646 Y149.607 E30.6406
G1 X98.433 Y141.393 E31.2491
G1 X99.027 Y141.393 E31.2802
G1 X107.240 Y149.607 E31.8886
G1 X107.834 Y149.607 E31.9198
G1 X99.621 Y141.393 E32.5282
G1 X100.215 Y141.393 E32.5593
G1 X108.428 Y149.607 E33.1678
G1 X109.022 Y149.607 E33.1989
G1 X100.809 Y141.393 E33.8074
G1 X101.402 Y141.393 E33.8385
G1 X109.616 Y149.607 E34.4469
G1 X110.210 Y149.607 E34.4780
G1 X101.996 Y141.393 E35.0865
G1 X102.590 Y141.393 E35.1176
G1 X110.804 Y149.607 E35.7261
G1 X111.398 Y149.607 E35.7572
G1 X103.184 Y141.393 E36.3656
G1 X103.778 Y141.393 E36.3967
G1 X111.991 Y149.607 E37.0052
G1 X112.585 Y149.607 E37.0363
G1 X104.372 Y141.393 E37.6448
G1 X104.966 Y141.393 E37.6759
G1 X113.179 Y149.607 E38.2843
G1 X113.773 Y149.607 E38.3155
G1 X105.560 Y141.393 E38.9239
G1 X106.154 Y141.393 E38.9550
G1 X114.367 Y149.607 E39.5635
G1 X114.961 Y149.607 E39.5946
G1 X106.748 Y141.393 E40.2030
G1 X107.342 Y141.393 E40.2342
G1 X115.555 Y149.607 E40.8426
G1 X116.149 Y149.607 E40.8737
G1 X107.936 Y141.393 E41.4822
G1 X108.530 Y141.393 E41.5133
G1 X116.743 Y149.607 E42.1218
G1 X117.337 Y149.607 E42.1529
G1 X109.124 Y141.393 E42.7613
G1 X109.718 Y141.393 E42.7924
G1 X117.931 Y149.607 E43.4009
G1 X118.525 Y149.607 E43.4320
G1 X110.312 Y141.393 E44.0405
G1 X110.906 Y141.393 E44.0716
G1 X119.119 Y149.607 E44.6800
G1 X119.713 Y149.607 E44.7111
G1 X111.500 Y141.393 E45.3196
G1 X112.094 Y141.393 E45.3507
G1 X120.187 Y149.486 E45.9502
G1 X120.187 Y148.892 E45.9814
G1 X112.688 Y141.393 E46.5369
G1 X113.282 Y141.393 E46.5680
G1 X120.187 Y148.298 E47.0795
G1 X120.187 Y147.704 E47.1106
G1 X113.876 Y141.393 E47.5782
G1 X114.470 Y141.393 E47.6093
G1 X120.187 Y147.110 E48.0328
G1 X120.187 Y146.516 E48.0639
G1 X114.952 Y141.282 E48.4517
G1 X114.952 Y140.688 E48.4828
G1 X120.187 Y145.922 E48.8706
G1 X120.187 Y145.328 E48.9017
G1 X114.952 Y140.094 E49.2895
G1 X114.952 Y139.500 E49.3207
G1 X120.187 Y144.734 E49.7085
G1 X120.187 Y144.140 E49.7396
G1 X114.952 Y138.906 E50.1274
G1 X114.952 Y138.312 E50.1585
G1 X120.187 Y143.546 E50.5463
G1 X120.187 Y142.952 E50.5774
G1 X114.952 Y137.718 E50.9652
G1 X114.952 Y137.124 E50.9963
G1 X120.187 Y142.358 E51.3841
G1 X120.187 Y141.764 E51.4152
G1 X114.952 Y136.530 E51.8030
G1 X114.952 Y135.936 E51.8341
G1 X120.187 Y141.171 E52.2219
G1 X120.187 Y140.577 E52.2530
G1 X114.952 Y135.342 E52.6408
G1 X114.952 Y134.748 E52.6720
G1 X120.187 Y139.983 E53.0598
G1 X120.187 Y139.389 E53.0909
G1 X114.952 Y134.154 E53.4787
G1 X114.952 Y133.560 E53.5098
G1 X120.187 Y138.795 E53.8976
G1 X120.187 Y138.201 E53.9287
G1 X114.952 Y132.966 E54.3165
G1 X114.952 Y132.372 E54.3476
G1 X120.187 Y137.607 E54.7354
G1 X120.187 Y137.013 E54.7665
G1 X114.952 Y131.778 E55.1543
G1 X114.952 Y131.184 E55.1854
G1 X120.187 Y136.419 E55.5732
G1 X120.187 Y135.825 E55.6044
