; generated by PrusaSlicer 2.4.2+win64 on 2022-07-30 at 21:40:04 UTC

; 

; external perimeters extrusion width = 0.45mm
; perimeters extrusion width = 0.45mm
; infill extrusion width = 0.45mm
; solid infill extrusion width = 0.45mm
; top infill extrusion width = 0.40mm
; first layer extrusion width = 0.42mm

M73 P0 R39
M73 Q0 S39
M107
;TYPE:Custom
M862.3 P "MK3S" ; printer model check
M862.1 P0.4 ; nozzle diameter check
M115 U3.8.0 ; tell printer latest fw version
G90 ; use absolute coordinates
M83 ; extruder relative mode
M104 S215 ; set extruder temp
M140 S60 ; set bed temp
M190 S60 ; wait for bed temp
M109 S215 ; wait for extruder temp
G28 W ; home all without mesh bed level
G80 ; mesh bed leveling
G1 Y-3.0 F1000.0 ; go outside print area
G92 E0.0
G1 X60.0 E9.0 F1000.0 ; intro line
G1 X100.0 E12.5 F1000.0 ; intro line
G92 E0.0
M221 S95
G21 ; set units to millimeters
G90 ; use absolute coordinates
M83 ; use relative distances for extrusion
M900 K0.05 ; Filament gcode LA 1.5
M900 K30 ; Filament gcode LA 1.0
M107
;LAYER_CHANGE
;Z:0.2
;HEIGHT:0.2
;BEFORE_LAYER_CHANGE
G92 E0.0
;0.2


G1 E-.8 F2100
G1 Z.6 F10800
;AFTER_LAYER_CHANGE
;0.2
G1 X113.836 Y98.93
G1 Z.2
G1 E.8 F2100
M204 S1000
;TYPE:Skirt/Brim
;WIDTH:0.42
G1 F1200
G1 X118.302 Y94.219 E.20355
G1 X119.191 Y93.597 E.03402
G1 X120.48 Y93.034 E.04409
G1 X121.54 Y92.804 E.03402
G1 X126.659 Y92.758 E.1605
G1 X128.203 Y92.819 E.04846
G1 X129.216 Y93.058 E.03262
G1 X130.445 Y93.609 E.04221
G1 X131.296 Y94.206 E.03262
G1 X132.156 Y95.104 E.03898
G1 X132.902 Y96.093 E.03882
G1 X133.287 Y96.848 E.0266
G1 X133.729 Y98.307 E.04779
G1 X134.254 Y101.584 E.10406
G1 X134.506 Y107.335 E.18047
G1 X133.835 Y112.438 E.16139
G1 X133.177 Y113.872 E.04949
G1 X131.417 Y115.876 E.08361
G1 X129.683 Y116.793 E.06148
G1 X127.181 Y117.096 E.07904
G1 X122.547 Y117.432 E.14568
G1 X121.473 Y117.29 E.03397
G1 X120.145 Y116.835 E.04402
G1 X119.209 Y116.289 E.03397
G1 X114.372 Y111.966 E.2034
G1 X113.72 Y111.09 E.03423
G1 X113.117 Y109.809 E.04438
G1 X112.857 Y108.749 E.03423
G1 X112.589 Y102.262 E.20357
G1 X112.761 Y101.183 E.03425
G1 X113.258 Y99.857 E.0444
G1 X113.804 Y98.981 E.03237
G1 X114.11 Y99.189 F10800
G1 F1200
G1 X118.575 Y94.479 E.20349
G1 X119.342 Y93.943 E.02936
G1 X120.631 Y93.38 E.04409
G1 X121.546 Y93.181 E.02936
G1 X126.652 Y93.135 E.16008
G1 X128.188 Y93.196 E.04821
G1 X129.062 Y93.402 E.02815
G1 X130.29 Y93.953 E.04221
G1 X131.026 Y94.468 E.02815
G1 X131.867 Y95.346 E.03814
G1 X132.596 Y96.313 E.03797
G1 X132.929 Y96.966 E.02296
G1 X133.357 Y98.367 E.04593
G1 X133.882 Y101.644 E.10406
G1 X134.129 Y107.35 E.17907
G1 X133.461 Y112.385 E.15927
G1 X132.893 Y113.624 E.04271
G1 X131.134 Y115.627 E.08361
G1 X129.637 Y116.418 E.05307
G1 X127.151 Y116.72 E.07854
G1 X122.522 Y117.056 E.14551
G1 X121.595 Y116.933 E.02932
G1 X120.267 Y116.478 E.04402
G1 X119.459 Y116.007 E.02932
G1 X114.624 Y111.685 E.20334
G1 X114.061 Y110.929 E.02955
G1 X113.458 Y109.648 E.04438
G1 X113.233 Y108.733 E.02955
G1 X112.966 Y102.246 E.20357
G1 X113.114 Y101.315 E.02956
G1 X113.611 Y99.989 E.0444
G1 X114.078 Y99.24 E.02768
G1 E-.8 F2100
G1 Z.8 F10800
G1 X116.331 Y100.728
G1 Z.2
G1 E.8 F2100
G1 F1200
G1 X120.165 Y96.681 E.17478
G1 X120.673 Y96.297 E.01997
G1 X121.994 Y95.847 E.04377
G1 X124.459 Y95.809 E.07728
G1 X126.739 Y95.812 E.0715
G1 X127.971 Y95.908 E.03875
G1 X129.117 Y96.403 E.03915
G1 X129.537 Y96.763 E.01734
G1 X130.116 Y97.419 E.02742
G1 X130.659 Y98.692 E.04342
G1 X130.733 Y100.438 E.05479
G1 X130.938 Y101.873 E.04545
G1 X130.983 Y108.105 E.19538
G1 X130.815 Y109.305 E.038
G1 X130.79 Y111.175 E.05865
G1 X130.732 Y111.564 E.01232
G1 X130.349 Y112.435 E.02985
G1 X129.742 Y113.162 E.0297
G1 X129.544 Y113.319 E.00791
G1 X128.528 Y113.84 E.03581
G1 X126.939 Y114.056 E.05026
G1 X124.8 Y114.228 E.06729
G1 X122.826 Y114.358 E.06203
G1 X122.193 Y114.296 E.01993
G1 X120.919 Y113.731 E.04369
G1 X116.763 Y110.015 E.17482
G1 X116.267 Y109.335 E.0264
G1 X115.886 Y108.203 E.03744
G1 X115.656 Y102.636 E.17469
G1 X115.709 Y102.088 E.01726
G1 X116.306 Y100.782 E.04502
G1 X116.626 Y100.965 F10800
G1 F1200
G1 X120.428 Y96.952 E.1733
G1 X120.875 Y96.616 E.01755
G1 X122.03 Y96.223 E.03824
G1 X124.463 Y96.186 E.0763
G1 X126.733 Y96.189 E.07117
G1 X127.854 Y96.267 E.03524
G1 X128.895 Y96.709 E.03546
G1 X129.263 Y97.023 E.01516
G1 X129.812 Y97.645 E.026
G1 X130.298 Y98.805 E.03945
G1 X130.357 Y100.471 E.05227
G1 X130.561 Y101.889 E.04491
G1 X130.606 Y108.093 E.19453
G1 X130.438 Y109.275 E.03744
G1 X130.414 Y111.157 E.05899
G1 X130.363 Y111.48 E.01026
G1 X130.017 Y112.256 E.02665
G1 X129.467 Y112.903 E.02663
G1 X129.356 Y112.992 E.00445
G1 X128.385 Y113.489 E.03419
G1 X126.905 Y113.681 E.0468
G1 X124.774 Y113.852 E.06704
G1 X122.817 Y113.981 E.06148
G1 X122.261 Y113.924 E.01751
G1 X121.149 Y113.431 E.03817
G1 X117.03 Y109.748 E.17325
G1 X116.589 Y109.138 E.02359
G1 X116.261 Y108.161 E.0323
G1 X116.033 Y102.634 E.17343
G1 X116.081 Y102.157 E.01504
G1 X116.601 Y101.019 E.03923
G1 X116.921 Y101.201 F10800
G1 F1200
G1 X120.69 Y97.224 E.1718
G1 X121.076 Y96.936 E.0151
G1 X122.065 Y96.6 E.03275
G1 X124.467 Y96.563 E.07533
G1 X126.728 Y96.566 E.07087
G1 X127.74 Y96.628 E.03181
G1 X128.675 Y97.016 E.03174
G1 X128.99 Y97.283 E.01294
G1 X129.508 Y97.87 E.02454
G1 X129.935 Y98.915 E.03541
G1 X129.98 Y100.503 E.04982
G1 X130.184 Y101.905 E.0444
G1 X130.229 Y108.082 E.19367
G1 X130.063 Y109.232 E.03646
G1 X130.045 Y109.53 E.00935
G1 X130.036 Y111.14 E.05049
G1 X129.996 Y111.394 E.00806
G1 X129.686 Y112.074 E.02343
G1 X129.194 Y112.643 E.02359
G1 X128.243 Y113.138 E.03359
G1 X126.872 Y113.305 E.04333
G1 X124.747 Y113.476 E.06682
G1 X122.809 Y113.604 E.06091
G1 X122.331 Y113.553 E.01507
G1 X121.378 Y113.13 E.03269
G1 X117.297 Y109.481 E.17165
G1 X116.913 Y108.942 E.02076
G1 X116.637 Y108.119 E.02722
G1 X116.411 Y102.633 E.17216
G1 X116.453 Y102.227 E.0128
G1 X116.896 Y101.256 E.03347
G1 X117.217 Y101.438 F10800
G1 F1200
G1 X120.952 Y97.496 E.17028
G1 X121.276 Y97.257 E.01262
M73 Q1 S39
G1 X122.101 Y96.976 E.02731
G1 X124.471 Y96.94 E.07435
G1 X126.723 Y96.943 E.0706
G1 X127.629 Y96.99 E.02845
M73 P1 R39
G1 X128.457 Y97.325 E.02799
G1 X128.717 Y97.543 E.01065
G1 X129.203 Y98.094 E.02304
G1 X129.572 Y99.022 E.0313
G1 X129.603 Y100.518 E.04694
G1 X129.627 Y100.78 E.00825
G1 X129.715 Y101.221 E.01409
G1 X129.807 Y101.918 E.02204
G1 X129.852 Y108.07 E.19289
G1 X129.688 Y109.193 E.03561
G1 X129.668 Y109.517 E.01018
G1 X129.659 Y111.122 E.05031
G1 X129.628 Y111.306 E.00586
G1 X129.382 Y111.848 E.01865
G1 X128.943 Y112.356 E.02107
G1 X128.162 Y112.768 E.02767
G1 X126.838 Y112.93 E.04185
G1 X124.721 Y113.099 E.06657
G1 X122.801 Y113.226 E.06033
G1 X122.402 Y113.181 E.01259
G1 X121.607 Y112.829 E.02726
G1 X117.565 Y109.214 E.17003
G1 X117.237 Y108.748 E.01788
G1 X117.013 Y108.077 E.02219
G1 X116.788 Y102.632 E.17087
G1 X116.824 Y102.298 E.01053
G1 X117.192 Y101.493 E.02775
G1 X117.512 Y101.675 F10800
G1 F1200
G1 X121.213 Y97.768 E.16872
G1 X121.474 Y97.579 E.0101
G1 X122.136 Y97.353 E.02194
G1 X124.476 Y97.317 E.07336
G1 X126.72 Y97.32 E.07037
G1 X127.523 Y97.352 E.02518
G1 X128.24 Y97.635 E.02419
G1 X128.444 Y97.804 E.0083
G1 X128.897 Y98.318 E.02147
G1 X129.208 Y99.124 E.0271
G1 X129.226 Y100.537 E.0443
G1 X129.253 Y100.835 E.00938
G1 X129.342 Y101.277 E.01415
G1 X129.43 Y101.933 E.02073
G1 X129.475 Y108.058 E.19205
G1 X129.312 Y109.154 E.03475
G1 X129.291 Y109.505 E.01102
G1 X129.282 Y111.102 E.05008
G1 X129.262 Y111.213 E.00353
G1 X129.053 Y111.663 E.01556
G1 X128.684 Y112.081 E.01748
G1 X128.083 Y112.398 E.02131
G1 X126.803 Y112.554 E.04041
G1 X124.695 Y112.723 E.06632
G1 X122.795 Y112.849 E.05972
G1 X122.475 Y112.81 E.01008
G1 X121.836 Y112.528 E.0219
G1 X117.832 Y108.947 E.16845
G1 X117.584 Y108.598 E.01342
G1 X117.388 Y108.033 E.01876
G1 X117.165 Y102.631 E.1695
G1 X117.195 Y102.37 E.00823
G1 X117.487 Y101.729 E.02209
G1 X117.808 Y101.911 F10800
G1 F1200
G1 X121.474 Y98.042 E.16712
G1 X121.67 Y97.903 E.00754
G1 X122.172 Y97.729 E.01667
G1 X124.48 Y97.694 E.07237
G1 X126.716 Y97.697 E.07011
G1 X127.475 Y97.728 E.02383
G1 X128.025 Y97.946 E.01855
G1 X128.172 Y98.066 E.00595
G1 X128.592 Y98.542 E.01991
G1 X128.832 Y99.163 E.02086
G1 X128.85 Y100.556 E.0437
G1 X128.88 Y100.889 E.01049
G1 X128.97 Y101.334 E.01424
G1 X129.053 Y101.948 E.01941
G1 X129.097 Y108.046 E.1912
G1 X128.937 Y109.115 E.03389
G1 X128.914 Y109.492 E.01187
G1 X128.906 Y111.079 E.04974
G1 X128.752 Y111.434 E.01215
G1 X128.424 Y111.806 E.01552
G1 X128.003 Y112.028 E.01493
G1 X126.769 Y112.179 E.03896
G1 X124.669 Y112.347 E.06607
G1 X122.789 Y112.471 E.05907
G1 X122.551 Y112.44 E.00752
G1 X122.065 Y112.227 E.01664
G1 X118.098 Y108.679 E.16688
G1 X117.929 Y108.444 E.00909
G1 X117.764 Y107.987 E.01523
G1 X117.543 Y102.632 E.16805
G1 X117.566 Y102.445 E.0059
G1 X117.783 Y101.966 E.01651
G1 X118.104 Y102.147 F10800
G1 F1200
G1 X121.733 Y98.317 E.16544
G1 X121.862 Y98.228 E.00491
G1 X122.209 Y98.106 E.01153
G1 X124.484 Y98.071 E.07135
G1 X126.712 Y98.074 E.06984
G1 X127.427 Y98.103 E.02245
G1 X127.813 Y98.259 E.01304
G1 X127.901 Y98.329 E.00354
G1 X128.287 Y98.766 E.01829
G1 X128.455 Y99.201 E.01461
G1 X128.473 Y100.576 E.0431
G1 X128.506 Y100.944 E.0116
G1 X128.597 Y101.392 E.01434
G1 X128.676 Y101.963 E.01806
G1 X128.72 Y108.033 E.19034
G1 X128.562 Y109.074 E.03302
G1 X128.537 Y109.48 E.01274
G1 X128.529 Y111.02 E.04828
G1 X128.447 Y111.209 E.00647
G1 X128.164 Y111.53 E.01343
G1 X127.923 Y111.657 E.00855
G1 X126.735 Y111.803 E.03751
G1 X124.64 Y111.971 E.0659
G1 X122.785 Y112.094 E.05828
G1 X122.631 Y112.071 E.0049
G1 X122.294 Y111.925 E.01151
G1 X118.364 Y108.411 E.16531
G1 X118.271 Y108.284 E.00493
G1 X118.139 Y107.939 E.01157
G1 X117.92 Y102.634 E.16648
G1 X117.935 Y102.523 E.00351
G1 X118.079 Y102.202 E.01105
G1 X118.401 Y102.381 F10800
G1 F1200
G1 X122.021 Y98.57 E.16482
G1 X122.25 Y98.483 E.00769
G1 X124.488 Y98.448 E.07018
G1 X126.707 Y98.451 E.06958
G1 X127.377 Y98.479 E.02101
G1 X127.633 Y98.594 E.0088
G1 X127.982 Y98.991 E.01657
G1 X128.078 Y99.239 E.00837
G1 X128.096 Y100.595 E.0425
G1 X128.132 Y100.999 E.01272
G1 X128.225 Y101.451 E.01447
G1 X128.299 Y101.978 E.0167
G1 X128.343 Y108.021 E.18945
G1 X128.186 Y109.034 E.03215
G1 X128.16 Y109.47 E.01369
G1 X128.163 Y110.924 E.0456
G1 X128.139 Y110.989 E.00217
G1 X127.904 Y111.255 E.01114
G1 X127.843 Y111.287 E.00217
G1 X126.701 Y111.427 E.03606
G1 X124.611 Y111.595 E.06574
G1 X122.746 Y111.712 E.05861
G1 X122.519 Y111.621 E.00767
G1 X118.628 Y108.142 E.16363
G1 X118.515 Y107.888 E.00872
G1 X118.298 Y102.64 E.1647
G1 X118.377 Y102.436 E.00684
G1 X118.704 Y102.61 F10800
G1 F1200
G1 X122.229 Y98.89 E.16069
G1 X122.298 Y98.859 E.00239
G1 X124.493 Y98.825 E.0688
G1 X126.703 Y98.828 E.06931
G1 X127.318 Y98.854 E.01931
G1 X127.388 Y98.887 E.00242
G1 X127.677 Y99.215 E.01371
G1 X127.702 Y99.278 E.00212
G1 X127.719 Y100.614 E.0419
G1 X127.759 Y101.054 E.01384
G1 X127.852 Y101.511 E.01462
G1 X127.922 Y101.994 E.01532
G1 X127.966 Y108.008 E.18855
G1 X127.811 Y108.993 E.03127
G1 X127.783 Y109.459 E.01463
G1 X127.786 Y110.819 E.04264
G1 X127.691 Y110.926 E.00449
G1 X126.667 Y111.052 E.03236
G1 X124.585 Y111.219 E.06549
G1 X122.81 Y111.336 E.05578
G1 X122.738 Y111.311 E.00238
G1 X118.922 Y107.899 E.16051
G1 X118.89 Y107.83 E.0024
G1 X118.683 Y102.666 E.16204
; printing object griffin-with-base-thic-wings.stl id:0 copy 0
G1 E-.8 F2100
G1 Z.8 F10800
G1 X122.149 Y102.049
G1 Z.2
G1 E.8 F2100
;TYPE:External perimeter
G1 F1200
G1 X122.149 Y107.95 E.18501
G1 X126.728 Y107.939 E.14359
G1 X127.219 Y107.879 E.01551
M73 P1 R38
G1 X127.566 Y107.779 E.01131
G1 X127.567 Y107.993 E.0067
G1 X127.415 Y108.949 E.03035
G1 X127.384 Y109.447 E.01564
G1 X127.387 Y110.562 E.03495
G1 X126.623 Y110.656 E.02414
G1 X124.555 Y110.822 E.06505
G1 X122.91 Y110.93 E.05169
G1 X119.283 Y107.686 E.15257
G1 X119.081 Y102.792 E.15361
G1 X122.431 Y99.255 E.15274
G1 X124.497 Y99.224 E.06478
G1 X126.698 Y99.227 E.06902
G1 X127.174 Y99.247 E.01493
G1 X127.305 Y99.395 E.0062
G1 X127.321 Y100.635 E.03888
G1 X127.364 Y101.112 E.01503
G1 X127.459 Y101.575 E.01482
G1 X127.524 Y102.012 E.01385
G1 X127.525 Y102.249 E.00743
G1 X127.206 Y102.249 E.01002
G1 X126.767 Y102.156 E.01408
G1 X126.296 Y102.083 E.01494
G1 X125.825 Y102.055 E.01479
M73 Q1 S38
G1 X122.209 Y102.049 E.11338
G1 X121.749 Y102.048 F10800
G1 X121.772 Y101.672
;TYPE:Perimeter
G1 F1200
G1 X121.772 Y108.328 E.20868
G1 X126.751 Y108.316 E.15613
G1 X127.141 Y108.269 E.01232
G1 X127.039 Y108.908 E.02029
G1 X127.007 Y109.436 E.0166
G1 X127.009 Y110.228 E.02484
G1 X126.585 Y110.281 E.01341
G1 X124.527 Y110.445 E.06471
G1 X123.043 Y110.543 E.04664
G1 X119.653 Y107.512 E.14261
G1 X119.464 Y102.935 E.14361
G1 X122.596 Y99.63 E.14276
G1 X124.5 Y99.601 E.0597
G1 X126.93 Y99.614 E.07622
G1 X126.944 Y100.654 E.03261
G1 X126.99 Y101.167 E.01615
G1 X127.118 Y101.845 E.02163
G1 X126.336 Y101.707 E.02488
G1 X125.837 Y101.677 E.01569
G1 X121.832 Y101.672 E.12558
G1 E-.8 F2100
G1 Z.8 F10800
G1 X126.829 Y100.522
G1 Z.2
G1 E.8 F2100
;TYPE:Solid infill
;WIDTH:0.431976
G1 F1200
G1 X126.194 Y99.886 E.02907
G1 X125.643 Y99.885 E.01782
G1 X126.684 Y100.927 E.04767
G1 X126.71 Y101.206 E.00906
G1 X126.764 Y101.496 E.00953
G1 X126.69 Y101.482 E.00245
G1 X125.092 Y99.884 E.07311
G1 X124.541 Y99.884 E.01782
G1 X126.065 Y101.408 E.06973
G1 X125.501 Y101.394 E.01824
G1 X123.998 Y99.891 E.06876
G1 X123.456 Y99.9 E.01753
G1 X124.95 Y101.394 E.06835
G1 X124.399 Y101.393 E.01782
G1 X122.914 Y99.908 E.06793
G1 X122.719 Y99.911 E.00632
G1 X122.548 Y100.092 E.00805
G1 X123.848 Y101.392 E.0595
G1 X123.297 Y101.391 E.01782
G1 X122.28 Y100.374 E.04654
G1 X122.012 Y100.657 E.01259
G1 X122.746 Y101.391 E.03358
G1 X122.195 Y101.39 E.01782
G1 X121.745 Y100.939 E.02062
G1 X121.477 Y101.222 E.01259
G1 X121.645 Y101.389 E.00767
G1 X121.489 Y101.389 E.00504
G1 X121.489 Y101.784 E.01276
G1 X121.209 Y101.504 E.01278
G1 X120.942 Y101.787 E.01259
G1 X121.489 Y102.334 E.02503
G1 X121.489 Y102.884 E.0178
G1 X120.674 Y102.069 E.03728
G1 X120.406 Y102.352 E.01259
G1 X121.489 Y103.434 E.04952
G1 X121.489 Y103.985 E.0178
G1 X120.139 Y102.634 E.06177
G1 X119.871 Y102.917 E.01259
G1 X121.489 Y104.535 E.07402
G1 X121.489 Y105.085 E.0178
G1 X119.764 Y103.361 E.07889
G1 X119.788 Y103.935 E.01858
G1 X121.489 Y105.635 E.0778
G1 X121.489 Y106.185 E.0178
G1 X119.812 Y104.508 E.07672
G1 X119.835 Y105.082 E.01858
G1 X121.489 Y106.736 E.07563
G1 X121.489 Y107.286 E.0178
G1 X119.859 Y105.656 E.07455
G1 X119.883 Y106.23 E.01858
G1 X121.658 Y108.006 E.08123
G1 E-.8 F2100
G1 Z.8 F10800
G1 X126.484 Y108.429
G1 Z.2
G1 E.8 F2100
G1 F1200
G1 X126.782 Y108.727 E.01363
G1 X126.736 Y109.232 E.01639
G1 X126.104 Y108.6 E.02892
G1 X125.555 Y108.601 E.01776
G1 X126.725 Y109.771 E.05352
G1 X126.726 Y109.978 E.0067
G1 X126.556 Y109.999 E.00553
G1 X126.414 Y110.01 E.00461
G1 X125.006 Y108.603 E.06441
G1 X124.458 Y108.604 E.01776
G1 X125.905 Y110.051 E.06621
G1 X125.396 Y110.092 E.01653
G1 X123.909 Y108.605 E.06802
G1 X123.36 Y108.607 E.01776
G1 X124.886 Y110.133 E.06983
G1 X124.375 Y110.172 E.01658
G1 X122.811 Y108.608 E.07155
G1 X122.262 Y108.609 E.01776
G1 X123.859 Y110.206 E.07305
G1 X123.343 Y110.24 E.01673
G1 X119.907 Y106.804 E.15721
G1 X119.93 Y107.378 E.01858
G1 X122.106 Y109.554 E.09956
; stop printing object griffin-with-base-thic-wings.stl id:0 copy 0
M106 S84.15
;LAYER_CHANGE
;Z:0.4
;HEIGHT:0.2
;BEFORE_LAYER_CHANGE
G92 E0.0
;0.4


G1 E-.8 F2100
G1 Z.8 F10800
;AFTER_LAYER_CHANGE
;0.4
M104 S210 ; set temperature
G1 X117.473 Y114.737
G1 Z.4
G1 E.8 F2100
;TYPE:Skirt/Brim
;WIDTH:0.42
G1 F2129
G1 X114.372 Y111.966 E.13041
G1 X113.72 Y111.09 E.03423
M73 Q2 S38
G1 X113.117 Y109.809 E.04438
G1 X112.857 Y108.749 E.03423
G1 X112.589 Y102.262 E.20357
G1 X112.761 Y101.183 E.03425
G1 X113.258 Y99.857 E.0444
G1 X113.836 Y98.93 E.03425
M73 P2 R38
G1 X118.302 Y94.219 E.20355
G1 X119.191 Y93.597 E.03402
G1 X120.48 Y93.034 E.04409
G1 X121.54 Y92.804 E.03402
G1 X126.659 Y92.758 E.1605
G1 X128.203 Y92.819 E.04846
G1 X129.216 Y93.058 E.03262
G1 X130.445 Y93.609 E.04221
