; generated by PrusaSlicer 2.1.1+win64 on 2020-05-13 at 18:45:13 UTC

; 

; external perimeters extrusion width = 0.45mm
; perimeters extrusion width = 0.45mm
; infill extrusion width = 0.45mm
; solid infill extrusion width = 0.45mm
; top infill extrusion width = 0.40mm
; first layer extrusion width = 0.42mm

M73 P0 R61
M73 Q0 S61
M201 X1000 Y1000 Z1000 E5000 ; sets maximum accelerations, mm/sec^2
M203 X200 Y200 Z12 E120 ; sets maximum feedrates, mm/sec
M204 P1250 R1250 T1250 ; sets acceleration (P, T) and retract acceleration (R), mm/sec^2
M205 X8.00 Y8.00 Z0.40 E1.50 ; sets the jerk limits, mm/sec
M205 S0 T0 ; sets the minimum extruding and travel feed rate, mm/sec
M107
M862.3 P "MK3S" ; printer model check
M862.1 P0.4 ; nozzle diameter check
M115 U3.8.0 ; tell printer latest fw version
G90 ; use absolute coordinates
M83 ; extruder relative mode
M104 S215 ; set extruder temp
M140 S60 ; set bed temp
M190 S60 ; wait for bed temp
M109 S215 ; wait for extruder temp
G28 W ; home all without mesh bed level
G80 ; mesh bed leveling
G1 Y-3.0 F1000.0 ; go outside print area
G92 E0.0
G1 X60.0 E9.0 F1000.0 ; intro line
M73 Q0 S61
M73 P0 R60
G1 X100.0 E12.5 F1000.0 ; intro line
G92 E0.0
M221 S95
G21 ; set units to millimeters
G90 ; use absolute coordinates
M83 ; use relative distances for extrusion
M900 K30 ; Filament gcode
;BEFORE_LAYER_CHANGE
G92 E0.0
;0.2


G1 E-0.80000 F2100.00000
G1 Z0.600 F10800.000
;AFTER_LAYER_CHANGE
;0.2
G1 X96.908 Y117.197
G1 Z0.200
G1 E0.80000 F2100.00000
M204 S1000
G1 F1200
G1 X95.081 Y117.197 E0.05727
G1 X95.081 Y92.805 E0.76480
G1 X154.920 Y92.813 E1.87620
G1 X154.920 Y94.640 E0.05727
G1 X96.908 Y94.640 E1.81893
G1 X96.908 Y117.137 E0.70539
G1 X97.285 Y117.574 F10800.000
G1 F1200
G1 X94.704 Y117.574 E0.08092
G1 X94.704 Y92.427 E0.78848
G1 X155.297 Y92.436 E1.89985
G1 X155.297 Y95.017 E0.08092
G1 X97.285 Y95.017 E1.81893
G1 X97.285 Y117.514 E0.70539
G1 X97.044 Y117.255 F10800.000
G1 E-0.80000 F2100.00000
G1 Z0.800 F10800.000
G1 X95.194 Y116.320
G1 Z0.200
G1 E0.80000 F2100.00000
G1 F1200
G1 X95.788 Y116.914 E0.02637
G1 X96.322 Y116.914 E0.01677
G1 X95.364 Y115.956 E0.04255
G1 X95.364 Y115.422 E0.01677
G1 X96.625 Y116.683 E0.05599
G1 X96.625 Y116.149 E0.01677
G1 X95.364 Y114.888 E0.05599
G1 X95.364 Y114.354 E0.01677
G1 X96.625 Y115.615 E0.05599
G1 X96.625 Y115.081 E0.01677
G1 X95.364 Y113.820 E0.05599
G1 X95.364 Y113.286 E0.01677
G1 X96.625 Y114.547 E0.05599
G1 X96.625 Y114.013 E0.01677
G1 X95.364 Y112.752 E0.05599
G1 X95.364 Y112.218 E0.01677
G1 X96.625 Y113.479 E0.05599
G1 X96.625 Y112.945 E0.01677
G1 X95.364 Y111.684 E0.05599
G1 X95.364 Y111.150 E0.01677
G1 X96.625 Y112.411 E0.05599
G1 X96.625 Y111.877 E0.01677
G1 X95.364 Y110.616 E0.05599
G1 X95.364 Y110.082 E0.01677
G1 X96.625 Y111.343 E0.05599
G1 X96.625 Y110.808 E0.01677
G1 X95.364 Y109.548 E0.05599
G1 X95.364 Y109.013 E0.01677
G1 X96.625 Y110.274 E0.05599
G1 X96.625 Y109.740 E0.01677
G1 X95.364 Y108.479 E0.05599
G1 X95.364 Y107.945 E0.01677
G1 X96.625 Y109.206 E0.05599
G1 X96.625 Y108.672 E0.01677
G1 X95.364 Y107.411 E0.05599
G1 X95.364 Y106.877 E0.01677
G1 X96.625 Y108.138 E0.05599
G1 X96.625 Y107.604 E0.01677
G1 X95.364 Y106.343 E0.05599
G1 X95.364 Y105.809 E0.01677
G1 X96.625 Y107.070 E0.05599
G1 X96.625 Y106.536 E0.01677
G1 X95.364 Y105.275 E0.05599
G1 X95.364 Y104.741 E0.01677
G1 X96.625 Y106.002 E0.05599
G1 X96.625 Y105.468 E0.01677
G1 X95.364 Y104.207 E0.05599
G1 X95.364 Y103.673 E0.01677
G1 X96.625 Y104.934 E0.05599
G1 X96.625 Y104.400 E0.01677
G1 X95.364 Y103.139 E0.05599
G1 X95.364 Y102.605 E0.01677
G1 X96.625 Y103.866 E0.05599
G1 X96.625 Y103.332 E0.01677
G1 X95.364 Y102.071 E0.05599
G1 X95.364 Y101.537 E0.01677
G1 X96.625 Y102.798 E0.05599
G1 X96.625 Y102.264 E0.01677
G1 X95.364 Y101.003 E0.05599
G1 X95.364 Y100.469 E0.01677
G1 X96.625 Y101.730 E0.05599
G1 X96.625 Y101.196 E0.01677
G1 X95.364 Y99.935 E0.05599
G1 X95.364 Y99.401 E0.01677
G1 X96.625 Y100.662 E0.05599
G1 X96.625 Y100.128 E0.01677
G1 X95.364 Y98.867 E0.05599
G1 X95.364 Y98.333 E0.01677
G1 X96.625 Y99.594 E0.05599
G1 X96.625 Y99.059 E0.01677
G1 X95.364 Y97.799 E0.05599
G1 X95.364 Y97.264 E0.01677
G1 X96.625 Y98.525 E0.05599
G1 X96.625 Y97.991 E0.01677
G1 X95.364 Y96.730 E0.05599
G1 X95.364 Y96.196 E0.01677
G1 X96.625 Y97.457 E0.05599
G1 X96.625 Y96.923 E0.01677
G1 X95.364 Y95.662 E0.05599
G1 X95.364 Y95.128 E0.01677
G1 X96.625 Y96.389 E0.05599
G1 X96.625 Y95.855 E0.01677
G1 X95.364 Y94.594 E0.05599
G1 X95.364 Y94.060 E0.01677
G1 X96.625 Y95.321 E0.05599
G1 X96.625 Y94.787 E0.01677
G1 X95.364 Y93.526 E0.05599
G1 X95.364 Y93.089 E0.01373
G1 X95.461 Y93.089 E0.00304
G1 X96.729 Y94.357 E0.05630
G1 X97.263 Y94.357 E0.01677
G1 X95.997 Y93.091 E0.05622
G1 X96.533 Y93.093 E0.01683
G1 X97.797 Y94.357 E0.05614
G1 X98.331 Y94.357 E0.01677
G1 X97.069 Y93.095 E0.05606
G1 X97.604 Y93.096 E0.01681
G1 X98.865 Y94.357 E0.05599
G1 X99.399 Y94.357 E0.01677
G1 X98.138 Y93.096 E0.05599
G1 X98.672 Y93.096 E0.01677
G1 X99.933 Y94.357 E0.05599
G1 X100.467 Y94.357 E0.01677
G1 X99.206 Y93.096 E0.05599
G1 X99.740 Y93.096 E0.01677
G1 X101.001 Y94.357 E0.05599
G1 X101.535 Y94.357 E0.01677
G1 X100.274 Y93.096 E0.05599
G1 X100.808 Y93.096 E0.01677
G1 X102.069 Y94.357 E0.05599
G1 X102.603 Y94.357 E0.01677
G1 X101.342 Y93.096 E0.05599
G1 X101.876 Y93.096 E0.01677
G1 X103.137 Y94.357 E0.05599
G1 X103.671 Y94.357 E0.01677
G1 X102.410 Y93.096 E0.05599
G1 X102.944 Y93.096 E0.01677
G1 X104.205 Y94.357 E0.05599
G1 X104.739 Y94.357 E0.01677
G1 X103.479 Y93.096 E0.05599
G1 X104.013 Y93.096 E0.01677
G1 X105.274 Y94.357 E0.05599
G1 X105.808 Y94.357 E0.01677
G1 X104.547 Y93.096 E0.05599
G1 X105.081 Y93.096 E0.01677
G1 X106.342 Y94.357 E0.05599
G1 X106.876 Y94.357 E0.01677
G1 X105.615 Y93.096 E0.05599
G1 X106.149 Y93.096 E0.01677
G1 X107.410 Y94.357 E0.05599
G1 X107.944 Y94.357 E0.01677
G1 X106.683 Y93.096 E0.05599
G1 X107.217 Y93.096 E0.01677
G1 X108.478 Y94.357 E0.05599
G1 X109.012 Y94.357 E0.01677
G1 X107.751 Y93.096 E0.05599
G1 X108.285 Y93.096 E0.01677
G1 X109.546 Y94.357 E0.05599
G1 X110.080 Y94.357 E0.01677
G1 X108.819 Y93.096 E0.05599
G1 X109.353 Y93.096 E0.01677
G1 X110.614 Y94.357 E0.05599
G1 X111.148 Y94.357 E0.01677
G1 X109.887 Y93.096 E0.05599
G1 X110.421 Y93.096 E0.01677
G1 X111.682 Y94.357 E0.05599
G1 X112.216 Y94.357 E0.01677
G1 X110.955 Y93.096 E0.05599
G1 X111.489 Y93.096 E0.01677
G1 X112.750 Y94.357 E0.05599
G1 X113.284 Y94.357 E0.01677
G1 X112.023 Y93.096 E0.05599
G1 X112.557 Y93.096 E0.01677
G1 X113.818 Y94.357 E0.05599
G1 X114.352 Y94.357 E0.01677
G1 X113.091 Y93.096 E0.05599
G1 X113.625 Y93.096 E0.01677
G1 X114.886 Y94.357 E0.05599
G1 X115.420 Y94.357 E0.01677
G1 X114.159 Y93.096 E0.05599
G1 X114.694 Y93.096 E0.01677
G1 X115.954 Y94.357 E0.05599
G1 X116.488 Y94.357 E0.01677
G1 X115.228 Y93.096 E0.05599
G1 X115.762 Y93.096 E0.01677
G1 X117.023 Y94.357 E0.05599
G1 X117.557 Y94.357 E0.01677
G1 X116.296 Y93.096 E0.05599
G1 X116.830 Y93.096 E0.01677
G1 X118.091 Y94.357 E0.05599
G1 X118.625 Y94.357 E0.01677
G1 X117.364 Y93.096 E0.05599
G1 X117.898 Y93.096 E0.01677
G1 X119.159 Y94.357 E0.05599
G1 X119.693 Y94.357 E0.01677
G1 X118.432 Y93.096 E0.05599
G1 X118.966 Y93.096 E0.01677
G1 X120.227 Y94.357 E0.05599
G1 X120.761 Y94.357 E0.01677
G1 X119.500 Y93.096 E0.05599
G1 X120.034 Y93.096 E0.01677
G1 X121.295 Y94.357 E0.05599
G1 X121.829 Y94.357 E0.01677
G1 X120.568 Y93.096 E0.05599
G1 X121.102 Y93.096 E0.01677
G1 X122.363 Y94.357 E0.05599
G1 X122.897 Y94.357 E0.01677
G1 X121.636 Y93.096 E0.05599
G1 X122.170 Y93.096 E0.01677
G1 X123.431 Y94.357 E0.05599
G1 X123.965 Y94.357 E0.01677
G1 X122.704 Y93.096 E0.05599
G1 X123.238 Y93.096 E0.01677
G1 X124.499 Y94.357 E0.05599
G1 X125.033 Y94.357 E0.01677
G1 X123.772 Y93.096 E0.05599
G1 X124.306 Y93.096 E0.01677
G1 X125.567 Y94.357 E0.05599
G1 X126.101 Y94.357 E0.01677
G1 X124.840 Y93.096 E0.05599
G1 X125.374 Y93.096 E0.01677
G1 X126.635 Y94.357 E0.05599
G1 X127.169 Y94.357 E0.01677
G1 X125.908 Y93.096 E0.05599
G1 X126.443 Y93.096 E0.01677
G1 X127.703 Y94.357 E0.05599
G1 X128.238 Y94.357 E0.01677
G1 X126.977 Y93.096 E0.05599
G1 X127.511 Y93.096 E0.01677
G1 X128.772 Y94.357 E0.05599
G1 X129.306 Y94.357 E0.01677
G1 X128.045 Y93.096 E0.05599
G1 X128.579 Y93.096 E0.01677
G1 X129.840 Y94.357 E0.05599
G1 X130.374 Y94.357 E0.01677
G1 X129.113 Y93.096 E0.05599
G1 X129.647 Y93.096 E0.01677
G1 X130.908 Y94.357 E0.05599
G1 X131.442 Y94.357 E0.01677
G1 X130.181 Y93.096 E0.05599
G1 X130.715 Y93.096 E0.01677
G1 X131.976 Y94.357 E0.05599
G1 X132.510 Y94.357 E0.01677
G1 X131.249 Y93.096 E0.05599
G1 X131.783 Y93.096 E0.01677
G1 X133.044 Y94.357 E0.05599
G1 X133.578 Y94.357 E0.01677
G1 X132.317 Y93.096 E0.05599
G1 X132.851 Y93.096 E0.01677
G1 X134.112 Y94.357 E0.05599
G1 X134.646 Y94.357 E0.01677
G1 X133.385 Y93.096 E0.05599
G1 X133.919 Y93.096 E0.01677
G1 X135.180 Y94.357 E0.05599
G1 X135.714 Y94.357 E0.01677
G1 X134.453 Y93.096 E0.05599
G1 X134.987 Y93.096 E0.01677
G1 X136.248 Y94.357 E0.05599
G1 X136.782 Y94.357 E0.01677
G1 X135.521 Y93.096 E0.05599
G1 X136.055 Y93.096 E0.01677
G1 X137.316 Y94.357 E0.05599
G1 X137.850 Y94.357 E0.01677
G1 X136.589 Y93.096 E0.05599
G1 X137.123 Y93.096 E0.01677
G1 X138.384 Y94.357 E0.05599
G1 X138.918 Y94.357 E0.01677
G1 X137.657 Y93.096 E0.05599
G1 X138.192 Y93.096 E0.01677
G1 X139.452 Y94.357 E0.05599
G1 X139.987 Y94.357 E0.01677
G1 X138.726 Y93.096 E0.05599
G1 X139.260 Y93.096 E0.01677
G1 X140.521 Y94.357 E0.05599
G1 X141.055 Y94.357 E0.01677
G1 X139.794 Y93.096 E0.05599
G1 X140.328 Y93.096 E0.01677
G1 X141.589 Y94.357 E0.05599
G1 X142.123 Y94.357 E0.01677
G1 X140.862 Y93.096 E0.05599
G1 X141.396 Y93.096 E0.01677
G1 X142.657 Y94.357 E0.05599
G1 X143.191 Y94.357 E0.01677
G1 X141.930 Y93.096 E0.05599
G1 X142.464 Y93.096 E0.01677
G1 X143.725 Y94.357 E0.05599
G1 X144.259 Y94.357 E0.01677
G1 X142.998 Y93.096 E0.05599
G1 X143.532 Y93.096 E0.01677
G1 X144.793 Y94.357 E0.05599
G1 X145.327 Y94.357 E0.01677
G1 X144.066 Y93.096 E0.05599
G1 X144.600 Y93.096 E0.01677
G1 X145.861 Y94.357 E0.05599
G1 X146.395 Y94.357 E0.01677
G1 X145.134 Y93.096 E0.05599
G1 X145.668 Y93.096 E0.01677
G1 X146.929 Y94.357 E0.05599
G1 X147.463 Y94.357 E0.01677
G1 X146.202 Y93.096 E0.05599
G1 X146.736 Y93.096 E0.01677
G1 X147.997 Y94.357 E0.05599
G1 X148.531 Y94.357 E0.01677
G1 X147.270 Y93.096 E0.05599
G1 X147.804 Y93.096 E0.01677
G1 X149.065 Y94.357 E0.05599
G1 X149.599 Y94.357 E0.01677
G1 X148.338 Y93.096 E0.05599
G1 X148.872 Y93.096 E0.01677
G1 X150.133 Y94.357 E0.05599
G1 X150.667 Y94.357 E0.01677
G1 X149.407 Y93.096 E0.05599
G1 X149.941 Y93.096 E0.01677
G1 X151.202 Y94.357 E0.05599
G1 X151.736 Y94.357 E0.01677
G1 X150.475 Y93.096 E0.05599
G1 X151.009 Y93.096 E0.01677
G1 X152.270 Y94.357 E0.05599
G1 X152.804 Y94.357 E0.01677
G1 X151.543 Y93.096 E0.05599
G1 X152.077 Y93.096 E0.01677
G1 X153.338 Y94.357 E0.05599
G1 X153.872 Y94.357 E0.01677
G1 X152.611 Y93.096 E0.05599
G1 X153.145 Y93.096 E0.01677
G1 X154.406 Y94.357 E0.05599
G1 X154.637 Y94.357 E0.00726
G1 X154.637 Y94.054 E0.00951
G1 X153.679 Y93.096 E0.04255
G1 X154.213 Y93.096 E0.01677
G1 X154.807 Y93.690 E0.02637
G1 E-0.80000 F2100.00000
G1 Z0.800 F10800.000
G1 X103.484 Y123.892
G1 Z0.200
G1 E0.80000 F2100.00000
G1 F1200
G1 X101.657 Y123.892 E0.05727
G1 X101.657 Y99.500 E0.76480
G1 X161.496 Y99.508 E1.87620
G1 X161.496 Y101.335 E0.05727
G1 X103.484 Y101.335 E1.81893
G1 X103.484 Y123.832 E0.70539
G1 X103.861 Y124.269 F10800.000
G1 F1200
G1 X101.280 Y124.269 E0.08092
G1 X101.280 Y99.122 E0.78848
G1 X161.873 Y99.131 E1.89985
G1 X161.873 Y101.712 E0.08092
G1 X103.861 Y101.712 E1.81893
G1 X103.861 Y124.209 E0.70539
G1 X103.620 Y123.950 F10800.000
G1 E-0.80000 F2100.00000
G1 Z0.800 F10800.000
G1 X101.770 Y123.015
G1 Z0.200
G1 E0.80000 F2100.00000
G1 F1200
G1 X102.364 Y123.609 E0.02637
G1 X102.898 Y123.609 E0.01677
G1 X101.940 Y122.651 E0.04255
G1 X101.940 Y122.117 E0.01677
G1 X103.201 Y123.378 E0.05599
G1 X103.201 Y122.844 E0.01677
G1 X101.940 Y121.583 E0.05599
G1 X101.940 Y121.049 E0.01677
G1 X103.201 Y122.310 E0.05599
G1 X103.201 Y121.776 E0.01677
G1 X101.940 Y120.515 E0.05599
G1 X101.940 Y119.981 E0.01677
G1 X103.201 Y121.242 E0.05599
G1 X103.201 Y120.708 E0.01677
M73 Q1 S60
G1 X101.940 Y119.447 E0.05599
G1 X101.940 Y118.913 E0.01677
G1 X103.201 Y120.174 E0.05599
G1 X103.201 Y119.640 E0.01677
G1 X101.940 Y118.379 E0.05599
G1 X101.940 Y117.845 E0.01677
G1 X103.201 Y119.106 E0.05599
G1 X103.201 Y118.571 E0.01677
G1 X101.940 Y117.311 E0.05599
G1 X101.940 Y116.776 E0.01677
M73 P1 R59
G1 X103.201 Y118.037 E0.05599
G1 X103.201 Y117.503 E0.01677
G1 X101.940 Y116.242 E0.05599
G1 X101.940 Y115.708 E0.01677
G1 X103.201 Y116.969 E0.05599
G1 X103.201 Y116.435 E0.01677
G1 X101.940 Y115.174 E0.05599
G1 X101.940 Y114.640 E0.01677
G1 X103.201 Y115.901 E0.05599
G1 X103.201 Y115.367 E0.01677
G1 X101.940 Y114.106 E0.05599
G1 X101.940 Y113.572 E0.01677
G1 X103.201 Y114.833 E0.05599
G1 X103.201 Y114.299 E0.01677
G1 X101.940 Y113.038 E0.05599
G1 X101.940 Y112.504 E0.01677
G1 X103.201 Y113.765 E0.05599
G1 X103.201 Y113.231 E0.01677
G1 X101.940 Y111.970 E0.05599
G1 X101.940 Y111.436 E0.01677
G1 X103.201 Y112.697 E0.05599
G1 X103.201 Y112.163 E0.01677
G1 X101.940 Y110.902 E0.05599
G1 X101.940 Y110.368 E0.01677
G1 X103.201 Y111.629 E0.05599
G1 X103.201 Y111.095 E0.01677
G1 X101.940 Y109.834 E0.05599
G1 X101.940 Y109.300 E0.01677
G1 X103.201 Y110.561 E0.05599
G1 X103.201 Y110.027 E0.01677
G1 X101.940 Y108.766 E0.05599
G1 X101.940 Y108.232 E0.01677
G1 X103.201 Y109.493 E0.05599
G1 X103.201 Y108.959 E0.01677
G1 X101.940 Y107.698 E0.05599
G1 X101.940 Y107.164 E0.01677
G1 X103.201 Y108.425 E0.05599
G1 X103.201 Y107.891 E0.01677
G1 X101.940 Y106.630 E0.05599
G1 X101.940 Y106.096 E0.01677
G1 X103.201 Y107.357 E0.05599
G1 X103.201 Y106.822 E0.01677
G1 X101.940 Y105.562 E0.05599
G1 X101.940 Y105.027 E0.01677
G1 X103.201 Y106.288 E0.05599
G1 X103.201 Y105.754 E0.01677
G1 X101.940 Y104.493 E0.05599
G1 X101.940 Y103.959 E0.01677
G1 X103.201 Y105.220 E0.05599
G1 X103.201 Y104.686 E0.01677
G1 X101.940 Y103.425 E0.05599
G1 X101.940 Y102.891 E0.01677
G1 X103.201 Y104.152 E0.05599
G1 X103.201 Y103.618 E0.01677
G1 X101.940 Y102.357 E0.05599
G1 X101.940 Y101.823 E0.01677
G1 X103.201 Y103.084 E0.05599
G1 X103.201 Y102.550 E0.01677
G1 X101.940 Y101.289 E0.05599
G1 X101.940 Y100.755 E0.01677
G1 X103.201 Y102.016 E0.05599
G1 X103.201 Y101.482 E0.01677
G1 X101.940 Y100.221 E0.05599
G1 X101.940 Y99.784 E0.01373
G1 X102.037 Y99.784 E0.00304
G1 X103.305 Y101.052 E0.05630
G1 X103.839 Y101.052 E0.01677
G1 X102.573 Y99.786 E0.05622
G1 X103.109 Y99.788 E0.01683
G1 X104.373 Y101.052 E0.05614
G1 X104.907 Y101.052 E0.01677
G1 X103.645 Y99.789 E0.05606
G1 X104.180 Y99.791 E0.01681
G1 X105.441 Y101.052 E0.05599
G1 X105.975 Y101.052 E0.01677
G1 X104.714 Y99.791 E0.05599
G1 X105.248 Y99.791 E0.01677
G1 X106.509 Y101.052 E0.05599
G1 X107.043 Y101.052 E0.01677
G1 X105.782 Y99.791 E0.05599
G1 X106.316 Y99.791 E0.01677
G1 X107.577 Y101.052 E0.05599
G1 X108.111 Y101.052 E0.01677
G1 X106.850 Y99.791 E0.05599
G1 X107.384 Y99.791 E0.01677
G1 X108.645 Y101.052 E0.05599
G1 X109.179 Y101.052 E0.01677
G1 X107.918 Y99.791 E0.05599
G1 X108.453 Y99.791 E0.01677
G1 X109.713 Y101.052 E0.05599
G1 X110.248 Y101.052 E0.01677
G1 X108.987 Y99.791 E0.05599
G1 X109.521 Y99.791 E0.01677
G1 X110.782 Y101.052 E0.05599
G1 X111.316 Y101.052 E0.01677
G1 X110.055 Y99.791 E0.05599
G1 X110.589 Y99.791 E0.01677
G1 X111.850 Y101.052 E0.05599
G1 X112.384 Y101.052 E0.01677
G1 X111.123 Y99.791 E0.05599
G1 X111.657 Y99.791 E0.01677
G1 X112.918 Y101.052 E0.05599
G1 X113.452 Y101.052 E0.01677
G1 X112.191 Y99.791 E0.05599
G1 X112.725 Y99.791 E0.01677
G1 X113.986 Y101.052 E0.05599
G1 X114.520 Y101.052 E0.01677
G1 X113.259 Y99.791 E0.05599
G1 X113.793 Y99.791 E0.01677
G1 X115.054 Y101.052 E0.05599
G1 X115.588 Y101.052 E0.01677
G1 X114.327 Y99.791 E0.05599
G1 X114.861 Y99.791 E0.01677
G1 X116.122 Y101.052 E0.05599
G1 X116.656 Y101.052 E0.01677
G1 X115.395 Y99.791 E0.05599
G1 X115.929 Y99.791 E0.01677
G1 X117.190 Y101.052 E0.05599
G1 X117.724 Y101.052 E0.01677
G1 X116.463 Y99.791 E0.05599
