; generated by PrusaSlicer 2.2.0+win64 on 2020-08-17 at 16:05:26 UTC

; 

; external perimeters extrusion width = 0.45mm
; perimeters extrusion width = 0.45mm
; infill extrusion width = 0.45mm
; solid infill extrusion width = 0.45mm
; top infill extrusion width = 0.40mm
; support material extrusion width = 0.35mm
; first layer extrusion width = 0.42mm

M73 P0 R153
M73 Q0 S154
M201 X1000 Y1000 Z1000 E5000 ; sets maximum accelerations, mm/sec^2
M203 X200 Y200 Z12 E120 ; sets maximum feedrates, mm/sec
M204 P1250 R1250 T1250 ; sets acceleration (P, T) and retract acceleration (R), mm/sec^2
M205 X8.00 Y8.00 Z0.40 E1.50 ; sets the jerk limits, mm/sec
M205 S0 T0 ; sets the minimum extruding and travel feed rate, mm/sec
M107
M862.3 P "MK3S" ; printer model check
M862.1 P0.4 ; nozzle diameter check
M115 U3.8.0 ; tell printer latest fw version
G90 ; use absolute coordinates
M83 ; extruder relative mode
M104 S215 ; set extruder temp
M140 S60 ; set bed temp
M190 S60 ; wait for bed temp
M109 S215 ; wait for extruder temp
G28 W ; home all without mesh bed level
G80 ; mesh bed leveling
G1 Y-3.0 F1000.0 ; go outside print area
G92 E0.0
G1 X60.0 E9.0 F1000.0 ; intro line
M73 Q0 S154
M73 P0 R153
G1 X100.0 E12.5 F1000.0 ; intro line
G92 E0.0
M221 S95
G21 ; set units to millimeters
G90 ; use absolute coordinates
M83 ; use relative distances for extrusion
M900 K0.06 ; Filament gcode LA 1.5
M900 K30 ; Filament gcode LA 1.0
;BEFORE_LAYER_CHANGE
G92 E0.0
;0.2


G1 E-0.80000 F2100.00000
G1 Z0.600 F10800.000
;AFTER_LAYER_CHANGE
;0.2
G1 X51.877 Y83.037
G1 Z0.200
G1 E0.80000 F2100.00000
M204 S1000
G1 F1200.000
G1 X44.580 Y75.741 E0.32353
G1 X44.580 Y74.979 E0.02389
G1 X52.469 Y82.867 E0.34979
G1 X53.231 Y82.867 E0.02389
G1 X44.580 Y74.217 E0.38357
G1 X44.580 Y73.780 E0.01370
G1 X44.743 Y73.618 E0.00720
G1 X53.830 Y82.705 E0.40294
G1 X54.211 Y82.324 E0.01689
G1 X44.580 Y72.694 E0.42703
G1 X44.580 Y71.932 E0.02389
G1 X54.592 Y81.943 E0.44392
G1 X54.973 Y81.562 E0.01689
G1 X44.580 Y71.170 E0.46081
G1 X44.580 Y70.518 E0.02046
G1 X44.635 Y70.463 E0.00243
G1 X55.354 Y81.181 E0.47528
G1 X55.735 Y80.801 E0.01689
G1 X45.016 Y70.082 E0.47528
G1 X45.047 Y70.051 E0.00138
G1 X44.580 Y69.584 E0.02070
G1 X44.580 Y68.885 E0.02193
G1 X56.116 Y80.420 E0.51148
G1 X56.496 Y80.039 E0.01689
G1 X44.580 Y68.123 E0.52837
G1 X44.580 Y67.361 E0.02389
G1 X56.877 Y79.658 E0.54526
G1 X57.258 Y79.277 E0.01689
G1 X44.908 Y66.927 E0.54762
G1 X45.047 Y66.788 E0.00616
G1 X44.580 Y66.321 E0.02070
G1 X44.580 Y65.837 E0.01518
G1 X57.639 Y78.896 E0.57905
G1 X58.020 Y78.515 E0.01689
G1 X44.580 Y65.075 E0.59594
G1 X44.580 Y64.314 E0.02389
G1 X58.401 Y78.134 E0.61283
G1 X58.782 Y77.753 E0.01689
G1 X44.801 Y63.772 E0.61995
G1 X45.047 Y63.525 E0.01094
G1 X44.580 Y63.059 E0.02070
G1 X44.580 Y62.790 E0.00842
G1 X59.163 Y77.372 E0.64661
G1 X59.544 Y76.991 E0.01689
G1 X44.580 Y62.028 E0.66350
G1 X44.580 Y61.266 E0.02389
G1 X59.925 Y76.611 E0.68039
G1 X60.306 Y76.230 E0.01689
G1 X44.693 Y60.617 E0.69229
G1 X45.047 Y60.263 E0.01571
G1 X44.580 Y59.796 E0.02070
G1 X44.580 Y59.743 E0.00167
G1 X60.426 Y75.588 E0.70261
G1 X60.426 Y74.826 E0.02389
G1 X44.580 Y58.981 E0.70261
G1 X44.580 Y58.219 E0.02389
G1 X60.426 Y74.064 E0.70261
G1 X60.426 Y73.780 E0.00891
G1 X59.959 Y73.313 E0.02070
G1 X60.198 Y73.075 E0.01059
G1 X44.585 Y57.462 E0.69229
G1 X44.966 Y57.081 E0.01689
G1 X60.426 Y72.541 E0.68551
G1 X60.426 Y71.779 E0.02389
G1 X44.580 Y55.934 E0.70261
G1 X44.580 Y55.172 E0.02389
G1 X60.426 Y71.017 E0.70261
G1 X60.426 Y70.518 E0.01566
G1 X59.959 Y70.051 E0.02070
G1 X60.090 Y69.920 E0.00581
G1 X44.580 Y54.410 E0.68772
G1 X44.580 Y54.204 E0.00646
G1 X44.858 Y53.926 E0.01232
G1 X60.426 Y69.494 E0.69028
G1 X60.426 Y68.732 E0.02389
G1 X44.580 Y52.886 E0.70261
G1 X44.580 Y52.125 E0.02389
G1 X60.426 Y67.970 E0.70261
G1 X60.426 Y67.255 E0.02242
G1 X59.959 Y66.788 E0.02070
G1 X59.982 Y66.765 E0.00104
G1 X44.580 Y51.363 E0.68295
G1 X44.580 Y50.941 E0.01321
G1 X44.751 Y50.771 E0.00755
G1 X60.363 Y66.384 E0.69229
G1 X60.426 Y66.321 E0.00277
G1 X60.426 Y65.684 E0.01997
G1 X44.580 Y49.839 E0.70261
G1 X44.580 Y49.077 E0.02389
G1 X60.426 Y64.923 E0.70261
G1 X60.426 Y64.161 E0.02389
G1 X44.580 Y48.316 E0.70261
G1 X44.580 Y47.679 E0.01997
G1 X44.643 Y47.616 E0.00277
G1 X60.256 Y63.229 E0.69229
G1 X60.426 Y63.059 E0.00755
G1 X60.426 Y62.637 E0.01321
G1 X45.024 Y47.235 E0.68295
G1 X45.047 Y47.212 E0.00104
G1 X44.580 Y46.745 E0.02070
G1 X44.580 Y46.030 E0.02242
G1 X60.426 Y61.875 E0.70261
G1 X60.426 Y61.114 E0.02389
G1 X44.580 Y45.268 E0.70261
G1 X44.580 Y44.506 E0.02389
G1 X60.148 Y60.074 E0.69028
G1 X60.426 Y59.796 E0.01232
G1 X60.426 Y59.590 E0.00646
G1 X44.916 Y44.080 E0.68772
G1 X45.047 Y43.949 E0.00581
G1 X44.580 Y43.482 E0.02070
G1 X44.580 Y42.983 E0.01566
G1 X60.426 Y58.828 E0.70261
G1 X60.426 Y58.066 E0.02389
G1 X44.580 Y42.221 E0.70261
G1 X44.580 Y41.459 E0.02389
G1 X60.040 Y56.919 E0.68551
G1 X60.421 Y56.538 E0.01689
G1 X44.808 Y40.925 E0.69229
G1 X45.047 Y40.686 E0.01059
G1 X42.949 Y38.588 E0.09304
G1 X42.949 Y38.304 E0.00891
G1 X60.426 Y55.781 E0.77494
G1 X60.426 Y55.019 E0.02389
G1 X42.949 Y37.542 E0.77494
G1 X42.949 Y36.781 E0.02389
G1 X60.426 Y54.257 E0.77494
G1 X60.426 Y54.204 E0.00167
G1 X59.959 Y53.737 E0.02070
G1 X60.313 Y53.383 E0.01571
G1 X43.069 Y36.139 E0.76463
G1 X43.416 Y35.792 E0.01537
G1 X42.949 Y35.326 E0.02070
G1 X42.949 Y35.257 E0.00215
G1 X60.426 Y52.734 E0.77494
G1 X60.426 Y51.972 E0.02389
G1 X42.949 Y34.495 E0.77494
M73 Q0 S153
G1 X42.949 Y33.733 E0.02389
G1 X60.426 Y51.210 E0.77494
M73 P0 R152
G1 X60.426 Y50.941 E0.00842
G1 X59.959 Y50.475 E0.02070
G1 X60.206 Y50.228 E0.01094
G1 X42.962 Y32.984 E0.76463
G1 X43.343 Y32.603 E0.01689
G1 X60.426 Y49.686 E0.75750
G1 X60.426 Y48.925 E0.02389
G1 X43.723 Y32.222 E0.74061
G1 X44.104 Y31.841 E0.01689
G1 X60.426 Y48.163 E0.72372
G1 X60.426 Y47.679 E0.01518
G1 X59.959 Y47.212 E0.02070
G1 X60.098 Y47.073 E0.00616
G1 X44.485 Y31.460 E0.69229
G1 X44.866 Y31.079 E0.01689
G1 X60.426 Y46.639 E0.68994
G1 X60.426 Y45.877 E0.02389
G1 X45.247 Y30.699 E0.67305
G1 X45.628 Y30.318 E0.01689
G1 X60.426 Y45.115 E0.65616
G1 X60.426 Y44.416 E0.02193
G1 X59.959 Y43.949 E0.02070
G1 X59.990 Y43.918 E0.00138
G1 X46.009 Y29.937 E0.61995
G1 X46.390 Y29.556 E0.01689
G1 X60.371 Y43.537 E0.61995
G1 X60.426 Y43.482 E0.00243
G1 X60.426 Y42.830 E0.02045
G1 X47.097 Y29.501 E0.59103
G1 X47.859 Y29.501 E0.02389
G1 X60.426 Y42.068 E0.55725
G1 X60.426 Y41.306 E0.02389
G1 X48.621 Y29.501 E0.52347
G1 X48.774 Y29.501 E0.00480
G1 X49.240 Y29.968 E0.02070
G1 X49.545 Y29.664 E0.01350
G1 X60.263 Y40.382 E0.47528
G1 X60.644 Y40.001 E0.01689
G1 X50.144 Y29.501 E0.46559
G1 X50.906 Y29.501 E0.02389
G1 X61.025 Y39.620 E0.44870
G1 X61.406 Y39.239 E0.01689
G1 X51.668 Y29.501 E0.43181
G1 X52.036 Y29.501 E0.01156
G1 X52.503 Y29.968 E0.02070
G1 X52.700 Y29.771 E0.00872
G1 X61.787 Y38.858 E0.40294
G1 X62.057 Y38.588 E0.01198
G1 X62.057 Y38.367 E0.00694
G1 X53.191 Y29.501 E0.39312
G1 X53.953 Y29.501 E0.02389
G1 X62.057 Y37.605 E0.35934
G1 X62.057 Y36.843 E0.02389
G1 X54.715 Y29.501 E0.32556
G1 X55.299 Y29.501 E0.01831
G1 X55.766 Y29.968 E0.02070
G1 X55.855 Y29.879 E0.00394
G1 X61.679 Y35.703 E0.25827
G1 X62.057 Y35.320 E0.01689
G1 X56.239 Y29.501 E0.25800
G1 X57.000 Y29.501 E0.02389
G1 X62.057 Y34.558 E0.22422
G1 X62.057 Y33.796 E0.02389
G1 X57.762 Y29.501 E0.19044
G1 X58.524 Y29.501 E0.02389
G1 X62.227 Y33.204 E0.16418
G1 E-0.80000 F2100.00000
G1 Z0.800 F10800.000
G1 X63.035 Y83.037
G1 Z0.200
G1 E0.80000 F2100.00000
G1 F1200.000
G1 X55.739 Y75.741 E0.32353
G1 X55.739 Y74.979 E0.02389
G1 X63.627 Y82.867 E0.34979
G1 X64.389 Y82.867 E0.02389
G1 X55.739 Y74.217 E0.38357
G1 X55.739 Y73.780 E0.01370
G1 X55.901 Y73.618 E0.00720
G1 X64.988 Y82.705 E0.40294
G1 X65.369 Y82.324 E0.01689
G1 X55.739 Y72.694 E0.42703
G1 X55.739 Y71.932 E0.02389
G1 X65.750 Y81.943 E0.44392
G1 X66.131 Y81.562 E0.01689
G1 X55.739 Y71.170 E0.46081
G1 X55.739 Y70.518 E0.02046
G1 X55.793 Y70.463 E0.00243
G1 X66.512 Y81.181 E0.47528
G1 X66.893 Y80.801 E0.01689
G1 X56.174 Y70.082 E0.47528
G1 X56.205 Y70.051 E0.00138
G1 X55.739 Y69.584 E0.02070
G1 X55.739 Y68.885 E0.02193
G1 X67.274 Y80.420 E0.51148
G1 X67.655 Y80.039 E0.01689
G1 X55.739 Y68.123 E0.52837
G1 X55.739 Y67.361 E0.02389
G1 X68.036 Y79.658 E0.54526
G1 X68.416 Y79.277 E0.01689
G1 X56.067 Y66.927 E0.54762
G1 X56.205 Y66.788 E0.00616
G1 X55.739 Y66.321 E0.02070
G1 X55.739 Y65.837 E0.01518
G1 X68.797 Y78.896 E0.57905
G1 X69.178 Y78.515 E0.01689
G1 X55.739 Y65.075 E0.59594
G1 X55.739 Y64.314 E0.02389
G1 X69.559 Y78.134 E0.61283
G1 X69.940 Y77.753 E0.01689
G1 X55.959 Y63.772 E0.61995
G1 X56.205 Y63.525 E0.01094
G1 X55.739 Y63.059 E0.02070
G1 X55.739 Y62.790 E0.00842
G1 X70.321 Y77.372 E0.64661
G1 X70.702 Y76.991 E0.01689
G1 X55.739 Y62.028 E0.66350
G1 X55.739 Y61.266 E0.02389
G1 X71.083 Y76.611 E0.68039
G1 X71.464 Y76.230 E0.01689
G1 X55.851 Y60.617 E0.69229
G1 X56.205 Y60.263 E0.01571
G1 X55.739 Y59.796 E0.02070
G1 X55.739 Y59.743 E0.00167
G1 X71.584 Y75.588 E0.70261
G1 X71.584 Y74.826 E0.02389
G1 X55.739 Y58.981 E0.70261
G1 X55.739 Y58.219 E0.02389
G1 X71.584 Y74.064 E0.70261
G1 X71.584 Y73.780 E0.00891
G1 X71.117 Y73.313 E0.02070
G1 X71.356 Y73.075 E0.01059
G1 X55.743 Y57.462 E0.69229
G1 X56.124 Y57.081 E0.01689
G1 X71.584 Y72.541 E0.68551
G1 X71.584 Y71.779 E0.02389
G1 X55.739 Y55.934 E0.70261
G1 X55.739 Y55.172 E0.02389
G1 X71.584 Y71.017 E0.70261
G1 X71.584 Y70.518 E0.01566
G1 X71.117 Y70.051 E0.02070
G1 X71.248 Y69.920 E0.00581
G1 X55.739 Y54.410 E0.68772
G1 X55.739 Y54.204 E0.00646
G1 X56.017 Y53.926 E0.01232
G1 X71.584 Y69.494 E0.69028
G1 X71.584 Y68.732 E0.02389
G1 X55.739 Y52.886 E0.70261
G1 X55.739 Y52.125 E0.02389
G1 X71.584 Y67.970 E0.70261
G1 X71.584 Y67.255 E0.02242
G1 X71.117 Y66.788 E0.02070
G1 X71.141 Y66.765 E0.00104
G1 X55.739 Y51.363 E0.68295
G1 X55.739 Y50.941 E0.01321
G1 X55.909 Y50.771 E0.00755
G1 X71.521 Y66.384 E0.69229
G1 X71.584 Y66.321 E0.00277
G1 X71.584 Y65.684 E0.01997
G1 X55.739 Y49.839 E0.70261
G1 X55.739 Y49.077 E0.02389
G1 X71.584 Y64.923 E0.70261
M73 Q1 S152
G1 X71.584 Y64.161 E0.02389
G1 X55.739 Y48.316 E0.70261
G1 X55.739 Y47.679 E0.01997
G1 X55.801 Y47.616 E0.00277
G1 X71.414 Y63.229 E0.69229
M73 P1 R151
G1 X71.584 Y63.059 E0.00755
G1 X71.584 Y62.637 E0.01321
G1 X56.182 Y47.235 E0.68295
G1 X56.205 Y47.212 E0.00104
G1 X55.739 Y46.745 E0.02070
G1 X55.739 Y46.030 E0.02242
G1 X71.584 Y61.875 E0.70261
G1 X71.584 Y61.114 E0.02389
G1 X55.739 Y45.268 E0.70261
G1 X55.739 Y44.506 E0.02389
G1 X71.306 Y60.074 E0.69028
G1 X71.584 Y59.796 E0.01232
G1 X71.584 Y59.590 E0.00646
G1 X56.074 Y44.080 E0.68772
G1 X56.205 Y43.949 E0.00581
G1 X55.739 Y43.482 E0.02070
G1 X55.739 Y42.983 E0.01566
G1 X71.584 Y58.828 E0.70261
G1 X71.584 Y58.066 E0.02389
G1 X55.739 Y42.221 E0.70261
G1 X55.739 Y41.459 E0.02389
G1 X71.198 Y56.919 E0.68551
G1 X71.579 Y56.538 E0.01689
G1 X55.967 Y40.925 E0.69229
G1 X56.205 Y40.686 E0.01059
G1 X54.107 Y38.588 E0.09304
G1 X54.107 Y38.304 E0.00891
G1 X71.584 Y55.781 E0.77494
G1 X71.584 Y55.019 E0.02389
G1 X54.107 Y37.542 E0.77494
G1 X54.107 Y36.781 E0.02389
G1 X71.584 Y54.257 E0.77494
G1 X71.584 Y54.204 E0.00167
G1 X71.117 Y53.737 E0.02070
G1 X71.471 Y53.383 E0.01571
G1 X54.228 Y36.139 E0.76463
G1 X54.574 Y35.792 E0.01537
G1 X54.107 Y35.326 E0.02070
G1 X54.107 Y35.257 E0.00215
G1 X71.584 Y52.734 E0.77494
G1 X71.584 Y51.972 E0.02389
G1 X54.107 Y34.495 E0.77494
G1 X54.107 Y33.733 E0.02389
G1 X71.584 Y51.210 E0.77494
G1 X71.584 Y50.941 E0.00842
G1 X71.117 Y50.475 E0.02070
G1 X71.364 Y50.228 E0.01094
G1 X54.120 Y32.984 E0.76463
G1 X54.501 Y32.603 E0.01689
G1 X71.584 Y49.686 E0.75750
G1 X71.584 Y48.925 E0.02389
G1 X54.882 Y32.222 E0.74061
G1 X55.263 Y31.841 E0.01689
G1 X71.584 Y48.163 E0.72372
G1 X71.584 Y47.679 E0.01518
G1 X71.117 Y47.212 E0.02070
G1 X71.256 Y47.073 E0.00616
G1 X55.643 Y31.460 E0.69229
G1 X56.024 Y31.079 E0.01689
G1 X71.584 Y46.639 E0.68994
G1 X71.584 Y45.877 E0.02389
G1 X56.405 Y30.699 E0.67305
G1 X56.786 Y30.318 E0.01689
G1 X71.584 Y45.115 E0.65616
G1 X71.584 Y44.416 E0.02193
G1 X71.117 Y43.949 E0.02070
G1 X71.148 Y43.918 E0.00138
G1 X57.167 Y29.937 E0.61995
G1 X57.548 Y29.556 E0.01689
G1 X71.529 Y43.537 E0.61995
G1 X71.584 Y43.482 E0.00243
G1 X71.584 Y42.830 E0.02045
G1 X58.255 Y29.501 E0.59103
G1 X59.017 Y29.501 E0.02389
G1 X71.584 Y42.068 E0.55725
G1 X71.584 Y41.306 E0.02389
G1 X59.779 Y29.501 E0.52347
G1 X59.932 Y29.501 E0.00480
G1 X60.399 Y29.968 E0.02070
G1 X60.703 Y29.664 E0.01350
G1 X71.422 Y40.382 E0.47528
G1 X71.802 Y40.001 E0.01689
G1 X61.302 Y29.501 E0.46559
G1 X62.064 Y29.501 E0.02389
G1 X72.183 Y39.620 E0.44870
G1 X72.564 Y39.239 E0.01689
G1 X62.826 Y29.501 E0.43181
G1 X63.194 Y29.501 E0.01156
G1 X63.661 Y29.968 E0.02070
G1 X63.858 Y29.771 E0.00872
G1 X72.945 Y38.858 E0.40294
G1 X73.215 Y38.588 E0.01198
G1 X73.215 Y38.367 E0.00694
G1 X64.350 Y29.501 E0.39312
G1 X65.111 Y29.501 E0.02389
G1 X73.215 Y37.605 E0.35934
G1 X73.215 Y36.843 E0.02389
G1 X65.873 Y29.501 E0.32556
G1 X66.457 Y29.501 E0.01831
G1 X66.924 Y29.968 E0.02070
G1 X67.013 Y29.879 E0.00394
G1 X72.837 Y35.703 E0.25827
G1 X73.215 Y35.320 E0.01689
G1 X67.397 Y29.501 E0.25800
G1 X68.159 Y29.501 E0.02389
G1 X73.215 Y34.558 E0.22422
G1 X73.215 Y33.796 E0.02389
G1 X68.920 Y29.501 E0.19044
G1 X69.682 Y29.501 E0.02389
G1 X73.385 Y33.204 E0.16418
G1 E-0.80000 F2100.00000
G1 Z0.800 F10800.000
G1 X74.193 Y83.037
G1 Z0.200
G1 E0.80000 F2100.00000
G1 F1200.000
G1 X66.897 Y75.741 E0.32353
G1 X66.897 Y74.979 E0.02389
G1 X74.785 Y82.867 E0.34979
G1 X75.547 Y82.867 E0.02389
G1 X66.897 Y74.217 E0.38357
G1 X66.897 Y73.780 E0.01370
G1 X67.059 Y73.618 E0.00720
G1 X76.146 Y82.705 E0.40294
G1 X76.527 Y82.324 E0.01689
G1 X66.897 Y72.694 E0.42703
G1 X66.897 Y71.932 E0.02389
G1 X76.908 Y81.943 E0.44392
G1 X77.289 Y81.562 E0.01689
G1 X66.897 Y71.170 E0.46081
G1 X66.897 Y70.518 E0.02046
G1 X66.952 Y70.463 E0.00243
G1 X77.670 Y81.181 E0.47528
G1 X78.051 Y80.801 E0.01689
G1 X67.332 Y70.082 E0.47528
G1 X67.364 Y70.051 E0.00138
G1 X66.897 Y69.584 E0.02070
G1 X66.897 Y68.885 E0.02193
G1 X78.432 Y80.420 E0.51148
G1 X78.813 Y80.039 E0.01689
G1 X66.897 Y68.123 E0.52837
G1 X66.897 Y67.361 E0.02389
G1 X79.194 Y79.658 E0.54526
G1 X79.575 Y79.277 E0.01689
G1 X67.225 Y66.927 E0.54762
G1 X67.364 Y66.788 E0.00616
G1 X66.897 Y66.321 E0.02070
G1 X66.897 Y65.837 E0.01518
G1 X79.956 Y78.896 E0.57905
G1 X80.336 Y78.515 E0.01689
G1 X66.897 Y65.075 E0.59594
G1 X66.897 Y64.314 E0.02389
G1 X80.717 Y78.134 E0.61283
G1 X81.098 Y77.753 E0.01689
G1 X67.117 Y63.772 E0.61995
G1 X67.364 Y63.525 E0.01094
G1 X66.897 Y63.059 E0.02070
G1 X66.897 Y62.790 E0.00842
G1 X81.479 Y77.372 E0.64661
G1 X81.860 Y76.991 E0.01689
G1 X66.897 Y62.028 E0.66350
M73 Q2 S151
G1 X66.897 Y61.266 E0.02389
G1 X82.241 Y76.611 E0.68039
G1 X82.622 Y76.230 E0.01689
G1 X67.009 Y60.617 E0.69229
M73 P2 R150
G1 X67.364 Y60.263 E0.01571
G1 X66.897 Y59.796 E0.02070
G1 X66.897 Y59.743 E0.00167
G1 X82.742 Y75.588 E0.70261
G1 X82.742 Y74.826 E0.02389
G1 X66.897 Y58.981 E0.70261
G1 X66.897 Y58.219 E0.02389
G1 X82.742 Y74.064 E0.70261
G1 X82.742 Y73.780 E0.00891
G1 X82.275 Y73.313 E0.02070
G1 X82.514 Y73.075 E0.01059
G1 X66.902 Y57.462 E0.69229
G1 X67.282 Y57.081 E0.01689
G1 X82.742 Y72.541 E0.68551
G1 X82.742 Y71.779 E0.02389
G1 X66.897 Y55.934 E0.70261
G1 X66.897 Y55.172 E0.02389
G1 X82.742 Y71.017 E0.70261
G1 X82.742 Y70.518 E0.01566
G1 X82.275 Y70.051 E0.02070
G1 X82.406 Y69.920 E0.00581
G1 X66.897 Y54.410 E0.68772
G1 X66.897 Y54.204 E0.00646
G1 X67.175 Y53.926 E0.01232
G1 X82.742 Y69.494 E0.69028
G1 X82.742 Y68.732 E0.02389
G1 X66.897 Y52.886 E0.70261
G1 X66.897 Y52.125 E0.02389
G1 X82.742 Y67.970 E0.70261
G1 X82.742 Y67.255 E0.02242
G1 X82.275 Y66.788 E0.02070
G1 X82.299 Y66.765 E0.00104
G1 X66.897 Y51.363 E0.68295
G1 X66.897 Y50.941 E0.01321
G1 X67.067 Y50.771 E0.00755
G1 X82.680 Y66.384 E0.69229
G1 X82.742 Y66.321 E0.00277
G1 X82.742 Y65.684 E0.01997
G1 X66.897 Y49.839 E0.70261
G1 X66.897 Y49.077 E0.02389
G1 X82.742 Y64.923 E0.70261
G1 X82.742 Y64.161 E0.02389
G1 X66.897 Y48.316 E0.70261
G1 X66.897 Y47.679 E0.01997
