; generated by PrusaSlicer 2.2.0+win64 on 2020-08-17 at 16:04:55 UTC

; 

; external perimeters extrusion width = 0.45mm
; perimeters extrusion width = 0.45mm
; infill extrusion width = 0.45mm
; solid infill extrusion width = 0.45mm
; top infill extrusion width = 0.40mm
; support material extrusion width = 0.35mm
; first layer extrusion width = 0.42mm

M73 P0 R77
M73 Q0 S77
M201 X1000 Y1000 Z1000 E5000 ; sets maximum accelerations, mm/sec^2
M203 X200 Y200 Z12 E120 ; sets maximum feedrates, mm/sec
M204 P1250 R1250 T1250 ; sets acceleration (P, T) and retract acceleration (R), mm/sec^2
M205 X8.00 Y8.00 Z0.40 E1.50 ; sets the jerk limits, mm/sec
M205 S0 T0 ; sets the minimum extruding and travel feed rate, mm/sec
M107
M862.3 P "MK3S" ; printer model check
M862.1 P0.4 ; nozzle diameter check
M115 U3.8.0 ; tell printer latest fw version
G90 ; use absolute coordinates
M83 ; extruder relative mode
M104 S215 ; set extruder temp
M140 S60 ; set bed temp
M190 S60 ; wait for bed temp
M109 S215 ; wait for extruder temp
G28 W ; home all without mesh bed level
G80 ; mesh bed leveling
G1 Y-3.0 F1000.0 ; go outside print area
G92 E0.0
G1 X60.0 E9.0 F1000.0 ; intro line
M73 Q0 S77
M73 P0 R77
G1 X100.0 E12.5 F1000.0 ; intro line
G92 E0.0
M221 S95
G21 ; set units to millimeters
G90 ; use absolute coordinates
M83 ; use relative distances for extrusion
M900 K0.06 ; Filament gcode LA 1.5
M900 K30 ; Filament gcode LA 1.0
;BEFORE_LAYER_CHANGE
G92 E0.0
;0.2


G1 E-0.80000 F2100.00000
G1 Z0.600 F10800.000
;AFTER_LAYER_CHANGE
;0.2
G1 X74.162 Y155.037
G1 Z0.200
G1 E0.80000 F2100.00000
M204 S1000
G1 F1200.000
G1 X66.866 Y147.741 E0.32353
G1 X66.866 Y146.979 E0.02389
G1 X74.754 Y154.867 E0.34979
G1 X75.516 Y154.867 E0.02389
G1 X66.866 Y146.217 E0.38357
G1 X66.866 Y145.780 E0.01370
G1 X67.028 Y145.618 E0.00720
G1 X76.115 Y154.705 E0.40294
G1 X76.496 Y154.324 E0.01689
G1 X66.866 Y144.694 E0.42703
G1 X66.866 Y143.932 E0.02389
G1 X76.877 Y153.943 E0.44392
G1 X77.258 Y153.562 E0.01689
G1 X66.866 Y143.170 E0.46081
G1 X66.866 Y142.518 E0.02046
G1 X66.920 Y142.463 E0.00243
G1 X77.639 Y153.181 E0.47528
G1 X78.020 Y152.801 E0.01689
G1 X67.301 Y142.082 E0.47528
G1 X67.332 Y142.051 E0.00138
G1 X66.866 Y141.584 E0.02070
G1 X66.866 Y140.885 E0.02193
G1 X78.401 Y152.420 E0.51148
G1 X78.782 Y152.039 E0.01689
G1 X66.866 Y140.123 E0.52837
G1 X66.866 Y139.361 E0.02389
G1 X79.162 Y151.658 E0.54526
G1 X79.543 Y151.277 E0.01689
G1 X67.193 Y138.927 E0.54762
G1 X67.332 Y138.788 E0.00616
G1 X66.866 Y138.321 E0.02070
G1 X66.866 Y137.837 E0.01518
G1 X79.924 Y150.896 E0.57905
G1 X80.305 Y150.515 E0.01689
G1 X66.866 Y137.075 E0.59594
G1 X66.866 Y136.314 E0.02389
G1 X80.686 Y150.134 E0.61283
G1 X81.067 Y149.753 E0.01689
G1 X67.086 Y135.772 E0.61995
G1 X67.332 Y135.525 E0.01094
G1 X66.866 Y135.059 E0.02070
G1 X66.866 Y134.790 E0.00842
G1 X81.448 Y149.372 E0.64661
G1 X81.829 Y148.991 E0.01689
G1 X66.866 Y134.028 E0.66350
G1 X66.866 Y133.266 E0.02389
G1 X82.210 Y148.611 E0.68039
G1 X82.591 Y148.230 E0.01689
G1 X66.978 Y132.617 E0.69229
G1 X67.332 Y132.263 E0.01571
G1 X66.866 Y131.796 E0.02070
G1 X66.866 Y131.743 E0.00167
G1 X82.711 Y147.588 E0.70261
G1 X82.711 Y146.826 E0.02389
G1 X66.866 Y130.981 E0.70261
G1 X66.866 Y130.219 E0.02389
G1 X82.711 Y146.064 E0.70261
G1 X82.711 Y145.780 E0.00891
G1 X82.244 Y145.313 E0.02070
G1 X82.483 Y145.075 E0.01059
G1 X66.870 Y129.462 E0.69229
G1 X67.251 Y129.081 E0.01689
G1 X82.711 Y144.541 E0.68551
G1 X82.711 Y143.779 E0.02389
G1 X66.866 Y127.934 E0.70261
G1 X66.866 Y127.172 E0.02389
G1 X82.711 Y143.017 E0.70261
G1 X82.711 Y142.518 E0.01566
G1 X82.244 Y142.051 E0.02070
G1 X82.375 Y141.920 E0.00581
G1 X66.866 Y126.410 E0.68772
G1 X66.866 Y126.204 E0.00646
G1 X67.144 Y125.926 E0.01232
G1 X82.711 Y141.494 E0.69028
G1 X82.711 Y140.732 E0.02389
G1 X66.866 Y124.886 E0.70261
G1 X66.866 Y124.125 E0.02389
G1 X82.711 Y139.970 E0.70261
G1 X82.711 Y139.255 E0.02242
G1 X82.244 Y138.788 E0.02070
G1 X82.268 Y138.765 E0.00104
G1 X66.866 Y123.363 E0.68295
G1 X66.866 Y122.941 E0.01321
G1 X67.036 Y122.771 E0.00755
G1 X82.648 Y138.384 E0.69229
G1 X82.711 Y138.321 E0.00277
G1 X82.711 Y137.684 E0.01997
G1 X66.866 Y121.839 E0.70261
G1 X66.866 Y121.077 E0.02389
G1 X82.711 Y136.923 E0.70261
G1 X82.711 Y136.161 E0.02389
G1 X66.866 Y120.316 E0.70261
G1 X66.866 Y119.679 E0.01997
G1 X66.928 Y119.616 E0.00277
G1 X82.541 Y135.229 E0.69229
G1 X82.711 Y135.059 E0.00755
G1 X82.711 Y134.637 E0.01321
G1 X67.309 Y119.235 E0.68295
G1 X67.332 Y119.212 E0.00104
G1 X66.866 Y118.745 E0.02070
G1 X66.866 Y118.030 E0.02242
G1 X82.711 Y133.875 E0.70261
G1 X82.711 Y133.114 E0.02389
G1 X66.866 Y117.268 E0.70261
G1 X66.866 Y116.506 E0.02389
G1 X82.433 Y132.074 E0.69028
G1 X82.711 Y131.796 E0.01232
G1 X82.711 Y131.590 E0.00646
G1 X67.201 Y116.080 E0.68772
G1 X67.332 Y115.949 E0.00581
G1 X66.866 Y115.482 E0.02070
G1 X66.866 Y114.983 E0.01566
G1 X82.711 Y130.828 E0.70261
G1 X82.711 Y130.066 E0.02389
G1 X66.866 Y114.221 E0.70261
G1 X66.866 Y113.459 E0.02389
G1 X82.325 Y128.919 E0.68551
G1 X82.706 Y128.538 E0.01689
G1 X67.094 Y112.925 E0.69229
G1 X67.332 Y112.686 E0.01059
G1 X65.234 Y110.588 E0.09304
G1 X65.234 Y110.304 E0.00891
G1 X82.711 Y127.781 E0.77494
G1 X82.711 Y127.019 E0.02389
G1 X65.234 Y109.542 E0.77494
G1 X65.234 Y108.781 E0.02389
G1 X82.711 Y126.257 E0.77494
G1 X82.711 Y126.204 E0.00167
G1 X82.244 Y125.737 E0.02070
G1 X82.598 Y125.383 E0.01571
G1 X65.354 Y108.139 E0.76463
G1 X65.701 Y107.792 E0.01537
G1 X65.234 Y107.326 E0.02070
G1 X65.234 Y107.257 E0.00215
G1 X82.711 Y124.734 E0.77494
G1 X82.711 Y123.972 E0.02389
G1 X65.234 Y106.495 E0.77494
M73 Q1 S76
M73 P1 R76
G1 X65.234 Y105.733 E0.02389
G1 X82.711 Y123.210 E0.77494
G1 X82.711 Y122.941 E0.00842
G1 X82.244 Y122.475 E0.02070
G1 X82.491 Y122.228 E0.01094
G1 X65.247 Y104.984 E0.76463
G1 X65.628 Y104.603 E0.01689
G1 X82.711 Y121.686 E0.75750
G1 X82.711 Y120.925 E0.02389
G1 X66.009 Y104.222 E0.74061
G1 X66.389 Y103.841 E0.01689
G1 X82.711 Y120.163 E0.72372
G1 X82.711 Y119.679 E0.01518
G1 X82.244 Y119.212 E0.02070
G1 X82.383 Y119.073 E0.00616
G1 X66.770 Y103.460 E0.69229
G1 X67.151 Y103.079 E0.01689
G1 X82.711 Y118.639 E0.68994
G1 X82.711 Y117.877 E0.02389
G1 X67.532 Y102.699 E0.67305
G1 X67.913 Y102.318 E0.01689
G1 X82.711 Y117.115 E0.65616
G1 X82.711 Y116.416 E0.02193
G1 X82.244 Y115.949 E0.02070
G1 X82.275 Y115.918 E0.00138
G1 X68.294 Y101.937 E0.61995
G1 X68.675 Y101.556 E0.01689
G1 X82.656 Y115.537 E0.61995
G1 X82.711 Y115.482 E0.00243
G1 X82.711 Y114.830 E0.02045
G1 X69.382 Y101.501 E0.59103
G1 X70.144 Y101.501 E0.02389
G1 X82.711 Y114.068 E0.55725
G1 X82.711 Y113.306 E0.02389
G1 X70.906 Y101.501 E0.52347
G1 X71.059 Y101.501 E0.00480
G1 X71.526 Y101.968 E0.02070
G1 X71.830 Y101.664 E0.01350
G1 X82.548 Y112.382 E0.47528
G1 X82.929 Y112.001 E0.01689
G1 X72.429 Y101.501 E0.46559
G1 X73.191 Y101.501 E0.02389
G1 X83.310 Y111.620 E0.44870
G1 X83.691 Y111.239 E0.01689
G1 X73.953 Y101.501 E0.43181
G1 X74.321 Y101.501 E0.01156
G1 X74.788 Y101.968 E0.02070
G1 X74.985 Y101.771 E0.00872
G1 X84.072 Y110.858 E0.40294
G1 X84.342 Y110.588 E0.01198
G1 X84.342 Y110.367 E0.00694
G1 X75.477 Y101.501 E0.39312
G1 X76.238 Y101.501 E0.02389
G1 X84.342 Y109.605 E0.35934
G1 X84.342 Y108.843 E0.02389
G1 X77.000 Y101.501 E0.32556
G1 X77.584 Y101.501 E0.01831
G1 X78.051 Y101.968 E0.02070
G1 X78.140 Y101.879 E0.00394
G1 X83.964 Y107.703 E0.25827
G1 X84.342 Y107.320 E0.01689
G1 X78.524 Y101.501 E0.25800
G1 X79.286 Y101.501 E0.02389
G1 X84.342 Y106.558 E0.22422
G1 X84.342 Y105.796 E0.02389
G1 X80.047 Y101.501 E0.19044
G1 X80.809 Y101.501 E0.02389
G1 X84.512 Y105.204 E0.16418
G1 E-0.80000 F2100.00000
G1 Z0.800 F10800.000
G1 X85.320 Y155.037
G1 Z0.200
G1 E0.80000 F2100.00000
G1 F1200.000
G1 X78.024 Y147.741 E0.32353
G1 X78.024 Y146.979 E0.02389
G1 X85.912 Y154.867 E0.34979
G1 X86.674 Y154.867 E0.02389
G1 X78.024 Y146.217 E0.38357
G1 X78.024 Y145.780 E0.01370
G1 X78.186 Y145.618 E0.00720
G1 X87.273 Y154.705 E0.40294
G1 X87.654 Y154.324 E0.01689
G1 X78.024 Y144.694 E0.42703
G1 X78.024 Y143.932 E0.02389
G1 X88.035 Y153.943 E0.44392
G1 X88.416 Y153.562 E0.01689
G1 X78.024 Y143.170 E0.46081
G1 X78.024 Y142.518 E0.02046
G1 X78.078 Y142.463 E0.00243
G1 X88.797 Y153.181 E0.47528
G1 X89.178 Y152.801 E0.01689
G1 X78.459 Y142.082 E0.47528
G1 X78.491 Y142.051 E0.00138
G1 X78.024 Y141.584 E0.02070
G1 X78.024 Y140.885 E0.02193
G1 X89.559 Y152.420 E0.51148
G1 X89.940 Y152.039 E0.01689
G1 X78.024 Y140.123 E0.52837
G1 X78.024 Y139.361 E0.02389
G1 X90.321 Y151.658 E0.54526
G1 X90.702 Y151.277 E0.01689
G1 X78.352 Y138.927 E0.54762
G1 X78.491 Y138.788 E0.00616
G1 X78.024 Y138.321 E0.02070
G1 X78.024 Y137.837 E0.01518
G1 X91.082 Y150.896 E0.57905
G1 X91.463 Y150.515 E0.01689
G1 X78.024 Y137.075 E0.59594
G1 X78.024 Y136.314 E0.02389
G1 X91.844 Y150.134 E0.61283
G1 X92.225 Y149.753 E0.01689
G1 X78.244 Y135.772 E0.61995
G1 X78.491 Y135.525 E0.01094
G1 X78.024 Y135.059 E0.02070
G1 X78.024 Y134.790 E0.00842
G1 X92.606 Y149.372 E0.64661
G1 X92.987 Y148.991 E0.01689
G1 X78.024 Y134.028 E0.66350
G1 X78.024 Y133.266 E0.02389
G1 X93.368 Y148.611 E0.68039
G1 X93.749 Y148.230 E0.01689
G1 X78.136 Y132.617 E0.69229
G1 X78.491 Y132.263 E0.01571
G1 X78.024 Y131.796 E0.02070
G1 X78.024 Y131.743 E0.00167
G1 X93.869 Y147.588 E0.70261
G1 X93.869 Y146.826 E0.02389
G1 X78.024 Y130.981 E0.70261
G1 X78.024 Y130.219 E0.02389
G1 X93.869 Y146.064 E0.70261
G1 X93.869 Y145.780 E0.00891
G1 X93.402 Y145.313 E0.02070
G1 X93.641 Y145.075 E0.01059
G1 X78.029 Y129.462 E0.69229
G1 X78.409 Y129.081 E0.01689
G1 X93.869 Y144.541 E0.68551
G1 X93.869 Y143.779 E0.02389
G1 X78.024 Y127.934 E0.70261
G1 X78.024 Y127.172 E0.02389
G1 X93.869 Y143.017 E0.70261
G1 X93.869 Y142.518 E0.01566
G1 X93.402 Y142.051 E0.02070
G1 X93.533 Y141.920 E0.00581
G1 X78.024 Y126.410 E0.68772
G1 X78.024 Y126.204 E0.00646
G1 X78.302 Y125.926 E0.01232
G1 X93.869 Y141.494 E0.69028
G1 X93.869 Y140.732 E0.02389
G1 X78.024 Y124.886 E0.70261
G1 X78.024 Y124.125 E0.02389
G1 X93.869 Y139.970 E0.70261
G1 X93.869 Y139.255 E0.02242
G1 X93.402 Y138.788 E0.02070
G1 X93.426 Y138.765 E0.00104
G1 X78.024 Y123.363 E0.68295
G1 X78.024 Y122.941 E0.01321
G1 X78.194 Y122.771 E0.00755
G1 X93.807 Y138.384 E0.69229
G1 X93.869 Y138.321 E0.00277
G1 X93.869 Y137.684 E0.01997
G1 X78.024 Y121.839 E0.70261
G1 X78.024 Y121.077 E0.02389
G1 X93.869 Y136.923 E0.70261
M73 Q2 S75
M73 P2 R75
G1 X93.869 Y136.161 E0.02389
G1 X78.024 Y120.316 E0.70261
G1 X78.024 Y119.679 E0.01997
G1 X78.086 Y119.616 E0.00277
G1 X93.699 Y135.229 E0.69229
G1 X93.869 Y135.059 E0.00755
G1 X93.869 Y134.637 E0.01321
G1 X78.467 Y119.235 E0.68295
G1 X78.491 Y119.212 E0.00104
G1 X78.024 Y118.745 E0.02070
G1 X78.024 Y118.030 E0.02242
G1 X93.869 Y133.875 E0.70261
G1 X93.869 Y133.114 E0.02389
G1 X78.024 Y117.268 E0.70261
G1 X78.024 Y116.506 E0.02389
G1 X93.591 Y132.074 E0.69028
G1 X93.869 Y131.796 E0.01232
G1 X93.869 Y131.590 E0.00646
G1 X78.359 Y116.080 E0.68772
G1 X78.491 Y115.949 E0.00581
G1 X78.024 Y115.482 E0.02070
G1 X78.024 Y114.983 E0.01566
G1 X93.869 Y130.828 E0.70261
G1 X93.869 Y130.066 E0.02389
G1 X78.024 Y114.221 E0.70261
G1 X78.024 Y113.459 E0.02389
G1 X93.483 Y128.919 E0.68551
G1 X93.864 Y128.538 E0.01689
G1 X78.252 Y112.925 E0.69229
G1 X78.491 Y112.686 E0.01059
G1 X76.392 Y110.588 E0.09304
G1 X76.392 Y110.304 E0.00891
G1 X93.869 Y127.781 E0.77494
G1 X93.869 Y127.019 E0.02389
G1 X76.392 Y109.542 E0.77494
G1 X76.392 Y108.781 E0.02389
G1 X93.869 Y126.257 E0.77494
G1 X93.869 Y126.204 E0.00167
G1 X93.402 Y125.737 E0.02070
G1 X93.757 Y125.383 E0.01571
G1 X76.513 Y108.139 E0.76463
G1 X76.859 Y107.792 E0.01537
G1 X76.392 Y107.326 E0.02070
G1 X76.392 Y107.257 E0.00215
G1 X93.869 Y124.734 E0.77494
G1 X93.869 Y123.972 E0.02389
G1 X76.392 Y106.495 E0.77494
G1 X76.392 Y105.733 E0.02389
G1 X93.869 Y123.210 E0.77494
G1 X93.869 Y122.941 E0.00842
G1 X93.402 Y122.475 E0.02070
G1 X93.649 Y122.228 E0.01094
G1 X76.405 Y104.984 E0.76463
G1 X76.786 Y104.603 E0.01689
G1 X93.869 Y121.686 E0.75750
G1 X93.869 Y120.925 E0.02389
G1 X77.167 Y104.222 E0.74061
G1 X77.548 Y103.841 E0.01689
G1 X93.869 Y120.163 E0.72372
G1 X93.869 Y119.679 E0.01518
G1 X93.402 Y119.212 E0.02070
G1 X93.541 Y119.073 E0.00616
G1 X77.929 Y103.460 E0.69229
G1 X78.309 Y103.079 E0.01689
G1 X93.869 Y118.639 E0.68994
G1 X93.869 Y117.877 E0.02389
G1 X78.690 Y102.699 E0.67305
G1 X79.071 Y102.318 E0.01689
G1 X93.869 Y117.115 E0.65616
G1 X93.869 Y116.416 E0.02193
G1 X93.402 Y115.949 E0.02070
G1 X93.433 Y115.918 E0.00138
G1 X79.452 Y101.937 E0.61995
G1 X79.833 Y101.556 E0.01689
G1 X93.814 Y115.537 E0.61995
G1 X93.869 Y115.482 E0.00243
G1 X93.869 Y114.830 E0.02045
G1 X80.540 Y101.501 E0.59103
G1 X81.302 Y101.501 E0.02389
G1 X93.869 Y114.068 E0.55725
G1 X93.869 Y113.306 E0.02389
G1 X82.064 Y101.501 E0.52347
G1 X82.217 Y101.501 E0.00480
G1 X82.684 Y101.968 E0.02070
G1 X82.988 Y101.664 E0.01350
G1 X93.707 Y112.382 E0.47528
G1 X94.088 Y112.001 E0.01689
G1 X83.587 Y101.501 E0.46559
G1 X84.349 Y101.501 E0.02389
G1 X94.468 Y111.620 E0.44870
G1 X94.849 Y111.239 E0.01689
G1 X85.111 Y101.501 E0.43181
G1 X85.480 Y101.501 E0.01156
G1 X85.946 Y101.968 E0.02070
G1 X86.143 Y101.771 E0.00872
G1 X95.230 Y110.858 E0.40294
G1 X95.500 Y110.588 E0.01198
G1 X95.500 Y110.367 E0.00694
G1 X86.635 Y101.501 E0.39312
G1 X87.397 Y101.501 E0.02389
G1 X95.500 Y109.605 E0.35934
G1 X95.500 Y108.843 E0.02389
G1 X88.158 Y101.501 E0.32556
G1 X88.742 Y101.501 E0.01831
G1 X89.209 Y101.968 E0.02070
G1 X89.298 Y101.879 E0.00394
G1 X95.123 Y107.703 E0.25827
G1 X95.500 Y107.320 E0.01689
G1 X89.682 Y101.501 E0.25800
G1 X90.444 Y101.501 E0.02389
G1 X95.500 Y106.558 E0.22422
G1 X95.500 Y105.796 E0.02389
G1 X91.206 Y101.501 E0.19044
G1 X91.967 Y101.501 E0.02389
G1 X95.670 Y105.204 E0.16418
G1 E-0.80000 F2100.00000
G1 Z0.800 F10800.000
G1 X96.478 Y155.037
G1 Z0.200
G1 E0.80000 F2100.00000
G1 F1200.000
G1 X89.182 Y147.741 E0.32353
G1 X89.182 Y146.979 E0.02389
G1 X97.070 Y154.867 E0.34979
G1 X97.832 Y154.867 E0.02389
G1 X89.182 Y146.217 E0.38357
G1 X89.182 Y145.780 E0.01370
G1 X89.344 Y145.618 E0.00720
G1 X98.432 Y154.705 E0.40294
G1 X98.812 Y154.324 E0.01689
G1 X89.182 Y144.694 E0.42703
G1 X89.182 Y143.932 E0.02389
G1 X99.193 Y153.943 E0.44392
G1 X99.574 Y153.562 E0.01689
G1 X89.182 Y143.170 E0.46081
G1 X89.182 Y142.518 E0.02046
G1 X89.237 Y142.463 E0.00243
G1 X99.955 Y153.181 E0.47528
G1 X100.336 Y152.801 E0.01689
G1 X89.618 Y142.082 E0.47528
G1 X89.649 Y142.051 E0.00138
G1 X89.182 Y141.584 E0.02070
G1 X89.182 Y140.885 E0.02193
G1 X100.717 Y152.420 E0.51148
G1 X101.098 Y152.039 E0.01689
G1 X89.182 Y140.123 E0.52837
G1 X89.182 Y139.361 E0.02389
G1 X101.479 Y151.658 E0.54526
G1 X101.860 Y151.277 E0.01689
G1 X89.510 Y138.927 E0.54762
G1 X89.649 Y138.788 E0.00616
G1 X89.182 Y138.321 E0.02070
G1 X89.182 Y137.837 E0.01518
G1 X102.241 Y150.896 E0.57905
G1 X102.622 Y150.515 E0.01689
G1 X89.182 Y137.075 E0.59594
G1 X89.182 Y136.314 E0.02389
G1 X103.002 Y150.134 E0.61283
G1 X103.383 Y149.753 E0.01689
G1 X89.402 Y135.772 E0.61995
G1 X89.649 Y135.525 E0.01094
G1 X89.182 Y135.059 E0.02070
G1 X89.182 Y134.790 E0.00842
G1 X103.764 Y149.372 E0.64661
G1 X104.145 Y148.991 E0.01689
G1 X89.182 Y134.028 E0.66350
M73 Q4 S74
M73 P4 R74
G1 X89.182 Y133.266 E0.02389
G1 X104.526 Y148.611 E0.68039
G1 X104.907 Y148.230 E0.01689
G1 X89.294 Y132.617 E0.69229
G1 X89.649 Y132.263 E0.01571
G1 X89.182 Y131.796 E0.02070
G1 X89.182 Y131.743 E0.00167
G1 X105.027 Y147.588 E0.70261
G1 X105.027 Y146.826 E0.02389
G1 X89.182 Y130.981 E0.70261
G1 X89.182 Y130.219 E0.02389
G1 X105.027 Y146.064 E0.70261
G1 X105.027 Y145.780 E0.00891
G1 X104.560 Y145.313 E0.02070
G1 X104.799 Y145.075 E0.01059
G1 X89.187 Y129.462 E0.69229
G1 X89.568 Y129.081 E0.01689
G1 X105.027 Y144.541 E0.68551
G1 X105.027 Y143.779 E0.02389
G1 X89.182 Y127.934 E0.70261
G1 X89.182 Y127.172 E0.02389
G1 X105.027 Y143.017 E0.70261
G1 X105.027 Y142.518 E0.01566
G1 X104.560 Y142.051 E0.02070
G1 X104.692 Y141.920 E0.00581
G1 X89.182 Y126.410 E0.68772
G1 X89.182 Y126.204 E0.00646
G1 X89.460 Y125.926 E0.01232
G1 X105.027 Y141.494 E0.69028
G1 X105.027 Y140.732 E0.02389
