; generated by PrusaSlicer 2.4.1+win64 on 2022-05-24 at 21:56:30 UTC

; 

; external perimeters extrusion width = 0.45mm
; perimeters extrusion width = 0.45mm
; infill extrusion width = 0.45mm
; solid infill extrusion width = 0.45mm
; top infill extrusion width = 0.40mm
; support material extrusion width = 0.35mm
; first layer extrusion width = 0.42mm

; external perimeters extrusion width = 0.45mm
; perimeters extrusion width = 0.45mm
; infill extrusion width = 0.45mm
; solid infill extrusion width = 0.45mm
; top infill extrusion width = 0.40mm
; support material extrusion width = 0.35mm
; first layer extrusion width = 0.42mm

; external perimeters extrusion width = 0.45mm
; perimeters extrusion width = 0.45mm
; infill extrusion width = 0.45mm
; solid infill extrusion width = 0.45mm
; top infill extrusion width = 0.40mm
; support material extrusion width = 0.35mm
; first layer extrusion width = 0.42mm

; external perimeters extrusion width = 0.45mm
; perimeters extrusion width = 0.45mm
; infill extrusion width = 0.45mm
; solid infill extrusion width = 0.45mm
; top infill extrusion width = 0.40mm
; support material extrusion width = 0.35mm
; first layer extrusion width = 0.42mm

; external perimeters extrusion width = 0.45mm
; perimeters extrusion width = 0.45mm
; infill extrusion width = 0.45mm
; solid infill extrusion width = 0.45mm
; top infill extrusion width = 0.40mm
; support material extrusion width = 0.35mm
; first layer extrusion width = 0.42mm

M73 P0 R194
M73 Q0 S195
M201 X1000 Y1000 Z200 E5000 ; sets maximum accelerations, mm/sec^2
M203 X200 Y200 Z12 E120 ; sets maximum feedrates, mm / sec
M204 P1250 R1250 T1250 ; sets acceleration (P, T) and retract acceleration (R), mm/sec^2
M205 X8.00 Y8.00 Z0.40 E4.50 ; sets the jerk limits, mm/sec
M205 S0 T0 ; sets the minimum extruding and travel feed rate, mm/sec
M107
;TYPE:Custom
M862.3 P "MK3S" ; printer model check
M862.1 P0.4 ; nozzle diameter check
M115 U3.10.1 ; tell printer latest fw version
G90 ; use absolute coordinates
M83 ; extruder relative mode
M104 S215 ; set extruder temp
M140 S65 ; set bed temp
M190 S65 ; wait for bed temp
M109 S215 ; wait for extruder temp
G28 W ; home all without mesh bed level
G80 ; mesh bed leveling
G1 Z0.2 F720
G1 Y-3 F1000 ; go outside print area
G92 E0
G1 X60 E9 F1000 ; intro line
G1 X100 E12.5 F1000 ; intro line
G92 E0
M221 S95

; Don't change E values below. Excessive value can damage the printer.
M907 E430 ; set extruder motor current
G21 ; set units to millimeters
G90 ; use absolute coordinates
M83 ; use relative distances for extrusion
M900 K0.05 ; Filament gcode LA 1.5
M900 K30 ; Filament gcode LA 1.0
M107
;LAYER_CHANGE
;Z:0.2
;HEIGHT:0.2
;BEFORE_LAYER_CHANGE
G92 E0.0
;0.2


G1 E-.8 F2100
G1 Z.4 F720
;AFTER_LAYER_CHANGE
;0.2
G1 X37.655 Y65.705 F10800
G1 Z.2 F720
G1 E.8 F2100
M204 S800
;TYPE:Skirt/Brim
;WIDTH:0.42
G1 F1200
G1 X39.312 Y65.009 E.05635
G1 X139.782 Y63.994 E3.15033
G1 X140.958 Y64.292 E.03801
G1 X214.122 Y104.798 E2.62213
G1 X215.076 Y105.774 E.04278
G1 X215.348 Y106.878 E.03565
G1 X215.348 Y145.064 E1.1973
G1 X214.956 Y146.371 E.04278
M73 Q0 S194
G1 X213.911 Y147.247 E.04278
G1 X212.971 Y147.441 E.03008
G1 X123.685 Y147.416 E2.7995
G1 X113.839 Y145.974 E.31199
G1 X36.644 Y133.295 E2.45285
G1 X35.418 Y132.697 E.04278
G1 X34.652 Y130.949 E.05982
G1 X34.652 Y69.693 E1.92066
G1 X35.348 Y68.012 E.05704
G1 X37.613 Y65.747 E.10042
M204 S1000
; printing object FrontRoof.stl id:1 copy 0
;WIPE_START
G1 F8640
G1 X39.312 Y65.009 E-.42782
G1 X40.751 Y64.994 E-.33218
;WIPE_END
G1 E-.04 F2100
G1 Z.6 F720
G1 X47.52 Y93.553 F10800
G1 Z.2 F720
G1 E.8 F2100
M204 S800
;TYPE:Support material
G1 F1200
G1 X45.98 Y93.553 E.04829
G1 X45.98 Y89.013 E.14235
G1 X47.52 Y89.013 E.04829
G1 X47.52 Y93.496 E.14058
M204 S1000
G1 X47.144 Y93.383 F10800
M204 S800
M73 P0 R193
G1 F1200
G1 X47.144 Y89.352 E.12639
G1 X46.725 Y89.352 E.01314
G1 X46.725 Y93.383 E.12639
M204 S1000
;WIPE_START
G1 F8640
G1 X46.725 Y90.092 E-.76
;WIPE_END
G1 E-.04 F2100
G1 Z.6 F720
G1 X47.52 Y117.862 F10800
G1 Z.2 F720
G1 E.8 F2100
M204 S800
G1 F1200
G1 X45.98 Y117.862 E.04829
G1 X45.98 Y113.322 E.14235
G1 X47.52 Y113.322 E.04829
G1 X47.52 Y117.805 E.14058
M204 S1000
G1 X47.144 Y117.692 F10800
M204 S800
G1 F1200
G1 X47.144 Y113.661 E.12639
G1 X46.725 Y113.661 E.01314
G1 X46.725 Y117.692 E.12639
M204 S1000
;WIPE_START
G1 F8640
G1 X46.725 Y114.401 E-.76
;WIPE_END
G1 E-.04 F2100
G1 Z.6 F720
G1 X68.27 Y80.071 F10800
G1 Z.2 F720
G1 E.8 F2100
M204 S800
G1 F1200
G1 X63.73 Y80.071 E.14235
G1 X63.73 Y79.634 E.0137
G1 X68.27 Y79.634 E.14235
G1 X68.27 Y80.014 E.01192
M204 S1000
;WIPE_START
G1 F8640
G1 X68.27 Y79.634 E-.08781
G1 X65.359 Y79.634 E-.67219
;WIPE_END
G1 E-.04 F2100
G1 Z.6 F720
G1 X104.27 Y80.071 F10800
G1 Z.2 F720
G1 E.8 F2100
M204 S800
G1 F1200
G1 X99.73 Y80.071 E.14235
G1 X99.73 Y79.634 E.0137
G1 X104.27 Y79.634 E.14235
G1 X104.27 Y80.014 E.01192
M204 S1000
;WIPE_START
G1 F8640
G1 X104.27 Y79.634 E-.08781
G1 X101.359 Y79.634 E-.67219
;WIPE_END
G1 E-.04 F2100
G1 Z.6 F720
G1 X125.971 Y130.949 F10800
G1 Z.2 F720
G1 E.8 F2100
M204 S800
G1 F1200
G1 X115.47 Y130.949 E.32925
G1 X115.47 Y126.938 E.12577
G1 X120.535 Y126.938 E.15881
G1 X120.816 Y126.657 E.01247
G1 X120.816 Y73.072 E1.68011
G1 X120.535 Y72.791 E.01247
G1 X117.61 Y72.791 E.0917
G1 X117.329 Y73.072 E.01247
G1 X117.329 Y75.842 E.08684
G1 X110.943 Y75.842 E.20023
G1 X110.943 Y73.072 E.08684
G1 X110.662 Y72.791 E.01247
G1 X106.727 Y72.791 E.12337
G1 X106.446 Y73.072 E.01247
G1 X106.446 Y75.842 E.08684
G1 X100.06 Y75.842 E.20023
G1 X100.06 Y73.072 E.08684
G1 X99.779 Y72.791 E.01247
G1 X95.844 Y72.791 E.12337
G1 X95.563 Y73.072 E.01247
G1 X95.563 Y75.842 E.08684
G1 X89.177 Y75.842 E.20023
G1 X89.177 Y73.072 E.08684
G1 X88.895 Y72.791 E.01247
G1 X84.961 Y72.791 E.12337
G1 X84.68 Y73.072 E.01247
G1 X84.68 Y75.842 E.08684
G1 X78.293 Y75.842 E.20023
G1 X78.293 Y73.072 E.08684
G1 X78.012 Y72.791 E.01247
G1 X77.652 Y72.791 E.01129
G1 X74.078 Y72.791 E.11208
G1 X73.796 Y73.072 E.01247
G1 X73.796 Y75.842 E.08684
G1 X67.41 Y75.842 E.20023
G1 X67.41 Y73.072 E.08684
G1 X67.129 Y72.791 E.01247
G1 X63.194 Y72.791 E.12337
G1 X62.913 Y73.072 E.01247
G1 X62.913 Y75.842 E.08684
G1 X56.527 Y75.842 E.20023
G1 X56.527 Y73.072 E.08684
G1 X56.246 Y72.791 E.01247
G1 X52.311 Y72.791 E.12337
G1 X52.03 Y73.072 E.01247
G1 X52.03 Y75.842 E.08684
G1 X45.644 Y75.842 E.20023
G1 X45.644 Y73.072 E.08684
G1 X45.363 Y72.791 E.01247
G1 X42.465 Y72.791 E.09085
G1 X42.184 Y73.072 E.01247
G1 X42.184 Y126.657 E1.68011
G1 X42.465 Y126.938 E.01247
G1 X47.53 Y126.938 E.15881
G1 X47.53 Y130.949 E.12577
G1 X37.029 Y130.949 E.32925
G1 X37.029 Y69.693 E1.92066
G1 X39.336 Y69.693 E.07234
G1 X39.336 Y67.386 E.07234
G1 X125.971 Y67.386 E2.71637
G1 X125.971 Y130.893 E1.99123
M204 S1000
G1 X125.493 Y130.78 F10800
M204 S800
G1 F1200
G1 X125.493 Y67.725 E1.97704
G1 X125.074 Y67.725 E.01314
G1 X125.074 Y130.61 E1.97172
G1 X124.655 Y130.61 E.01314
G1 X124.655 Y67.725 E1.97172
G1 X124.236 Y67.725 E.01314
G1 X124.236 Y130.61 E1.97172
G1 X123.817 Y130.61 E.01314
G1 X123.817 Y67.725 E1.97172
G1 X123.398 Y67.725 E.01314
M73 Q0 S193
G1 X123.398 Y130.61 E1.97172
G1 X122.979 Y130.61 E.01314
G1 X122.979 Y67.725 E1.97172
G1 X122.56 Y67.725 E.01314
G1 X122.56 Y130.61 E1.97172
G1 X122.141 Y130.61 E.01314
G1 X122.141 Y67.725 E1.97172
G1 X121.722 Y67.725 E.01314
G1 X121.722 Y130.61 E1.97172
G1 X121.303 Y130.61 E.01314
M73 P0 R192
G1 X121.303 Y67.725 E1.97172
G1 X120.884 Y67.725 E.01314
G1 X120.884 Y72.66 E.15474
G1 X120.675 Y72.452 E.00924
G1 X120.465 Y72.452 E.0066
G1 X120.465 Y67.725 E.14821
G1 X120.046 Y67.725 E.01314
G1 X120.046 Y72.452 E.14821
G1 X119.627 Y72.452 E.01314
G1 X119.627 Y67.725 E.14821
G1 X119.208 Y67.725 E.01314
G1 X119.208 Y72.452 E.14821
G1 X118.789 Y72.452 E.01314
G1 X118.789 Y67.725 E.14821
G1 X118.37 Y67.725 E.01314
G1 X118.37 Y72.452 E.14821
G1 X117.951 Y72.452 E.01314
G1 X117.951 Y67.725 E.14821
G1 X117.532 Y67.725 E.01314
G1 X117.532 Y72.452 E.14821
G1 X117.47 Y72.452 E.00196
G1 X117.113 Y72.808 E.01581
G1 X117.113 Y67.725 E.15939
G1 X116.694 Y67.725 E.01314
G1 X116.694 Y75.503 E.24387
G1 X116.275 Y75.503 E.01314
G1 X116.275 Y67.725 E.24387
G1 X115.856 Y67.725 E.01314
G1 X115.856 Y75.503 E.24387
G1 X115.437 Y75.503 E.01314
G1 X115.437 Y67.725 E.24387
G1 X115.018 Y67.725 E.01314
G1 X115.018 Y75.503 E.24387
G1 X114.599 Y75.503 E.01314
G1 X114.599 Y67.725 E.24387
G1 X114.18 Y67.725 E.01314
G1 X114.18 Y75.503 E.24387
G1 X113.761 Y75.503 E.01314
G1 X113.761 Y67.725 E.24387
G1 X113.342 Y67.725 E.01314
G1 X113.342 Y75.503 E.24387
G1 X112.923 Y75.503 E.01314
G1 X112.923 Y67.725 E.24387
G1 X112.504 Y67.725 E.01314
G1 X112.504 Y75.503 E.24387
G1 X112.085 Y75.503 E.01314
G1 X112.085 Y67.725 E.24387
G1 X111.666 Y67.725 E.01314
G1 X111.666 Y75.503 E.24387
G1 X111.282 Y75.503 E.01204
G1 X111.282 Y72.932 E.08061
G1 X111.247 Y72.897 E.00155
G1 X111.247 Y67.725 E.16216
G1 X110.828 Y67.725 E.01314
G1 X110.828 Y72.478 E.14902
G1 X110.802 Y72.452 E.00115
G1 X110.409 Y72.452 E.01232
G1 X110.409 Y67.725 E.14821
G1 X109.99 Y67.725 E.01314
G1 X109.99 Y72.452 E.14821
G1 X109.571 Y72.452 E.01314
G1 X109.571 Y67.725 E.14821
G1 X109.152 Y67.725 E.01314
G1 X109.152 Y72.452 E.14821
G1 X108.734 Y72.452 E.01314
G1 X108.734 Y67.725 E.14821
G1 X108.315 Y67.725 E.01314
G1 X108.315 Y72.452 E.14821
G1 X107.896 Y72.452 E.01314
G1 X107.896 Y67.725 E.14821
G1 X107.477 Y67.725 E.01314
G1 X107.477 Y72.452 E.14821
G1 X107.058 Y72.452 E.01314
G1 X107.058 Y67.725 E.14821
G1 X106.639 Y67.725 E.01314
G1 X106.639 Y72.452 E.14821
G1 X106.586 Y72.452 E.00164
G1 X106.22 Y72.819 E.01626
G1 X106.22 Y67.725 E.15971
G1 X105.801 Y67.725 E.01314
G1 X105.801 Y75.503 E.24387
G1 X105.382 Y75.503 E.01314
G1 X105.382 Y67.725 E.24387
G1 X104.963 Y67.725 E.01314
G1 X104.963 Y75.503 E.24387
G1 X104.544 Y75.503 E.01314
G1 X104.544 Y67.725 E.24387
G1 X104.125 Y67.725 E.01314
G1 X104.125 Y75.503 E.24387
G1 X103.706 Y75.503 E.01314
G1 X103.706 Y67.725 E.24387
G1 X103.287 Y67.725 E.01314
G1 X103.287 Y75.503 E.24387
G1 X102.868 Y75.503 E.01314
G1 X102.868 Y67.725 E.24387
G1 X102.449 Y67.725 E.01314
G1 X102.449 Y75.503 E.24387
G1 X102.03 Y75.503 E.01314
G1 X102.03 Y67.725 E.24387
G1 X101.611 Y67.725 E.01314
G1 X101.611 Y75.503 E.24387
G1 X101.192 Y75.503 E.01314
G1 X101.192 Y67.725 E.24387
G1 X100.773 Y67.725 E.01314
G1 X100.773 Y75.503 E.24387
G1 X100.399 Y75.503 E.01172
G1 X100.399 Y72.932 E.08061
G1 X100.354 Y72.887 E.00201
G1 X100.354 Y67.725 E.16184
G1 X99.935 Y67.725 E.01314
G1 X99.935 Y72.468 E.1487
G1 X99.919 Y72.452 E.0007
G1 X99.516 Y72.452 E.01264
G1 X99.516 Y67.725 E.14821
G1 X99.097 Y67.725 E.01314
G1 X99.097 Y72.452 E.14821
G1 X98.678 Y72.452 E.01314
G1 X98.678 Y67.725 E.14821
G1 X98.259 Y67.725 E.01314
G1 X98.259 Y72.452 E.14821
G1 X97.84 Y72.452 E.01314
M73 P1 R192
M73 Q1 S193
G1 X97.84 Y67.725 E.14821
G1 X97.421 Y67.725 E.01314
G1 X97.421 Y72.452 E.14821
G1 X97.002 Y72.452 E.01314
G1 X97.002 Y67.725 E.14821
G1 X96.583 Y67.725 E.01314
G1 X96.583 Y72.452 E.14821
G1 X96.164 Y72.452 E.01314
G1 X96.164 Y67.725 E.14821
G1 X95.745 Y67.725 E.01314
G1 X95.745 Y72.452 E.14821
G1 X95.703 Y72.452 E.00132
G1 X95.326 Y72.829 E.01672
G1 X95.326 Y67.725 E.16003
G1 X94.907 Y67.725 E.01314
G1 X94.907 Y75.503 E.24387
G1 X94.488 Y75.503 E.01314
G1 X94.488 Y67.725 E.24387
G1 X94.069 Y67.725 E.01314
G1 X94.069 Y75.503 E.24387
G1 X93.65 Y75.503 E.01314
G1 X93.65 Y67.725 E.24387
G1 X93.231 Y67.725 E.01314
G1 X93.231 Y75.503 E.24387
G1 X92.812 Y75.503 E.01314
G1 X92.812 Y67.725 E.24387
G1 X92.393 Y67.725 E.01314
G1 X92.393 Y75.503 E.24387
G1 X91.974 Y75.503 E.01314
G1 X91.974 Y67.725 E.24387
G1 X91.555 Y67.725 E.01314
G1 X91.555 Y75.503 E.24387
G1 X91.136 Y75.503 E.01314
G1 X91.136 Y67.725 E.24387
G1 X90.717 Y67.725 E.01314
G1 X90.717 Y75.503 E.24387
G1 X90.299 Y75.503 E.01314
G1 X90.299 Y67.725 E.24387
G1 X89.88 Y67.725 E.01314
G1 X89.88 Y75.503 E.24387
G1 X89.516 Y75.503 E.0114
G1 X89.516 Y72.932 E.08061
G1 X89.461 Y72.876 E.00246
G1 X89.461 Y67.725 E.16152
G1 X89.042 Y67.725 E.01314
G1 X89.042 Y72.457 E.14838
G1 X88.623 Y72.452 E.01314
G1 X88.623 Y67.725 E.14821
G1 X88.204 Y67.725 E.01314
G1 X88.204 Y72.452 E.14821
G1 X87.785 Y72.452 E.01314
G1 X87.785 Y67.725 E.14821
G1 X87.366 Y67.725 E.01314
G1 X87.366 Y72.452 E.14821
G1 X86.947 Y72.452 E.01314
G1 X86.947 Y67.725 E.14821
G1 X86.528 Y67.725 E.01314
G1 X86.528 Y72.452 E.14821
G1 X86.109 Y72.452 E.01314
G1 X86.109 Y67.725 E.14821
G1 X85.69 Y67.725 E.01314
G1 X85.69 Y72.452 E.14821
G1 X85.271 Y72.452 E.01314
G1 X85.271 Y67.725 E.14821
G1 X84.852 Y67.725 E.01314
G1 X84.852 Y72.452 E.14821
G1 X84.82 Y72.452 E.00099
G1 X84.433 Y72.839 E.01717
G1 X84.433 Y67.725 E.16035
G1 X84.014 Y67.725 E.01314
G1 X84.014 Y75.503 E.24387
G1 X83.595 Y75.503 E.01314
G1 X83.595 Y67.725 E.24387
G1 X83.176 Y67.725 E.01314
G1 X83.176 Y75.503 E.24387
G1 X82.757 Y75.503 E.01314
G1 X82.757 Y67.725 E.24387
G1 X82.338 Y67.725 E.01314
G1 X82.338 Y75.503 E.24387
G1 X81.919 Y75.503 E.01314
G1 X81.919 Y67.725 E.24387
G1 X81.5 Y67.725 E.01314
G1 X81.5 Y75.503 E.24387
G1 X81.081 Y75.503 E.01314
G1 X81.081 Y67.725 E.24387
G1 X80.662 Y67.725 E.01314
G1 X80.662 Y75.503 E.24387
G1 X80.243 Y75.503 E.01314
G1 X80.243 Y67.725 E.24387
G1 X79.824 Y67.725 E.01314
G1 X79.824 Y75.503 E.24387
G1 X79.405 Y75.503 E.01314
G1 X79.405 Y67.725 E.24387
G1 X78.986 Y67.725 E.01314
G1 X78.986 Y75.503 E.24387
G1 X78.633 Y75.503 E.01108
G1 X78.633 Y72.932 E.08061
G1 X78.567 Y72.866 E.00291
G1 X78.567 Y67.725 E.1612
G1 X78.148 Y67.725 E.01314
G1 X78.148 Y72.452 E.14821
G1 X77.729 Y72.452 E.01314
G1 X77.729 Y67.725 E.14821
G1 X77.31 Y67.725 E.01314
G1 X77.31 Y72.452 E.14821
G1 X76.891 Y72.452 E.01314
G1 X76.891 Y67.725 E.14821
G1 X76.472 Y67.725 E.01314
G1 X76.472 Y72.452 E.14821
G1 X76.053 Y72.452 E.01314
G1 X76.053 Y67.725 E.14821
G1 X75.634 Y67.725 E.01314
G1 X75.634 Y72.452 E.14821
G1 X75.215 Y72.452 E.01314
G1 X75.215 Y67.725 E.14821
G1 X74.796 Y67.725 E.01314
G1 X74.796 Y72.452 E.14821
G1 X74.377 Y72.452 E.01314
M73 Q1 S192
G1 X74.377 Y67.725 E.14821
G1 X73.958 Y67.725 E.01314
G1 X73.958 Y72.452 E.14821
G1 X73.937 Y72.452 E.00067
G1 X73.539 Y72.849 E.01763
G1 X73.539 Y67.725 E.16067
G1 X73.12 Y67.725 E.01314
G1 X73.12 Y75.503 E.24387
G1 X72.701 Y75.503 E.01314
G1 X72.701 Y67.725 E.24387
G1 X72.283 Y67.725 E.01314
G1 X72.283 Y75.503 E.24387
G1 X71.864 Y75.503 E.01314
G1 X71.864 Y67.725 E.24387
G1 X71.445 Y67.725 E.01314
G1 X71.445 Y75.503 E.24387
G1 X71.026 Y75.503 E.01314
G1 X71.026 Y67.725 E.24387
G1 X70.607 Y67.725 E.01314
G1 X70.607 Y75.503 E.24387
G1 X70.188 Y75.503 E.01314
G1 X70.188 Y67.725 E.24387
G1 X69.769 Y67.725 E.01314
G1 X69.769 Y75.503 E.24387
G1 X69.35 Y75.503 E.01314
G1 X69.35 Y67.725 E.24387
G1 X68.931 Y67.725 E.01314
G1 X68.931 Y75.503 E.24387
G1 X68.512 Y75.503 E.01314
G1 X68.512 Y67.725 E.24387
G1 X68.093 Y67.725 E.01314
G1 X68.093 Y75.503 E.24387
G1 X67.75 Y75.503 E.01076
G1 X67.75 Y72.932 E.08061
G1 X67.674 Y72.856 E.00337
G1 X67.674 Y67.725 E.16088
G1 X67.255 Y67.725 E.01314
G1 X67.255 Y72.452 E.14821
G1 X66.836 Y72.452 E.01314
G1 X66.836 Y67.725 E.14821
G1 X66.417 Y67.725 E.01314
G1 X66.417 Y72.452 E.14821
G1 X65.998 Y72.452 E.01314
G1 X65.998 Y67.725 E.14821
G1 X65.579 Y67.725 E.01314
G1 X65.579 Y72.452 E.14821
G1 X65.16 Y72.452 E.01314
G1 X65.16 Y67.725 E.14821
G1 X64.741 Y67.725 E.01314
G1 X64.741 Y72.452 E.14821
G1 X64.322 Y72.452 E.01314
G1 X64.322 Y67.725 E.14821
G1 X63.903 Y67.725 E.01314
G1 X63.903 Y72.452 E.14821
G1 X63.484 Y72.452 E.01314
G1 X63.484 Y67.725 E.14821
G1 X63.065 Y67.725 E.01314
G1 X63.065 Y72.452 E.14821
G1 X62.646 Y72.86 E.01833
G1 X62.646 Y67.725 E.16099
G1 X62.227 Y67.725 E.01314
G1 X62.227 Y75.503 E.24387
G1 X61.808 Y75.503 E.01314
G1 X61.808 Y67.725 E.24387
G1 X61.389 Y67.725 E.01314
G1 X61.389 Y75.503 E.24387
G1 X60.97 Y75.503 E.01314
G1 X60.97 Y67.725 E.24387
G1 X60.551 Y67.725 E.01314
G1 X60.551 Y75.503 E.24387
G1 X60.132 Y75.503 E.01314
G1 X60.132 Y67.725 E.24387
G1 X59.713 Y67.725 E.01314
G1 X59.713 Y75.503 E.24387
G1 X59.294 Y75.503 E.01314
