; generated by PrusaSlicer 2.4.1+win64 on 2022-06-01 at 20:14:36 UTC

; 

; external perimeters extrusion width = 0.45mm
; perimeters extrusion width = 0.45mm
; infill extrusion width = 0.45mm
; solid infill extrusion width = 0.45mm
; top infill extrusion width = 0.40mm
; first layer extrusion width = 0.42mm

; external perimeters extrusion width = 0.45mm
; perimeters extrusion width = 0.45mm
; infill extrusion width = 0.45mm
; solid infill extrusion width = 0.45mm
; top infill extrusion width = 0.40mm
; first layer extrusion width = 0.42mm

M73 P0 R4
M73 Q0 S4
M201 X1000 Y1000 Z200 E5000 ; sets maximum accelerations, mm/sec^2
M203 X200 Y200 Z12 E120 ; sets maximum feedrates, mm / sec
M204 P1250 R1250 T1250 ; sets acceleration (P, T) and retract acceleration (R), mm/sec^2
M205 X8.00 Y8.00 Z0.40 E4.50 ; sets the jerk limits, mm/sec
M205 S0 T0 ; sets the minimum extruding and travel feed rate, mm/sec
M107
;TYPE:Custom
M862.3 P "MK3S" ; printer model check
M862.1 P0.4 ; nozzle diameter check
M115 U3.10.1 ; tell printer latest fw version
G90 ; use absolute coordinates
M83 ; extruder relative mode
M104 S215 ; set extruder temp
M140 S60 ; set bed temp
M190 S60 ; wait for bed temp
M109 S215 ; wait for extruder temp
G28 W ; home all without mesh bed level
G80 ; mesh bed leveling
G1 Z0.2 F720
G1 Y-3 F1000 ; go outside print area
G92 E0
G1 X60 E9 F1000 ; intro line
G1 X100 E12.5 F1000 ; intro line
G92 E0
M221 S95

; Don't change E values below. Excessive value can damage the printer.
M907 E430 ; set extruder motor current
G21 ; set units to millimeters
G90 ; use absolute coordinates
M83 ; use relative distances for extrusion
M900 K0.05 ; Filament gcode LA 1.5
M900 K30 ; Filament gcode LA 1.0
M107
;LAYER_CHANGE
;Z:0.2
;HEIGHT:0.2
;BEFORE_LAYER_CHANGE
G92 E0.0
;0.2


M73 P1 R4
M73 Q1 S4
G1 E-.8 F2100
M73 P2 R4
M73 Q2 S4
G1 Z.4 F720
;AFTER_LAYER_CHANGE
;0.2
G1 X119.25 Y86.204 F10800
G1 Z.2 F720
G1 E.8 F2100
M204 S800
;TYPE:Skirt/Brim
;WIDTH:0.42
G1 F1200
G1 X119.669 Y85.738 E.01965
G1 X120.528 Y84.984 E.03584
G1 X122.339 Y84.306 E.06062
G1 X128.066 Y84.306 E.17957
G1 X130.037 Y85.137 E.06707
G1 X131.038 Y86.204 E.04587
G1 X131.462 Y86.904 E.02569
G1 X131.703 Y87.571 E.02223
G1 X132.252 Y89.939 E.0762
G1 X132.694 Y97.51 E.23778
G1 X132.403 Y112.588 E.47286
M73 P3 R4
M73 Q3 S4
G1 X131.912 Y119.631 E.22137
G1 X131.465 Y122.206 E.08192
G1 X131.103 Y123.243 E.03444
G1 X130.75 Y123.796 E.02058
G1 X130.331 Y124.262 E.01966
G1 X129.472 Y125.016 E.03584
G1 X127.661 Y125.694 E.06062
G1 X121.934 Y125.694 E.17957
G1 X119.963 Y124.863 E.06707
G1 X118.901 Y123.714 E.04906
G1 X118.581 Y123.186 E.01937
G1 X118.33 Y122.547 E.02152
G1 X117.681 Y119.586 E.09506
G1 X117.303 Y112.316 E.22825
G1 X117.591 Y97.549 E.46307
M73 Q4 S4
G1 X118.088 Y90.369 E.22569
M73 P4 R4
G1 X118.535 Y87.794 E.08192
G1 X118.897 Y86.757 E.03444
G1 X119.217 Y86.254 E.0187
M204 S1000
G1 X119.552 Y86.508 F10800
M204 S800
G1 F1200
G1 X119.924 Y86.016 E.01933
G1 X120.776 Y85.269 E.03554
G1 X122.339 Y84.683 E.05232
G1 X128.066 Y84.683 E.17957
G1 X129.767 Y85.4 E.05789
G1 X130.735 Y86.428 E.04428
G1 X131.123 Y87.069 E.02347
G1 X131.337 Y87.663 E.01982
G1 X131.885 Y90.024 E.07598
G1 X132.318 Y97.521 E.23545
G1 X132.029 Y112.52 E.47036
G1 X131.536 Y119.605 E.22271
M73 P5 R4
M73 Q5 S4
G1 X131.094 Y122.138 E.08061
G1 X130.767 Y123.071 E.03098
G1 X130.076 Y123.984 E.03592
G1 X129.224 Y124.731 E.03554
G1 X127.661 Y125.317 E.05232
G1 X121.934 Y125.317 E.17957
G1 X120.233 Y124.6 E.05789
G1 X119.204 Y123.489 E.04747
G1 X118.691 Y122.439 E.03666
G1 X118.057 Y119.566 E.09225
G1 X117.68 Y112.313 E.22771
G1 X117.968 Y97.557 E.46276
G1 X118.464 Y90.395 E.2251
M73 P6 R4
M73 Q6 S4
G1 X118.906 Y87.862 E.0806
G1 X119.232 Y86.93 E.03099
G1 X119.516 Y86.556 E.01471
M204 S1000
; printing object Lantern2.stl id:1 copy 0
;WIPE_START
G1 F8640
G1 X119.924 Y86.016 E-.15623
G1 X120.776 Y85.269 E-.26176
G1 X122.163 Y84.749 E-.34202
;WIPE_END
G1 E-.04 F2100
G1 Z.6 F720
G1 X128.739 Y90.841 F10800
G1 Z.2 F720
G1 E.8 F2100
M204 S800
;TYPE:Perimeter
G1 F1200
G1 X128.783 Y90.885 E.00196
G1 X128.784 Y91.295 E.01285
G1 X128.738 Y91.294 E.00147
G1 X128.739 Y90.901 E.01233
M204 S1000
;WIPE_START
G1 F8640
G1 X128.783 Y90.885 E-.01083
G1 X128.784 Y91.295 E-.09464
G1 X128.738 Y91.294 E-.01079
G1 X128.739 Y90.901 E-.09081
;WIPE_END
G1 E-.59293 F2100
G1 Z.6 F720
G1 X128.068 Y88.171 F10800
G1 Z.2 F720
G1 E.8 F2100
M204 S800
G1 F1200
G1 X128.118 Y88.2 E.0018
G1 X128.224 Y88.34 E.00551
G1 X128.284 Y88.521 E.00599
G1 X128.455 Y90.023 E.04738
G1 X128.172 Y90.023 E.00886
G1 X128.166 Y88.905 E.03504
G1 X128.115 Y88.371 E.01681
G1 X128.082 Y88.229 E.00457
M204 S1000
;WIPE_START
G1 F8640
G1 X128.118 Y88.2 E-.01083
G1 X128.224 Y88.34 E-.0406
G1 X128.284 Y88.521 E-.04414
G1 X128.455 Y90.023 E-.34893
G1 X128.172 Y90.023 E-.06527
G1 X128.166 Y88.939 E-.25022
;WIPE_END
G1 E-.04 F2100
G1 Z.6 F720
G1 X122.321 Y88.237 F10800
G1 Z.2 F720
G1 E.8 F2100
M204 S800
G1 F1200
G1 X122.29 Y88.372 E.00434
G1 X122.238 Y88.905 E.01681
G1 X122.233 Y90.025 E.03511
G1 X121.83 Y90.026 E.01262
M73 Q7 S4
G1 X122.016 Y88.461 E.04942
G1 X122.09 Y88.323 E.00492
G1 X122.201 Y88.332 E.00349
G1 X122.269 Y88.245 E.00345
M204 S1000
;WIPE_START
G1 F8640
M73 P7 R4
G1 X122.29 Y88.372 E-.02962
G1 X122.238 Y88.905 E-.1238
G1 X122.233 Y90.025 E-.25856
G1 X121.83 Y90.026 E-.09296
G1 X121.96 Y88.929 E-.25506
;WIPE_END
G1 E-.04 F2100
G1 Z.6 F720
G1 X123.672 Y100.397 F10800
G1 Z.2 F720
G1 E.8 F2100
M204 S800
G1 F1200
G1 X124.036 Y100.539 E.01228
G1 X124.188 Y100.568 E.00483
G1 X123.663 Y100.661 E.01671
G1 X123.674 Y100.456 E.00642
M204 S1000
;WIPE_START
G1 F8640
G1 X124.036 Y100.539 E-.08573
G1 X124.188 Y100.568 E-.03555
G1 X123.663 Y100.661 E-.12306
G1 X123.674 Y100.456 E-.04726
;WIPE_END
G1 E-.50842 F2100
G1 Z.6 F720
G1 X126.733 Y100.397 F10800
G1 Z.2 F720
G1 E.8 F2100
M204 S800
G1 F1200
G1 X126.742 Y100.661 E.00829
G1 X126.217 Y100.568 E.01671
G1 X126.368 Y100.538 E.00483
G1 X126.68 Y100.424 E.01042
M204 S1000
;WIPE_START
G1 F8640
G1 X126.742 Y100.661 E-.05643
G1 X126.217 Y100.568 E-.12303
G1 X126.368 Y100.538 E-.03558
G1 X126.68 Y100.424 E-.07671
;WIPE_END
G1 E-.50825 F2100
G1 Z.6 F720
G1 X127.912 Y87.646 F10800
G1 Z.2 F720
G1 E.8 F2100
M204 S800
;TYPE:External perimeter
G1 F1200
G1 X128.112 Y87.678 E.00635
G1 X128.211 Y87.818 E.00538
G1 X128.373 Y87.911 E.00584
G1 X128.547 Y88.141 E.00905
G1 X128.6 Y88.249 E.00376
G1 X128.656 Y88.449 E.0065
G1 X128.883 Y90.451 E.06318
G1 X129.159 Y90.729 E.01231
G1 X129.163 Y91.673 E.02959
G1 X129.054 Y91.678 E.0034
G1 X129.55 Y97.605 E.18649
G1 X129.535 Y97.867 E.00823
G1 X129.461 Y98.129 E.00853
G1 X129.381 Y98.289 E.00562
G1 X129.278 Y98.435 E.00561
G1 X128.997 Y98.705 E.01221
G1 X128.179 Y99.299 E.03171
G1 X127.841 Y99.468 E.01185
G1 X127.567 Y99.702 E.01128
G1 X127.134 Y99.985 E.01622
G1 X127.108 Y100.452 E.01464
G1 X127.139 Y101.01 E.01754
G1 X127.591 Y101.013 E.01415
G1 X127.601 Y101.573 E.01753
G1 X127.586 Y101.623 E.00163
G1 X127.415 Y101.606 E.00541
G1 X127.264 Y101.618 E.00472
G1 X127.163 Y101.118 E.01599
G1 X126.121 Y100.934 E.03318
M73 Q8 S4
G1 X125.658 Y100.897 E.01455
G1 X125.202 Y100.891 E.01428
G1 X124.747 Y100.897 E.01428
G1 X124.284 Y100.934 E.01455
G1 X123.242 Y101.118 E.03318
M73 P8 R4
G1 X123.14 Y101.618 E.01599
G1 X122.99 Y101.606 E.00472
G1 X122.818 Y101.623 E.00541
G1 X122.804 Y101.573 E.00163
G1 X122.814 Y101.013 E.01753
G1 X123.265 Y101.01 E.01415
G1 X123.297 Y100.452 E.01754
G1 X123.27 Y99.98 E.0148
G1 X122.977 Y99.804 E.01074
G1 X122.701 Y99.596 E.01082
G1 X122.287 Y99.389 E.01451
G1 X121.142 Y98.573 E.04409
G1 X120.954 Y98.361 E.00888
G1 X120.862 Y98.208 E.0056
G1 X120.78 Y97.997 E.00709
G1 X120.74 Y97.779 E.00697
G1 X120.736 Y97.61 E.0053
G1 X121.224 Y91.846 E.18136
G1 X121.243 Y90.728 E.03505
G1 X121.387 Y90.58 E.00646
G1 X121.658 Y88.331 E.07105
G1 X121.78 Y88.096 E.00828
G1 X121.955 Y87.934 E.00749
G1 X122.029 Y87.94 E.00233
G1 X122.115 Y87.83 E.00437
G1 X122.368 Y87.862 E.008
G1 X122.568 Y87.425 E.01508
G1 X122.77 Y87.425 E.00633
G1 X122.804 Y87.549 E.00403
G1 X122.771 Y87.965 E.0131
G1 X122.663 Y88.432 E.01503
G1 X122.615 Y88.924 E.0155
G1 X122.608 Y90.401 E.0463
G1 X121.749 Y90.404 E.02693
G1 X121.584 Y92.023 E.05103
G1 X121.114 Y97.614 E.17593
G1 X121.121 Y97.808 E.0061
G1 X121.175 Y97.993 E.00603
G1 X121.302 Y98.2 E.00761
G1 X121.483 Y98.358 E.00754
G1 X122.093 Y98.624 E.02087
G1 X122.208 Y98.797 E.00651
G1 X122.437 Y99.024 E.01009
G1 X122.686 Y99.331 E.01239
G1 X122.91 Y99.53 E.0094
G1 X123.267 Y99.769 E.01346
G1 X123.668 Y99.937 E.01363
G1 X123.872 Y100.077 E.00776
G1 X124.138 Y100.174 E.00888
G1 X124.405 Y100.226 E.00853
G1 X124.812 Y100.254 E.01279
G1 X125.592 Y100.254 E.02446
G1 X125.999 Y100.226 E.01279
G1 X126.267 Y100.174 E.00854
G1 X126.533 Y100.077 E.00887
G1 X126.737 Y99.937 E.00776
G1 X127.138 Y99.768 E.01366
G1 X127.385 Y99.614 E.00913
G1 X127.732 Y99.317 E.01431
G1 X128.047 Y98.915 E.01601
G1 X128.201 Y98.756 E.00693
G1 X128.333 Y98.554 E.00758
G1 X128.748 Y98.382 E.01407
G1 X128.94 Y98.246 E.00739
G1 X129.086 Y98.046 E.00777
G1 X129.164 Y97.817 E.0076
G1 X129.175 Y97.638 E.0056
G1 X128.677 Y91.67 E.18778
G1 X128.359 Y91.664 E.00997
G1 X128.363 Y90.4 E.03962
G1 X127.797 Y90.4 E.01775
G1 X127.789 Y88.924 E.04627
G1 X127.742 Y88.432 E.0155
M73 Q9 S4
G1 X127.634 Y87.965 E.01503
G1 X127.6 Y87.549 E.0131
G1 X127.635 Y87.424 E.00405
G1 X127.837 Y87.422 E.00635
G1 X127.893 Y87.59 E.00553
M204 S1000
G1 X127.951 Y87.845 F10800
;WIPE_START
M73 P9 R4
G1 F8640
G1 X128.112 Y87.678 E-.05455
G1 X128.211 Y87.818 E-.03962
G1 X128.373 Y87.911 E-.04304
G1 X128.547 Y88.141 E-.06668
G1 X128.6 Y88.249 E-.02771
G1 X128.656 Y88.449 E-.04786
G1 X128.883 Y90.451 E-.46525
G1 X128.929 Y90.498 E-.01529
;WIPE_END
G1 E-.04 F2100
G1 Z.6 F720
G1 X121.477 Y90.758 F10800
G1 Z.2 F720
G1 E.8 F2100
M204 S800
;TYPE:Gap fill
;WIDTH:0.129357
G1 F1200
G1 X121.446 Y91.275 E.00372
M204 S1000
;WIPE_START
G1 F8640
G1 X121.477 Y90.758 E-.11954
;WIPE_END
G1 E-.68046 F2100
G1 Z.6 F720
G1 X121.605 Y98.642 F10800
G1 Z.2 F720
G1 E.8 F2100
M204 S800
;WIDTH:0.0991244
G1 F1200
G1 X121.66 Y98.671 E.00029
M204 S1000
M204 S800
;WIDTH:0.0994088
G1 X121.661 Y98.672 E.00001
M204 S1000
M204 S800
;WIDTH:0.131521
G1 X121.794 Y98.748 E.00112
M204 S1000
M204 S800
;WIDTH:0.163632
G1 X121.926 Y98.823 E.00153
M204 S1000
M204 S800
;WIDTH:0.16363
G1 X121.981 Y98.879 E.00078
M204 S1000
M204 S800
;WIDTH:0.135497
G1 X122.035 Y98.936 E.0006
M204 S1000
M204 S800
;WIDTH:0.107365
G1 X122.039 Y98.94 E.00003
M204 S1000
M204 S800
;WIDTH:0.105667
G1 X122.118 Y99.007 E.00054
M204 S1000
;WIPE_START
G1 F8640
G1 X122.039 Y98.94 E-.02386
;WIPE_END
G1 E-.77614 F2100
G1 Z.6 F720
G1 X124.376 Y100.575 F10800
G1 Z.2 F720
G1 E.8 F2100
M204 S800
;WIDTH:0.343916
G1 F1200
G1 X124.727 Y100.573 E.00879
M204 S1000
M204 S800
;WIDTH:0.314168
G1 X124.736 Y100.573 E.0002
M204 S1000
M204 S800
;WIDTH:0.313136
G1 X124.797 Y100.575 E.00136
M204 S1000
M204 S800
;WIDTH:0.308155
G1 X124.806 Y100.575 E.0002
M204 S1000
M204 S800
;WIDTH:0.307716
G1 X125.201 Y100.573 E.00869
M204 S1000
M204 S800
;WIDTH:0.30237
G1 X125.204 Y100.573 E.00008
M204 S1000
M204 S800
;WIDTH:0.307708
G1 X125.599 Y100.575 E.00869
M204 S1000
M204 S800
;WIDTH:0.308145
G1 X125.608 Y100.575 E.0002
M204 S1000
M204 S800
;WIDTH:0.313123
G1 X125.668 Y100.573 E.00136
M204 S1000
M204 S800
;WIDTH:0.314151
G1 X125.677 Y100.573 E.0002
M204 S1000
M204 S800
;WIDTH:0.34389
G1 X126.029 Y100.575 E.00879
M204 S1000
;WIPE_START
G1 F8640
G1 X125.677 Y100.573 E-.08112
;WIPE_END
G1 E-.71888 F2100
G1 Z.6 F720
G1 X128.328 Y98.929 F10800
G1 Z.2 F720
G1 E.8 F2100
M204 S800
;WIDTH:0.0981612
G1 F1200
G1 X128.368 Y98.894 E.00025
M204 S1000
M204 S800
;WIDTH:0.0996073
G1 X128.372 Y98.89 E.00003
M204 S1000
M204 S800
;WIDTH:0.133142
G1 X128.436 Y98.823 E.0007
M204 S1000
M204 S800
;WIDTH:0.166675
G1 X128.5 Y98.756 E.00096
M204 S1000
M204 S800
;WIDTH:0.166676
G1 X128.647 Y98.674 E.00173
M204 S1000
M204 S800
;WIDTH:0.129999
G1 X128.794 Y98.591 E.00122
M204 S1000
; stop printing object Lantern2.stl id:1 copy 0
; printing object Lantern1.stl id:0 copy 0
;WIPE_START
G1 F8640
G1 X128.647 Y98.674 E-.03885
;WIPE_END
G1 E-.76115 F2100
G1 Z.6 F720
G1 X121.262 Y118.706 F10800
G1 Z.2 F720
G1 E.8 F2100
M204 S800
;TYPE:Perimeter
;WIDTH:0.42
G1 F1200
G1 X121.261 Y119.159 E.01421
G1 X121.217 Y119.115 E.00196
G1 X121.216 Y118.718 E.01244
M204 S1000
;WIPE_START
G1 F8640
G1 X121.261 Y119.159 E-.10236
G1 X121.217 Y119.115 E-.01444
G1 X121.216 Y118.718 E-.09158
;WIPE_END
G1 E-.59162 F2100
G1 Z.6 F720
G1 X121.828 Y119.977 F10800
M73 Q10 S4
G1 Z.2 F720
G1 E.8 F2100
M204 S800
G1 F1200
M73 P10 R4
G1 X121.834 Y121.095 E.03504
G1 X121.885 Y121.629 E.01681
G1 X121.932 Y121.829 E.00645
G1 X121.882 Y121.8 E.0018
G1 X121.776 Y121.66 E.0055
G1 X121.716 Y121.479 E.006
G1 X121.545 Y119.977 E.04738
G1 X121.768 Y119.977 E.00698
M204 S1000
;WIPE_START
G1 F8640
G1 X121.834 Y121.095 E-.25852
G1 X121.885 Y121.629 E-.12382
G1 X121.932 Y121.829 E-.04751
G1 X121.882 Y121.8 E-.01327
G1 X121.776 Y121.66 E-.04054
G1 X121.716 Y121.479 E-.0442
G1 X121.602 Y120.48 E-.23214
;WIPE_END
G1 E-.04 F2100
G1 Z.6 F720
G1 X127.767 Y119.975 F10800
G1 Z.2 F720
G1 E.8 F2100
M204 S800
G1 F1200
G1 X128.17 Y119.974 E.01262
G1 X127.984 Y121.539 E.04942
G1 X127.91 Y121.677 E.00492
G1 X127.799 Y121.668 E.00349
G1 X127.719 Y121.77 E.00406
G1 X127.679 Y121.763 E.00127
G1 X127.71 Y121.628 E.00434
G1 X127.762 Y121.095 E.01681
G1 X127.767 Y120.035 E.03323
M204 S1000
;WIPE_START
G1 F8640
G1 X128.17 Y119.974 E-.0941
G1 X127.984 Y121.539 E-.36394
G1 X127.91 Y121.677 E-.03627
G1 X127.799 Y121.668 E-.0257
G1 X127.719 Y121.77 E-.02992
G1 X127.679 Y121.763 E-.00936
G1 X127.71 Y121.628 E-.03196
G1 X127.762 Y121.095 E-.1238
G1 X127.763 Y120.9 E-.04495
;WIPE_END
G1 E-.04 F2100
G1 Z.6 F720
G1 X126.337 Y109.339 F10800
G1 Z.2 F720
G1 E.8 F2100
M204 S800
G1 F1200
G1 X126.328 Y109.603 E.00829
G1 X125.964 Y109.462 E.01227
G1 X125.813 Y109.432 E.00483
G1 X126.278 Y109.35 E.01482
M204 S1000
;WIPE_START
G1 F8640
G1 X126.328 Y109.603 E-.05974
G1 X125.964 Y109.462 E-.09035
G1 X125.813 Y109.432 E-.03558
G1 X126.278 Y109.35 E-.10917
;WIPE_END
G1 E-.50515 F2100
G1 Z.6 F720
G1 X123.783 Y109.432 F10800
G1 Z.2 F720
G1 E.8 F2100
M204 S800
G1 F1200
G1 X123.632 Y109.462 E.00483
G1 X123.267 Y109.603 E.01227
G1 X123.258 Y109.339 E.00829
G1 X123.724 Y109.422 E.01482
M204 S1000
;WIPE_START
G1 F8640
G1 X123.632 Y109.462 E-.02319
G1 X123.267 Y109.603 E-.09036
G1 X123.258 Y109.339 E-.06105
G1 X123.724 Y109.422 E-.10917
;WIPE_END
G1 E-.51623 F2100
G1 Z.6 F720
G1 X126.735 Y108.99 F10800
G1 Z.2 F720
G1 E.8 F2100
M204 S800
;TYPE:External perimeter
G1 F1200
G1 X126.703 Y109.548 E.01754
G1 X126.73 Y110.02 E.0148
G1 X127.023 Y110.196 E.01074
M73 Q11 S4
G1 X127.299 Y110.404 E.01082
G1 X127.713 Y110.611 E.01451
G1 X128.858 Y111.427 E.04409
G1 X129.046 Y111.639 E.00888
G1 X129.138 Y111.792 E.0056
M73 P11 R4
G1 X129.22 Y112.003 E.00709
G1 X129.26 Y112.221 E.00697
G1 X129.264 Y112.39 E.0053
G1 X128.776 Y118.154 E.18136
G1 X128.757 Y119.271 E.03503
G1 X128.613 Y119.42 E.00648
G1 X128.342 Y121.669 E.07105
G1 X128.22 Y121.904 E.00828
G1 X128.045 Y122.066 E.00749
G1 X127.971 Y122.06 E.00233
G1 X127.885 Y122.17 E.00437
G1 X127.632 Y122.138 E.008
G1 X127.432 Y122.575 E.01508
G1 X127.23 Y122.575 E.00633
G1 X127.196 Y122.451 E.00403
G1 X127.229 Y122.035 E.0131
G1 X127.337 Y121.568 E.01503
G1 X127.385 Y121.076 E.0155
G1 X127.392 Y119.599 E.0463
G1 X128.251 Y119.596 E.02693
G1 X128.416 Y117.977 E.05103
G1 X128.886 Y112.386 E.17593
G1 X128.879 Y112.192 E.0061
G1 X128.825 Y112.007 E.00603
G1 X128.698 Y111.8 E.00761
G1 X128.517 Y111.642 E.00754
G1 X127.907 Y111.376 E.02087
G1 X127.792 Y111.203 E.00651
G1 X127.563 Y110.976 E.01009
G1 X127.314 Y110.669 E.01239
G1 X127.09 Y110.47 E.0094
G1 X126.733 Y110.231 E.01346
G1 X126.332 Y110.063 E.01363
G1 X126.128 Y109.923 E.00776
G1 X125.862 Y109.826 E.00887
G1 X125.595 Y109.774 E.00854
G1 X125.188 Y109.746 E.01279
G1 X124.408 Y109.746 E.02446
G1 X124.001 Y109.774 E.01279
G1 X123.733 Y109.826 E.00854
