; generated by PrusaSlicer 2.3.1+win64 on 2021-11-10 at 20:15:37 UTC

; 

; external perimeters extrusion width = 0.45mm
; perimeters extrusion width = 0.45mm
; infill extrusion width = 0.45mm
; solid infill extrusion width = 0.45mm
; top infill extrusion width = 0.40mm
; support material extrusion width = 0.35mm
; first layer extrusion width = 0.42mm

M73 P0 R76
M73 Q0 S78
M201 X1000 Y1000 Z1000 E5000 ; sets maximum accelerations, mm/sec^2
M203 X200 Y200 Z12 E120 ; sets maximum feedrates, mm/sec
M204 P1250 R1250 T1250 ; sets acceleration (P, T) and retract acceleration (R), mm/sec^2
M205 X8.00 Y8.00 Z0.40 E1.50 ; sets the jerk limits, mm/sec
M205 S0 T0 ; sets the minimum extruding and travel feed rate, mm/sec
M107
;TYPE:Custom
M862.3 P "MK3S" ; printer model check
M862.1 P0.4 ; nozzle diameter check
M115 U3.8.0 ; tell printer latest fw version
G90 ; use absolute coordinates
M83 ; extruder relative mode
M104 S215 ; set extruder temp
M140 S60 ; set bed temp
M190 S60 ; wait for bed temp
M109 S215 ; wait for extruder temp
G28 W ; home all without mesh bed level
G80 ; mesh bed leveling
G1 Y-3.0 F1000.0 ; go outside print area
G92 E0.0
G1 X60.0 E9.0 F1000.0 ; intro line
G1 X100.0 E12.5 F1000.0 ; intro line
G92 E0.0
M221 S95
G21 ; set units to millimeters
G90 ; use absolute coordinates
M83 ; use relative distances for extrusion
M900 K0.05 ; Filament gcode LA 1.5
M900 K30 ; Filament gcode LA 1.0
;LAYER_CHANGE
;Z:0.2
;HEIGHT:0.2
;BEFORE_LAYER_CHANGE
G92 E0.0
;0.2


G1 E-0.80000 F2100.000
G1 Z0.600 F10800.000
;AFTER_LAYER_CHANGE
;0.2
G1 X149.237 Y22.325
G1 Z0.200
G1 E0.80000 F2100.000
M204 S1000
;TYPE:Perimeter
;WIDTH:0.42
G1 F1200.000
G1 X163.913 Y22.325 E0.46014
G1 X163.913 Y31.150 E0.27673
G1 X148.913 Y31.150 E0.47031
G1 X148.913 Y84.850 E1.68370
G1 X163.913 Y84.850 E0.47031
G1 X163.913 Y93.675 E0.27673
G1 X148.913 Y93.675 E0.47031
G1 X148.913 Y103.413 E0.30531
G1 X140.087 Y103.413 E0.27673
G1 X140.087 Y12.587 E2.84778
M73 P0 R75
G1 X148.913 Y12.587 E0.27673
G1 X148.913 Y22.325 E0.30531
G1 X149.177 Y22.325 E0.00829
G1 X149.290 Y21.947 F10800.000
;TYPE:External perimeter
G1 F1200.000
G1 X164.290 Y21.947 E0.47031
G1 X164.290 Y31.527 E0.30037
G1 X149.290 Y31.527 E0.47031
G1 X149.290 Y84.473 E1.66005
G1 X164.290 Y84.473 E0.47031
G1 X164.290 Y94.053 E0.30037
G1 X149.290 Y94.053 E0.47031
G1 X149.290 Y103.790 E0.30531
G1 X139.710 Y103.790 E0.30037
G1 X139.710 Y12.210 E2.87143
G1 X149.290 Y12.210 E0.30037
G1 X149.290 Y21.887 E0.30343
G1 X149.392 Y22.334 F10800.000
G1 X149.170 Y22.438
;TYPE:Solid infill
;WIDTH:0.420057
G1 F1200.000
G1 X157.600 Y30.868 E0.37385
M73 Q0 S77
G1 X158.134 Y30.868 E0.01673
G1 X149.873 Y22.607 E0.36633
G1 X150.407 Y22.607 E0.01673
G1 X158.667 Y30.868 E0.36633
G1 X159.200 Y30.868 E0.01673
G1 X150.940 Y22.607 E0.36633
G1 X151.473 Y22.607 E0.01673
G1 X159.734 Y30.868 E0.36633
G1 X160.267 Y30.868 E0.01673
G1 X152.007 Y22.607 E0.36633
G1 X152.540 Y22.607 E0.01673
G1 X160.800 Y30.868 E0.36633
G1 X161.334 Y30.868 E0.01673
G1 X153.073 Y22.607 E0.36633
G1 X153.607 Y22.607 E0.01673
G1 X161.867 Y30.868 E0.36633
G1 X162.400 Y30.868 E0.01673
G1 X154.140 Y22.607 E0.36633
G1 X154.673 Y22.607 E0.01673
G1 X162.934 Y30.868 E0.36633
G1 X163.467 Y30.868 E0.01673
G1 X155.207 Y22.607 E0.36633
G1 X155.740 Y22.607 E0.01673
G1 X163.630 Y30.497 E0.34991
G1 X163.630 Y29.964 E0.01673
G1 X156.274 Y22.607 E0.32625
G1 X156.807 Y22.607 E0.01673
G1 X163.630 Y29.431 E0.30260
G1 X163.630 Y28.897 E0.01673
G1 X157.340 Y22.607 E0.27895
G1 X157.874 Y22.607 E0.01673
G1 X163.630 Y28.364 E0.25529
G1 X163.630 Y27.831 E0.01673
G1 X158.407 Y22.607 E0.23164
G1 X158.940 Y22.607 E0.01673
G1 X163.630 Y27.297 E0.20799
G1 X163.630 Y26.764 E0.01673
G1 X159.474 Y22.607 E0.18433
G1 X160.007 Y22.607 E0.01673
G1 X163.630 Y26.230 E0.16068
G1 X163.630 Y25.697 E0.01673
G1 X160.540 Y22.607 E0.13703
G1 X161.074 Y22.607 E0.01673
G1 X163.630 Y25.164 E0.11337
G1 X163.630 Y24.630 E0.01673
G1 X161.607 Y22.607 E0.08972
G1 X162.140 Y22.607 E0.01673
G1 X163.630 Y24.097 E0.06607
G1 X163.630 Y23.564 E0.01673
M73 P1 R75
G1 X162.674 Y22.607 E0.04241
G1 X163.207 Y22.607 E0.01673
G1 X163.800 Y23.200 E0.02629
G1 E-0.80000 F2100.000
G1 Z0.800 F10800.000
G1 X148.800 Y13.534
G1 Z0.200
G1 E0.80000 F2100.000
G1 F1200.000
G1 X148.136 Y12.870 E0.02943
G1 X147.603 Y12.870 E0.01673
G1 X148.630 Y13.897 E0.04556
G1 X148.630 Y14.431 E0.01673
G1 X147.069 Y12.870 E0.06922
G1 X146.536 Y12.870 E0.01673
G1 X148.630 Y14.964 E0.09287
G1 X148.630 Y15.497 E0.01673
G1 X146.003 Y12.870 E0.11652
M73 Q1 S77
G1 X145.469 Y12.870 E0.01673
G1 X148.630 Y16.031 E0.14018
G1 X148.630 Y16.564 E0.01673
G1 X144.936 Y12.870 E0.16383
G1 X144.403 Y12.870 E0.01673
G1 X148.630 Y17.097 E0.18748
G1 X148.630 Y17.631 E0.01673
G1 X143.869 Y12.870 E0.21114
G1 X143.336 Y12.870 E0.01673
G1 X148.630 Y18.164 E0.23479
G1 X148.630 Y18.697 E0.01673
G1 X142.803 Y12.870 E0.25844
G1 X142.269 Y12.870 E0.01673
G1 X148.630 Y19.231 E0.28210
G1 X148.630 Y19.764 E0.01673
G1 X141.736 Y12.870 E0.30575
G1 X141.203 Y12.870 E0.01673
G1 X148.630 Y20.297 E0.32940
G1 X148.630 Y20.831 E0.01673
G1 X140.669 Y12.870 E0.35306
G1 X140.370 Y12.870 E0.00939
G1 X140.370 Y13.104 E0.00734
G1 X148.630 Y21.364 E0.36633
G1 X148.630 Y21.898 E0.01673
G1 X140.370 Y13.637 E0.36633
G1 X140.370 Y14.171 E0.01673
G1 X157.067 Y30.868 E0.74048
G1 X156.533 Y30.868 E0.01673
G1 X140.370 Y14.704 E0.71683
G1 X140.370 Y15.237 E0.01673
G1 X156.000 Y30.868 E0.69318
G1 X155.467 Y30.868 E0.01673
G1 X140.370 Y15.771 E0.66952
G1 X140.370 Y16.304 E0.01673
G1 X154.933 Y30.868 E0.64587
G1 X154.400 Y30.868 E0.01673
G1 X140.370 Y16.837 E0.62222
G1 X140.370 Y17.371 E0.01673
G1 X153.867 Y30.868 E0.59856
G1 X153.333 Y30.868 E0.01673
G1 X140.370 Y17.904 E0.57491
G1 X140.370 Y18.437 E0.01673
G1 X152.800 Y30.868 E0.55126
G1 X152.267 Y30.868 E0.01673
G1 X140.370 Y18.971 E0.52760
G1 X140.370 Y19.504 E0.01673
G1 X151.733 Y30.868 E0.50395
G1 X151.200 Y30.868 E0.01673
G1 X140.370 Y20.038 E0.48030
G1 X140.370 Y20.571 E0.01673
G1 X150.667 Y30.868 E0.45664
G1 X150.133 Y30.868 E0.01673
G1 X140.370 Y21.104 E0.43299
G1 X140.370 Y21.638 E0.01673
G1 X149.600 Y30.868 E0.40934
G1 X149.067 Y30.868 E0.01673
G1 X140.370 Y22.171 E0.38568
G1 X140.370 Y22.704 E0.01673
G1 X148.630 Y30.965 E0.36633
G1 X148.630 Y31.498 E0.01673
G1 X140.370 Y23.238 E0.36633
G1 X140.370 Y23.771 E0.01673
G1 X148.630 Y32.031 E0.36633
G1 X148.630 Y32.565 E0.01673
G1 X140.370 Y24.304 E0.36633
G1 X140.370 Y24.838 E0.01673
G1 X148.630 Y33.098 E0.36633
G1 X148.630 Y33.631 E0.01673
G1 X140.370 Y25.371 E0.36633
G1 X140.370 Y25.904 E0.01673
G1 X148.630 Y34.165 E0.36633
G1 X148.630 Y34.698 E0.01673
G1 X140.370 Y26.438 E0.36633
G1 X140.370 Y26.971 E0.01673
G1 X148.630 Y35.231 E0.36633
G1 X148.630 Y35.765 E0.01673
G1 X140.370 Y27.504 E0.36633
G1 X140.370 Y28.038 E0.01673
G1 X148.630 Y36.298 E0.36633
G1 X148.630 Y36.831 E0.01673
G1 X140.370 Y28.571 E0.36633
G1 X140.370 Y29.105 E0.01673
G1 X148.630 Y37.365 E0.36633
G1 X148.630 Y37.898 E0.01673
G1 X140.370 Y29.638 E0.36633
G1 X140.370 Y30.171 E0.01673
G1 X148.630 Y38.431 E0.36633
G1 X148.630 Y38.965 E0.01673
G1 X140.370 Y30.705 E0.36633
G1 X140.370 Y31.238 E0.01673
G1 X148.630 Y39.498 E0.36633
M73 P1 R74
G1 X148.630 Y40.032 E0.01673
G1 X140.370 Y31.771 E0.36633
G1 X140.370 Y32.305 E0.01673
G1 X148.630 Y40.565 E0.36633
G1 X148.630 Y41.098 E0.01673
G1 X140.370 Y32.838 E0.36633
G1 X140.370 Y33.371 E0.01673
G1 X148.630 Y41.632 E0.36633
G1 X148.630 Y42.165 E0.01673
G1 X140.370 Y33.905 E0.36633
G1 X140.370 Y34.438 E0.01673
G1 X148.630 Y42.698 E0.36633
G1 X148.630 Y43.232 E0.01673
G1 X140.370 Y34.971 E0.36633
G1 X140.370 Y35.505 E0.01673
G1 X148.630 Y43.765 E0.36633
G1 X148.630 Y44.298 E0.01673
G1 X140.370 Y36.038 E0.36633
G1 X140.370 Y36.571 E0.01673
G1 X148.630 Y44.832 E0.36633
G1 X148.630 Y45.365 E0.01673
G1 X140.370 Y37.105 E0.36633
G1 X140.370 Y37.638 E0.01673
G1 X148.630 Y45.898 E0.36633
G1 X148.630 Y46.432 E0.01673
G1 X140.370 Y38.171 E0.36633
G1 X140.370 Y38.705 E0.01673
G1 X148.630 Y46.965 E0.36633
G1 X148.630 Y47.498 E0.01673
G1 X140.370 Y39.238 E0.36633
G1 X140.370 Y39.772 E0.01673
G1 X148.630 Y48.032 E0.36633
G1 X148.630 Y48.565 E0.01673
G1 X140.370 Y40.305 E0.36633
G1 X140.370 Y40.838 E0.01673
G1 X148.630 Y49.099 E0.36633
G1 X148.630 Y49.632 E0.01673
G1 X140.370 Y41.372 E0.36633
G1 X140.370 Y41.905 E0.01673
G1 X148.630 Y50.165 E0.36633
G1 X148.630 Y50.699 E0.01673
G1 X140.370 Y42.438 E0.36633
M73 P2 R74
G1 X140.370 Y42.972 E0.01673
G1 X148.630 Y51.232 E0.36633
G1 X148.630 Y51.765 E0.01673
G1 X140.370 Y43.505 E0.36633
G1 X140.370 Y44.038 E0.01673
G1 X148.630 Y52.299 E0.36633
G1 X148.630 Y52.832 E0.01673
G1 X140.370 Y44.572 E0.36633
M73 Q1 S76
G1 X140.370 Y45.105 E0.01673
G1 X148.630 Y53.365 E0.36633
M73 Q2 S76
G1 X148.630 Y53.899 E0.01673
G1 X140.370 Y45.638 E0.36633
G1 X140.370 Y46.172 E0.01673
G1 X148.630 Y54.432 E0.36633
G1 X148.630 Y54.965 E0.01673
G1 X140.370 Y46.705 E0.36633
G1 X140.370 Y47.238 E0.01673
G1 X148.630 Y55.499 E0.36633
G1 X148.630 Y56.032 E0.01673
G1 X140.370 Y47.772 E0.36633
G1 X140.370 Y48.305 E0.01673
G1 X148.630 Y56.565 E0.36633
G1 X148.630 Y57.099 E0.01673
G1 X140.370 Y48.839 E0.36633
G1 X140.370 Y49.372 E0.01673
G1 X148.630 Y57.632 E0.36633
G1 X148.630 Y58.165 E0.01673
G1 X140.370 Y49.905 E0.36633
G1 X140.370 Y50.439 E0.01673
G1 X148.630 Y58.699 E0.36633
G1 X148.630 Y59.232 E0.01673
G1 X140.370 Y50.972 E0.36633
G1 X140.370 Y51.505 E0.01673
G1 X148.630 Y59.766 E0.36633
G1 X148.630 Y60.299 E0.01673
G1 X140.370 Y52.039 E0.36633
G1 X140.370 Y52.572 E0.01673
G1 X148.630 Y60.832 E0.36633
G1 X148.630 Y61.366 E0.01673
G1 X140.370 Y53.105 E0.36633
G1 X140.370 Y53.639 E0.01673
G1 X148.630 Y61.899 E0.36633
G1 X148.630 Y62.432 E0.01673
G1 X140.370 Y54.172 E0.36633
G1 X140.370 Y54.705 E0.01673
G1 X148.630 Y62.966 E0.36633
G1 X148.630 Y63.499 E0.01673
G1 X140.370 Y55.239 E0.36633
G1 X140.370 Y55.772 E0.01673
G1 X148.630 Y64.032 E0.36633
G1 X148.630 Y64.566 E0.01673
G1 X140.370 Y56.305 E0.36633
G1 X140.370 Y56.839 E0.01673
G1 X148.630 Y65.099 E0.36633
G1 X148.630 Y65.632 E0.01673
G1 X140.370 Y57.372 E0.36633
G1 X140.370 Y57.906 E0.01673
G1 X148.630 Y66.166 E0.36633
G1 X148.630 Y66.699 E0.01673
G1 X140.370 Y58.439 E0.36633
G1 X140.370 Y58.972 E0.01673
G1 X148.630 Y67.232 E0.36633
G1 X148.630 Y67.766 E0.01673
G1 X140.370 Y59.506 E0.36633
G1 X140.370 Y60.039 E0.01673
G1 X148.630 Y68.299 E0.36633
G1 X148.630 Y68.833 E0.01673
G1 X140.370 Y60.572 E0.36633
G1 X140.370 Y61.106 E0.01673
G1 X148.630 Y69.366 E0.36633
G1 X148.630 Y69.899 E0.01673
G1 X140.370 Y61.639 E0.36633
G1 X140.370 Y62.172 E0.01673
G1 X148.630 Y70.433 E0.36633
G1 X148.630 Y70.966 E0.01673
G1 X140.370 Y62.706 E0.36633
G1 X140.370 Y63.239 E0.01673
G1 X148.630 Y71.499 E0.36633
G1 X148.630 Y72.033 E0.01673
G1 X140.370 Y63.772 E0.36633
G1 X140.370 Y64.306 E0.01673
G1 X148.630 Y72.566 E0.36633
G1 X148.630 Y73.099 E0.01673
G1 X140.370 Y64.839 E0.36633
G1 X140.370 Y65.372 E0.01673
G1 X148.630 Y73.633 E0.36633
G1 X148.630 Y74.166 E0.01673
G1 X140.370 Y65.906 E0.36633
G1 X140.370 Y66.439 E0.01673
G1 X148.630 Y74.699 E0.36633
G1 X148.630 Y75.233 E0.01673
G1 X140.370 Y66.973 E0.36633
G1 X140.370 Y67.506 E0.01673
G1 X148.630 Y75.766 E0.36633
G1 X148.630 Y76.299 E0.01673
G1 X140.370 Y68.039 E0.36633
G1 X140.370 Y68.573 E0.01673
G1 X148.630 Y76.833 E0.36633
G1 X148.630 Y77.366 E0.01673
G1 X140.370 Y69.106 E0.36633
G1 X140.370 Y69.639 E0.01673
G1 X148.630 Y77.900 E0.36633
G1 X148.630 Y78.433 E0.01673
G1 X140.370 Y70.173 E0.36633
G1 X140.370 Y70.706 E0.01673
G1 X148.630 Y78.966 E0.36633
G1 X148.630 Y79.500 E0.01673
G1 X140.370 Y71.239 E0.36633
G1 X140.370 Y71.773 E0.01673
G1 X148.630 Y80.033 E0.36633
G1 X148.630 Y80.566 E0.01673
G1 X140.370 Y72.306 E0.36633
G1 X140.370 Y72.839 E0.01673
G1 X148.630 Y81.100 E0.36633
G1 X148.630 Y81.633 E0.01673
G1 X140.370 Y73.373 E0.36633
G1 X140.370 Y73.906 E0.01673
G1 X148.630 Y82.166 E0.36633
G1 X148.630 Y82.700 E0.01673
G1 X140.370 Y74.439 E0.36633
G1 X140.370 Y74.973 E0.01673
G1 X148.630 Y83.233 E0.36633
G1 X148.630 Y83.766 E0.01673
G1 X140.370 Y75.506 E0.36633
G1 X140.370 Y76.040 E0.01673
G1 X148.800 Y84.469 E0.37385
G1 X149.293 Y84.963 F10800.000
G1 F1200.000
G1 X157.723 Y93.393 E0.37385
G1 X158.256 Y93.393 E0.01673
G1 X149.996 Y85.132 E0.36633
G1 X150.529 Y85.132 E0.01673
G1 X158.790 Y93.393 E0.36633
G1 X159.323 Y93.393 E0.01673
G1 X151.063 Y85.132 E0.36633
G1 X151.596 Y85.132 E0.01673
G1 X159.856 Y93.393 E0.36633
G1 X160.390 Y93.393 E0.01673
G1 X152.130 Y85.132 E0.36633
G1 X152.663 Y85.132 E0.01673
G1 X160.923 Y93.393 E0.36633
G1 X161.456 Y93.393 E0.01673
G1 X153.196 Y85.132 E0.36633
G1 X153.730 Y85.132 E0.01673
G1 X161.990 Y93.393 E0.36633
G1 X162.523 Y93.393 E0.01673
G1 X154.263 Y85.132 E0.36633
G1 X154.796 Y85.132 E0.01673
M73 P3 R74
G1 X163.057 Y93.393 E0.36633
G1 X163.590 Y93.393 E0.01673
G1 X155.330 Y85.132 E0.36633
M73 P3 R73
G1 X155.863 Y85.132 E0.01673
G1 X163.630 Y92.900 E0.34446
G1 X163.630 Y92.366 E0.01673
G1 X156.396 Y85.132 E0.32081
G1 X156.930 Y85.132 E0.01673
G1 X163.630 Y91.833 E0.29715
G1 X163.630 Y91.299 E0.01673
G1 X157.463 Y85.132 E0.27350
G1 X157.996 Y85.132 E0.01673
G1 X163.630 Y90.766 E0.24985
G1 X163.630 Y90.233 E0.01673
G1 X158.530 Y85.132 E0.22619
M73 Q3 S76
G1 X159.063 Y85.132 E0.01673
G1 X163.630 Y89.699 E0.20254
G1 X163.630 Y89.166 E0.01673
G1 X159.596 Y85.132 E0.17889
G1 X160.130 Y85.132 E0.01673
G1 X163.630 Y88.633 E0.15523
G1 X163.630 Y88.099 E0.01673
G1 X160.663 Y85.132 E0.13158
G1 X161.197 Y85.132 E0.01673
G1 X163.630 Y87.566 E0.10793
G1 X163.630 Y87.033 E0.01673
G1 X161.730 Y85.132 E0.08427
G1 X162.263 Y85.132 E0.01673
G1 X163.630 Y86.499 E0.06062
G1 X163.630 Y85.966 E0.01673
G1 X162.797 Y85.132 E0.03697
G1 X163.330 Y85.132 E0.01673
G1 X163.800 Y85.602 E0.02084
G1 E-0.80000 F2100.000
G1 Z0.800 F10800.000
G1 X157.359 Y93.562
G1 Z0.200
G1 E0.80000 F2100.000
G1 F1200.000
G1 X140.370 Y76.573 E0.75346
G1 X140.370 Y77.106 E0.01673
G1 X156.656 Y93.393 E0.72228
G1 X156.123 Y93.393 E0.01673
G1 X140.370 Y77.640 E0.69862
G1 X140.370 Y78.173 E0.01673
G1 X155.590 Y93.393 E0.67497
G1 X155.056 Y93.393 E0.01673
G1 X140.370 Y78.706 E0.65132
G1 X140.370 Y79.240 E0.01673
G1 X154.523 Y93.393 E0.62766
G1 X153.990 Y93.393 E0.01673
G1 X140.370 Y79.773 E0.60401
G1 X140.370 Y80.306 E0.01673
G1 X153.456 Y93.393 E0.58036
G1 X152.923 Y93.393 E0.01673
G1 X140.370 Y80.840 E0.55670
G1 X140.370 Y81.373 E0.01673
G1 X152.389 Y93.393 E0.53305
M73 Q3 S75
G1 X151.856 Y93.393 E0.01673
G1 X140.370 Y81.906 E0.50940
G1 X140.370 Y82.440 E0.01673
G1 X151.323 Y93.393 E0.48574
G1 X150.789 Y93.393 E0.01673
G1 X140.370 Y82.973 E0.46209
G1 X140.370 Y83.506 E0.01673
G1 X150.256 Y93.393 E0.43844
G1 X149.723 Y93.393 E0.01673
G1 X140.370 Y84.040 E0.41478
G1 X140.370 Y84.573 E0.01673
G1 X149.189 Y93.393 E0.39113
G1 X148.656 Y93.393 E0.01673
G1 X140.370 Y85.106 E0.36748
G1 X140.370 Y85.640 E0.01673
G1 X148.630 Y93.900 E0.36633
G1 X148.630 Y94.433 E0.01673
G1 X140.370 Y86.173 E0.36633
G1 X140.370 Y86.707 E0.01673
G1 X148.630 Y94.967 E0.36633
G1 X148.630 Y95.500 E0.01673
G1 X140.370 Y87.240 E0.36633
G1 X140.370 Y87.773 E0.01673
G1 X148.630 Y96.034 E0.36633
G1 X148.630 Y96.567 E0.01673
G1 X140.370 Y88.307 E0.36633
G1 X140.370 Y88.840 E0.01673
G1 X148.630 Y97.100 E0.36633
G1 X148.630 Y97.634 E0.01673
G1 X140.370 Y89.373 E0.36633
G1 X140.370 Y89.907 E0.01673
G1 X148.630 Y98.167 E0.36633
G1 X148.630 Y98.700 E0.01673
G1 X140.370 Y90.440 E0.36633
G1 X140.370 Y90.973 E0.01673
G1 X148.630 Y99.234 E0.36633
G1 X148.630 Y99.767 E0.01673
G1 X140.370 Y91.507 E0.36633
G1 X140.370 Y92.040 E0.01673
G1 X148.630 Y100.300 E0.36633
G1 X148.630 Y100.834 E0.01673
G1 X140.370 Y92.573 E0.36633
G1 X140.370 Y93.107 E0.01673
G1 X148.630 Y101.367 E0.36633
G1 X148.630 Y101.900 E0.01673
G1 X140.370 Y93.640 E0.36633
G1 X140.370 Y94.173 E0.01673
G1 X148.630 Y102.434 E0.36633
G1 X148.630 Y102.967 E0.01673
G1 X140.370 Y94.707 E0.36633
G1 X140.370 Y95.240 E0.01673
G1 X148.260 Y103.130 E0.34991
G1 X147.726 Y103.130 E0.01673
G1 X140.370 Y95.774 E0.32625
G1 X140.370 Y96.307 E0.01673
G1 X147.193 Y103.130 E0.30260
