; generated by PrusaSlicer 2.5.0+win64 on 2023-02-21 at 21:38:07 UTC

; 

; external perimeters extrusion width = 0.45mm
; perimeters extrusion width = 0.45mm
; infill extrusion width = 0.45mm
; solid infill extrusion width = 0.45mm
; top infill extrusion width = 0.40mm
; first layer extrusion width = 0.42mm

M73 P0 R60
M73 Q0 S60
M107
;TYPE:Custom
M862.3 P "MK3S" ; printer model check
M862.1 P0.4 ; nozzle diameter check
M115 U3.9.3 ; tell printer latest fw version
G90 ; use absolute coordinates
M83 ; extruder relative mode
M104 S215 ; set extruder temp
M140 S60 ; set bed temp
M190 S60 ; wait for bed temp
M109 S215 ; wait for extruder temp
G28 W ; home all without mesh bed level
G80 ; mesh bed leveling
G1 Y-3.0 F1000.0 ; go outside print area
G92 E0.0
G1 X60.0 E9.0 F1000.0 ; intro line
G1 X100.0 E12.5 F1000.0 ; intro line
G92 E0.0
M221 S95

; Don't change E values below. Excessive value can damage the printer.
M907 E430 ; set extruder motor current
G21 ; set units to millimeters
G90 ; use absolute coordinates
M83 ; use relative distances for extrusion
M900 K0.05 ; Filament gcode LA 1.5
M900 K30 ; Filament gcode LA 1.0
M107
;LAYER_CHANGE
;Z:0.2
;HEIGHT:0.2
;BEFORE_LAYER_CHANGE
G92 E0.0
;0.2


G1 E-.8 F2100
G1 Z.4 F10800
;AFTER_LAYER_CHANGE
;0.2
G1 X100.727 Y86.375
G1 Z.2
G1 E.8 F2100
M204 S1000
;TYPE:Skirt/Brim
;WIDTH:0.42
G1 F1200
G1 X105.13 Y81.735 E.20055
G1 X110.401 Y78.112 E.20055
G1 X116.311 Y75.665 E.20055
G1 X122.6 Y74.499 E.20055
G1 X128.994 Y74.666 E.20055
G1 X135.213 Y76.16 E.20055
G1 X140.986 Y78.913 E.20055
G1 X146.061 Y82.807 E.20055
G1 X150.215 Y87.671 E.20055
G1 X153.266 Y93.292 E.20055
G1 X155.083 Y99.425 E.20055
G1 X155.17 Y99.914 E.01558
G1 X155.568 Y106.298 E.20055
G1 X154.63 Y112.625 E.20055
G1 X152.397 Y118.619 E.20055
G1 X149.273 Y123.625 E.18504
G1 X144.87 Y128.265 E.20055
G1 X139.599 Y131.888 E.20055
G1 X133.689 Y134.335 E.20055
G1 X127.4 Y135.501 E.20055
G1 X121.006 Y135.334 E.20055
G1 X114.787 Y133.84 E.20055
G1 X109.014 Y131.087 E.20055
G1 X103.939 Y127.193 E.20055
G1 X99.785 Y122.329 E.20055
G1 X96.733 Y116.708 E.20055
G1 X94.917 Y110.575 E.20055
G1 X94.83 Y110.086 E.01558
G1 X94.432 Y103.702 E.20055
G1 X95.37 Y97.375 E.20055
G1 X97.603 Y91.381 E.20055
G1 X100.695 Y86.425 E.18316
; printing object 30T motor gear profile id:0 copy 0
;WIPE_START
G1 F8640
G1 X102.957 Y84.034 E-.76
;WIPE_END
G1 E-.04 F2100
G1 Z.6 F10800
G1 X103.955 Y88.086
G1 Z.2
G1 E.8 F2100
;TYPE:Perimeter
;WIDTH:0.419999
G1 F1200
G1 X105.589 Y87.587 E.05357
G1 X105.921 Y87.719 E.0112
G1 X106.415 Y87.824 E.01585
G1 X106.942 Y87.793 E.01655
G1 X107.174 Y87.728 E.00756
G1 X107.663 Y87.491 E.01704
G1 X108.071 Y87.108 E.01752
G1 X108.315 Y86.649 E.01632
G1 X108.432 Y86.318 E.01101
G1 X108.47 Y85.811 E.01594
G1 X108.367 Y85.279 E.017
G1 X107.931 Y84.08 E.03999
G1 X109.639 Y83.931 E.05375
G1 X110.15 Y84.245 E.01881
G1 X110.823 Y84.416 E.02178
G1 X111.345 Y84.371 E.01641
G1 X111.831 Y84.193 E.01623
G1 X112.256 Y83.89 E.01635
G1 X112.54 Y83.541 E.01414
G1 X112.679 Y83.254 E.00999
G1 X112.832 Y82.765 E.01605
G1 X112.83 Y82.248 E.01621
G1 X112.654 Y80.989 E.03989
G1 X114.35 Y81.197 E.05357
G1 X114.58 Y81.438 E.01045
G1 X114.998 Y81.745 E.01625
G1 X115.481 Y81.932 E.01626
G1 X115.695 Y81.969 E.00682
G1 X116.213 Y81.96 E.01623
G1 X116.426 Y81.914 E.00682
G1 X117.055 Y81.613 E.02186
G1 X117.428 Y81.242 E.01649
G1 X117.71 Y80.746 E.01791
G1 X117.826 Y80.219 E.01689
G1 X117.916 Y78.946 E.04002
G1 X119.531 Y79.503 E.05357
G1 X119.731 Y79.814 E.0116
G1 X120.074 Y80.193 E.01601
G1 X120.516 Y80.475 E.01645
G1 X121.046 Y80.608 E.01714
G1 X121.408 Y80.637 E.0114
G1 X121.92 Y80.536 E.01635
G1 X122.121 Y80.453 E.00681
G1 X122.554 Y80.169 E.01623
G1 X122.901 Y79.774 E.01651
G1 X123.135 Y79.27 E.01742
G1 X123.487 Y78.043 E.04002
G1 X124.957 Y78.926 E.05375
G1 X125.186 Y79.482 E.01886
G1 X125.634 Y80.018 E.02188
G1 X126.085 Y80.288 E.01649
G1 X126.765 Y80.447 E.02189
G1 X127.284 Y80.393 E.01638
G1 X127.771 Y80.202 E.01637
G1 X128.192 Y79.889 E.01648
G1 X128.526 Y79.444 E.01743
G1 X129.125 Y78.317 E.04002
G1 X130.375 Y79.483 E.05357
G1 X130.42 Y79.813 E.01045
G1 X130.577 Y80.307 E.01624
G1 X130.858 Y80.742 E.01623
G1 X131.009 Y80.898 E.00681
G1 X131.433 Y81.195 E.01623
G1 X131.734 Y81.307 E.01008
G1 X132.319 Y81.409 E.0186
G1 X132.838 Y81.329 E.01649
G1 X133.434 Y81.041 E.02075
G1 X133.762 Y80.736 E.01405
G1 X134.583 Y79.758 E.04002
G1 X135.566 Y81.163 E.05375
G1 X135.549 Y81.764 E.01886
G1 X135.74 Y82.435 E.02188
G1 X136.043 Y82.865 E.01649
G1 X136.442 Y83.196 E.01626
G1 X136.634 Y83.299 E.00682
G1 X137.128 Y83.454 E.01623
G1 X137.653 Y83.474 E.01648
G1 X138.13 Y83.358 E.0154
G1 X138.615 Y83.088 E.01743
G1 X139.621 Y82.302 E.04002
G1 X140.289 Y83.875 E.05357
G1 X140.196 Y84.195 E.01045
G1 X140.139 Y84.71 E.01625
G1 X140.218 Y85.222 E.01626
G1 X140.293 Y85.427 E.00682
G1 X140.677 Y86.009 E.02186
G1 X141.095 Y86.328 E.01649
G1 X141.575 Y86.522 E.01623
G1 X141.857 Y86.563 E.00894
G1 X142.385 Y86.556 E.01656
G1 X142.874 Y86.397 E.0161
G1 X144.021 Y85.838 E.04002
G1 X144.348 Y87.521 E.05375
G1 X144.096 Y88.028 E.01775
G1 X143.995 Y88.544 E.0165
G1 X144.034 Y89.06 E.01623
G1 X144.091 Y89.27 E.00681
G1 X144.4 Y89.853 E.02068
G1 X144.786 Y90.216 E.01664
G1 X145.255 Y90.457 E.01651
G1 X145.815 Y90.571 E.01791
G1 X146.351 Y90.52 E.0169
G1 X147.589 Y90.211 E.04002
G1 X147.559 Y91.92 E.05357
G1 X147.325 Y92.206 E.0116
G1 X147.007 Y92.818 E.02161
G1 X146.929 Y93.316 E.01582
G1 X146.991 Y93.821 E.01596
G1 X147.063 Y94.06 E.0078
G1 X147.316 Y94.512 E.01623
G1 X147.454 Y94.675 E.00673
G1 X147.861 Y95.001 E.01633
G1 X148.343 Y95.209 E.01647
G1 X148.895 Y95.275 E.01742
G1 X150.17 Y95.231 E.04002
G1 X149.784 Y96.901 E.05375
G1 X149.327 Y97.292 E.01886
G1 X148.956 Y97.883 E.02188
G1 X148.838 Y98.394 E.01646
G1 X148.86 Y98.914 E.01632
G1 X149.02 Y99.414 E.01645
G1 X149.242 Y99.756 E.01277
G1 X149.474 Y99.992 E.0104
G1 X149.917 Y100.303 E.01696
G1 X150.395 Y100.456 E.01572
G1 X151.651 Y100.678 E.04002
G1 X150.929 Y102.226 E.05357
G1 X150.629 Y102.371 E.01045
G1 X150.208 Y102.673 E.01625
G1 X149.881 Y103.076 E.01626
G1 X149.779 Y103.267 E.00679
G1 X149.628 Y103.763 E.01626
G1 X149.605 Y103.979 E.00682
G1 X149.698 Y104.67 E.02186
G1 X149.935 Y105.14 E.01649
G1 X150.392 Y105.618 E.02075
G1 X150.784 Y105.835 E.01405
G1 X151.968 Y106.314 E.04002
G1 X150.936 Y107.682 E.05375
G1 X150.359 Y107.853 E.01886
G1 X149.917 Y108.123 E.01625
G1 X149.757 Y108.271 E.00682
G1 X149.401 Y108.768 E.01917
G1 X149.239 Y109.275 E.01671
G1 X149.226 Y109.812 E.01683
G1 X149.361 Y110.321 E.01651
G1 X149.65 Y110.814 E.01791
G1 X150.047 Y111.178 E.01689
G1 X151.105 Y111.892 E.04002
G1 X149.815 Y113.012 E.05357
G1 X149.446 Y113.03 E.0116
G1 X148.838 Y113.173 E.01957
G1 X148.366 Y113.468 E.01746
G1 X148.018 Y113.863 E.01651
G1 X147.774 Y114.36 E.01737
G1 X147.705 Y114.93 E.018
G1 X147.723 Y115.27 E.01068
G1 X147.946 Y115.892 E.02072
G1 X148.216 Y116.25 E.01405
G1 X149.102 Y117.169 E.04002
G1 X147.602 Y117.999 E.05375
G1 X147.006 Y117.92 E.01886
M73 P0 R59
G1 X146.492 Y117.988 E.01625
G1 X146.286 Y118.057 E.00682
G1 X145.836 Y118.313 E.01623
G1 X145.684 Y118.439 E.00618
G1 X145.366 Y118.838 E.01599
G1 X145.156 Y119.322 E.01654
G1 X145.086 Y119.834 E.0162
G1 X145.151 Y120.32 E.0154
G1 X145.369 Y120.831 E.01743
G1 X146.045 Y121.914 E.04002
G1 X144.411 Y122.413 E.05357
G1 X144.103 Y122.287 E.01045
G1 X143.596 Y122.176 E.01625
G1 X142.901 Y122.24 E.02189
G1 X142.423 Y122.459 E.01649
G1 X142.024 Y122.791 E.01626
G1 X141.887 Y122.959 E.00682
G1 X141.644 Y123.416 E.01621
G1 X141.574 Y123.692 E.00893
G1 X141.525 Y124.218 E.01657
G1 X141.632 Y124.72 E.0161
G1 X142.069 Y125.92 E.04002
G1 X140.361 Y126.069 E.05375
G1 X139.883 Y125.766 E.01775
G1 X139.38 Y125.611 E.0165
G1 X138.862 Y125.595 E.01623
G1 X138.648 Y125.631 E.00681
G1 X138.163 Y125.811 E.01623
G1 X137.977 Y125.925 E.00683
G1 X137.595 Y126.276 E.01626
G1 X137.316 Y126.721 E.01648
G1 X137.178 Y127.192 E.0154
G1 X137.169 Y127.748 E.01743
G1 X137.346 Y129.011 E.04002
G1 X135.65 Y128.803 E.05357
G1 X135.42 Y128.562 E.01045
G1 X135.002 Y128.255 E.01625
G1 X134.519 Y128.068 E.01626
G1 X134.2 Y128.032 E.01004
G1 X133.609 Y128.072 E.0186
G1 X133.123 Y128.275 E.01649
G1 X132.715 Y128.594 E.01625
G1 X132.572 Y128.758 E.00682
G1 X132.29 Y129.254 E.01789
G1 X132.174 Y129.781 E.0169
G1 X132.084 Y131.054 E.04002
G1 X130.469 Y130.497 E.05357
G1 X130.269 Y130.186 E.0116
G1 X129.785 Y129.695 E.02161
G1 X129.314 Y129.462 E.01649
G1 X128.805 Y129.363 E.01626
G1 X128.587 Y129.364 E.00682
G1 X127.945 Y129.509 E.02064
G1 X127.48 Y129.809 E.01735
G1 X127.256 Y130.034 E.00994
G1 X126.921 Y130.572 E.01989
G1 X126.516 Y131.959 E.0453
G1 X125.043 Y131.074 E.05387
G1 X124.814 Y130.518 E.01886
G1 X124.489 Y130.095 E.01672
G1 X124.044 Y129.766 E.01736
G1 X123.549 Y129.61 E.01627
G1 X123.2 Y129.556 E.01107
G1 X122.685 Y129.615 E.01623
G1 X122.197 Y129.812 E.01651
G1 X121.808 Y130.111 E.0154
G1 X121.474 Y130.556 E.01743
G1 X120.875 Y131.683 E.04002
G1 X119.625 Y130.517 E.05357
G1 X119.58 Y130.187 E.01045
G1 X119.423 Y129.693 E.01624
G1 X119.142 Y129.258 E.01623
G1 X118.991 Y129.102 E.00681
G1 X118.567 Y128.805 E.01623
G1 X118.368 Y128.717 E.00683
G1 X117.862 Y128.602 E.01626
G1 X117.645 Y128.595 E.00682
G1 X117.134 Y128.68 E.01623
G1 X116.657 Y128.899 E.01647
G1 X116.238 Y129.264 E.01743
G1 X115.417 Y130.242 E.04002
G1 X114.436 Y128.839 E.05367
G1 X114.455 Y128.304 E.01681
G1 X114.331 Y127.716 E.01885
G1 X114.126 Y127.379 E.01235
G1 X113.847 Y127.019 E.01428
G1 X113.438 Y126.731 E.01568
G1 X112.968 Y126.56 E.01568
G1 X112.433 Y126.523 E.01682
G1 X111.873 Y126.641 E.01794
G1 X111.385 Y126.912 E.01751
G1 X110.379 Y127.698 E.04002
G1 X109.707 Y126.114 E.05393
G1 X109.86 Y125.506 E.01966
G1 X109.829 Y124.974 E.01673
G1 X109.604 Y124.356 E.02059
G1 X109.292 Y123.96 E.01584
G1 X108.874 Y123.655 E.0162
G1 X108.4 Y123.472 E.01593
G1 X108.127 Y123.435 E.00865
G1 X107.605 Y123.446 E.01638
G1 X107.126 Y123.603 E.0158
G1 X105.979 Y124.162 E.04001
G1 X105.652 Y122.479 E.05374
G1 X105.902 Y121.976 E.01761
G1 X106.004 Y121.469 E.01621
G1 X105.969 Y120.953 E.01621
G1 X105.913 Y120.743 E.00683
G1 X105.685 Y120.276 E.0163
G1 X105.554 Y120.102 E.00684
G1 X105.165 Y119.755 E.01632
G1 X104.691 Y119.521 E.0166
G1 X104.196 Y119.429 E.01578
G1 X103.649 Y119.48 E.01722
G1 X102.411 Y119.789 E.04002
G1 X102.441 Y118.065 E.05406
G1 X102.804 Y117.604 E.01839
G1 X102.911 Y117.385 E.00765
G1 X103.065 Y116.838 E.0178
G1 X103.036 Y116.31 E.01659
G1 X102.983 Y116.069 E.00772
G1 X102.687 Y115.483 E.02061
G1 X102.314 Y115.12 E.01631
G1 X102.124 Y114.99 E.0072
G1 X101.612 Y114.778 E.01738
G1 X101.105 Y114.725 E.016
G1 X99.83 Y114.769 E.04001
G1 X100.216 Y113.098 E.05375
G1 X100.657 Y112.732 E.01798
G1 X100.963 Y112.288 E.01691
G1 X101.158 Y111.694 E.01962
G1 X101.14 Y111.154 E.01693
G1 X101.08 Y110.845 E.00987
G1 X100.861 Y110.384 E.016
G1 X100.524 Y109.99 E.01625
G1 X100.123 Y109.72 E.01515
G1 X99.605 Y109.544 E.01715
G1 X98.349 Y109.322 E.04002
G1 X99.078 Y107.758 E.0541
G1 X99.487 Y107.541 E.01453
G1 X99.782 Y107.336 E.01127
G1 X100.106 Y106.946 E.0159
G1 X100.239 Y106.668 E.00965
G1 X100.393 Y106.101 E.01841
G1 X100.362 Y105.574 E.01656
G1 X100.191 Y105.073 E.01659
G1 X100.079 Y104.882 E.00696
G1 X99.708 Y104.464 E.0175
G1 X99.216 Y104.165 E.01807
G1 X98.032 Y103.686 E.04002
G1 X99.064 Y102.318 E.05373
G1 X99.606 Y102.165 E.01767
G1 X100.046 Y101.907 E.016
G1 X100.202 Y101.772 E.00647
G1 X100.594 Y101.237 E.0208
G1 X100.753 Y100.736 E.01646
G1 X100.778 Y100.528 E.00658
G1 X100.742 Y100.02 E.01596
G1 X100.593 Y99.566 E.01498
G1 X100.341 Y99.177 E.01453
G1 X99.952 Y98.822 E.01651
G1 X98.895 Y98.108 E.04001
G1 X100.185 Y96.988 E.05357
G1 X100.854 Y96.927 E.02108
G1 X101.193 Y96.787 E.0115
G1 X101.638 Y96.528 E.01614
G1 X101.986 Y96.131 E.01655
G1 X102.214 Y95.664 E.0163
G1 X102.27 Y95.454 E.00682
G1 X102.304 Y94.938 E.01621
G1 X102.276 Y94.723 E.00679
G1 X102.107 Y94.212 E.01689
G1 X101.784 Y93.75 E.01766
G1 X100.898 Y92.831 E.04002
G1 X102.407 Y91.995 E.0541
G1 X102.868 Y92.06 E.01459
G1 X103.224 Y92.067 E.01115
G1 X103.715 Y91.943 E.01588
G1 X103.92 Y91.844 E.00715
G1 X104.443 Y91.431 E.0209
G1 X104.723 Y91 E.01611
G1 X104.879 Y90.518 E.01588
G1 X104.909 Y90.029 E.01538
G1 X104.829 Y89.607 E.01347
G1 X104.63 Y89.168 E.0151
G1 X103.987 Y88.137 E.0381
G1 X103.375 Y87.869 F10800
;TYPE:External perimeter
G1 F1200
G1 X105.61 Y87.186 E.07329
G1 X105.976 Y87.341 E.01245
G1 X106.434 Y87.445 E.01473
G1 X106.991 Y87.399 E.01752
G1 X107.449 Y87.179 E.01593
G1 X107.803 Y86.833 E.01553
G1 X108.056 Y86.29 E.01876
G1 X108.094 Y85.783 E.01594
G1 X108.013 Y85.408 E.01205
G1 X107.409 Y83.747 E.0554
G1 X109.739 Y83.544 E.07335
G1 X110.258 Y83.884 E.01944
G1 X110.752 Y84.031 E.01617
G1 X111.215 Y84.017 E.01452
G1 X111.699 Y83.839 E.01618
G1 X112.021 Y83.595 E.01265
G1 X112.289 Y83.231 E.01418
G1 X112.451 Y82.741 E.01618
G1 X112.457 Y82.301 E.01381
G1 X112.212 Y80.554 E.0553
G1 X114.532 Y80.84 E.07329
G1 X115.081 Y81.362 E.02378
G1 X115.23 Y81.43 E.00513
G1 X115.712 Y81.592 E.01592
G1 X116.277 Y81.568 E.01774
G1 X116.753 Y81.364 E.01623
G1 X117.101 Y81.055 E.01458
G1 X117.359 Y80.605 E.01626
G1 X117.45 Y80.193 E.01323
G1 X117.574 Y78.43 E.05543
G1 X119.784 Y79.191 E.07329
G1 X120.01 Y79.561 E.0136
G1 X120.353 Y79.939 E.01601
G1 X120.758 Y80.168 E.01458
G1 X121.34 Y80.266 E.01849
G1 X121.881 Y80.156 E.01733
G1 X122.315 Y79.874 E.01622
G1 X122.605 Y79.541 E.01386
G1 X122.773 Y79.166 E.01288
M73 Q0 S59
G1 X123.261 Y77.466 E.05543
G1 X125.265 Y78.672 E.07335
G1 X125.486 Y79.252 E.01947
G1 X125.801 Y79.664 E.01625
G1 X126.186 Y79.924 E.01458
G1 X126.686 Y80.063 E.01626
G1 X127.149 Y80.041 E.01455
G1 X127.633 Y79.851 E.01629
G1 X127.895 Y79.645 E.01044
G1 X128.193 Y79.267 E.0151
G1 X129.023 Y77.706 E.05543
G1 X130.732 Y79.301 E.07329
G1 X130.781 Y79.695 E.01245
G1 X130.894 Y80.102 E.01325
G1 X131.225 Y80.589 E.01847
G1 X131.715 Y80.916 E.01847
G1 X132.221 Y81.03 E.01626
G1 X132.684 Y80.984 E.01459
G1 X133.157 Y80.772 E.01626
G1 X133.473 Y80.493 E.01323
G1 X134.61 Y79.139 E.05543
G1 X135.951 Y81.056 E.07335
G1 X135.916 Y81.676 E.01947
G1 X136.037 Y82.18 E.01625
G1 X136.283 Y82.575 E.01459
G1 X136.746 Y82.94 E.01849
G1 X137.234 Y83.092 E.01603
G1 X137.646 Y83.097 E.01291
G1 X137.957 Y83.015 E.01008
G1 X138.383 Y82.79 E.01511
G1 X139.777 Y81.702 E.05543
G1 X140.689 Y83.854 E.07329
G1 X140.573 Y84.234 E.01245
G1 X140.511 Y84.652 E.01325
G1 X140.616 Y85.232 E.01849
G1 X140.883 Y85.676 E.01623
G1 X141.236 Y85.978 E.01458
G1 X141.788 Y86.186 E.01847
G1 X142.305 Y86.185 E.01623
G1 X142.709 Y86.058 E.01325
G1 X144.298 Y85.284 E.05543
G1 X144.743 Y87.58 E.07335
G1 X144.462 Y88.12 E.0191
G1 X144.376 Y88.585 E.01481
G1 X144.429 Y89.102 E.0163
G1 X144.659 Y89.566 E.01624
G1 X144.923 Y89.846 E.01206
G1 X145.332 Y90.088 E.0149
G1 X145.84 Y90.194 E.01626
G1 X146.26 Y90.154 E.01323
G1 X147.975 Y89.727 E.05543
G1 X147.934 Y92.064 E.07329
G1 X147.652 Y92.393 E.0136
G1 X147.398 Y92.837 E.01601
G1 X147.306 Y93.292 E.01457
G1 X147.392 Y93.876 E.01849
G1 X147.672 Y94.365 E.01768
G1 X148.065 Y94.681 E.01579
G1 X148.473 Y94.855 E.01393
G1 X148.882 Y94.899 E.01288
G1 X150.649 Y94.837 E.05543
G1 X150.122 Y97.117 E.07335
G1 X149.637 Y97.505 E.01947
G1 X149.344 Y97.932 E.01625
G1 X149.215 Y98.379 E.01456
G1 X149.237 Y98.892 E.01611
G1 X149.372 Y99.28 E.01287
G1 X149.64 Y99.647 E.01424
G1 X150.06 Y99.95 E.01625
G1 X150.46 Y100.085 E.01323
G1 X152.201 Y100.392 E.05543
G1 X151.213 Y102.51 E.07329
G1 X150.853 Y102.678 E.01245
G1 X150.501 Y102.911 E.01325
G1 X150.173 Y103.314 E.01626
G1 X150.121 Y103.438 E.00424
G1 X149.981 Y103.945 E.01648
G1 X150.028 Y104.461 E.01623
G1 X150.215 Y104.887 E.01459
G1 X150.562 Y105.271 E.01626
G1 X150.926 Y105.486 E.01323
G1 X152.565 Y106.148 E.05543
G1 X151.156 Y108.016 E.07335
G1 X150.556 Y108.174 E.01947
G1 X150.06 Y108.494 E.01849
G1 X149.753 Y108.911 E.01623
G1 X149.62 Y109.294 E.01271
G1 X149.592 Y109.687 E.01237
G1 X149.687 Y110.132 E.01425
G1 X149.948 Y110.58 E.01626
G1 X150.258 Y110.865 E.01323
