; generated by PrusaSlicer 2.2.0+win64 on 2020-11-10 at 23:02:54 UTC

; 

; external perimeters extrusion width = 0.45mm
; perimeters extrusion width = 0.45mm
; infill extrusion width = 0.45mm
; solid infill extrusion width = 0.45mm
; top infill extrusion width = 0.40mm
; first layer extrusion width = 0.42mm

M73 P0 R17
M73 Q0 S17
M201 X1000 Y1000 Z1000 E5000 ; sets maximum accelerations, mm/sec^2
M203 X200 Y200 Z12 E120 ; sets maximum feedrates, mm/sec
M204 P1250 R1250 T1250 ; sets acceleration (P, T) and retract acceleration (R), mm/sec^2
M205 X8.00 Y8.00 Z0.40 E1.50 ; sets the jerk limits, mm/sec
M205 S0 T0 ; sets the minimum extruding and travel feed rate, mm/sec
M107
M862.3 P "MK3S" ; printer model check
M862.1 P0.4 ; nozzle diameter check
M115 U3.8.0 ; tell printer latest fw version
G90 ; use absolute coordinates
M83 ; extruder relative mode
M104 S215 ; set extruder temp
M140 S60 ; set bed temp
M190 S60 ; wait for bed temp
M109 S215 ; wait for extruder temp
G28 W ; home all without mesh bed level
G80 ; mesh bed leveling
G1 Y-3.0 F1000.0 ; go outside print area
G92 E0.0
G1 X60.0 E9.0 F1000.0 ; intro line
M73 Q0 S17
M73 P0 R17
G1 X100.0 E12.5 F1000.0 ; intro line
G92 E0.0
M221 S95
G21 ; set units to millimeters
G90 ; use absolute coordinates
M83 ; use relative distances for extrusion
M900 K0.05 ; Filament gcode LA 1.5
M900 K30 ; Filament gcode LA 1.0
;BEFORE_LAYER_CHANGE
G92 E0.0
;0.2


G1 E-0.80000 F2100.00000
G1 Z0.600 F10800.000
;AFTER_LAYER_CHANGE
;0.2
G1 X125.000 Y133.947
G1 Z0.200
G1 E0.80000 F2100.00000
M204 S1000
G1 F1200.000
G1 X157.523 Y133.947 E1.01974
G1 X157.480 Y136.473 E0.07921
G1 X92.520 Y136.473 E2.03675
G1 X92.477 Y133.947 E0.07921
G1 X124.940 Y133.947 E1.01786
G1 E-0.80000 F2100.00000
G1 Z0.800 F10800.000
G1 X125.000 Y136.850
G1 Z0.200
G1 E0.80000 F2100.00000
G1 F1200.000
G1 X92.150 Y136.850 E1.03000
G1 X92.093 Y133.570 E0.10286
G1 X157.907 Y133.570 E2.06354
G1 X157.850 Y136.850 E0.10286
G1 X125.060 Y136.850 E1.02812
G1 X124.789 Y136.510 F10800.000
G1 E-0.80000 F2100.00000
G1 Z0.800 F10800.000
G1 X92.618 Y135.578
G1 Z0.200
G1 E0.80000 F2100.00000
G1 F1200.000
G1 X93.230 Y136.190 E0.02735
G1 X93.767 Y136.190 E0.01697
G1 X92.781 Y135.204 E0.04405
G1 X92.772 Y134.657 E0.01727
G1 X94.305 Y136.190 E0.06847
G1 X94.842 Y136.190 E0.01697
G1 X92.882 Y134.230 E0.08756
G1 X93.419 Y134.230 E0.01697
G1 X95.379 Y136.190 E0.08756
G1 X95.916 Y136.190 E0.01697
G1 X93.956 Y134.230 E0.08756
G1 X94.493 Y134.230 E0.01697
G1 X96.453 Y136.190 E0.08756
G1 X96.991 Y136.190 E0.01697
G1 X95.030 Y134.230 E0.08756
G1 X95.568 Y134.230 E0.01697
G1 X97.528 Y136.190 E0.08756
G1 X98.065 Y136.190 E0.01697
G1 X96.105 Y134.230 E0.08756
G1 X96.642 Y134.230 E0.01697
G1 X98.602 Y136.190 E0.08756
G1 X99.140 Y136.190 E0.01697
G1 X97.179 Y134.230 E0.08756
G1 X97.717 Y134.230 E0.01697
G1 X99.677 Y136.190 E0.08756
G1 X100.214 Y136.190 E0.01697
G1 X98.254 Y134.230 E0.08756
G1 X98.791 Y134.230 E0.01697
G1 X100.751 Y136.190 E0.08756
G1 X101.288 Y136.190 E0.01697
G1 X99.328 Y134.230 E0.08756
G1 X99.865 Y134.230 E0.01697
G1 X101.826 Y136.190 E0.08756
G1 X102.363 Y136.190 E0.01697
G1 X100.403 Y134.230 E0.08756
G1 X100.940 Y134.230 E0.01697
G1 X102.900 Y136.190 E0.08756
G1 X103.437 Y136.190 E0.01697
G1 X101.477 Y134.230 E0.08756
G1 X102.014 Y134.230 E0.01697
G1 X103.974 Y136.190 E0.08756
G1 X104.512 Y136.190 E0.01697
G1 X102.551 Y134.230 E0.08756
G1 X103.089 Y134.230 E0.01697
G1 X105.049 Y136.190 E0.08756
G1 X105.586 Y136.190 E0.01697
G1 X103.626 Y134.230 E0.08756
G1 X104.163 Y134.230 E0.01697
G1 X106.123 Y136.190 E0.08756
G1 X106.661 Y136.190 E0.01697
G1 X104.700 Y134.230 E0.08756
G1 X105.238 Y134.230 E0.01697
G1 X107.198 Y136.190 E0.08756
G1 X107.735 Y136.190 E0.01697
G1 X105.775 Y134.230 E0.08756
G1 X106.312 Y134.230 E0.01697
G1 X108.272 Y136.190 E0.08756
G1 X108.809 Y136.190 E0.01697
G1 X106.849 Y134.230 E0.08756
G1 X107.386 Y134.230 E0.01697
G1 X109.347 Y136.190 E0.08756
G1 X109.884 Y136.190 E0.01697
G1 X107.924 Y134.230 E0.08756
G1 X108.461 Y134.230 E0.01697
G1 X110.421 Y136.190 E0.08756
G1 X110.958 Y136.190 E0.01697
G1 X108.998 Y134.230 E0.08756
G1 X109.535 Y134.230 E0.01697
G1 X111.495 Y136.190 E0.08756
G1 X112.033 Y136.190 E0.01697
G1 X110.072 Y134.230 E0.08756
G1 X110.610 Y134.230 E0.01697
G1 X112.570 Y136.190 E0.08756
G1 X113.107 Y136.190 E0.01697
G1 X111.147 Y134.230 E0.08756
G1 X111.684 Y134.230 E0.01697
G1 X113.644 Y136.190 E0.08756
G1 X114.182 Y136.190 E0.01697
G1 X112.221 Y134.230 E0.08756
G1 X112.758 Y134.230 E0.01697
G1 X114.719 Y136.190 E0.08756
G1 X115.256 Y136.190 E0.01697
G1 X113.296 Y134.230 E0.08756
G1 X113.833 Y134.230 E0.01697
G1 X115.793 Y136.190 E0.08756
G1 X116.330 Y136.190 E0.01697
G1 X114.370 Y134.230 E0.08756
G1 X114.907 Y134.230 E0.01697
G1 X116.868 Y136.190 E0.08756
G1 X117.405 Y136.190 E0.01697
G1 X115.445 Y134.230 E0.08756
G1 X115.982 Y134.230 E0.01697
G1 X117.942 Y136.190 E0.08756
G1 X118.479 Y136.190 E0.01697
G1 X116.519 Y134.230 E0.08756
G1 X117.056 Y134.230 E0.01697
G1 X119.016 Y136.190 E0.08756
G1 X119.554 Y136.190 E0.01697
G1 X117.593 Y134.230 E0.08756
G1 X118.131 Y134.230 E0.01697
G1 X120.091 Y136.190 E0.08756
G1 X120.628 Y136.190 E0.01697
G1 X118.668 Y134.230 E0.08756
G1 X119.205 Y134.230 E0.01697
G1 X121.165 Y136.190 E0.08756
G1 X121.702 Y136.190 E0.01697
G1 X119.742 Y134.230 E0.08756
G1 X120.279 Y134.230 E0.01697
G1 X122.240 Y136.190 E0.08756
G1 X122.777 Y136.190 E0.01697
G1 X120.817 Y134.230 E0.08756
G1 X121.354 Y134.230 E0.01697
G1 X123.314 Y136.190 E0.08756
G1 X123.851 Y136.190 E0.01697
G1 X121.891 Y134.230 E0.08756
G1 X122.428 Y134.230 E0.01697
G1 X124.389 Y136.190 E0.08756
G1 X124.926 Y136.190 E0.01697
G1 X122.966 Y134.230 E0.08756
G1 X123.503 Y134.230 E0.01697
G1 X125.463 Y136.190 E0.08756
G1 X126.000 Y136.190 E0.01697
G1 X124.040 Y134.230 E0.08756
G1 X124.577 Y134.230 E0.01697
G1 X126.537 Y136.190 E0.08756
G1 X127.075 Y136.190 E0.01697
G1 X125.114 Y134.230 E0.08756
G1 X125.652 Y134.230 E0.01697
G1 X127.612 Y136.190 E0.08756
G1 X128.149 Y136.190 E0.01697
G1 X126.189 Y134.230 E0.08756
G1 X126.726 Y134.230 E0.01697
G1 X128.686 Y136.190 E0.08756
G1 X129.223 Y136.190 E0.01697
G1 X127.263 Y134.230 E0.08756
G1 X127.800 Y134.230 E0.01697
G1 X129.761 Y136.190 E0.08756
G1 X130.298 Y136.190 E0.01697
G1 X128.338 Y134.230 E0.08756
G1 X128.875 Y134.230 E0.01697
G1 X130.835 Y136.190 E0.08756
G1 X131.372 Y136.190 E0.01697
G1 X129.412 Y134.230 E0.08756
G1 X129.949 Y134.230 E0.01697
G1 X131.910 Y136.190 E0.08756
G1 X132.447 Y136.190 E0.01697
G1 X130.487 Y134.230 E0.08756
G1 X131.024 Y134.230 E0.01697
G1 X132.984 Y136.190 E0.08756
G1 X133.521 Y136.190 E0.01697
G1 X131.561 Y134.230 E0.08756
G1 X132.098 Y134.230 E0.01697
G1 X134.058 Y136.190 E0.08756
G1 X134.596 Y136.190 E0.01697
G1 X132.635 Y134.230 E0.08756
G1 X133.173 Y134.230 E0.01697
G1 X135.133 Y136.190 E0.08756
G1 X135.670 Y136.190 E0.01697
G1 X133.710 Y134.230 E0.08756
G1 X134.247 Y134.230 E0.01697
G1 X136.207 Y136.190 E0.08756
G1 X136.744 Y136.190 E0.01697
G1 X134.784 Y134.230 E0.08756
G1 X135.321 Y134.230 E0.01697
G1 X137.282 Y136.190 E0.08756
G1 X137.819 Y136.190 E0.01697
G1 X135.859 Y134.230 E0.08756
G1 X136.396 Y134.230 E0.01697
G1 X138.356 Y136.190 E0.08756
G1 X138.893 Y136.190 E0.01697
G1 X136.933 Y134.230 E0.08756
G1 X137.470 Y134.230 E0.01697
G1 X139.431 Y136.190 E0.08756
G1 X139.968 Y136.190 E0.01697
G1 X138.007 Y134.230 E0.08756
G1 X138.545 Y134.230 E0.01697
G1 X140.505 Y136.190 E0.08756
G1 X141.042 Y136.190 E0.01697
G1 X139.082 Y134.230 E0.08756
G1 X139.619 Y134.230 E0.01697
G1 X141.579 Y136.190 E0.08756
G1 X142.117 Y136.190 E0.01697
G1 X140.156 Y134.230 E0.08756
G1 X140.694 Y134.230 E0.01697
G1 X142.654 Y136.190 E0.08756
G1 X143.191 Y136.190 E0.01697
G1 X141.231 Y134.230 E0.08756
G1 X141.768 Y134.230 E0.01697
G1 X143.728 Y136.190 E0.08756
G1 X144.265 Y136.190 E0.01697
G1 X142.305 Y134.230 E0.08756
G1 X142.842 Y134.230 E0.01697
G1 X144.803 Y136.190 E0.08756
G1 X145.340 Y136.190 E0.01697
G1 X143.380 Y134.230 E0.08756
G1 X143.917 Y134.230 E0.01697
G1 X145.877 Y136.190 E0.08756
G1 X146.414 Y136.190 E0.01697
G1 X144.454 Y134.230 E0.08756
G1 X144.991 Y134.230 E0.01697
G1 X146.952 Y136.190 E0.08756
G1 X147.489 Y136.190 E0.01697
G1 X145.528 Y134.230 E0.08756
G1 X146.066 Y134.230 E0.01697
G1 X148.026 Y136.190 E0.08756
G1 X148.563 Y136.190 E0.01697
G1 X146.603 Y134.230 E0.08756
G1 X147.140 Y134.230 E0.01697
G1 X149.100 Y136.190 E0.08756
G1 X149.638 Y136.190 E0.01697
G1 X147.677 Y134.230 E0.08756
G1 X148.215 Y134.230 E0.01697
G1 X150.175 Y136.190 E0.08756
G1 X150.712 Y136.190 E0.01697
G1 X148.752 Y134.230 E0.08756
G1 X149.289 Y134.230 E0.01697
G1 X151.249 Y136.190 E0.08756
G1 X151.786 Y136.190 E0.01697
G1 X149.826 Y134.230 E0.08756
G1 X150.363 Y134.230 E0.01697
G1 X152.324 Y136.190 E0.08756
G1 X152.861 Y136.190 E0.01697
G1 X150.901 Y134.230 E0.08756
G1 X151.438 Y134.230 E0.01697
G1 X153.398 Y136.190 E0.08756
G1 X153.935 Y136.190 E0.01697
G1 X151.975 Y134.230 E0.08756
G1 X152.512 Y134.230 E0.01697
G1 X154.472 Y136.190 E0.08756
G1 X155.010 Y136.190 E0.01697
G1 X153.049 Y134.230 E0.08756
G1 X153.587 Y134.230 E0.01697
G1 X155.547 Y136.190 E0.08756
G1 X156.084 Y136.190 E0.01697
G1 X154.124 Y134.230 E0.08756
G1 X154.661 Y134.230 E0.01697
G1 X156.621 Y136.190 E0.08756
G1 X157.159 Y136.190 E0.01697
G1 X155.198 Y134.230 E0.08756
G1 X155.736 Y134.230 E0.01697
G1 X157.210 Y135.704 E0.06587
G1 X157.219 Y135.176 E0.01668
G1 X156.273 Y134.230 E0.04228
G1 X156.810 Y134.230 E0.01697
G1 X157.395 Y134.815 E0.02614
G1 E-0.80000 F2100.00000
G1 Z0.800 F10800.000
G1 X125.000 Y126.773
G1 Z0.200
G1 E0.80000 F2100.00000
G1 F1200.000
G1 X92.520 Y126.773 E1.01838
G1 X92.477 Y124.247 E0.07921
G1 X157.523 Y124.247 E2.03948
G1 X157.480 Y126.773 E0.07921
G1 X125.060 Y126.773 E1.01650
G1 X125.000 Y127.150 F10800.000
G1 F1200.000
G1 X92.150 Y127.150 E1.03000
G1 X92.093 Y123.870 E0.10286
G1 X157.907 Y123.870 E2.06354
G1 X157.850 Y127.150 E0.10286
G1 X125.060 Y127.150 E1.02812
G1 X124.789 Y126.810 F10800.000
G1 E-0.80000 F2100.00000
G1 Z0.800 F10800.000
G1 X92.618 Y125.878
G1 Z0.200
G1 E0.80000 F2100.00000
G1 F1200.000
G1 X93.230 Y126.490 E0.02735
G1 X93.767 Y126.490 E0.01697
G1 X92.781 Y125.504 E0.04405
G1 X92.772 Y124.957 E0.01727
G1 X94.305 Y126.490 E0.06847
G1 X94.842 Y126.490 E0.01697
G1 X92.882 Y124.530 E0.08756
G1 X93.419 Y124.530 E0.01697
G1 X95.379 Y126.490 E0.08756
G1 X95.916 Y126.490 E0.01697
G1 X93.956 Y124.530 E0.08756
G1 X94.493 Y124.530 E0.01697
G1 X96.453 Y126.490 E0.08756
G1 X96.991 Y126.490 E0.01697
G1 X95.030 Y124.530 E0.08756
G1 X95.568 Y124.530 E0.01697
G1 X97.528 Y126.490 E0.08756
G1 X98.065 Y126.490 E0.01697
G1 X96.105 Y124.530 E0.08756
G1 X96.642 Y124.530 E0.01697
G1 X98.602 Y126.490 E0.08756
G1 X99.140 Y126.490 E0.01697
G1 X97.179 Y124.530 E0.08756
G1 X97.717 Y124.530 E0.01697
G1 X99.677 Y126.490 E0.08756
G1 X100.214 Y126.490 E0.01697
G1 X98.254 Y124.530 E0.08756
G1 X98.791 Y124.530 E0.01697
G1 X100.751 Y126.490 E0.08756
G1 X101.288 Y126.490 E0.01697
G1 X99.328 Y124.530 E0.08756
G1 X99.865 Y124.530 E0.01697
G1 X101.826 Y126.490 E0.08756
G1 X102.363 Y126.490 E0.01697
G1 X100.403 Y124.530 E0.08756
G1 X100.940 Y124.530 E0.01697
G1 X102.900 Y126.490 E0.08756
G1 X103.437 Y126.490 E0.01697
G1 X101.477 Y124.530 E0.08756
G1 X102.014 Y124.530 E0.01697
G1 X103.974 Y126.490 E0.08756
G1 X104.512 Y126.490 E0.01697
G1 X102.551 Y124.530 E0.08756
G1 X103.089 Y124.530 E0.01697
G1 X105.049 Y126.490 E0.08756
G1 X105.586 Y126.490 E0.01697
G1 X103.626 Y124.530 E0.08756
G1 X104.163 Y124.530 E0.01697
G1 X106.123 Y126.490 E0.08756
G1 X106.661 Y126.490 E0.01697
G1 X104.700 Y124.530 E0.08756
G1 X105.238 Y124.530 E0.01697
G1 X107.198 Y126.490 E0.08756
G1 X107.735 Y126.490 E0.01697
G1 X105.775 Y124.530 E0.08756
G1 X106.312 Y124.530 E0.01697
G1 X108.272 Y126.490 E0.08756
M73 Q6 S16
G1 X108.809 Y126.490 E0.01697
G1 X106.849 Y124.530 E0.08756
G1 X107.386 Y124.530 E0.01697
G1 X109.347 Y126.490 E0.08756
G1 X109.884 Y126.490 E0.01697
G1 X107.924 Y124.530 E0.08756
G1 X108.461 Y124.530 E0.01697
G1 X110.421 Y126.490 E0.08756
M73 P6 R16
G1 X110.958 Y126.490 E0.01697
G1 X108.998 Y124.530 E0.08756
G1 X109.535 Y124.530 E0.01697
G1 X111.495 Y126.490 E0.08756
G1 X112.033 Y126.490 E0.01697
G1 X110.072 Y124.530 E0.08756
G1 X110.610 Y124.530 E0.01697
G1 X112.570 Y126.490 E0.08756
G1 X113.107 Y126.490 E0.01697
G1 X111.147 Y124.530 E0.08756
G1 X111.684 Y124.530 E0.01697
G1 X113.644 Y126.490 E0.08756
G1 X114.182 Y126.490 E0.01697
G1 X112.221 Y124.530 E0.08756
G1 X112.758 Y124.530 E0.01697
G1 X114.719 Y126.490 E0.08756
G1 X115.256 Y126.490 E0.01697
G1 X113.296 Y124.530 E0.08756
G1 X113.833 Y124.530 E0.01697
G1 X115.793 Y126.490 E0.08756
G1 X116.330 Y126.490 E0.01697
G1 X114.370 Y124.530 E0.08756
G1 X114.907 Y124.530 E0.01697
G1 X116.868 Y126.490 E0.08756
G1 X117.405 Y126.490 E0.01697
G1 X115.445 Y124.530 E0.08756
G1 X115.982 Y124.530 E0.01697
G1 X117.942 Y126.490 E0.08756
G1 X118.479 Y126.490 E0.01697
G1 X116.519 Y124.530 E0.08756
G1 X117.056 Y124.530 E0.01697
G1 X119.016 Y126.490 E0.08756
G1 X119.554 Y126.490 E0.01697
G1 X117.593 Y124.530 E0.08756
G1 X118.131 Y124.530 E0.01697
G1 X120.091 Y126.490 E0.08756
G1 X120.628 Y126.490 E0.01697
G1 X118.668 Y124.530 E0.08756
G1 X119.205 Y124.530 E0.01697
G1 X121.165 Y126.490 E0.08756
G1 X121.702 Y126.490 E0.01697
G1 X119.742 Y124.530 E0.08756
G1 X120.279 Y124.530 E0.01697
G1 X122.240 Y126.490 E0.08756
G1 X122.777 Y126.490 E0.01697
G1 X120.817 Y124.530 E0.08756
G1 X121.354 Y124.530 E0.01697
G1 X123.314 Y126.490 E0.08756
G1 X123.851 Y126.490 E0.01697
G1 X121.891 Y124.530 E0.08756
G1 X122.428 Y124.530 E0.01697
G1 X124.389 Y126.490 E0.08756
G1 X124.926 Y126.490 E0.01697
G1 X122.966 Y124.530 E0.08756
G1 X123.503 Y124.530 E0.01697
G1 X125.463 Y126.490 E0.08756
G1 X126.000 Y126.490 E0.01697
G1 X124.040 Y124.530 E0.08756
G1 X124.577 Y124.530 E0.01697
G1 X126.537 Y126.490 E0.08756
G1 X127.075 Y126.490 E0.01697
G1 X125.114 Y124.530 E0.08756
G1 X125.652 Y124.530 E0.01697
G1 X127.612 Y126.490 E0.08756
G1 X128.149 Y126.490 E0.01697
G1 X126.189 Y124.530 E0.08756
G1 X126.726 Y124.530 E0.01697
G1 X128.686 Y126.490 E0.08756
G1 X129.223 Y126.490 E0.01697
G1 X127.263 Y124.530 E0.08756
G1 X127.800 Y124.530 E0.01697
G1 X129.761 Y126.490 E0.08756
G1 X130.298 Y126.490 E0.01697
G1 X128.338 Y124.530 E0.08756
G1 X128.875 Y124.530 E0.01697
G1 X130.835 Y126.490 E0.08756
G1 X131.372 Y126.490 E0.01697
G1 X129.412 Y124.530 E0.08756
G1 X129.949 Y124.530 E0.01697
G1 X131.910 Y126.490 E0.08756
G1 X132.447 Y126.490 E0.01697
G1 X130.487 Y124.530 E0.08756
G1 X131.024 Y124.530 E0.01697
G1 X132.984 Y126.490 E0.08756
G1 X133.521 Y126.490 E0.01697
G1 X131.561 Y124.530 E0.08756
G1 X132.098 Y124.530 E0.01697
G1 X134.058 Y126.490 E0.08756
G1 X134.596 Y126.490 E0.01697
G1 X132.635 Y124.530 E0.08756
G1 X133.173 Y124.530 E0.01697
G1 X135.133 Y126.490 E0.08756
G1 X135.670 Y126.490 E0.01697
G1 X133.710 Y124.530 E0.08756
G1 X134.247 Y124.530 E0.01697
G1 X136.207 Y126.490 E0.08756
G1 X136.744 Y126.490 E0.01697
G1 X134.784 Y124.530 E0.08756
G1 X135.321 Y124.530 E0.01697
G1 X137.282 Y126.490 E0.08756
G1 X137.819 Y126.490 E0.01697
G1 X135.859 Y124.530 E0.08756
G1 X136.396 Y124.530 E0.01697
G1 X138.356 Y126.490 E0.08756
G1 X138.893 Y126.490 E0.01697
G1 X136.933 Y124.530 E0.08756
G1 X137.470 Y124.530 E0.01697
G1 X139.431 Y126.490 E0.08756
G1 X139.968 Y126.490 E0.01697
G1 X138.007 Y124.530 E0.08756
G1 X138.545 Y124.530 E0.01697
G1 X140.505 Y126.490 E0.08756
G1 X141.042 Y126.490 E0.01697
G1 X139.082 Y124.530 E0.08756
G1 X139.619 Y124.530 E0.01697
G1 X141.579 Y126.490 E0.08756
G1 X142.117 Y126.490 E0.01697
G1 X140.156 Y124.530 E0.08756
G1 X140.694 Y124.530 E0.01697
G1 X142.654 Y126.490 E0.08756
G1 X143.191 Y126.490 E0.01697
G1 X141.231 Y124.530 E0.08756
G1 X141.768 Y124.530 E0.01697
G1 X143.728 Y126.490 E0.08756
G1 X144.265 Y126.490 E0.01697
G1 X142.305 Y124.530 E0.08756
G1 X142.842 Y124.530 E0.01697
G1 X144.803 Y126.490 E0.08756
G1 X145.340 Y126.490 E0.01697
G1 X143.380 Y124.530 E0.08756
G1 X143.917 Y124.530 E0.01697
G1 X145.877 Y126.490 E0.08756
G1 X146.414 Y126.490 E0.01697
