; generated by PrusaSlicer 2.2.0+win64 on 2020-10-27 at 20:43:00 UTC

; 

; external perimeters extrusion width = 0.60mm
; perimeters extrusion width = 0.50mm
; infill extrusion width = 0.50mm
; solid infill extrusion width = 0.50mm
; top infill extrusion width = 0.45mm
; first layer extrusion width = 0.42mm

M73 P0 R49
M73 Q0 S49
M201 X1000 Y1000 Z1000 E5000 ; sets maximum accelerations, mm/sec^2
M203 X200 Y200 Z12 E120 ; sets maximum feedrates, mm/sec
M204 P1250 R1250 T1250 ; sets acceleration (P, T) and retract acceleration (R), mm/sec^2
M205 X8.00 Y8.00 Z0.40 E1.50 ; sets the jerk limits, mm/sec
M205 S0 T0 ; sets the minimum extruding and travel feed rate, mm/sec
M107
M862.3 P "MK3S" ; printer model check
M862.1 P0.4 ; nozzle diameter check
M115 U3.8.0 ; tell printer latest fw version
G90 ; use absolute coordinates
M83 ; extruder relative mode
M104 S215 ; set extruder temp
M140 S60 ; set bed temp
M190 S60 ; wait for bed temp
M109 S215 ; wait for extruder temp
G28 W ; home all without mesh bed level
G80 ; mesh bed leveling
G1 Y-3.0 F1000.0 ; go outside print area
G92 E0.0
G1 X60.0 E9.0 F1000.0 ; intro line
M73 Q0 S49
M73 P0 R49
G1 X100.0 E12.5 F1000.0 ; intro line
G92 E0.0
M221 S95
G21 ; set units to millimeters
G90 ; use absolute coordinates
M83 ; use relative distances for extrusion
M900 K0.05 ; Filament gcode LA 1.5
M900 K30 ; Filament gcode LA 1.0
;BEFORE_LAYER_CHANGE
G92 E0.0
;0.2


G1 E-0.80000 F2100.00000
G1 Z0.600 F10800.000
;AFTER_LAYER_CHANGE
;0.2
G1 X78.150 Y43.275
G1 Z0.200
G1 E0.80000 F2100.00000
M204 S1000
G1 F1200.000
G1 X78.858 Y43.164 E0.02249
G1 X185.971 Y43.163 E3.35844
G1 X186.632 Y43.258 E0.02095
G1 X187.244 Y43.536 E0.02107
G1 X196.675 Y49.979 E0.35811
G1 X197.237 Y50.526 E0.02461
G1 X197.591 Y51.227 E0.02461
G1 X198.856 Y59.164 E0.25200
G1 X198.837 Y84.622 E0.79823
G1 X198.715 Y85.125 E0.01621
G1 X175.218 Y149.662 E2.15346
G1 X174.592 Y150.933 E0.04443
G1 X173.988 Y151.895 E0.03561
G1 X173.305 Y152.783 E0.03513
G1 X172.376 Y153.772 E0.04253
G1 X171.344 Y154.646 E0.04241
G1 X170.420 Y155.286 E0.03525
G1 X169.442 Y155.833 E0.03514
G1 X168.277 Y156.345 E0.03990
G1 X144.462 Y166.058 E0.80642
G1 X143.235 Y166.447 E0.04035
G1 X141.995 Y166.700 E0.03967
G1 X140.672 Y166.825 E0.04169
G1 X88.207 Y166.825 E1.64498
G1 X86.846 Y166.695 E0.04288
G1 X85.651 Y166.450 E0.03824
G1 X84.574 Y166.115 E0.03537
G1 X83.327 Y165.591 E0.04241
G1 X82.142 Y164.923 E0.04265
G1 X81.218 Y164.276 E0.03537
G1 X80.323 Y163.510 E0.03693
G1 X54.503 Y137.794 E1.14261
G1 X53.694 Y136.939 E0.03690
G1 X52.941 Y135.966 E0.03860
G1 X52.229 Y134.806 E0.04267
G1 X51.735 Y133.792 E0.03534
G1 X51.312 Y132.649 E0.03824
G1 X50.979 Y131.334 E0.04253
G1 X50.811 Y130.214 E0.03549
G1 X50.751 Y129.088 E0.03537
G1 X50.748 Y103.305 E0.80840
G1 X50.825 Y101.995 E0.04114
G1 X50.999 Y100.884 E0.03525
G1 X51.280 Y99.788 E0.03549
G1 X51.763 Y98.471 E0.04396
G1 X75.467 Y47.107 E1.77371
G1 X76.811 Y44.349 E0.09621
G1 X77.118 Y43.933 E0.01621
G1 X77.507 Y43.592 E0.01621
G1 X78.096 Y43.301 E0.02060
G1 E-0.80000 F2100.00000
G1 Z0.800 F10800.000
G1 X64.347 Y120.021
G1 Z0.200
G1 E0.80000 F2100.00000
G1 F1200.000
G1 X65.247 Y120.206 E0.02878
G1 X66.122 Y120.481 E0.02878
G1 X66.966 Y120.843 E0.02878
G1 X67.769 Y121.288 E0.02878
G1 X68.522 Y121.813 E0.02878
G1 X69.219 Y122.411 E0.02878
G1 X69.851 Y123.076 E0.02878
G1 X70.413 Y123.802 E0.02878
G1 X70.898 Y124.581 E0.02878
G1 X71.303 Y125.405 E0.02878
G1 X71.621 Y126.266 E0.02878
G1 X71.852 Y127.155 E0.02878
G1 X71.991 Y128.062 E0.02878
G1 X72.037 Y128.979 E0.02878
G1 X71.991 Y129.895 E0.02878
G1 X71.852 Y130.803 E0.02878
G1 X71.621 Y131.691 E0.02878
G1 X71.303 Y132.552 E0.02878
G1 X70.898 Y133.376 E0.02878
G1 X70.413 Y134.155 E0.02878
G1 X69.851 Y134.881 E0.02878
G1 X69.219 Y135.547 E0.02878
G1 X68.522 Y136.145 E0.02878
G1 X67.769 Y136.669 E0.02878
G1 X66.966 Y137.114 E0.02878
G1 X66.122 Y137.476 E0.02878
G1 X65.247 Y137.751 E0.02878
G1 X64.347 Y137.936 E0.02878
G1 X63.434 Y138.029 E0.02878
G1 X62.516 Y138.029 E0.02878
G1 X61.603 Y137.936 E0.02878
G1 X60.704 Y137.751 E0.02878
G1 X59.828 Y137.476 E0.02878
G1 X58.984 Y137.114 E0.02878
G1 X58.182 Y136.669 E0.02878
G1 X57.428 Y136.145 E0.02878
G1 X56.732 Y135.547 E0.02878
G1 X56.099 Y134.881 E0.02878
G1 X55.537 Y134.155 E0.02878
G1 X55.052 Y133.376 E0.02878
G1 X54.648 Y132.552 E0.02878
G1 X54.329 Y131.691 E0.02878
G1 X54.099 Y130.803 E0.02878
G1 X53.960 Y129.895 E0.02878
G1 X53.913 Y128.979 E0.02878
G1 X53.960 Y128.062 E0.02878
G1 X54.099 Y127.155 E0.02878
G1 X54.329 Y126.266 E0.02878
G1 X54.648 Y125.405 E0.02878
G1 X55.052 Y124.581 E0.02878
G1 X55.537 Y123.802 E0.02878
G1 X56.099 Y123.076 E0.02878
G1 X56.732 Y122.411 E0.02878
G1 X57.428 Y121.813 E0.02878
G1 X58.182 Y121.288 E0.02878
G1 X58.984 Y120.843 E0.02878
G1 X59.828 Y120.481 E0.02878
G1 X60.704 Y120.206 E0.02878
G1 X61.603 Y120.021 E0.02878
G1 X62.516 Y119.928 E0.02878
G1 X63.434 Y119.928 E0.02878
G1 X64.288 Y120.015 E0.02690
G1 X64.326 Y119.640 F10800.000
G1 F1200.000
G1 X65.341 Y119.841 E0.03245
G1 X66.254 Y120.127 E0.02998
G1 X67.132 Y120.504 E0.02998
G1 X67.968 Y120.968 E0.02998
G1 X68.753 Y121.514 E0.02998
G1 X69.479 Y122.137 E0.02998
G1 X70.137 Y122.830 E0.02998
G1 X70.723 Y123.586 E0.02998
G1 X71.229 Y124.398 E0.02998
G1 X71.650 Y125.256 E0.02998
G1 X71.982 Y126.153 E0.02998
G1 X72.221 Y127.079 E0.02998
G1 X72.366 Y128.024 E0.02998
G1 X72.415 Y128.979 E0.02998
G1 X72.366 Y129.934 E0.02998
G1 X72.221 Y130.879 E0.02998
G1 X71.982 Y131.804 E0.02998
G1 X71.650 Y132.701 E0.02998
G1 X71.229 Y133.560 E0.02998
G1 X70.723 Y134.371 E0.02998
G1 X70.137 Y135.127 E0.02998
G1 X69.479 Y135.820 E0.02998
G1 X68.753 Y136.443 E0.02998
G1 X67.968 Y136.989 E0.02998
G1 X67.132 Y137.453 E0.02998
G1 X66.254 Y137.831 E0.02998
G1 X65.341 Y138.117 E0.02998
G1 X64.405 Y138.309 E0.02998
G1 X63.453 Y138.406 E0.02998
G1 X62.497 Y138.406 E0.02998
G1 X61.546 Y138.309 E0.02998
G1 X60.609 Y138.117 E0.02998
G1 X59.697 Y137.831 E0.02998
G1 X58.818 Y137.453 E0.02998
G1 X57.982 Y136.989 E0.02998
G1 X57.197 Y136.443 E0.02998
G1 X56.472 Y135.820 E0.02998
G1 X55.813 Y135.127 E0.02998
G1 X55.228 Y134.371 E0.02998
G1 X54.722 Y133.560 E0.02998
G1 X54.301 Y132.701 E0.02998
G1 X53.969 Y131.804 E0.02998
G1 X53.729 Y130.879 E0.02998
G1 X53.584 Y129.934 E0.02998
G1 X53.536 Y128.979 E0.02998
G1 X53.584 Y128.024 E0.02998
G1 X53.729 Y127.079 E0.02998
G1 X53.969 Y126.153 E0.02998
G1 X54.301 Y125.256 E0.02998
G1 X54.722 Y124.398 E0.02998
G1 X55.228 Y123.586 E0.02998
G1 X55.813 Y122.830 E0.02998
G1 X56.472 Y122.137 E0.02998
G1 X57.197 Y121.514 E0.02998
G1 X57.982 Y120.968 E0.02998
G1 X58.818 Y120.504 E0.02998
G1 X59.697 Y120.127 E0.02998
G1 X60.609 Y119.841 E0.02998
G1 X61.546 Y119.648 E0.02998
G1 X62.497 Y119.551 E0.02998
G1 X63.453 Y119.551 E0.02998
G1 X64.266 Y119.634 E0.02562
G1 X64.473 Y120.012 F10800.000
G1 E-0.80000 F2100.00000
G1 Z0.800 F10800.000
G1 X55.550 Y133.962
G1 Z0.200
G1 E0.80000 F2100.00000
G1 F1200.000
G1 X56.947 Y135.359 E0.06266
G1 X57.602 Y135.921 E0.02738
G1 X58.332 Y136.429 E0.02821
G1 X58.837 Y136.709 E0.01834
G1 X55.235 Y133.107 E0.16159
G1 X54.908 Y132.441 E0.02354
G1 X54.790 Y132.123 E0.01074
G1 X59.842 Y137.175 E0.22662
G1 X60.642 Y137.436 E0.02670
G1 X54.524 Y131.317 E0.27446
G1 X54.355 Y130.609 E0.02310
G1 X61.339 Y137.593 E0.31330
G1 X61.646 Y137.656 E0.00992
G1 X61.975 Y137.690 E0.01051
G1 X54.258 Y129.972 E0.34621
G1 X54.217 Y129.392 E0.01843
G1 X62.571 Y137.746 E0.37474
G1 X63.111 Y137.746 E0.01711
G1 X54.203 Y128.839 E0.39957
G1 X54.230 Y128.325 E0.01631
G1 X63.629 Y137.725 E0.42165
G1 X64.119 Y137.675 E0.01561
G1 X54.280 Y127.837 E0.44133
G1 X54.352 Y127.369 E0.01501
G1 X64.582 Y137.599 E0.45891
G1 X65.030 Y137.507 E0.01449
G1 X54.450 Y126.927 E0.47460
G1 X54.561 Y126.499 E0.01404
G1 X65.452 Y137.390 E0.48859
G1 X65.863 Y137.261 E0.01365
G1 X54.694 Y126.093 E0.50101
G1 X54.840 Y125.699 E0.01332
G1 X66.254 Y137.112 E0.51198
G1 X66.631 Y136.950 E0.01303
G1 X55.003 Y125.323 E0.52161
G1 X55.181 Y124.961 E0.01279
G1 X66.995 Y136.775 E0.52997
G1 X67.342 Y136.582 E0.01259
G1 X55.368 Y124.608 E0.53713
G1 X55.575 Y124.276 E0.01242
G1 X67.683 Y136.384 E0.54314
G1 X68.001 Y136.163 E0.01229
G1 X55.784 Y123.945 E0.54804
G1 X56.019 Y123.641 E0.01220
G1 X68.319 Y135.941 E0.55175
G1 X68.612 Y135.695 E0.01214
G1 X56.255 Y123.337 E0.55433
G1 X56.511 Y123.054 E0.01212
G1 X68.902 Y135.445 E0.55587
G1 X69.177 Y135.180 E0.01210
G1 X56.774 Y122.777 E0.55638
G1 X57.048 Y122.512 E0.01210
G1 X69.440 Y134.904 E0.55587
G1 X69.696 Y134.620 E0.01212
G1 X57.338 Y122.263 E0.55433
G1 X57.631 Y122.016 E0.01214
G1 X69.931 Y134.316 E0.55175
G1 X70.166 Y134.012 E0.01220
G1 X57.949 Y121.795 E0.54804
G1 X58.267 Y121.573 E0.01229
G1 X70.375 Y133.681 E0.54314
G1 X70.582 Y133.349 E0.01242
G1 X58.608 Y121.375 E0.53713
G1 X58.955 Y121.182 E0.01259
G1 X70.770 Y132.997 E0.52997
G1 X70.947 Y132.635 E0.01279
G1 X59.319 Y121.007 E0.52161
G1 X59.697 Y120.845 E0.01303
G1 X71.110 Y132.258 E0.51198
G1 X71.256 Y131.865 E0.01332
G1 X60.087 Y120.696 E0.50101
G1 X60.498 Y120.567 E0.01365
G1 X71.390 Y131.459 E0.48859
M73 Q2 S48
M73 P2 R48
G1 X71.501 Y131.030 E0.01404
G1 X60.920 Y120.450 E0.47461
G1 X61.368 Y120.358 E0.01449
G1 X71.598 Y130.589 E0.45892
G1 X71.670 Y130.121 E0.01501
G1 X61.832 Y120.282 E0.44134
G1 X62.321 Y120.232 E0.01561
G1 X71.721 Y129.632 E0.42165
G1 X71.747 Y129.119 E0.01631
G1 X62.839 Y120.211 E0.39957
G1 X63.379 Y120.211 E0.01711
G1 X71.733 Y128.565 E0.37475
G1 X71.693 Y127.986 E0.01843
G1 X63.975 Y120.268 E0.34622
G1 X64.304 Y120.301 E0.01051
G1 X64.611 Y120.364 E0.00992
G1 X71.595 Y127.349 E0.31331
G1 X71.426 Y126.640 E0.02310
G1 X65.308 Y120.522 E0.27446
G1 X66.108 Y120.782 E0.02670
G1 X71.160 Y125.835 E0.22663
G1 X71.042 Y125.517 E0.01075
G1 X70.716 Y124.851 E0.02353
G1 X67.113 Y121.248 E0.16161
G1 X67.619 Y121.529 E0.01835
G1 X68.349 Y122.037 E0.02821
G1 X69.003 Y122.598 E0.02734
G1 X70.400 Y123.996 E0.06270
G1 E-0.80000 F2100.00000
G1 Z0.800 F10800.000
G1 X66.122 Y111.845
G1 Z0.200
G1 E0.80000 F2100.00000
G1 F1200.000
G1 X65.247 Y112.119 E0.02878
G1 X64.347 Y112.304 E0.02878
G1 X63.434 Y112.397 E0.02878
G1 X62.516 Y112.397 E0.02878
G1 X61.603 Y112.304 E0.02878
G1 X60.704 Y112.119 E0.02878
G1 X59.828 Y111.845 E0.02878
G1 X58.984 Y111.483 E0.02878
G1 X58.182 Y111.037 E0.02878
G1 X57.428 Y110.513 E0.02878
G1 X56.732 Y109.915 E0.02878
G1 X56.099 Y109.250 E0.02878
G1 X55.537 Y108.524 E0.02878
G1 X55.052 Y107.745 E0.02878
G1 X54.648 Y106.920 E0.02878
G1 X54.329 Y106.060 E0.02878
G1 X54.099 Y105.171 E0.02878
G1 X53.960 Y104.264 E0.02878
G1 X53.913 Y103.347 E0.02878
G1 X53.960 Y102.430 E0.02878
G1 X54.099 Y101.523 E0.02878
G1 X54.329 Y100.634 E0.02878
G1 X54.648 Y99.773 E0.02878
G1 X55.052 Y98.949 E0.02878
G1 X55.537 Y98.170 E0.02878
G1 X56.099 Y97.444 E0.02878
G1 X56.732 Y96.779 E0.02878
G1 X57.428 Y96.181 E0.02878
G1 X58.182 Y95.656 E0.02878
G1 X58.984 Y95.211 E0.02878
G1 X59.828 Y94.849 E0.02878
G1 X60.704 Y94.574 E0.02878
G1 X61.603 Y94.389 E0.02878
G1 X62.516 Y94.297 E0.02878
G1 X63.434 Y94.297 E0.02878
G1 X64.347 Y94.389 E0.02878
G1 X65.247 Y94.574 E0.02878
G1 X66.122 Y94.849 E0.02878
G1 X66.966 Y95.211 E0.02878
G1 X67.769 Y95.656 E0.02878
G1 X68.522 Y96.181 E0.02878
G1 X69.219 Y96.779 E0.02878
G1 X69.851 Y97.444 E0.02878
G1 X70.413 Y98.170 E0.02878
G1 X70.898 Y98.949 E0.02878
G1 X71.303 Y99.773 E0.02878
G1 X71.621 Y100.634 E0.02878
G1 X71.852 Y101.523 E0.02878
G1 X71.991 Y102.430 E0.02878
G1 X72.037 Y103.347 E0.02878
G1 X71.991 Y104.264 E0.02878
G1 X71.852 Y105.171 E0.02878
G1 X71.621 Y106.060 E0.02878
G1 X71.303 Y106.920 E0.02878
G1 X70.898 Y107.745 E0.02878
G1 X70.413 Y108.524 E0.02878
G1 X69.851 Y109.250 E0.02878
G1 X69.219 Y109.915 E0.02878
G1 X68.522 Y110.513 E0.02878
G1 X67.769 Y111.037 E0.02878
G1 X66.966 Y111.483 E0.02878
G1 X66.178 Y111.821 E0.02690
G1 X66.326 Y112.168 F10800.000
G1 F1200.000
G1 X65.341 Y112.485 E0.03245
G1 X64.405 Y112.677 E0.02998
G1 X63.453 Y112.774 E0.02998
G1 X62.497 Y112.774 E0.02998
G1 X61.546 Y112.677 E0.02998
G1 X60.609 Y112.485 E0.02998
G1 X59.697 Y112.199 E0.02998
G1 X58.818 Y111.822 E0.02998
G1 X57.982 Y111.358 E0.02998
G1 X57.197 Y110.811 E0.02998
G1 X56.472 Y110.189 E0.02998
G1 X55.813 Y109.495 E0.02998
G1 X55.228 Y108.739 E0.02998
G1 X54.722 Y107.928 E0.02998
G1 X54.301 Y107.069 E0.02998
G1 X53.969 Y106.173 E0.02998
G1 X53.729 Y105.247 E0.02998
G1 X53.584 Y104.302 E0.02998
G1 X53.536 Y103.347 E0.02998
G1 X53.584 Y102.392 E0.02998
G1 X53.729 Y101.447 E0.02998
G1 X53.969 Y100.521 E0.02998
G1 X54.301 Y99.624 E0.02998
G1 X54.722 Y98.766 E0.02998
G1 X55.228 Y97.954 E0.02998
G1 X55.813 Y97.198 E0.02998
G1 X56.472 Y96.505 E0.02998
G1 X57.197 Y95.882 E0.02998
G1 X57.982 Y95.336 E0.02998
G1 X58.818 Y94.872 E0.02998
G1 X59.697 Y94.495 E0.02998
G1 X60.609 Y94.209 E0.02998
G1 X61.546 Y94.016 E0.02998
G1 X62.497 Y93.919 E0.02998
G1 X63.453 Y93.919 E0.02998
G1 X64.405 Y94.016 E0.02998
G1 X65.341 Y94.209 E0.02998
G1 X66.254 Y94.495 E0.02998
G1 X67.132 Y94.872 E0.02998
G1 X67.968 Y95.336 E0.02998
G1 X68.753 Y95.882 E0.02998
G1 X69.479 Y96.505 E0.02998
G1 X70.137 Y97.198 E0.02998
G1 X70.723 Y97.954 E0.02998
G1 X71.229 Y98.766 E0.02998
G1 X71.650 Y99.624 E0.02998
G1 X71.982 Y100.521 E0.02998
G1 X72.221 Y101.447 E0.02998
G1 X72.366 Y102.392 E0.02998
G1 X72.415 Y103.347 E0.02998
G1 X72.366 Y104.302 E0.02998
G1 X72.221 Y105.247 E0.02998
G1 X71.982 Y106.173 E0.02998
G1 X71.650 Y107.069 E0.02998
G1 X71.229 Y107.928 E0.02998
G1 X70.723 Y108.739 E0.02998
G1 X70.137 Y109.495 E0.02998
G1 X69.479 Y110.189 E0.02998
G1 X68.753 Y110.811 E0.02998
G1 X67.968 Y111.358 E0.02998
G1 X67.132 Y111.822 E0.02998
G1 X66.381 Y112.144 E0.02562
G1 X66.017 Y111.914 F10800.000
G1 E-0.80000 F2100.00000
G1 Z0.800 F10800.000
G1 X70.400 Y98.364
G1 Z0.200
G1 E0.80000 F2100.00000
G1 F1200.000
G1 X69.003 Y96.966 E0.06270
G1 X68.349 Y96.405 E0.02734
G1 X67.619 Y95.897 E0.02821
G1 X67.113 Y95.616 E0.01835
G1 X70.716 Y99.219 E0.16161
G1 X71.042 Y99.885 E0.02353
G1 X71.160 Y100.203 E0.01075
G1 X66.108 Y95.151 E0.22663
G1 X65.308 Y94.890 E0.02670
G1 X71.426 Y101.008 E0.27446
G1 X71.595 Y101.717 E0.02310
G1 X64.611 Y94.732 E0.31331
G1 X64.304 Y94.669 E0.00992
G1 X63.975 Y94.636 E0.01051
G1 X71.693 Y102.354 E0.34622
G1 X71.733 Y102.933 E0.01843
G1 X63.379 Y94.579 E0.37475
G1 X62.839 Y94.579 E0.01711
G1 X71.747 Y103.487 E0.39957
G1 X71.721 Y104.000 E0.01631
G1 X62.321 Y94.601 E0.42165
G1 X61.832 Y94.650 E0.01561
G1 X71.670 Y104.489 E0.44134
G1 X71.598 Y104.957 E0.01501
G1 X61.368 Y94.726 E0.45892
G1 X60.920 Y94.818 E0.01449
G1 X71.501 Y105.398 E0.47461
G1 X71.390 Y105.827 E0.01404
G1 X60.498 Y94.935 E0.48859
G1 X60.087 Y95.064 E0.01365
G1 X71.256 Y106.233 E0.50101
G1 X71.110 Y106.626 E0.01332
G1 X59.697 Y95.213 E0.51198
G1 X59.319 Y95.375 E0.01303
G1 X70.947 Y107.003 E0.52161
G1 X70.770 Y107.365 E0.01279
G1 X58.955 Y95.551 E0.52997
G1 X58.608 Y95.743 E0.01259
G1 X70.582 Y107.717 E0.53713
G1 X70.375 Y108.049 E0.01242
G1 X58.267 Y95.942 E0.54314
G1 X57.949 Y96.163 E0.01229
G1 X70.166 Y108.380 E0.54804
G1 X69.931 Y108.684 E0.01220
G1 X57.631 Y96.384 E0.55175
G1 X57.338 Y96.631 E0.01214
G1 X69.696 Y108.988 E0.55433
G1 X69.440 Y109.272 E0.01212
G1 X57.048 Y96.880 E0.55587
G1 X56.774 Y97.145 E0.01210
G1 X69.177 Y109.548 E0.55638
G1 X68.902 Y109.814 E0.01210
G1 X56.511 Y97.422 E0.55587
G1 X56.255 Y97.705 E0.01212
G1 X68.612 Y110.063 E0.55433
G1 X68.319 Y110.309 E0.01214
G1 X56.019 Y98.010 E0.55175
G1 X55.784 Y98.314 E0.01220
G1 X68.001 Y110.531 E0.54804
G1 X67.683 Y110.752 E0.01229
G1 X55.575 Y98.644 E0.54314
G1 X55.368 Y98.977 E0.01242
G1 X67.342 Y110.951 E0.53713
G1 X66.995 Y111.143 E0.01259
G1 X55.181 Y99.329 E0.52997
G1 X55.003 Y99.691 E0.01279
G1 X66.631 Y111.319 E0.52161
G1 X66.254 Y111.481 E0.01303
G1 X54.840 Y100.067 E0.51198
G1 X54.694 Y100.461 E0.01332
G1 X65.863 Y111.630 E0.50101
G1 X65.452 Y111.758 E0.01365
G1 X54.561 Y100.867 E0.48859
G1 X54.450 Y101.295 E0.01404
G1 X65.030 Y111.875 E0.47460
G1 X64.582 Y111.967 E0.01449
G1 X54.352 Y101.737 E0.45891
G1 X54.280 Y102.205 E0.01501
G1 X64.119 Y112.043 E0.44133
G1 X63.629 Y112.093 E0.01561
