; generated by PrusaSlicer 2.2.0+win64 on 2020-10-26 at 22:21:33 UTC

; 

; external perimeters extrusion width = 0.60mm
; perimeters extrusion width = 0.50mm
; infill extrusion width = 0.50mm
; solid infill extrusion width = 0.50mm
; top infill extrusion width = 0.45mm
; first layer extrusion width = 0.42mm

M73 P0 R55
M73 Q0 S56
M201 X1000 Y1000 Z1000 E5000 ; sets maximum accelerations, mm/sec^2
M203 X200 Y200 Z12 E120 ; sets maximum feedrates, mm/sec
M204 P1250 R1250 T1250 ; sets acceleration (P, T) and retract acceleration (R), mm/sec^2
M205 X8.00 Y8.00 Z0.40 E1.50 ; sets the jerk limits, mm/sec
M205 S0 T0 ; sets the minimum extruding and travel feed rate, mm/sec
M107
M862.3 P "MK3S" ; printer model check
M862.1 P0.4 ; nozzle diameter check
M115 U3.8.0 ; tell printer latest fw version
G90 ; use absolute coordinates
M83 ; extruder relative mode
M104 S215 ; set extruder temp
M140 S60 ; set bed temp
M190 S60 ; wait for bed temp
M109 S215 ; wait for extruder temp
G28 W ; home all without mesh bed level
G80 ; mesh bed leveling
G1 Y-3.0 F1000.0 ; go outside print area
G92 E0.0
G1 X60.0 E9.0 F1000.0 ; intro line
M73 Q0 S56
M73 P0 R55
G1 X100.0 E12.5 F1000.0 ; intro line
G92 E0.0
M221 S95
G21 ; set units to millimeters
G90 ; use absolute coordinates
M83 ; use relative distances for extrusion
M900 K0.05 ; Filament gcode LA 1.5
M900 K30 ; Filament gcode LA 1.0
;BEFORE_LAYER_CHANGE
G92 E0.0
;0.2


G1 E-0.80000 F2100.00000
G1 Z0.600 F10800.000
;AFTER_LAYER_CHANGE
;0.2
G1 X62.633 Y28.529
G1 Z0.200
G1 E0.80000 F2100.00000
M204 S1000
G1 F1200.000
G1 X123.990 Y0.823 E2.11084
G1 X124.709 Y0.708 E0.02284
G1 X148.974 Y0.708 E0.76080
G1 X149.469 Y0.761 E0.01562
G1 X149.942 Y0.916 E0.01562
G1 X210.686 Y28.358 E2.08990
G1 X220.767 Y35.998 E0.39660
G1 X221.181 Y36.421 E0.01858
G1 X221.478 Y36.934 E0.01858
G1 X229.394 Y59.726 E0.75650
G1 X229.523 Y60.504 E0.02470
G1 X229.524 Y110.983 E1.58276
G1 X229.332 Y114.823 E0.12054
G1 X223.080 Y175.071 E1.89919
G1 X222.958 Y175.613 E0.01740
G1 X222.470 Y176.427 E0.02977
G1 X221.705 Y176.984 E0.02966
G1 X160.591 Y204.085 E2.09615
G1 X128.755 Y209.265 E1.01132
G1 X83.595 Y209.268 E1.41595
G1 X76.120 Y208.543 E0.23547
G1 X75.579 Y208.421 E0.01740
G1 X74.865 Y208.019 E0.02567
G1 X74.329 Y207.396 E0.02579
G1 X58.547 Y179.851 E0.99536
G1 X20.725 Y106.627 E2.58406
G1 X20.557 Y106.083 E0.01787
G1 X20.523 Y105.510 E0.01799
G1 X21.717 Y89.047 E0.51755
G1 X21.846 Y88.437 E0.01953
G1 X24.277 Y83.446 E0.17409
G1 X62.035 Y29.125 E2.07420
G1 X62.591 Y28.572 E0.02461
G1 E-0.80000 F2100.00000
G1 Z0.800 F10800.000
G1 X50.642 Y97.246
G1 Z0.200
G1 E0.80000 F2100.00000
G1 F1200.000
G1 X50.642 Y100.566 E0.10410
G1 X41.285 Y100.566 E0.29339
G1 X41.285 Y97.246 E0.10410
G1 X50.582 Y97.246 E0.29151
G1 X51.039 Y97.201 F10800.000
G1 X50.582 Y96.566
G1 F1200.000
G1 X41.285 Y96.566 E0.29151
G1 X41.285 Y93.246 E0.10410
G1 X50.642 Y93.246 E0.29339
G1 X50.642 Y96.566 E0.10410
G1 X50.741 Y96.933 F10800.000
G1 E-0.80000 F2100.00000
G1 Z0.800 F10800.000
G1 X50.642 Y92.566
G1 Z0.200
G1 E0.80000 F2100.00000
G1 F1200.000
G1 X41.285 Y92.566 E0.29339
G1 X41.285 Y89.246 E0.10410
G1 X50.642 Y89.246 E0.29339
G1 X50.642 Y92.506 E0.10221
G1 X50.801 Y92.933 F10800.000
G1 E-0.80000 F2100.00000
G1 Z0.800 F10800.000
G1 X50.644 Y88.565
G1 Z0.200
G1 E0.80000 F2100.00000
G1 F1200.000
G1 X41.284 Y88.566 E0.29348
G1 X41.293 Y86.478 E0.06548
G1 X41.341 Y86.037 E0.01389
G1 X41.490 Y85.408 E0.02029
G1 X49.287 Y85.410 E0.24448
G1 X50.441 Y85.454 E0.03619
G1 X50.447 Y86.470 E0.03186
G1 X50.595 Y87.296 E0.02630
G1 X50.631 Y87.730 E0.01365
G1 X50.643 Y88.505 E0.02432
G1 X50.649 Y88.965 F10800.000
G1 E-0.80000 F2100.00000
G1 Z0.800 F10800.000
G1 X40.945 Y86.195
G1 Z0.200
G1 E0.80000 F2100.00000
G1 F1200.000
G1 X40.921 Y85.974 E0.00698
G1 X40.797 Y85.450 E0.01688
G1 X41.091 Y85.455 E0.00924
G1 X40.969 Y85.974 E0.01670
G1 X40.951 Y86.135 E0.00510
G1 E-0.80000 F2100.00000
G1 Z0.800 F10800.000
G1 X40.605 Y89.246
G1 Z0.200
G1 E0.80000 F2100.00000
G1 F1200.000
G1 X40.605 Y92.566 E0.10410
G1 X31.248 Y92.566 E0.29339
G1 X31.248 Y89.246 E0.10410
G1 X40.545 Y89.246 E0.29151
G1 X41.002 Y89.201 F10800.000
G1 E-0.80000 F2100.00000
G1 Z0.800 F10800.000
G1 X30.908 Y86.195
G1 Z0.200
G1 E0.80000 F2100.00000
G1 F1200.000
G1 X30.884 Y85.974 E0.00698
G1 X30.760 Y85.450 E0.01685
G1 X31.056 Y85.449 E0.00928
G1 X30.931 Y85.974 E0.01692
G1 X30.914 Y86.135 E0.00509
G1 X31.453 Y85.408 F10800.000
G1 F1200.000
G1 X40.399 Y85.408 E0.28051
G1 X40.549 Y86.037 E0.02029
G1 X40.596 Y86.478 E0.01389
G1 X40.606 Y88.566 E0.06548
G1 X31.247 Y88.566 E0.29345
G1 X31.256 Y86.478 E0.06548
G1 X31.304 Y86.037 E0.01389
G1 X31.439 Y85.466 E0.01841
G1 X31.477 Y85.009 F10800.000
G1 E-0.80000 F2100.00000
G1 Z0.800 F10800.000
G1 X30.362 Y85.408
G1 Z0.200
G1 E0.80000 F2100.00000
G1 F1200.000
G1 X30.511 Y86.037 E0.02029
G1 X30.559 Y86.478 E0.01389
G1 X30.569 Y88.566 E0.06548
G1 X25.915 Y88.566 E0.14591
G1 X27.022 Y86.305 E0.07894
G1 X27.276 Y85.889 E0.01529
G1 X27.657 Y85.408 E0.01923
G1 X30.302 Y85.408 E0.08295
G1 X30.754 Y85.326 F10800.000
G1 E-0.80000 F2100.00000
G1 Z0.800 F10800.000
G1 X27.105 Y85.498
G1 Z0.200
G1 E0.80000 F2100.00000
G1 F1200.000
G1 X26.966 Y85.673 E0.00700
G1 X26.691 Y86.124 E0.01656
G1 X25.347 Y88.869 E0.09585
G1 X25.136 Y88.869 E0.00661
G1 X26.746 Y85.542 E0.11589
G1 X27.045 Y85.506 E0.00947
G1 E-0.80000 F2100.00000
G1 Z0.800 F10800.000
G1 X25.511 Y89.246
G1 Z0.200
G1 E0.80000 F2100.00000
G1 F1200.000
G1 X30.568 Y89.246 E0.15855
G1 X30.568 Y92.566 E0.10410
G1 X27.106 Y92.566 E0.10855
G1 X26.480 Y91.052 E0.05137
G1 X25.539 Y89.299 E0.06238
G1 X25.451 Y88.851 F10800.000
G1 X25.181 Y89.429
G1 F1200.000
G1 X24.995 Y89.160 E0.01025
G1 X25.015 Y89.119 E0.00142
G1 X25.153 Y89.376 E0.00914
G1 E-0.80000 F2100.00000
G1 Z0.800 F10800.000
G1 X26.877 Y92.943
G1 Z0.200
G1 E0.80000 F2100.00000
G1 F1200.000
G1 X26.908 Y93.054 E0.00360
G1 X26.893 Y93.001 E0.00171
G1 X27.327 Y93.246 F10800.000
G1 F1200.000
G1 X30.568 Y93.246 E0.10161
G1 X30.568 Y96.566 E0.10410
G1 X27.790 Y96.566 E0.08710
G1 X27.642 Y94.955 E0.05075
G1 X27.338 Y93.305 E0.05258
G1 X27.308 Y92.847 F10800.000
G1 E-0.80000 F2100.00000
G1 Z0.800 F10800.000
G1 X31.248 Y93.305
G1 Z0.200
G1 E0.80000 F2100.00000
G1 F1200.000
G1 X31.248 Y93.246 E0.00185
G1 X40.605 Y93.246 E0.29339
G1 X40.605 Y96.566 E0.10410
G1 X31.248 Y96.566 E0.29339
G1 X31.248 Y93.365 E0.10036
G1 X31.189 Y93.299 F10800.000
G1 E-0.80000 F2100.00000
G1 Z0.800 F10800.000
G1 X31.248 Y97.246
G1 Z0.200
G1 E0.80000 F2100.00000
G1 F1200.000
G1 X40.605 Y97.246 E0.29339
G1 X40.605 Y100.566 E0.10410
G1 X31.248 Y100.566 E0.29339
G1 X31.248 Y97.306 E0.10221
G1 X31.088 Y96.880 F10800.000
G1 X30.568 Y97.306
G1 F1200.000
G1 X30.568 Y100.566 E0.10221
G1 X27.257 Y100.566 E0.10379
G1 X27.607 Y98.852 E0.05486
G1 X27.783 Y97.246 E0.05064
G1 X30.568 Y97.246 E0.08731
G1 X30.962 Y97.243 F10800.000
G1 E-0.80000 F2100.00000
G1 Z0.800 F10800.000
G1 X26.846 Y100.696
G1 Z0.200
G1 E0.80000 F2100.00000
G1 F1200.000
G1 X26.811 Y100.869 E0.00554
G1 X26.793 Y100.869 E0.00056
G1 X26.828 Y100.754 E0.00380
G1 X27.020 Y101.246 F10800.000
G1 F1200.000
G1 X30.568 Y101.246 E0.11122
G1 X30.568 Y104.566 E0.10410
G1 X25.341 Y104.566 E0.16387
G1 X26.362 Y102.755 E0.06519
G1 X26.996 Y101.301 E0.04973
G1 X27.083 Y100.851 F10800.000
G1 E-0.80000 F2100.00000
G1 Z0.800 F10800.000
G1 X31.248 Y101.301
G1 Z0.200
G1 E0.80000 F2100.00000
G1 F1200.000
G1 X31.248 Y101.246 E0.00172
G1 X40.605 Y101.246 E0.29341
G1 X40.601 Y102.661 E0.04437
G1 X40.578 Y103.175 E0.01612
G1 X40.509 Y103.692 E0.01636
G1 X40.365 Y104.366 E0.02161
G1 X38.780 Y104.366 E0.04968
G1 X36.888 Y104.517 E0.05952
G1 X35.931 Y104.562 E0.03003
G1 X31.248 Y104.567 E0.14685
G1 X31.248 Y101.361 E0.10050
G1 X31.194 Y101.290 F10800.000
G1 E-0.80000 F2100.00000
G1 Z0.800 F10800.000
G1 X25.036 Y104.340
G1 Z0.200
G1 E0.80000 F2100.00000
G1 F1200.000
G1 X24.717 Y104.906 E0.02037
G1 X24.517 Y104.933 E0.00634
G1 X24.685 Y104.765 E0.00743
G1 X25.000 Y104.387 E0.01543
G1 E-0.80000 F2100.00000
G1 Z0.800 F10800.000
G1 X40.821 Y104.034
G1 Z0.200
G1 E0.80000 F2100.00000
G1 F1200.000
G1 X40.881 Y103.757 E0.00890
G1 X40.936 Y103.344 E0.01305
M73 Q1 S55
G1 X40.983 Y103.765 E0.01328
G1 X41.045 Y103.998 E0.00756
G1 X40.880 Y104.025 E0.00522
G1 E-0.80000 F2100.00000
G1 Z0.800 F10800.000
G1 X51.322 Y100.566
G1 Z0.200
G1 E0.80000 F2100.00000
M73 P1 R54
G1 F1200.000
G1 X51.322 Y97.246 E0.10411
G1 X59.333 Y97.257 E0.25118
G1 X59.836 Y97.316 E0.01587
G1 X60.474 Y97.496 E0.02079
G1 X60.495 Y98.146 E0.02038
G1 X60.661 Y100.527 E0.07486
G1 X59.323 Y100.565 E0.04195
G1 X51.382 Y100.566 E0.24900
G1 X50.922 Y100.567 F10800.000
G1 E-0.80000 F2100.00000
G1 Z0.800 F10800.000
G1 X59.579 Y96.906
G1 Z0.200
G1 E0.80000 F2100.00000
G1 F1200.000
G1 X59.909 Y96.868 E0.01043
G1 X60.280 Y96.763 E0.01207
G1 X60.312 Y97.058 E0.00931
G1 X59.909 Y96.945 E0.01310
G1 X59.639 Y96.913 E0.00854
G1 E-0.80000 F2100.00000
G1 Z0.800 F10800.000
G1 X59.657 Y93.023
G1 Z0.200
G1 E0.80000 F2100.00000
G1 F1200.000
G1 X59.219 Y92.942 E0.01397
G1 X59.625 Y92.931 E0.01273
G1 X59.637 Y92.967 E0.00119
G1 E-0.80000 F2100.00000
G1 Z0.800 F10800.000
G1 X51.322 Y88.568
G1 Z0.200
G1 E0.80000 F2100.00000
G1 F1200.000
G1 X52.003 Y88.558 E0.02133
G1 X52.151 Y88.694 E0.00629
G1 X52.760 Y89.122 E0.02335
G1 X53.143 Y89.446 E0.01574
G1 X52.742 Y89.446 E0.01258
G1 X52.258 Y89.366 E0.01538
G1 X51.372 Y89.260 E0.02796
G1 X51.328 Y90.151 E0.02796
G1 X51.321 Y92.566 E0.07574
G1 X59.170 Y92.566 E0.24609
G1 X59.890 Y92.546 E0.02258
G1 X60.106 Y93.164 E0.02052
G1 X60.150 Y93.446 E0.00896
G1 X59.818 Y93.446 E0.01041
G1 X59.358 Y93.342 E0.01479
G1 X58.866 Y93.273 E0.01560
G1 X58.377 Y93.250 E0.01534
G1 X51.322 Y93.246 E0.22120
G1 X51.322 Y96.567 E0.10411
G1 X59.333 Y96.556 E0.25118
G1 X59.836 Y96.497 E0.01587
G1 X60.479 Y96.315 E0.02096
G1 X60.479 Y95.522 E0.02486
G1 X60.632 Y96.487 E0.03061
G1 X60.679 Y96.976 E0.01541
G1 X60.785 Y97.455 E0.01540
G1 X60.858 Y97.920 E0.01474
G1 X61.058 Y100.337 E0.07605
G1 X61.135 Y100.902 E0.01789
G1 X59.022 Y101.246 E0.06713
G1 X51.322 Y101.246 E0.24143
G1 X51.322 Y102.502 E0.03936
G1 X50.642 Y102.613 E0.02160
G1 X50.642 Y101.246 E0.04284
G1 X41.283 Y101.246 E0.29343
G1 X41.296 Y103.169 E0.06027
G1 X41.354 Y103.695 E0.01661
G1 X41.517 Y104.303 E0.01973
G1 X38.854 Y104.737 E0.08460
G1 X36.404 Y104.952 E0.07709
G1 X34.489 Y105.246 E0.06074
G1 X31.248 Y105.246 E0.10165
G1 X31.248 Y105.775 E0.01657
G1 X30.568 Y105.886 E0.02160
G1 X30.568 Y105.246 E0.02005
G1 X25.311 Y105.250 E0.16481
G1 X24.813 Y105.273 E0.01564
G1 X24.310 Y105.342 E0.01589
G1 X23.840 Y105.446 E0.01510
G1 X23.379 Y105.444 E0.01446
G1 X23.664 Y105.138 E0.01310
G1 X24.052 Y104.865 E0.01487
G1 X24.406 Y104.511 E0.01570
G1 X24.712 Y104.144 E0.01498
G1 X25.008 Y103.751 E0.01541
G1 X25.726 Y102.509 E0.04498
G1 X26.298 Y101.195 E0.04495
G1 X26.719 Y99.824 E0.04495
G1 X26.983 Y98.415 E0.04495
G1 X27.087 Y96.991 E0.04478
G1 X27.029 Y95.552 E0.04514
G1 X26.788 Y94.035 E0.04818
G1 X26.433 Y92.752 E0.04173
G1 X25.903 Y91.421 E0.04493
G1 X25.226 Y90.157 E0.04495
G1 X24.560 Y89.194 E0.03673
G1 X26.504 Y85.176 E0.13995
G1 X26.757 Y85.164 E0.00793
G1 X27.742 Y85.032 E0.03116
G1 X30.193 Y85.031 E0.07687
G1 X30.689 Y85.074 E0.01560
G1 X31.201 Y85.071 E0.01607
G1 X31.695 Y85.031 E0.01555
G1 X40.093 Y85.031 E0.26329
G1 X40.586 Y85.068 E0.01550
G1 X41.098 Y85.078 E0.01607
G1 X41.596 Y85.034 E0.01567
G1 X42.081 Y85.031 E0.01523
G1 X50.328 Y85.028 E0.25856
G1 X50.596 Y85.837 E0.02673
G1 X50.850 Y86.461 E0.02113
G1 X50.927 Y86.804 E0.01103
G1 X51.061 Y87.158 E0.01187
G1 X51.325 Y87.684 E0.01844
G1 X51.323 Y88.508 E0.02585
G1 X51.351 Y88.967 F10800.000
G1 X50.984 Y88.759
G1 F1200.000
G1 X50.983 Y88.809 E0.00141
G1 X50.982 Y88.858 E0.00158
G1 X50.981 Y88.908 E0.00176
G1 X50.984 Y88.759 F10800.000
G1 F1200.000
G1 X50.978 Y87.765 E0.02464
G1 X50.964 Y87.708 E0.00145
G1 X50.933 Y87.598 E0.00277
G1 X50.902 Y87.487 E0.00235
G1 X50.871 Y87.377 E0.00194
G1 X50.840 Y87.267 E0.00152
G1 X50.789 Y87.082 E0.00184
G1 X50.741 Y86.910 E0.00120
G1 E-0.80000 F2100.00000
G1 Z0.800 F10800.000
G1 X52.035 Y89.008
G1 Z0.200
G1 E0.80000 F2100.00000
G1 F1200.000
G1 X52.503 Y89.193 E0.00584
G1 E-0.80000 F2100.00000
G1 Z0.800 F10800.000
G1 X59.021 Y93.098
G1 Z0.200
G1 E0.80000 F2100.00000
G1 F1200.000
G1 X58.866 Y92.919 E0.00550
G1 X51.082 Y92.906 E0.18092
G1 X50.982 Y92.907 E0.00322
G1 X50.981 Y92.906 F10800.000
G1 F1200.000
G1 X50.982 Y92.957 E0.00180
G1 X50.982 Y96.755 E0.09567
G1 X50.982 Y96.806 E0.00144
G1 X50.982 Y96.856 E0.00162
G1 X50.982 Y96.906 E0.00179
G1 X50.931 Y96.906 E0.00179
G1 X41.096 Y96.906 E0.24773
G1 X41.046 Y96.906 E0.00145
G1 X40.995 Y96.906 E0.00162
G1 X40.945 Y96.906 E0.00180
G1 X40.945 Y96.957 E0.00180
G1 X40.945 Y100.755 E0.09567
G1 X40.945 Y100.805 E0.00143
G1 X40.945 Y100.855 E0.00160
G1 X40.944 Y100.906 E0.00180
G1 X40.945 Y100.905 F10800.000
G1 F1200.000
G1 X40.994 Y100.906 E0.00176
G1 X41.044 Y100.906 E0.00159
G1 X41.094 Y100.906 E0.00142
G1 X50.931 Y100.906 E0.24782
G1 X50.982 Y100.906 E0.00180
G1 X50.982 Y100.856 E0.00180
G1 X50.982 Y100.805 E0.00162
G1 X50.982 Y100.755 E0.00145
G1 X50.982 Y100.755 F10800.000
G1 F1200.000
G1 X50.982 Y96.957 E0.09567
G1 X50.982 Y96.906 E0.00179
G1 X51.032 Y96.906 E0.00180
G1 X59.390 Y96.906 E0.22537
G1 E-0.80000 F2100.00000
G1 Z0.800 F10800.000
G1 X60.880 Y100.607
G1 Z0.200
G1 E0.80000 F2100.00000
G1 F1200.000
G1 X60.895 Y100.750 E0.00067
G1 X60.846 Y100.734 F10800.000
G1 F1200.000
G1 X60.088 Y100.806 E0.00636
G1 X59.160 Y100.892 E0.01551
G1 X58.994 Y100.906 E0.00421
G1 X51.032 Y100.906 E0.20152
G1 X50.982 Y100.906 E0.00180
G1 X50.982 Y100.957 E0.00180
G1 X50.982 Y102.366 E0.03550
G1 E-0.80000 F2100.00000
G1 Z0.800 F10800.000
G1 X23.923 Y105.229
G1 Z0.200
G1 E0.80000 F2100.00000
G1 F1200.000
G1 X24.237 Y105.073 E0.00523
G1 X24.261 Y105.060 E0.00044
G1 X24.407 Y105.136 E0.00268
G1 X24.927 Y104.917 F10800.000
G1 F1200.000
G1 X25.300 Y104.908 E0.00977
G1 X30.857 Y104.906 E0.14183
G1 X30.907 Y104.906 E0.00179
G1 X30.907 Y104.856 E0.00179
G1 X30.907 Y104.806 E0.00162
G1 X30.908 Y104.755 E0.00144
G1 X30.908 Y100.957 E0.09568
G1 X30.908 Y100.906 E0.00180
G1 X30.857 Y100.906 E0.00180
G1 X30.807 Y100.906 E0.00162
G1 X30.756 Y100.906 E0.00145
G1 X26.996 Y100.906 E0.09472
G1 X26.713 Y101.058 F10800.000
G1 F1200.000
G1 X26.622 Y101.305 E0.00696
G1 X26.031 Y102.654 E0.03749
G1 X25.301 Y103.934 E0.03657
G1 X25.139 Y104.182 E0.00734
G1 E-0.80000 F2100.00000
G1 Z0.800 F10800.000
G1 X30.907 Y104.906
G1 Z0.200
G1 E0.80000 F2100.00000
G1 F1200.000
G1 X30.958 Y104.907 E0.00181
G1 X31.009 Y104.907 E0.00162
G1 X31.059 Y104.907 E0.00144
G1 X34.463 Y104.905 E0.08563
G1 X34.758 Y104.882 E0.00743
G1 X35.052 Y104.859 E0.00642
G1 X35.347 Y104.837 E0.00532
G1 X35.641 Y104.814 E0.00423
G1 X35.936 Y104.792 E0.00313
G1 X36.266 Y104.759 E0.00228
G1 E-0.80000 F2100.00000
G1 Z0.800 F10800.000
G1 X40.937 Y103.156
G1 Z0.200
G1 E0.80000 F2100.00000
G1 F1200.000
G1 X40.947 Y102.673 E0.01328
G1 X40.944 Y101.059 E0.04224
G1 X40.944 Y100.957 E0.00254
G1 X40.944 Y100.906 E0.00180
G1 X40.894 Y100.906 E0.00177
G1 X40.844 Y100.906 E0.00160
G1 X40.795 Y100.906 E0.00143
G1 X30.958 Y100.906 E0.24777
G1 X30.908 Y100.906 E0.00180
G1 X30.908 Y100.856 E0.00180
G1 X30.908 Y100.805 E0.00162
G1 X30.908 Y100.755 E0.00145
G1 X30.908 Y96.957 E0.09567
G1 X30.908 Y96.906 E0.00180
G1 X30.958 Y96.906 E0.00180
G1 X31.009 Y96.906 E0.00162
G1 X31.059 Y96.906 E0.00145
G1 X40.894 Y96.906 E0.24774
G1 X40.945 Y96.906 E0.00180
G1 X40.945 Y96.856 E0.00180
G1 X40.945 Y96.805 E0.00162
G1 X40.945 Y96.755 E0.00145
G1 X40.945 Y92.957 E0.09567
G1 X40.945 Y92.906 E0.00180
G1 X40.995 Y92.906 E0.00180
G1 X41.046 Y92.906 E0.00162
G1 X41.096 Y92.906 E0.00145
G1 X50.931 Y92.906 E0.24773
G1 X50.981 Y92.906 E0.00179
G1 X50.981 Y92.856 E0.00180
G1 X50.981 Y92.805 E0.00162
G1 X50.981 Y92.755 E0.00144
G1 X50.985 Y90.146 E0.06548
G1 X51.012 Y89.040 E0.02775
G1 X51.009 Y88.936 E0.00343
G1 X50.981 Y88.908 E0.00132
G1 X50.933 Y88.907 E0.00161
G1 X50.884 Y88.906 E0.00156
G1 X50.835 Y88.906 E0.00140
