; generated by PrusaSlicer 2.2.0+win64 on 2020-10-26 at 22:15:54 UTC

; 

; external perimeters extrusion width = 0.60mm
; perimeters extrusion width = 0.50mm
; infill extrusion width = 0.50mm
; solid infill extrusion width = 0.50mm
; top infill extrusion width = 0.45mm
; first layer extrusion width = 0.42mm

M73 P0 R29
M73 Q0 S29
M201 X1000 Y1000 Z1000 E5000 ; sets maximum accelerations, mm/sec^2
M203 X200 Y200 Z12 E120 ; sets maximum feedrates, mm/sec
M204 P1250 R1250 T1250 ; sets acceleration (P, T) and retract acceleration (R), mm/sec^2
M205 X8.00 Y8.00 Z0.40 E1.50 ; sets the jerk limits, mm/sec
M205 S0 T0 ; sets the minimum extruding and travel feed rate, mm/sec
M107
M862.3 P "MK3S" ; printer model check
M862.1 P0.4 ; nozzle diameter check
M115 U3.8.0 ; tell printer latest fw version
G90 ; use absolute coordinates
M83 ; extruder relative mode
M104 S215 ; set extruder temp
M140 S60 ; set bed temp
M190 S60 ; wait for bed temp
M109 S215 ; wait for extruder temp
G28 W ; home all without mesh bed level
G80 ; mesh bed leveling
G1 Y-3.0 F1000.0 ; go outside print area
G92 E0.0
G1 X60.0 E9.0 F1000.0 ; intro line
M73 Q0 S29
M73 P0 R29
G1 X100.0 E12.5 F1000.0 ; intro line
G92 E0.0
M221 S95
G21 ; set units to millimeters
G90 ; use absolute coordinates
M83 ; use relative distances for extrusion
M900 K0.05 ; Filament gcode LA 1.5
M900 K30 ; Filament gcode LA 1.0
;BEFORE_LAYER_CHANGE
G92 E0.0
;0.2


G1 E-0.80000 F2100.00000
G1 Z0.600 F10800.000
;AFTER_LAYER_CHANGE
;0.2
G1 X48.143 Y87.237
G1 Z0.200
G1 E0.80000 F2100.00000
M204 S1000
G1 F1200.000
G1 X48.675 Y86.681 E0.02414
G1 X58.115 Y80.067 E0.36140
G1 X58.669 Y79.783 E0.01953
G1 X59.189 Y79.661 E0.01673
G1 X139.466 Y70.243 E2.53430
G1 X192.098 Y70.237 E1.65023
G1 X193.565 Y70.386 E0.04625
G1 X194.680 Y70.620 E0.03570
G1 X195.932 Y71.020 E0.04122
G1 X196.988 Y71.478 E0.03609
G1 X198.061 Y72.073 E0.03848
G1 X199.071 Y72.776 E0.03860
G1 X199.930 Y73.508 E0.03537
G1 X200.941 Y74.570 E0.04598
G1 X201.636 Y75.474 E0.03573
G1 X202.286 Y76.518 E0.03860
G1 X202.827 Y77.620 E0.03848
G1 X203.228 Y78.691 E0.03585
G1 X203.593 Y80.108 E0.04589
G1 X203.760 Y81.215 E0.03511
G1 X203.820 Y82.353 E0.03573
G1 X203.745 Y83.799 E0.04539
G1 X199.055 Y112.105 E0.89961
G1 X198.916 Y112.591 E0.01585
G1 X198.678 Y113.037 E0.01585
G1 X198.269 Y113.497 E0.01929
G1 X197.752 Y113.838 E0.01941
G1 X146.474 Y138.536 E1.78457
G1 X145.324 Y139.026 E0.03918
G1 X144.064 Y139.411 E0.04134
G1 X142.958 Y139.635 E0.03537
G1 X141.840 Y139.752 E0.03525
G1 X140.495 Y139.761 E0.04217
G1 X139.210 Y139.627 E0.04050
G1 X48.524 Y123.516 E2.88792
G1 X47.940 Y123.324 E0.01929
G1 X47.424 Y122.987 E0.01929
G1 X47.010 Y122.527 E0.01941
G1 X46.730 Y121.979 E0.01929
G1 X46.593 Y121.195 E0.02496
G1 X46.594 Y95.666 E0.80045
G1 X47.816 Y87.935 E0.24541
G1 X48.118 Y87.292 E0.02226
G1 E-0.80000 F2100.00000
G1 Z0.800 F10800.000
G1 X182.533 Y82.451
G1 Z0.200
G1 E0.80000 F2100.00000
G1 F1200.000
G1 X182.580 Y81.534 E0.02878
G1 X182.719 Y80.627 E0.02878
G1 X182.949 Y79.738 E0.02878
G1 X183.268 Y78.877 E0.02878
G1 X183.672 Y78.053 E0.02878
G1 X184.157 Y77.274 E0.02878
G1 X184.719 Y76.548 E0.02878
G1 X185.352 Y75.883 E0.02878
G1 X186.048 Y75.285 E0.02878
G1 X186.802 Y74.761 E0.02878
G1 X187.604 Y74.315 E0.02878
G1 X188.448 Y73.953 E0.02878
G1 X189.324 Y73.678 E0.02878
G1 X190.223 Y73.494 E0.02878
G1 X191.136 Y73.401 E0.02878
G1 X192.054 Y73.401 E0.02878
G1 X192.967 Y73.494 E0.02878
G1 X193.866 Y73.678 E0.02878
G1 X194.742 Y73.953 E0.02878
G1 X195.586 Y74.315 E0.02878
G1 X196.388 Y74.761 E0.02878
G1 X197.142 Y75.285 E0.02878
G1 X197.838 Y75.883 E0.02878
G1 X198.471 Y76.548 E0.02878
G1 X199.033 Y77.274 E0.02878
G1 X199.518 Y78.053 E0.02878
G1 X199.923 Y78.877 E0.02878
G1 X200.241 Y79.738 E0.02878
G1 X200.471 Y80.627 E0.02878
G1 X200.610 Y81.534 E0.02878
G1 X200.657 Y82.451 E0.02878
G1 X200.610 Y83.368 E0.02878
G1 X200.471 Y84.275 E0.02878
G1 X200.241 Y85.164 E0.02878
G1 X199.923 Y86.025 E0.02878
G1 X199.518 Y86.849 E0.02878
G1 X199.033 Y87.628 E0.02878
G1 X198.471 Y88.354 E0.02878
G1 X197.838 Y89.019 E0.02878
G1 X197.142 Y89.617 E0.02878
G1 X196.388 Y90.141 E0.02878
G1 X195.586 Y90.587 E0.02878
G1 X194.742 Y90.949 E0.02878
G1 X193.866 Y91.224 E0.02878
G1 X192.967 Y91.408 E0.02878
G1 X192.054 Y91.501 E0.02878
G1 X191.136 Y91.501 E0.02878
G1 X190.223 Y91.408 E0.02878
G1 X189.324 Y91.224 E0.02878
G1 X188.448 Y90.949 E0.02878
G1 X187.604 Y90.587 E0.02878
G1 X186.802 Y90.141 E0.02878
G1 X186.048 Y89.617 E0.02878
G1 X185.352 Y89.019 E0.02878
G1 X184.719 Y88.354 E0.02878
G1 X184.157 Y87.628 E0.02878
G1 X183.672 Y86.849 E0.02878
G1 X183.268 Y86.025 E0.02878
G1 X182.949 Y85.164 E0.02878
G1 X182.719 Y84.275 E0.02878
G1 X182.580 Y83.368 E0.02878
G1 X182.536 Y82.511 E0.02690
G1 X182.160 Y82.530 F10800.000
G1 F1200.000
G1 X182.204 Y81.496 E0.03245
G1 X182.349 Y80.551 E0.02998
G1 X182.588 Y79.625 E0.02998
G1 X182.921 Y78.729 E0.02998
G1 X183.342 Y77.870 E0.02998
G1 X183.847 Y77.059 E0.02998
G1 X184.433 Y76.302 E0.02998
G1 X185.092 Y75.609 E0.02998
G1 X185.817 Y74.987 E0.02998
G1 X186.602 Y74.440 E0.02998
G1 X187.438 Y73.976 E0.02998
G1 X188.317 Y73.599 E0.02998
G1 X189.229 Y73.313 E0.02998
G1 X190.166 Y73.120 E0.02998
G1 X191.117 Y73.024 E0.02998
G1 X192.073 Y73.024 E0.02998
G1 X193.024 Y73.120 E0.02998
G1 X193.961 Y73.313 E0.02998
G1 X194.873 Y73.599 E0.02998
G1 X195.752 Y73.976 E0.02998
G1 X196.588 Y74.440 E0.02998
G1 X197.373 Y74.987 E0.02998
G1 X198.099 Y75.609 E0.02998
G1 X198.757 Y76.302 E0.02998
G1 X199.343 Y77.059 E0.02998
G1 X199.848 Y77.870 E0.02998
G1 X200.270 Y78.729 E0.02998
G1 X200.602 Y79.625 E0.02998
G1 X200.841 Y80.551 E0.02998
G1 X200.986 Y81.496 E0.02998
G1 X201.035 Y82.451 E0.02998
G1 X200.986 Y83.406 E0.02998
G1 X200.841 Y84.351 E0.02998
G1 X200.602 Y85.277 E0.02998
G1 X200.270 Y86.174 E0.02998
G1 X199.848 Y87.032 E0.02998
G1 X199.343 Y87.844 E0.02998
G1 X198.757 Y88.600 E0.02998
G1 X198.099 Y89.293 E0.02998
G1 X197.373 Y89.916 E0.02998
G1 X196.588 Y90.462 E0.02998
G1 X195.752 Y90.926 E0.02998
G1 X194.873 Y91.303 E0.02998
G1 X193.961 Y91.589 E0.02998
G1 X193.024 Y91.782 E0.02998
G1 X192.073 Y91.878 E0.02998
G1 X191.117 Y91.878 E0.02998
G1 X190.166 Y91.782 E0.02998
G1 X189.229 Y91.589 E0.02998
G1 X188.317 Y91.303 E0.02998
G1 X187.438 Y90.926 E0.02998
G1 X186.602 Y90.462 E0.02998
G1 X185.817 Y89.916 E0.02998
G1 X185.092 Y89.293 E0.02998
G1 X184.433 Y88.600 E0.02998
G1 X183.847 Y87.844 E0.02998
G1 X183.342 Y87.032 E0.02998
G1 X182.921 Y86.174 E0.02998
G1 X182.588 Y85.277 E0.02998
G1 X182.349 Y84.351 E0.02998
G1 X182.204 Y83.406 E0.02998
G1 X182.163 Y82.590 E0.02562
G1 X182.505 Y82.328 F10800.000
G1 E-0.80000 F2100.00000
G1 Z0.800 F10800.000
G1 X199.020 Y77.468
G1 Z0.200
G1 E0.80000 F2100.00000
G1 F1200.000
G1 X197.623 Y76.071 E0.06270
G1 X196.969 Y75.509 E0.02734
G1 X196.239 Y75.001 E0.02821
G1 X195.733 Y74.720 E0.01835
G1 X199.336 Y78.323 E0.16161
G1 X199.662 Y78.989 E0.02353
G1 X199.780 Y79.307 E0.01075
G1 X194.728 Y74.255 E0.22663
G1 X193.928 Y73.994 E0.02670
G1 X200.046 Y80.112 E0.27446
G1 X200.215 Y80.821 E0.02310
G1 X193.231 Y73.836 E0.31331
G1 X192.924 Y73.774 E0.00992
G1 X192.595 Y73.740 E0.01051
G1 X200.313 Y81.458 E0.34622
G1 X200.353 Y82.038 E0.01843
G1 X191.999 Y73.684 E0.37475
G1 X191.459 Y73.684 E0.01711
G1 X200.367 Y82.591 E0.39957
G1 X200.341 Y83.104 E0.01631
G1 X190.941 Y73.705 E0.42165
G1 X190.451 Y73.755 E0.01561
G1 X200.290 Y83.593 E0.44134
G1 X200.218 Y84.061 E0.01501
G1 X189.988 Y73.831 E0.45892
G1 X189.540 Y73.923 E0.01449
G1 X200.120 Y84.503 E0.47461
G1 X200.009 Y84.931 E0.01404
G1 X189.118 Y74.039 E0.48859
G1 X188.707 Y74.168 E0.01365
G1 X199.876 Y85.337 E0.50101
G1 X199.730 Y85.731 E0.01332
G1 X188.317 Y74.317 E0.51198
G1 X187.939 Y74.479 E0.01303
G1 X199.567 Y86.107 E0.52161
G1 X199.390 Y86.469 E0.01279
G1 X187.575 Y74.655 E0.52997
G1 X187.228 Y74.847 E0.01259
G1 X199.202 Y86.821 E0.53713
G1 X198.995 Y87.154 E0.01242
G1 X186.887 Y75.046 E0.54314
G1 X186.569 Y75.267 E0.01229
G1 X198.786 Y87.484 E0.54804
G1 X198.551 Y87.788 E0.01220
G1 X186.251 Y75.489 E0.55175
G1 X185.958 Y75.735 E0.01214
G1 X198.315 Y88.092 E0.55433
G1 X198.059 Y88.376 E0.01212
G1 X185.668 Y75.984 E0.55587
G1 X185.393 Y76.250 E0.01210
G1 X197.797 Y88.653 E0.55638
G1 X197.522 Y88.918 E0.01210
G1 X185.131 Y76.526 E0.55587
G1 X184.875 Y76.810 E0.01212
G1 X197.232 Y89.167 E0.55433
G1 X196.939 Y89.414 E0.01214
G1 X184.639 Y77.114 E0.55175
G1 X184.404 Y77.418 E0.01220
G1 X196.621 Y89.635 E0.54804
G1 X196.303 Y89.856 E0.01229
G1 X184.195 Y77.748 E0.54314
G1 X183.988 Y78.081 E0.01242
G1 X195.962 Y90.055 E0.53713
G1 X195.615 Y90.247 E0.01259
G1 X183.801 Y78.433 E0.52997
G1 X183.623 Y78.795 E0.01279
G1 X195.251 Y90.423 E0.52161
G1 X194.873 Y90.585 E0.01303
G1 X183.460 Y79.172 E0.51198
G1 X183.314 Y79.565 E0.01332
G1 X194.483 Y90.734 E0.50101
G1 X194.072 Y90.863 E0.01365
G1 X183.181 Y79.971 E0.48859
G1 X183.070 Y80.400 E0.01404
G1 X193.650 Y90.980 E0.47460
G1 X193.202 Y91.071 E0.01449
G1 X182.972 Y80.841 E0.45891
G1 X182.900 Y81.309 E0.01501
G1 X192.739 Y91.147 E0.44133
M73 Q3 S28
G1 X192.249 Y91.197 E0.01561
G1 X182.849 Y81.798 E0.42165
M73 P3 R28
G1 X182.823 Y82.311 E0.01631
G1 X191.731 Y91.219 E0.39957
G1 X191.191 Y91.219 E0.01711
G1 X182.837 Y82.865 E0.37474
G1 X182.877 Y83.444 E0.01843
G1 X190.595 Y91.162 E0.34621
G1 X190.266 Y91.129 E0.01051
G1 X189.959 Y91.066 E0.00992
G1 X182.975 Y84.081 E0.31330
G1 X183.144 Y84.790 E0.02310
G1 X189.262 Y90.908 E0.27446
G1 X188.462 Y90.647 E0.02670
G1 X183.410 Y85.595 E0.22662
G1 X183.528 Y85.913 E0.01074
G1 X183.855 Y86.579 E0.02354
G1 X187.457 Y90.182 E0.16159
G1 X186.951 Y89.901 E0.01834
G1 X186.222 Y89.393 E0.02821
G1 X185.567 Y88.831 E0.02738
G1 X184.170 Y87.434 E0.06266
G1 E-0.80000 F2100.00000
G1 Z0.800 F10800.000
G1 X147.984 Y121.646
G1 Z0.200
G1 E0.80000 F2100.00000
G1 F1200.000
G1 X148.546 Y122.372 E0.02878
G1 X149.031 Y123.151 E0.02878
G1 X149.435 Y123.975 E0.02878
G1 X149.754 Y124.836 E0.02878
G1 X149.984 Y125.725 E0.02878
G1 X150.123 Y126.632 E0.02878
G1 X150.170 Y127.549 E0.02878
G1 X150.123 Y128.466 E0.02878
G1 X149.984 Y129.373 E0.02878
G1 X149.754 Y130.262 E0.02878
G1 X149.435 Y131.123 E0.02878
G1 X149.031 Y131.947 E0.02878
G1 X148.546 Y132.726 E0.02878
G1 X147.984 Y133.452 E0.02878
G1 X147.351 Y134.117 E0.02878
G1 X146.655 Y134.715 E0.02878
G1 X145.901 Y135.239 E0.02878
G1 X145.099 Y135.685 E0.02878
G1 X144.255 Y136.047 E0.02878
G1 X143.379 Y136.322 E0.02878
G1 X142.480 Y136.506 E0.02878
G1 X141.567 Y136.599 E0.02878
G1 X140.649 Y136.599 E0.02878
G1 X139.736 Y136.506 E0.02878
G1 X138.837 Y136.322 E0.02878
G1 X137.961 Y136.047 E0.02878
G1 X137.117 Y135.685 E0.02878
G1 X136.314 Y135.239 E0.02878
G1 X135.561 Y134.715 E0.02878
G1 X134.865 Y134.117 E0.02878
G1 X134.232 Y133.452 E0.02878
G1 X133.670 Y132.726 E0.02878
G1 X133.185 Y131.947 E0.02878
G1 X132.780 Y131.123 E0.02878
G1 X132.462 Y130.262 E0.02878
G1 X132.232 Y129.373 E0.02878
G1 X132.093 Y128.466 E0.02878
G1 X132.046 Y127.549 E0.02878
G1 X132.093 Y126.632 E0.02878
G1 X132.232 Y125.725 E0.02878
G1 X132.462 Y124.836 E0.02878
G1 X132.780 Y123.975 E0.02878
G1 X133.185 Y123.151 E0.02878
G1 X133.670 Y122.372 E0.02878
G1 X134.232 Y121.646 E0.02878
G1 X134.865 Y120.981 E0.02878
G1 X135.561 Y120.383 E0.02878
G1 X136.314 Y119.859 E0.02878
G1 X137.117 Y119.413 E0.02878
G1 X137.961 Y119.051 E0.02878
G1 X138.837 Y118.776 E0.02878
G1 X139.736 Y118.592 E0.02878
G1 X140.649 Y118.499 E0.02878
G1 X141.567 Y118.499 E0.02878
G1 X142.480 Y118.592 E0.02878
G1 X143.379 Y118.776 E0.02878
G1 X144.255 Y119.051 E0.02878
G1 X145.099 Y119.413 E0.02878
G1 X145.901 Y119.859 E0.02878
G1 X146.655 Y120.383 E0.02878
G1 X147.351 Y120.981 E0.02878
G1 X147.942 Y121.603 E0.02690
G1 X148.216 Y121.343 F10800.000
G1 F1200.000
G1 X148.855 Y122.156 E0.03245
G1 X149.361 Y122.968 E0.02998
G1 X149.782 Y123.826 E0.02998
G1 X150.114 Y124.723 E0.02998
G1 X150.354 Y125.649 E0.02998
G1 X150.499 Y126.594 E0.02998
G1 X150.547 Y127.549 E0.02998
G1 X150.499 Y128.504 E0.02998
G1 X150.354 Y129.449 E0.02998
G1 X150.114 Y130.375 E0.02998
G1 X149.782 Y131.271 E0.02998
G1 X149.361 Y132.130 E0.02998
G1 X148.855 Y132.941 E0.02998
G1 X148.270 Y133.698 E0.02998
G1 X147.611 Y134.391 E0.02998
G1 X146.886 Y135.013 E0.02998
G1 X146.101 Y135.560 E0.02998
G1 X145.265 Y136.024 E0.02998
G1 X144.386 Y136.401 E0.02998
G1 X143.474 Y136.687 E0.02998
G1 X142.537 Y136.880 E0.02998
G1 X141.586 Y136.976 E0.02998
G1 X140.630 Y136.976 E0.02998
G1 X139.679 Y136.880 E0.02998
G1 X138.742 Y136.687 E0.02998
G1 X137.830 Y136.401 E0.02998
G1 X136.951 Y136.024 E0.02998
G1 X136.115 Y135.560 E0.02998
G1 X135.330 Y135.013 E0.02998
G1 X134.604 Y134.391 E0.02998
G1 X133.946 Y133.698 E0.02998
G1 X133.360 Y132.941 E0.02998
G1 X132.855 Y132.130 E0.02998
G1 X132.433 Y131.271 E0.02998
G1 X132.101 Y130.375 E0.02998
G1 X131.862 Y129.449 E0.02998
G1 X131.717 Y128.504 E0.02998
G1 X131.668 Y127.549 E0.02998
G1 X131.717 Y126.594 E0.02998
G1 X131.862 Y125.649 E0.02998
G1 X132.101 Y124.723 E0.02998
G1 X132.433 Y123.826 E0.02998
G1 X132.855 Y122.968 E0.02998
G1 X133.360 Y122.156 E0.02998
G1 X133.946 Y121.400 E0.02998
G1 X134.604 Y120.707 E0.02998
G1 X135.330 Y120.084 E0.02998
G1 X136.115 Y119.538 E0.02998
G1 X136.951 Y119.074 E0.02998
G1 X137.830 Y118.697 E0.02998
G1 X138.742 Y118.411 E0.02998
G1 X139.679 Y118.218 E0.02998
G1 X140.630 Y118.122 E0.02998
G1 X141.586 Y118.122 E0.02998
G1 X142.537 Y118.218 E0.02998
G1 X143.474 Y118.411 E0.02998
G1 X144.386 Y118.697 E0.02998
G1 X145.265 Y119.074 E0.02998
G1 X146.101 Y119.538 E0.02998
G1 X146.886 Y120.084 E0.02998
G1 X147.611 Y120.707 E0.02998
G1 X148.174 Y121.300 E0.02562
G1 X148.085 Y121.721 F10800.000
G1 E-0.80000 F2100.00000
G1 Z0.800 F10800.000
G1 X133.683 Y132.532
G1 Z0.200
G1 E0.80000 F2100.00000
G1 F1200.000
G1 X135.080 Y133.929 E0.06266
G1 X135.734 Y134.491 E0.02738
G1 X136.464 Y134.999 E0.02821
G1 X136.970 Y135.280 E0.01834
G1 X133.367 Y131.677 E0.16159
G1 X133.041 Y131.011 E0.02354
G1 X132.923 Y130.693 E0.01074
G1 X137.975 Y135.745 E0.22662
G1 X138.775 Y136.006 E0.02670
G1 X132.657 Y129.888 E0.27446
G1 X132.488 Y129.179 E0.02310
G1 X139.472 Y136.164 E0.31330
G1 X139.779 Y136.226 E0.00992
G1 X140.108 Y136.260 E0.01051
G1 X132.390 Y128.542 E0.34621
G1 X132.350 Y127.963 E0.01843
G1 X140.704 Y136.316 E0.37474
G1 X141.244 Y136.316 E0.01711
G1 X132.336 Y127.409 E0.39957
G1 X132.362 Y126.896 E0.01631
G1 X141.762 Y136.295 E0.42165
G1 X142.251 Y136.245 E0.01561
G1 X132.413 Y126.407 E0.44133
G1 X132.485 Y125.939 E0.01501
G1 X142.715 Y136.169 E0.45891
G1 X143.163 Y136.077 E0.01449
G1 X132.583 Y125.497 E0.47460
G1 X132.693 Y125.069 E0.01404
G1 X143.585 Y135.961 E0.48859
G1 X143.996 Y135.832 E0.01365
G1 X132.827 Y124.663 E0.50101
G1 X132.973 Y124.270 E0.01332
G1 X144.386 Y135.683 E0.51198
G1 X144.764 Y135.521 E0.01303
G1 X133.136 Y123.893 E0.52161
G1 X133.313 Y123.531 E0.01279
G1 X145.128 Y135.345 E0.52997
G1 X145.475 Y135.153 E0.01259
G1 X133.501 Y123.179 E0.53713
G1 X133.708 Y122.846 E0.01242
G1 X145.816 Y134.954 E0.54314
G1 X146.134 Y134.733 E0.01229
G1 X133.917 Y122.516 E0.54804
G1 X134.152 Y122.212 E0.01220
G1 X146.452 Y134.512 E0.55175
G1 X146.745 Y134.265 E0.01214
G1 X134.387 Y121.908 E0.55433
G1 X134.643 Y121.624 E0.01212
G1 X147.035 Y134.016 E0.55587
G1 X147.309 Y133.751 E0.01210
G1 X134.906 Y121.347 E0.55638
G1 X135.181 Y121.082 E0.01210
G1 X147.572 Y133.474 E0.55587
G1 X147.828 Y133.190 E0.01212
G1 X135.471 Y120.833 E0.55433
G1 X135.764 Y120.586 E0.01214
G1 X148.064 Y132.886 E0.55175
G1 X148.299 Y132.582 E0.01220
G1 X136.082 Y120.365 E0.54804
G1 X136.400 Y120.144 E0.01229
G1 X148.508 Y132.252 E0.54314
G1 X148.715 Y131.919 E0.01242
G1 X136.741 Y119.945 E0.53713
G1 X137.088 Y119.753 E0.01259
G1 X148.902 Y131.567 E0.52997
G1 X149.080 Y131.205 E0.01279
G1 X137.452 Y119.577 E0.52161
G1 X137.829 Y119.415 E0.01303
G1 X149.243 Y130.829 E0.51198
G1 X149.389 Y130.435 E0.01332
G1 X138.220 Y119.266 E0.50101
G1 X138.631 Y119.137 E0.01365
G1 X149.522 Y130.029 E0.48859
G1 X149.633 Y129.601 E0.01404
G1 X139.053 Y119.021 E0.47461
G1 X139.501 Y118.929 E0.01449
G1 X149.731 Y129.159 E0.45892
