; generated by PrusaSlicer 2.2.0+win64 on 2021-04-28 at 19:53:59 UTC

; 

; external perimeters extrusion width = 0.45mm
; perimeters extrusion width = 0.45mm
; infill extrusion width = 0.45mm
; solid infill extrusion width = 0.45mm
; top infill extrusion width = 0.40mm
; first layer extrusion width = 0.42mm

M73 P0 R9
M73 Q0 S9
M201 X1000 Y1000 Z1000 E5000 ; sets maximum accelerations, mm/sec^2
M203 X200 Y200 Z12 E120 ; sets maximum feedrates, mm/sec
M204 P1250 R1250 T1250 ; sets acceleration (P, T) and retract acceleration (R), mm/sec^2
M205 X8.00 Y8.00 Z0.40 E1.50 ; sets the jerk limits, mm/sec
M205 S0 T0 ; sets the minimum extruding and travel feed rate, mm/sec
M107
M862.3 P "MK3S" ; printer model check
M862.1 P0.4 ; nozzle diameter check
M115 U3.8.0 ; tell printer latest fw version
G90 ; use absolute coordinates
M83 ; extruder relative mode
M104 S215 ; set extruder temp
M140 S60 ; set bed temp
M190 S60 ; wait for bed temp
M109 S215 ; wait for extruder temp
G28 W ; home all without mesh bed level
G80 ; mesh bed leveling
G1 Y-3.0 F1000.0 ; go outside print area
G92 E0.0
G1 X60.0 E9.0 F1000.0 ; intro line
M73 Q0 S9
M73 P0 R9
G1 X100.0 E12.5 F1000.0 ; intro line
G92 E0.0
M221 S95
G21 ; set units to millimeters
G90 ; use absolute coordinates
M83 ; use relative distances for extrusion
M900 K0.05 ; Filament gcode LA 1.5
M900 K30 ; Filament gcode LA 1.0
;BEFORE_LAYER_CHANGE
G92 E0.0
;0.2


G1 E-0.80000 F2100.00000
G1 Z0.600 F10800.000
;AFTER_LAYER_CHANGE
;0.2
G1 X132.013 Y94.469
G1 Z0.200
G1 E0.80000 F2100.00000
M204 S1000
G1 F900
G1 X132.013 Y97.469 E0.09406
G1 X151.933 Y97.469 E0.62458
G1 X151.933 Y98.095 E0.01962
G1 X128.397 Y98.095 E0.73795
G1 X128.397 Y94.469 E0.11369
G1 X131.953 Y94.469 E0.11149
G1 E-0.80000 F2100.00000
G1 Z0.800 F10800.000
G1 X140.165 Y98.472
G1 Z0.200
G1 E0.80000 F2100.00000
G1 F900
G1 X128.020 Y98.472 E0.38080
G1 X128.020 Y94.092 E0.13733
G1 X132.390 Y94.092 E0.13702
G1 X132.390 Y97.092 E0.09406
G1 X152.310 Y97.092 E0.62458
G1 X152.310 Y99.972 E0.09030
G1 X151.380 Y99.972 E0.02916
G1 X151.380 Y98.472 E0.04703
G1 X140.225 Y98.472 E0.34976
G1 X139.981 Y98.117 F10800.000
G1 E-0.80000 F2100.00000
G1 Z0.800 F10800.000
G1 X131.825 Y97.782
G1 Z0.200
G1 E0.80000 F2100.00000
G1 F900
G1 X151.745 Y97.782 E0.41204
G1 X151.845 Y98.283 F10800.000
G1 F900
G1 X151.845 Y99.783 E0.06896
G1 E-0.80000 F2100.00000
G1 Z0.800 F10800.000
G1 X131.900 Y95.402
G1 Z0.200
G1 E0.80000 F2100.00000
G1 F900
G1 X131.249 Y94.751 E0.03095
G1 X130.677 Y94.751 E0.01924
G1 X131.730 Y95.805 E0.05009
G1 X131.730 Y96.377 E0.01924
G1 X130.105 Y94.751 E0.07730
G1 X129.533 Y94.751 E0.01924
G1 X131.730 Y96.949 E0.10451
G1 X131.730 Y97.353 E0.01360
G1 X131.563 Y97.353 E0.00564
G1 X128.961 Y94.751 E0.12374
G1 X128.680 Y94.751 E0.00945
G1 X128.680 Y95.043 E0.00979
G1 X131.449 Y97.812 E0.13172
G1 X130.877 Y97.812 E0.01924
G1 X128.680 Y95.615 E0.10451
G1 X128.680 Y96.187 E0.01924
G1 X130.305 Y97.812 E0.07730
G1 X129.733 Y97.812 E0.01924
G1 X128.680 Y96.759 E0.05009
G1 X128.680 Y97.331 E0.01924
G1 X129.331 Y97.981 E0.03095
M106 S255
;BEFORE_LAYER_CHANGE
G92 E0.0
;0.4


G1 E-0.80000 F2100.00000
G1 Z0.800 F10800.000
;AFTER_LAYER_CHANGE
;0.4
M104 S210 ; set temperature
G1 X140.165 Y98.050
G1 Z0.400
G1 E0.80000 F2100.00000
M204 S800
G1 F900
G1 X128.442 Y98.050 E0.39681
G1 X128.442 Y94.514 E0.11968
G1 X131.968 Y94.514 E0.11935
G1 X131.968 Y97.514 E0.10155
G1 X151.888 Y97.514 E0.67427
G1 X151.888 Y98.050 E0.01814
G1 X140.225 Y98.050 E0.39478
M204 S1000
G1 X140.165 Y98.457 F10800.000
M204 S800
G1 F900
G1 X128.035 Y98.457 E0.41059
G1 X128.035 Y94.107 E0.14724
G1 X132.375 Y94.107 E0.14690
G1 X132.375 Y97.107 E0.10155
G1 X152.295 Y97.107 E0.67427
G1 X152.295 Y99.957 E0.09647
G1 X151.395 Y99.957 E0.03046
G1 X151.395 Y98.457 E0.05077
G1 X140.225 Y98.457 E0.37809
M204 S1000
G1 X139.981 Y98.102 F10800.000
G1 E-0.80000 F2100.00000
G1 Z1.000 F10800.000
G1 X131.765 Y97.782
G1 Z0.400
G1 E0.80000 F2100.00000
G1 F900
G1 X151.685 Y97.782 E0.21328
G1 X151.845 Y98.253 F10800.000
G1 F900
G1 X151.845 Y99.753 E0.06148
G1 E-0.80000 F2100.00000
G1 Z1.000 F10800.000
G1 X130.803 Y97.927
G1 Z0.400
G1 E0.80000 F2100.00000
M204 S1250
G1 F900
G1 X131.663 Y97.068 E0.04191
G1 X131.663 Y96.482 E0.02022
G1 X130.400 Y97.744 E0.06157
G1 X129.814 Y97.744 E0.02022
G1 X131.663 Y95.895 E0.09017
G1 X131.663 Y95.309 E0.02022
G1 X129.227 Y97.744 E0.11877
G1 X128.748 Y97.744 E0.01654
G1 X128.748 Y97.637 E0.00368
G1 X131.566 Y94.819 E0.13744
G1 X130.980 Y94.819 E0.02022
G1 X128.748 Y97.051 E0.10884
G1 X128.748 Y96.464 E0.02022
G1 X130.393 Y94.819 E0.08024
G1 X129.807 Y94.819 E0.02022
G1 X128.748 Y95.878 E0.05164
G1 X128.748 Y95.292 E0.02022
G1 X129.403 Y94.636 E0.03198
M204 S1000
;BEFORE_LAYER_CHANGE
G92 E0.0
;0.6


G1 E-0.80000 F2100.00000
G1 Z1.000 F10800.000
;AFTER_LAYER_CHANGE
;0.6
G1 X140.165 Y98.050
G1 Z0.600
G1 E0.80000 F2100.00000
M204 S800
G1 F900
G1 X128.442 Y98.050 E0.39681
G1 X128.442 Y94.514 E0.11968
G1 X131.968 Y94.514 E0.11935
G1 X131.968 Y97.514 E0.10155
G1 X151.888 Y97.514 E0.67427
G1 X151.888 Y98.050 E0.01814
G1 X140.225 Y98.050 E0.39478
M204 S1000
G1 X140.165 Y98.457 F10800.000
M204 S800
G1 F900
G1 X128.035 Y98.457 E0.41059
G1 X128.035 Y94.107 E0.14724
G1 X132.375 Y94.107 E0.14690
G1 X132.375 Y97.107 E0.10155
G1 X152.295 Y97.107 E0.67427
G1 X152.295 Y99.957 E0.09647
G1 X151.395 Y99.957 E0.03046
G1 X151.395 Y98.457 E0.05077
G1 X140.225 Y98.457 E0.37809
M204 S1000
G1 X139.981 Y98.102 F10800.000
G1 E-0.80000 F2100.00000
G1 Z1.200 F10800.000
G1 X131.765 Y97.782
G1 Z0.600
G1 E0.80000 F2100.00000
G1 F900
G1 X151.685 Y97.782 E0.21328
G1 X151.845 Y98.253 F10800.000
G1 F900
G1 X151.845 Y99.753 E0.06148
G1 E-0.80000 F2100.00000
G1 Z1.200 F10800.000
G1 X131.846 Y95.503
G1 Z0.600
G1 E0.80000 F2100.00000
M204 S1250
G1 F900
G1 X131.162 Y94.819 E0.03439
G1 X130.557 Y94.819 E0.02152
G1 X131.663 Y95.924 E0.05561
G1 X131.663 Y96.529 E0.02152
G1 X129.953 Y94.819 E0.08604
G1 X129.348 Y94.819 E0.02152
G1 X131.663 Y97.134 E0.11647
G1 X131.663 Y97.390 E0.00911
G1 X131.459 Y97.390 E0.00724
G1 X131.459 Y97.536 E0.00517
G1 X128.748 Y94.824 E0.13641
G1 X128.748 Y95.429 E0.02152
G1 X131.063 Y97.744 E0.11646
G1 X130.458 Y97.744 E0.02152
G1 X128.748 Y96.034 E0.08603
G1 X128.748 Y96.639 E0.02152
G1 X129.853 Y97.744 E0.05560
G1 X129.248 Y97.744 E0.02152
G1 X128.564 Y97.061 E0.03438
M204 S1000
;BEFORE_LAYER_CHANGE
G92 E0.0
;0.8


G1 E-0.80000 F2100.00000
G1 Z1.200 F10800.000
;AFTER_LAYER_CHANGE
;0.8
G1 X140.165 Y98.050
G1 Z0.800
G1 E0.80000 F2100.00000
M204 S800
G1 F900
G1 X128.442 Y98.050 E0.39681
G1 X128.442 Y94.514 E0.11968
G1 X131.968 Y94.514 E0.11935
G1 X131.968 Y97.514 E0.10155
G1 X151.888 Y97.514 E0.67427
G1 X151.888 Y98.050 E0.01814
G1 X140.225 Y98.050 E0.39478
M204 S1000
G1 X140.165 Y98.457 F10800.000
M204 S800
G1 F900
G1 X128.035 Y98.457 E0.41059
G1 X128.035 Y94.107 E0.14724
G1 X132.375 Y94.107 E0.14690
G1 X132.375 Y97.107 E0.10155
G1 X152.295 Y97.107 E0.67427
G1 X152.295 Y99.957 E0.09647
G1 X151.395 Y99.957 E0.03046
G1 X151.395 Y98.457 E0.05077
G1 X140.225 Y98.457 E0.37809
M204 S1000
G1 X139.981 Y98.102 F10800.000
G1 E-0.80000 F2100.00000
G1 Z1.400 F10800.000
G1 X131.765 Y97.782
G1 Z0.800
G1 E0.80000 F2100.00000
G1 F900
G1 X151.685 Y97.782 E0.21328
G1 X151.845 Y98.253 F10800.000
G1 F900
G1 X151.845 Y99.753 E0.06148
;BEFORE_LAYER_CHANGE
G92 E0.0
;1


G1 E-0.80000 F2100.00000
G1 Z1.400 F10800.000
;AFTER_LAYER_CHANGE
;1
G1 X140.165 Y98.050
G1 Z1.000
G1 E0.80000 F2100.00000
M204 S800
G1 F900
G1 X128.442 Y98.050 E0.39681
G1 X128.442 Y94.514 E0.11968
G1 X131.968 Y94.514 E0.11935
G1 X131.968 Y97.514 E0.10155
G1 X151.888 Y97.514 E0.67427
G1 X151.888 Y98.050 E0.01814
G1 X140.225 Y98.050 E0.39478
M204 S1000
G1 X140.165 Y98.457 F10800.000
M204 S800
G1 F900
G1 X128.035 Y98.457 E0.41059
G1 X128.035 Y94.107 E0.14724
G1 X132.375 Y94.107 E0.14690
G1 X132.375 Y97.107 E0.10155
G1 X152.295 Y97.107 E0.67427
G1 X152.295 Y99.957 E0.09647
G1 X151.395 Y99.957 E0.03046
G1 X151.395 Y98.457 E0.05077
G1 X140.225 Y98.457 E0.37809
M204 S1000
G1 X139.981 Y98.102 F10800.000
G1 E-0.80000 F2100.00000
G1 Z1.600 F10800.000
G1 X131.765 Y97.782
G1 Z1.000
G1 E0.80000 F2100.00000
G1 F900
G1 X151.685 Y97.782 E0.21328
M73 Q11 S8
M73 P11 R8
G1 X151.845 Y98.253 F10800.000
G1 F900
G1 X151.845 Y99.753 E0.06148
;BEFORE_LAYER_CHANGE
G92 E0.0
;1.2


G1 E-0.80000 F2100.00000
G1 Z1.600 F10800.000
;AFTER_LAYER_CHANGE
;1.2
G1 X140.165 Y98.050
G1 Z1.200
G1 E0.80000 F2100.00000
M204 S800
G1 F900
G1 X128.442 Y98.050 E0.39681
G1 X128.442 Y94.514 E0.11968
G1 X131.968 Y94.514 E0.11935
G1 X131.968 Y97.514 E0.10155
G1 X151.888 Y97.514 E0.67427
G1 X151.888 Y98.050 E0.01814
G1 X140.225 Y98.050 E0.39478
M204 S1000
G1 X140.165 Y98.457 F10800.000
M204 S800
G1 F900
G1 X128.035 Y98.457 E0.41059
G1 X128.035 Y94.107 E0.14724
G1 X132.375 Y94.107 E0.14690
G1 X132.375 Y97.107 E0.10155
G1 X152.295 Y97.107 E0.67427
G1 X152.295 Y99.957 E0.09647
G1 X151.395 Y99.957 E0.03046
G1 X151.395 Y98.457 E0.05077
G1 X140.225 Y98.457 E0.37809
M204 S1000
G1 X139.981 Y98.102 F10800.000
G1 E-0.80000 F2100.00000
G1 Z1.800 F10800.000
G1 X131.765 Y97.782
G1 Z1.200
G1 E0.80000 F2100.00000
G1 F900
G1 X151.685 Y97.782 E0.21328
G1 X151.845 Y98.253 F10800.000
G1 F900
G1 X151.845 Y99.753 E0.06148
;BEFORE_LAYER_CHANGE
G92 E0.0
;1.4


G1 E-0.80000 F2100.00000
G1 Z1.800 F10800.000
;AFTER_LAYER_CHANGE
;1.4
G1 X140.165 Y98.050
G1 Z1.400
G1 E0.80000 F2100.00000
M204 S800
G1 F900
G1 X128.442 Y98.050 E0.39681
G1 X128.442 Y94.514 E0.11968
G1 X131.968 Y94.514 E0.11935
G1 X131.968 Y97.514 E0.10155
G1 X151.888 Y97.514 E0.67427
G1 X151.888 Y98.050 E0.01814
G1 X140.225 Y98.050 E0.39478
M204 S1000
G1 X140.165 Y98.457 F10800.000
M204 S800
G1 F900
G1 X128.035 Y98.457 E0.41059
G1 X128.035 Y94.107 E0.14724
G1 X132.375 Y94.107 E0.14690
G1 X132.375 Y97.107 E0.10155
G1 X152.295 Y97.107 E0.67427
G1 X152.295 Y99.957 E0.09647
G1 X151.395 Y99.957 E0.03046
G1 X151.395 Y98.457 E0.05077
G1 X140.225 Y98.457 E0.37809
M204 S1000
G1 X139.981 Y98.102 F10800.000
G1 E-0.80000 F2100.00000
G1 Z2.000 F10800.000
G1 X131.765 Y97.782
G1 Z1.400
G1 E0.80000 F2100.00000
G1 F900
G1 X151.685 Y97.782 E0.21328
G1 X151.845 Y98.253 F10800.000
G1 F900
G1 X151.845 Y99.753 E0.06148
;BEFORE_LAYER_CHANGE
G92 E0.0
;1.6


G1 E-0.80000 F2100.00000
G1 Z2.000 F10800.000
;AFTER_LAYER_CHANGE
;1.6
G1 X140.165 Y98.050
G1 Z1.600
G1 E0.80000 F2100.00000
M204 S800
G1 F900
G1 X128.442 Y98.050 E0.39681
G1 X128.442 Y94.514 E0.11968
G1 X131.968 Y94.514 E0.11935
G1 X131.968 Y97.514 E0.10155
G1 X151.888 Y97.514 E0.67427
G1 X151.888 Y98.050 E0.01814
G1 X140.225 Y98.050 E0.39478
M204 S1000
G1 X140.165 Y98.457 F10800.000
M204 S800
G1 F900
G1 X128.035 Y98.457 E0.41059
G1 X128.035 Y94.107 E0.14724
G1 X132.375 Y94.107 E0.14690
G1 X132.375 Y97.107 E0.10155
G1 X152.295 Y97.107 E0.67427
G1 X152.295 Y99.957 E0.09647
G1 X151.395 Y99.957 E0.03046
G1 X151.395 Y98.457 E0.05077
G1 X140.225 Y98.457 E0.37809
M204 S1000
G1 X139.981 Y98.102 F10800.000
G1 E-0.80000 F2100.00000
G1 Z2.200 F10800.000
G1 X131.765 Y97.782
G1 Z1.600
G1 E0.80000 F2100.00000
G1 F900
G1 X151.685 Y97.782 E0.21328
G1 X151.845 Y98.253 F10800.000
G1 F900
G1 X151.845 Y99.753 E0.06148
;BEFORE_LAYER_CHANGE
G92 E0.0
;1.8


G1 E-0.80000 F2100.00000
G1 Z2.200 F10800.000
;AFTER_LAYER_CHANGE
;1.8
G1 X140.165 Y98.050
G1 Z1.800
G1 E0.80000 F2100.00000
M204 S800
G1 F900
G1 X128.442 Y98.050 E0.39681
G1 X128.442 Y94.514 E0.11968
G1 X131.968 Y94.514 E0.11935
G1 X131.968 Y97.514 E0.10155
G1 X151.888 Y97.514 E0.67427
G1 X151.888 Y98.050 E0.01814
G1 X140.225 Y98.050 E0.39478
M204 S1000
G1 X140.165 Y98.457 F10800.000
M204 S800
G1 F900
G1 X128.035 Y98.457 E0.41059
G1 X128.035 Y94.107 E0.14724
G1 X132.375 Y94.107 E0.14690
G1 X132.375 Y97.107 E0.10155
G1 X152.295 Y97.107 E0.67427
G1 X152.295 Y99.957 E0.09647
G1 X151.395 Y99.957 E0.03046
G1 X151.395 Y98.457 E0.05077
G1 X140.225 Y98.457 E0.37809
M204 S1000
G1 X139.981 Y98.102 F10800.000
G1 E-0.80000 F2100.00000
G1 Z2.400 F10800.000
G1 X131.765 Y97.782
G1 Z1.800
G1 E0.80000 F2100.00000
G1 F900
G1 X151.685 Y97.782 E0.21328
G1 X151.845 Y98.253 F10800.000
G1 F900
G1 X151.845 Y99.753 E0.06148
;BEFORE_LAYER_CHANGE
G92 E0.0
;2


G1 E-0.80000 F2100.00000
G1 Z2.400 F10800.000
;AFTER_LAYER_CHANGE
;2
G1 X140.165 Y98.050
G1 Z2.000
G1 E0.80000 F2100.00000
M204 S800
G1 F900
G1 X128.442 Y98.050 E0.39681
G1 X128.442 Y94.514 E0.11968
G1 X131.968 Y94.514 E0.11935
G1 X131.968 Y97.514 E0.10155
G1 X151.888 Y97.514 E0.67427
G1 X151.888 Y98.050 E0.01814
G1 X140.225 Y98.050 E0.39478
M204 S1000
G1 X140.165 Y98.457 F10800.000
M204 S800
G1 F900
G1 X128.035 Y98.457 E0.41059
G1 X128.035 Y94.107 E0.14724
G1 X132.375 Y94.107 E0.14690
G1 X132.375 Y97.107 E0.10155
G1 X152.295 Y97.107 E0.67427
G1 X152.295 Y99.957 E0.09647
G1 X151.395 Y99.957 E0.03046
G1 X151.395 Y98.457 E0.05077
G1 X140.225 Y98.457 E0.37809
M204 S1000
G1 X139.981 Y98.102 F10800.000
G1 E-0.80000 F2100.00000
G1 Z2.600 F10800.000
G1 X131.765 Y97.782
G1 Z2.000
G1 E0.80000 F2100.00000
G1 F900
G1 X151.685 Y97.782 E0.21328
G1 X151.845 Y98.253 F10800.000
G1 F900
G1 X151.845 Y99.753 E0.06148
;BEFORE_LAYER_CHANGE
G92 E0.0
;2.2


G1 E-0.80000 F2100.00000
G1 Z2.600 F10800.000
;AFTER_LAYER_CHANGE
;2.2
G1 X140.165 Y98.050
G1 Z2.200
G1 E0.80000 F2100.00000
M204 S800
G1 F900
G1 X128.442 Y98.050 E0.39681
G1 X128.442 Y94.514 E0.11968
G1 X131.968 Y94.514 E0.11935
G1 X131.968 Y97.514 E0.10155
G1 X151.888 Y97.514 E0.67427
G1 X151.888 Y98.050 E0.01814
G1 X140.225 Y98.050 E0.39478
M204 S1000
G1 X140.165 Y98.457 F10800.000
M204 S800
G1 F900
G1 X128.035 Y98.457 E0.41059
G1 X128.035 Y94.107 E0.14724
G1 X132.375 Y94.107 E0.14690
G1 X132.375 Y97.107 E0.10155
G1 X152.295 Y97.107 E0.67427
G1 X152.295 Y99.957 E0.09647
G1 X151.395 Y99.957 E0.03046
G1 X151.395 Y98.457 E0.05077
G1 X140.225 Y98.457 E0.37809
M204 S1000
G1 X139.981 Y98.102 F10800.000
G1 E-0.80000 F2100.00000
G1 Z2.800 F10800.000
G1 X131.765 Y97.782
G1 Z2.200
G1 E0.80000 F2100.00000
G1 F900
G1 X151.685 Y97.782 E0.21328
M73 Q21 S7
M73 P21 R7
G1 X151.845 Y98.253 F10800.000
G1 F900
G1 X151.845 Y99.753 E0.06148
;BEFORE_LAYER_CHANGE
G92 E0.0
;2.4


G1 E-0.80000 F2100.00000
G1 Z2.800 F10800.000
;AFTER_LAYER_CHANGE
;2.4
G1 X140.165 Y98.050
G1 Z2.400
G1 E0.80000 F2100.00000
M204 S800
G1 F900
G1 X128.442 Y98.050 E0.39681
G1 X128.442 Y94.514 E0.11968
G1 X131.968 Y94.514 E0.11935
G1 X131.968 Y97.514 E0.10155
G1 X151.888 Y97.514 E0.67427
G1 X151.888 Y98.050 E0.01814
G1 X140.225 Y98.050 E0.39478
M204 S1000
G1 X140.165 Y98.457 F10800.000
M204 S800
G1 F900
G1 X128.035 Y98.457 E0.41059
G1 X128.035 Y94.107 E0.14724
G1 X132.375 Y94.107 E0.14690
G1 X132.375 Y97.107 E0.10155
G1 X152.295 Y97.107 E0.67427
G1 X152.295 Y99.957 E0.09647
G1 X151.395 Y99.957 E0.03046
G1 X151.395 Y98.457 E0.05077
G1 X140.225 Y98.457 E0.37809
M204 S1000
G1 X139.981 Y98.102 F10800.000
G1 E-0.80000 F2100.00000
G1 Z3.000 F10800.000
G1 X131.765 Y97.782
G1 Z2.400
G1 E0.80000 F2100.00000
G1 F900
G1 X151.685 Y97.782 E0.21328
G1 X151.845 Y98.253 F10800.000
G1 F900
G1 X151.845 Y99.753 E0.06148
;BEFORE_LAYER_CHANGE
G92 E0.0
;2.6


G1 E-0.80000 F2100.00000
G1 Z3.000 F10800.000
;AFTER_LAYER_CHANGE
;2.6
G1 X142.895 Y98.150
G1 Z2.600
G1 E0.80000 F2100.00000
M204 S800
G1 F900
G1 X142.895 Y98.050 E0.00338
G1 X128.442 Y98.050 E0.48919
G1 X128.442 Y94.514 E0.11968
G1 X131.968 Y94.514 E0.11935
G1 X131.968 Y97.514 E0.10155
G1 X151.888 Y97.514 E0.67427
G1 X151.888 Y98.050 E0.01814
G1 X143.426 Y98.050 E0.28644
G1 X143.426 Y98.150 E0.00338
G1 X142.955 Y98.150 E0.01596
M204 S1000
G1 E-0.80000 F2100.00000
G1 Z3.200 F10800.000
G1 X132.375 Y97.107
G1 Z2.600
G1 E0.80000 F2100.00000
M204 S800
G1 F900
G1 X152.295 Y97.107 E0.67427
G1 X152.295 Y99.957 E0.09647
G1 X151.395 Y99.957 E0.03046
G1 X151.395 Y98.457 E0.05077
G1 X143.833 Y98.457 E0.25597
G1 X143.833 Y98.557 E0.00338
G1 X142.487 Y98.557 E0.04555
G1 X142.487 Y98.457 E0.00338
G1 X128.035 Y98.457 E0.48919
G1 X128.035 Y94.107 E0.14724
G1 X132.375 Y94.107 E0.14690
G1 X132.375 Y97.047 E0.09952
M204 S1000
G1 X132.502 Y97.486 F10800.000
G1 X131.765 Y97.782
G1 F900
G1 X143.098 Y97.782 E0.12134
G1 X143.160 Y97.797 E0.00068
