; generated by PrusaSlicer 2.2.0+win64 on 2021-02-06 at 21:27:40 UTC

; 

; external perimeters extrusion width = 0.45mm
; perimeters extrusion width = 0.45mm
; infill extrusion width = 0.45mm
; solid infill extrusion width = 0.45mm
; top infill extrusion width = 0.40mm
; first layer extrusion width = 0.42mm

M73 P0 R19
M73 Q0 S19
M201 X1000 Y1000 Z1000 E5000 ; sets maximum accelerations, mm/sec^2
M203 X200 Y200 Z12 E120 ; sets maximum feedrates, mm/sec
M204 P1250 R1250 T1250 ; sets acceleration (P, T) and retract acceleration (R), mm/sec^2
M205 X8.00 Y8.00 Z0.40 E1.50 ; sets the jerk limits, mm/sec
M205 S0 T0 ; sets the minimum extruding and travel feed rate, mm/sec
M107
M862.3 P "MK3S" ; printer model check
M862.1 P0.4 ; nozzle diameter check
M115 U3.8.0 ; tell printer latest fw version
G90 ; use absolute coordinates
M83 ; extruder relative mode
M104 S215 ; set extruder temp
M140 S60 ; set bed temp
M190 S60 ; wait for bed temp
M109 S215 ; wait for extruder temp
G28 W ; home all without mesh bed level
G80 ; mesh bed leveling
G1 Y-3.0 F1000.0 ; go outside print area
G92 E0.0
G1 X60.0 E9.0 F1000.0 ; intro line
M73 Q0 S19
M73 P0 R19
G1 X100.0 E12.5 F1000.0 ; intro line
G92 E0.0
M221 S95
G21 ; set units to millimeters
G90 ; use absolute coordinates
M83 ; use relative distances for extrusion
M900 K0.05 ; Filament gcode LA 1.5
M900 K30 ; Filament gcode LA 1.0
;BEFORE_LAYER_CHANGE
G92 E0.0
;0.2


G1 E-0.80000 F2100.00000
G1 Z0.600 F10800.000
;AFTER_LAYER_CHANGE
;0.2
G1 X106.882 Y90.984
G1 Z0.200
G1 E0.80000 F2100.00000
M204 S1000
G1 F1200.000
G1 X108.143 Y91.086 E0.03968
G1 X109.330 Y91.326 E0.03795
G1 X110.479 Y91.700 E0.03790
G1 X111.579 Y92.202 E0.03790
G1 X112.614 Y92.826 E0.03790
G1 X113.572 Y93.564 E0.03790
G1 X114.439 Y94.407 E0.03790
G1 X115.204 Y95.343 E0.03790
G1 X115.826 Y96.310 E0.03606
G1 X116.390 Y97.443 E0.03968
G1 X116.797 Y98.583 E0.03795
G1 X117.071 Y99.761 E0.03790
G1 X117.208 Y100.953 E0.03764
G1 X117.225 Y101.566 E0.01922
G1 X117.208 Y102.179 E0.01922
G1 X117.071 Y103.372 E0.03764
G1 X116.797 Y104.549 E0.03790
G1 X116.391 Y105.688 E0.03790
G1 X115.858 Y106.773 E0.03790
G1 X115.204 Y107.790 E0.03790
G1 X114.439 Y108.726 E0.03790
G1 X113.572 Y109.568 E0.03790
G1 X112.614 Y110.306 E0.03790
G1 X111.579 Y110.931 E0.03790
G1 X110.479 Y111.433 E0.03790
G1 X109.330 Y111.806 E0.03790
G1 X108.202 Y112.035 E0.03606
G1 X106.942 Y112.150 E0.03968
G1 X105.732 Y112.115 E0.03795
G1 X104.593 Y111.952 E0.03606
G1 X103.368 Y111.637 E0.03968
G1 X102.240 Y111.197 E0.03795
G1 X101.170 Y110.633 E0.03790
G1 X100.172 Y109.951 E0.03790
G1 X99.259 Y109.159 E0.03790
G1 X98.441 Y108.269 E0.03790
G1 X97.731 Y107.290 E0.03790
G1 X97.136 Y106.238 E0.03790
G1 X96.666 Y105.124 E0.03790
G1 X96.325 Y103.964 E0.03790
G1 X96.119 Y102.773 E0.03790
G1 X96.050 Y101.566 E0.03790
G1 X96.119 Y100.359 E0.03790
G1 X96.315 Y99.226 E0.03606
G1 X96.665 Y98.010 E0.03968
G1 X97.136 Y96.894 E0.03795
G1 X97.731 Y95.842 E0.03790
G1 X98.441 Y94.864 E0.03790
G1 X99.259 Y93.973 E0.03790
G1 X100.172 Y93.181 E0.03790
G1 X101.170 Y92.499 E0.03790
G1 X102.240 Y91.935 E0.03790
G1 X103.366 Y91.496 E0.03790
G1 X104.535 Y91.189 E0.03790
G1 X105.732 Y91.017 E0.03790
G1 X106.822 Y90.986 E0.03418
G1 E-0.80000 F2100.00000
G1 Z0.800 F10800.000
G1 X106.930 Y111.772
G1 Z0.200
G1 E0.80000 F2100.00000
G1 F1200.000
G1 X105.764 Y111.739 E0.03657
G1 X104.667 Y111.581 E0.03474
G1 X103.483 Y111.277 E0.03833
G1 X102.396 Y110.854 E0.03657
G1 X101.365 Y110.310 E0.03655
G1 X100.403 Y109.652 E0.03655
G1 X99.522 Y108.888 E0.03655
G1 X98.734 Y108.029 E0.03655
G1 X98.049 Y107.086 E0.03655
G1 X97.475 Y106.071 E0.03655
G1 X97.021 Y104.997 E0.03655
G1 X96.693 Y103.879 E0.03655
G1 X96.494 Y102.730 E0.03655
G1 X96.428 Y101.566 E0.03655
G1 X96.494 Y100.402 E0.03655
G1 X96.683 Y99.310 E0.03474
G1 X97.021 Y98.136 E0.03833
G1 X97.475 Y97.061 E0.03657
G1 X98.049 Y96.046 E0.03655
G1 X98.734 Y95.103 E0.03655
G1 X99.522 Y94.244 E0.03655
G1 X100.403 Y93.481 E0.03655
G1 X101.365 Y92.823 E0.03655
G1 X102.396 Y92.279 E0.03655
G1 X103.483 Y91.856 E0.03655
G1 X104.610 Y91.559 E0.03655
G1 X105.764 Y91.393 E0.03655
G1 X106.872 Y91.362 E0.03474
G1 X108.091 Y91.460 E0.03833
G1 X109.234 Y91.691 E0.03657
G1 X110.342 Y92.052 E0.03655
G1 X111.403 Y92.536 E0.03655
G1 X112.401 Y93.138 E0.03655
G1 X113.324 Y93.850 E0.03655
G1 X114.160 Y94.662 E0.03655
G1 X114.898 Y95.565 E0.03655
G1 X115.497 Y96.497 E0.03474
G1 X116.043 Y97.591 E0.03833
G1 X116.435 Y98.690 E0.03657
G1 X116.699 Y99.825 E0.03655
G1 X116.831 Y100.980 E0.03646
G1 X116.848 Y101.566 E0.01838
G1 X116.831 Y102.152 E0.01838
G1 X116.699 Y103.307 E0.03646
G1 X116.435 Y104.443 E0.03655
G1 X116.043 Y105.541 E0.03655
G1 X115.529 Y106.587 E0.03655
G1 X114.898 Y107.568 E0.03655
G1 X114.160 Y108.470 E0.03655
G1 X113.324 Y109.283 E0.03655
G1 X112.401 Y109.995 E0.03655
G1 X111.403 Y110.597 E0.03655
G1 X110.342 Y111.081 E0.03655
G1 X109.234 Y111.441 E0.03655
G1 X108.148 Y111.661 E0.03474
G1 X106.990 Y111.767 E0.03645
G1 X106.740 Y112.124 F10800.000
G1 E-0.80000 F2100.00000
G1 Z0.800 F10800.000
G1 X106.344 Y112.975
G1 Z0.200
G1 E0.80000 F2100.00000
G1 F1200.000
G1 X105.173 Y112.884 E0.03684
G1 X104.017 Y112.673 E0.03684
G1 X102.889 Y112.345 E0.03684
G1 X101.800 Y111.902 E0.03684
G1 X100.763 Y111.350 E0.03684
G1 X99.788 Y110.694 E0.03684
G1 X98.886 Y109.941 E0.03684
G1 X98.066 Y109.100 E0.03684
G1 X97.337 Y108.179 E0.03684
G1 X96.706 Y107.187 E0.03684
G1 X96.181 Y106.136 E0.03684
G1 X95.766 Y105.037 E0.03684
G1 X95.467 Y103.901 E0.03684
G1 X95.286 Y102.740 E0.03684
G1 X95.226 Y101.566 E0.03684
G1 X95.286 Y100.393 E0.03684
G1 X95.467 Y99.232 E0.03684
G1 X95.766 Y98.096 E0.03684
G1 X96.181 Y96.996 E0.03684
G1 X96.706 Y95.945 E0.03684
G1 X97.337 Y94.954 E0.03684
G1 X98.066 Y94.032 E0.03684
G1 X98.886 Y93.191 E0.03684
G1 X99.788 Y92.438 E0.03684
G1 X100.763 Y91.782 E0.03684
G1 X101.800 Y91.230 E0.03684
G1 X102.889 Y90.788 E0.03684
G1 X104.017 Y90.459 E0.03684
G1 X105.173 Y90.248 E0.03684
G1 X106.344 Y90.158 E0.03684
G1 X107.458 Y90.186 E0.03495
G1 X108.685 Y90.339 E0.03877
G1 X109.828 Y90.609 E0.03680
G1 X110.937 Y90.995 E0.03684
G1 X112.001 Y91.493 E0.03684
G1 X113.009 Y92.098 E0.03684
G1 X113.949 Y92.803 E0.03684
G1 X114.811 Y93.601 E0.03684
G1 X115.587 Y94.484 E0.03684
G1 X116.267 Y95.441 E0.03684
G1 X116.846 Y96.464 E0.03684
G1 X117.317 Y97.541 E0.03684
G1 X117.674 Y98.660 E0.03684
G1 X117.914 Y99.810 E0.03684
G1 X118.036 Y100.986 E0.03708
G1 X118.051 Y101.566 E0.01819
G1 X118.036 Y102.146 E0.01819
G1 X117.914 Y103.322 E0.03708
G1 X117.674 Y104.472 E0.03684
G1 X117.317 Y105.592 E0.03684
G1 X116.846 Y106.668 E0.03684
G1 X116.267 Y107.691 E0.03684
G1 X115.587 Y108.649 E0.03684
G1 X114.811 Y109.531 E0.03684
G1 X113.949 Y110.329 E0.03684
G1 X113.009 Y111.035 E0.03684
G1 X112.001 Y111.639 E0.03684
G1 X110.937 Y112.138 E0.03684
G1 X109.828 Y112.524 E0.03684
G1 X108.684 Y112.793 E0.03684
G1 X107.519 Y112.944 E0.03684
G1 X106.404 Y112.973 E0.03496
G1 X106.334 Y113.352 F10800.000
G1 F1200.000
G1 X105.124 Y113.258 E0.03806
G1 X103.930 Y113.041 E0.03806
G1 X102.765 Y112.701 E0.03806
G1 X101.640 Y112.244 E0.03806
G1 X100.569 Y111.674 E0.03806
G1 X99.562 Y110.996 E0.03806
G1 X98.630 Y110.218 E0.03806
G1 X97.782 Y109.349 E0.03806
G1 X97.029 Y108.397 E0.03806
G1 X96.378 Y107.373 E0.03806
G1 X95.835 Y106.287 E0.03806
G1 X95.407 Y105.152 E0.03806
G1 X95.098 Y103.978 E0.03806
G1 X94.911 Y102.778 E0.03806
G1 X94.848 Y101.566 E0.03806
G1 X94.911 Y100.354 E0.03806
G1 X95.098 Y99.155 E0.03806
G1 X95.407 Y97.981 E0.03806
G1 X95.835 Y96.845 E0.03806
G1 X96.378 Y95.759 E0.03806
G1 X97.029 Y94.735 E0.03806
G1 X97.782 Y93.783 E0.03806
G1 X98.630 Y92.914 E0.03806
G1 X99.562 Y92.136 E0.03806
G1 X100.569 Y91.459 E0.03806
G1 X101.640 Y90.888 E0.03806
G1 X102.765 Y90.431 E0.03806
G1 X103.930 Y90.092 E0.03806
G1 X105.124 Y89.874 E0.03806
G1 X106.334 Y89.780 E0.03806
G1 X107.487 Y89.810 E0.03614
G1 X108.752 Y89.968 E0.03999
G1 X109.933 Y90.246 E0.03804
G1 X111.080 Y90.645 E0.03806
G1 X112.179 Y91.160 E0.03806
G1 X113.220 Y91.784 E0.03806
G1 X114.190 Y92.513 E0.03806
G1 X115.081 Y93.338 E0.03806
G1 X115.883 Y94.249 E0.03806
G1 X116.586 Y95.239 E0.03806
G1 X117.184 Y96.295 E0.03806
G1 X117.670 Y97.407 E0.03806
G1 X118.039 Y98.564 E0.03806
G1 X118.287 Y99.752 E0.03806
G1 X118.412 Y100.962 E0.03814
G1 X118.428 Y101.566 E0.01895
G1 X118.412 Y102.170 E0.01895
G1 X118.287 Y103.380 E0.03814
G1 X118.039 Y104.569 E0.03806
G1 X117.670 Y105.725 E0.03806
G1 X117.184 Y106.837 E0.03806
G1 X116.586 Y107.894 E0.03806
G1 X115.883 Y108.883 E0.03806
G1 X115.081 Y109.795 E0.03806
G1 X114.190 Y110.619 E0.03806
G1 X113.220 Y111.348 E0.03806
G1 X112.179 Y111.973 E0.03806
G1 X111.080 Y112.487 E0.03806
G1 X109.933 Y112.886 E0.03806
G1 X108.752 Y113.165 E0.03806
G1 X107.548 Y113.321 E0.03806
G1 X106.394 Y113.350 E0.03618
G1 X106.143 Y113.001 F10800.000
G1 X106.711 Y112.554
G1 F1200.000
G1 X105.710 Y112.520 E0.03639
G1 X105.227 Y112.467 E0.01765
G1 X104.525 Y112.353 E0.02582
G1 X104.114 Y112.263 E0.01531
G1 X103.230 Y112.020 E0.03328
G1 X101.976 Y111.527 E0.04897
G1 X100.969 Y110.992 E0.04143
G1 X99.933 Y110.282 E0.04563
G1 X99.170 Y109.635 E0.03636
G1 X98.381 Y108.823 E0.04112
G1 X98.120 Y108.515 E0.01466
G1 X97.680 Y107.935 E0.02647
G1 X97.397 Y107.520 E0.01825
G1 X97.073 Y106.980 E0.02288
G1 X96.779 Y106.427 E0.02273
G1 X96.566 Y105.968 E0.01840
G1 X96.288 Y105.272 E0.02722
G1 X96.166 Y104.909 E0.01391
G1 X95.926 Y104.044 E0.03261
G1 X95.711 Y102.807 E0.04658
G1 X95.639 Y101.553 E0.04659
G1 X95.714 Y100.300 E0.04562
G1 X95.913 Y99.146 E0.04255
G1 X96.167 Y98.223 E0.03476
G1 X96.287 Y97.862 E0.01384
G1 X96.566 Y97.165 E0.02730
G1 X96.768 Y96.727 E0.01750
G1 X97.073 Y96.152 E0.02363
G1 X97.397 Y95.613 E0.02288
G1 X97.680 Y95.197 E0.01825
G1 X98.135 Y94.598 E0.02737
G1 X98.381 Y94.309 E0.01376
G1 X99.170 Y93.498 E0.04112
G1 X100.038 Y92.771 E0.04113
G1 X100.947 Y92.154 E0.03993
G1 X102.081 Y91.558 E0.04654
G1 X103.252 Y91.106 E0.04561
G1 X104.113 Y90.867 E0.03245
G1 X104.467 Y90.789 E0.01316
G1 X105.227 Y90.665 E0.02797
G1 X105.710 Y90.613 E0.01765
G1 X106.355 Y90.579 E0.02348
G1 X106.880 Y90.578 E0.01909
G1 X107.427 Y90.606 E0.01989
G1 X108.187 Y90.684 E0.02775
G1 X108.611 Y90.753 E0.01561
G1 X109.711 Y91.010 E0.04103
G1 X110.616 Y91.315 E0.03469
G1 X111.782 Y91.844 E0.04654
G1 X112.856 Y92.495 E0.04562
G1 X113.681 Y93.123 E0.03769
G1 X114.511 Y93.894 E0.04112
G1 X114.746 Y94.142 E0.01242
G1 X115.257 Y94.745 E0.02871
G1 X115.539 Y95.115 E0.01690
G1 X115.912 Y95.667 E0.02423
G1 X116.185 Y96.120 E0.01920
G1 X116.468 Y96.653 E0.02193
G1 X116.758 Y97.273 E0.02486
G1 X116.923 Y97.689 E0.01627
G1 X117.183 Y98.457 E0.02946
G1 X117.269 Y98.766 E0.01167
G1 X117.475 Y99.703 E0.03486
G1 X117.616 Y100.915 E0.04430
G1 X117.638 Y101.566 E0.02368
G1 X117.618 Y102.199 E0.02300
G1 X117.503 Y103.258 E0.03872
G1 X117.269 Y104.366 E0.04113
G1 X117.190 Y104.652 E0.01077
G1 X116.923 Y105.444 E0.03036
G1 X116.769 Y105.834 E0.01526
G1 X116.470 Y106.480 E0.02587
G1 X116.204 Y106.982 E0.02064
G1 X115.912 Y107.465 E0.02049
G1 X115.539 Y108.018 E0.02423
G1 X115.257 Y108.388 E0.01690
G1 X114.746 Y108.991 E0.02871
G1 X114.511 Y109.239 E0.01242
G1 X113.848 Y109.868 E0.03320
G1 X112.778 Y110.691 E0.04906
G1 X111.759 Y111.299 E0.04309
G1 X110.781 Y111.752 E0.03918
G1 X109.711 Y112.122 E0.04113
G1 X108.609 Y112.380 E0.04112
G1 X108.273 Y112.436 E0.01236
G1 X107.486 Y112.523 E0.02877
G1 X106.771 Y112.554 E0.02602
G1 E-0.80000 F2100.00000
G1 Z0.800 F10800.000
G1 X139.481 Y119.083
G1 Z0.200
G1 E0.80000 F2100.00000
G1 F1200.000
G1 X137.934 Y118.954 E0.04867
G1 X136.411 Y118.657 E0.04867
G1 X134.929 Y118.194 E0.04867
G1 X133.508 Y117.570 E0.04867
G1 X132.164 Y116.794 E0.04867
G1 X130.913 Y115.875 E0.04867
G1 X129.771 Y114.823 E0.04867
G1 X128.752 Y113.653 E0.04867
G1 X127.867 Y112.377 E0.04867
G1 X127.128 Y111.012 E0.04867
G1 X126.544 Y109.574 E0.04867
G1 X126.122 Y108.081 E0.04867
G1 X125.867 Y106.550 E0.04867
G1 X125.781 Y105.000 E0.04867
G1 X125.867 Y103.450 E0.04867
G1 X126.122 Y101.919 E0.04867
G1 X126.524 Y100.499 E0.04629
G1 X127.128 Y98.989 E0.05098
G1 X127.867 Y97.623 E0.04872
G1 X128.752 Y96.347 E0.04867
G1 X129.771 Y95.177 E0.04867
G1 X130.913 Y94.125 E0.04867
G1 X132.164 Y93.206 E0.04867
G1 X133.508 Y92.430 E0.04867
G1 X134.929 Y91.806 E0.04867
G1 X136.411 Y91.343 E0.04867
G1 X137.934 Y91.046 E0.04867
G1 X139.405 Y90.924 E0.04629
G1 X141.031 Y90.960 E0.05098
G1 X142.570 Y91.173 E0.04871
G1 X144.074 Y91.554 E0.04867
G1 X145.528 Y92.099 E0.04867
G1 X146.913 Y92.799 E0.04867
G1 X148.212 Y93.648 E0.04867
G1 X149.411 Y94.635 E0.04867
G1 X150.493 Y95.748 E0.04867
G1 X151.446 Y96.973 E0.04867
G1 X152.259 Y98.295 E0.04867
G1 X152.921 Y99.699 E0.04867
G1 X153.425 Y101.167 E0.04867
G1 X153.765 Y102.681 E0.04867
G1 X153.935 Y104.216 E0.04841
G1 X153.956 Y105.000 E0.02460
G1 X153.935 Y105.784 E0.02460
G1 X153.765 Y107.319 E0.04841
G1 X153.425 Y108.833 E0.04867
G1 X152.921 Y110.301 E0.04867
G1 X152.259 Y111.705 E0.04867
G1 X151.446 Y113.027 E0.04867
G1 X150.493 Y114.252 E0.04867
G1 X149.411 Y115.365 E0.04867
G1 X148.212 Y116.352 E0.04867
G1 X146.913 Y117.201 E0.04867
G1 X145.596 Y117.867 E0.04629
G1 X144.076 Y118.445 E0.05098
G1 X142.570 Y118.827 E0.04872
G1 X141.032 Y119.040 E0.04867
G1 X139.541 Y119.081 E0.04679
G1 X139.491 Y118.705 F10800.000
G1 F1200.000
G1 X137.986 Y118.580 E0.04736
G1 X136.503 Y118.291 E0.04736
G1 X135.062 Y117.840 E0.04736
G1 X133.678 Y117.233 E0.04736
G1 X132.370 Y116.478 E0.04736
G1 X131.153 Y115.583 E0.04736
G1 X130.042 Y114.560 E0.04736
G1 X129.050 Y113.421 E0.04736
G1 X128.189 Y112.180 E0.04736
G1 X127.470 Y110.851 E0.04736
G1 X126.902 Y109.452 E0.04736
G1 X126.491 Y107.998 E0.04736
G1 X126.242 Y106.508 E0.04736
G1 X126.159 Y105.000 E0.04736
G1 X126.242 Y103.492 E0.04736
G1 X126.491 Y102.002 E0.04736
G1 X126.881 Y100.620 E0.04501
G1 X127.470 Y99.149 E0.04968
G1 X128.189 Y97.820 E0.04738
G1 X129.050 Y96.579 E0.04736
G1 X130.042 Y95.440 E0.04736
G1 X131.153 Y94.417 E0.04736
G1 X132.370 Y93.522 E0.04736
G1 X133.678 Y92.767 E0.04736
G1 X135.062 Y92.160 E0.04736
G1 X136.503 Y91.709 E0.04736
G1 X137.986 Y91.420 E0.04736
G1 X139.417 Y91.301 E0.04501
G1 X141.001 Y91.336 E0.04968
G1 X142.497 Y91.544 E0.04738
G1 X143.962 Y91.915 E0.04736
G1 X145.376 Y92.444 E0.04736
G1 X146.724 Y93.127 E0.04736
G1 X147.989 Y93.953 E0.04736
G1 X149.155 Y94.913 E0.04736
G1 X150.208 Y95.996 E0.04736
G1 X151.136 Y97.188 E0.04736
G1 X151.927 Y98.475 E0.04736
G1 X152.572 Y99.841 E0.04736
G1 X153.062 Y101.269 E0.04736
G1 X153.392 Y102.743 E0.04736
G1 X153.558 Y104.242 E0.04727
G1 X153.579 Y105.000 E0.02378
G1 X153.558 Y105.758 E0.02378
G1 X153.392 Y107.257 E0.04727
G1 X153.062 Y108.731 E0.04736
G1 X152.572 Y110.159 E0.04736
G1 X151.927 Y111.525 E0.04736
G1 X151.136 Y112.812 E0.04736
G1 X150.208 Y114.004 E0.04736
G1 X149.155 Y115.087 E0.04736
G1 X147.989 Y116.047 E0.04736
G1 X146.724 Y116.873 E0.04736
G1 X145.443 Y117.522 E0.04501
G1 X143.962 Y118.085 E0.04968
G1 X142.497 Y118.456 E0.04738
G1 X141.001 Y118.663 E0.04736
G1 X139.551 Y118.703 E0.04548
G1 X139.282 Y119.046 F10800.000
G1 E-0.80000 F2100.00000
G1 Z0.800 F10800.000
G1 X139.485 Y119.907
G1 Z0.200
G1 E0.80000 F2100.00000
G1 F1200.000
G1 X137.954 Y119.789 E0.04814
G1 X136.444 Y119.513 E0.04814
G1 X134.970 Y119.084 E0.04814
G1 X133.548 Y118.506 E0.04814
G1 X132.192 Y117.784 E0.04814
G1 X130.919 Y116.927 E0.04814
G1 X129.740 Y115.944 E0.04814
G1 X128.723 Y114.900 E0.04568
G1 X127.714 Y113.639 E0.05063
G1 X126.891 Y112.345 E0.04809
G1 X126.205 Y110.972 E0.04814
G1 X125.663 Y109.535 E0.04814
G1 X125.272 Y108.050 E0.04814
G1 X125.036 Y106.533 E0.04814
G1 X124.957 Y105.000 E0.04814
G1 X125.036 Y103.467 E0.04814
G1 X125.272 Y101.950 E0.04814
G1 X125.663 Y100.465 E0.04814
G1 X126.205 Y99.028 E0.04814
G1 X126.891 Y97.655 E0.04814
G1 X127.715 Y96.360 E0.04814
G1 X128.668 Y95.156 E0.04814
G1 X129.740 Y94.056 E0.04814
G1 X130.919 Y93.073 E0.04814
G1 X132.192 Y92.216 E0.04814
G1 X133.548 Y91.494 E0.04814
G1 X134.970 Y90.916 E0.04814
G1 X136.444 Y90.487 E0.04814
G1 X137.954 Y90.211 E0.04814
