; generated by PrusaSlicer 2.3.1+win64 on 2021-08-19 at 16:38:00 UTC

; 

; external perimeters extrusion width = 0.45mm
; perimeters extrusion width = 0.45mm
; infill extrusion width = 0.45mm
; solid infill extrusion width = 0.45mm
; top infill extrusion width = 0.40mm
; support material extrusion width = 0.35mm
; first layer extrusion width = 0.42mm

M73 P0 R29
M73 Q0 S29
M201 X1000 Y1000 Z1000 E5000 ; sets maximum accelerations, mm/sec^2
M203 X200 Y200 Z12 E120 ; sets maximum feedrates, mm/sec
M204 P1250 R1250 T1250 ; sets acceleration (P, T) and retract acceleration (R), mm/sec^2
M205 X8.00 Y8.00 Z0.40 E1.50 ; sets the jerk limits, mm/sec
M205 S0 T0 ; sets the minimum extruding and travel feed rate, mm/sec
M107
;TYPE:Custom
M862.3 P "MK3S" ; printer model check
M862.1 P0.4 ; nozzle diameter check
M115 U3.8.0 ; tell printer latest fw version
G90 ; use absolute coordinates
M83 ; extruder relative mode
M104 S215 ; set extruder temp
M140 S60 ; set bed temp
M190 S60 ; wait for bed temp
M109 S215 ; wait for extruder temp
G28 W ; home all without mesh bed level
G80 ; mesh bed leveling
G1 Y-3.0 F1000.0 ; go outside print area
G92 E0.0
G1 X60.0 E9.0 F1000.0 ; intro line
G1 X100.0 E12.5 F1000.0 ; intro line
G92 E0.0
M221 S95
G21 ; set units to millimeters
G90 ; use absolute coordinates
M83 ; use relative distances for extrusion
M900 K0.05 ; Filament gcode LA 1.5
M900 K30 ; Filament gcode LA 1.0
;LAYER_CHANGE
;Z:0.2
;HEIGHT:0.2
;BEFORE_LAYER_CHANGE
G92 E0.0
;0.2


G1 E-0.80000 F2100.000
G1 Z0.600 F10800.000
;AFTER_LAYER_CHANGE
;0.2
G1 X85.188 Y75.294
G1 Z0.200
G1 E0.80000 F2100.000
M204 S1000
;TYPE:Skirt
;WIDTH:0.42
G1 F1200.000
G1 X86.051 Y74.430 E0.03830
G1 X86.883 Y73.902 E0.03089
G1 X87.798 Y73.570 E0.03054
G1 X91.895 Y73.520 E0.12846
G1 X92.648 Y73.728 E0.02448
G1 X93.381 Y74.070 E0.02538
G1 X94.141 Y74.695 E0.03084
G1 X94.141 Y70.602 E0.12833
G1 X94.422 Y69.358 E0.03996
G1 X95.157 Y68.094 E0.04585
G1 X96.356 Y67.020 E0.05047
G1 X97.311 Y66.564 E0.03318
G1 X98.378 Y66.346 E0.03417
G1 X110.975 Y66.349 E0.39496
G1 X111.966 Y66.556 E0.03173
G1 X112.887 Y66.980 E0.03178
G1 X114.011 Y67.944 E0.04645
G1 X114.800 Y69.156 E0.04535
G1 X115.156 Y70.493 E0.04337
G1 X115.157 Y79.413 E0.27966
G1 X115.996 Y78.589 E0.03685
G1 X117.351 Y77.866 E0.04816
G1 X118.463 Y77.649 E0.03552
G1 X121.407 Y77.653 E0.09232
G1 X122.414 Y77.854 E0.03220
G1 X123.324 Y78.264 E0.03127
G1 X124.431 Y79.189 E0.04524
G1 X125.151 Y80.167 E0.03808
G1 X126.040 Y79.255 E0.03993
G1 X127.455 Y78.493 E0.05039
G1 X128.465 Y78.293 E0.03228
G1 X131.867 Y78.302 E0.10665
G1 X133.060 Y78.607 E0.03861
G1 X134.031 Y79.173 E0.03524
G1 X134.144 Y74.080 E0.15971
G1 X134.530 Y72.785 E0.04237
G1 X135.111 Y71.866 E0.03408
G1 X135.869 Y71.093 E0.03396
G1 X137.315 Y70.303 E0.05168
G1 X138.357 Y70.091 E0.03331
G1 X141.372 Y70.089 E0.09455
G1 X142.382 Y70.291 E0.03230
G1 X143.249 Y70.675 E0.02973
G1 X144.082 Y71.362 E0.03386
G1 X144.072 Y70.580 E0.02454
G1 X144.346 Y69.380 E0.03858
G1 X144.942 Y68.292 E0.03890
G1 X145.820 Y67.365 E0.04005
G1 X146.691 Y66.794 E0.03265
G1 X147.738 Y66.427 E0.03478
G1 X151.976 Y66.391 E0.13290
G1 X152.804 Y66.622 E0.02696
G1 X153.558 Y66.988 E0.02626
G1 X154.702 Y67.992 E0.04773
G1 X155.356 Y68.950 E0.03637
G1 X155.765 Y70.182 E0.04071
G1 X155.760 Y71.363 E0.03703
G1 X156.134 Y71.026 E0.01578
G1 X156.901 Y70.540 E0.02848
G1 X157.850 Y70.189 E0.03174
G1 X161.897 Y70.130 E0.12690
G1 X162.702 Y70.344 E0.02610
G1 X163.475 Y70.711 E0.02685
G1 X164.566 Y71.626 E0.04463
G1 X165.229 Y72.529 E0.03514
G1 X165.687 Y73.759 E0.04113
G1 X165.902 Y79.651 E0.18488
G1 X165.627 Y80.858 E0.03881
G1 X165.032 Y81.943 E0.03879
G1 X164.210 Y82.832 E0.03797
G1 X163.667 Y83.182 E0.02025
G1 X164.178 Y83.509 E0.01901
G1 X165.180 Y84.625 E0.04704
G1 X165.691 Y85.685 E0.03691
G1 X165.884 Y86.561 E0.02811
G1 X165.759 Y92.192 E0.17659
G1 X165.399 Y93.487 E0.04215
G1 X164.810 Y94.455 E0.03554
G1 X163.977 Y95.295 E0.03708
G1 X163.062 Y95.869 E0.03388
G1 X162.020 Y96.211 E0.03439
G1 X158.425 Y96.269 E0.11274
G1 X157.155 Y95.939 E0.04114
G1 X156.236 Y95.411 E0.03323
G1 X155.857 Y95.084 E0.01570
G1 X155.859 Y99.200 E0.12905
G1 X155.550 Y100.461 E0.04071
G1 X154.890 Y101.588 E0.04096
G1 X154.183 Y102.317 E0.03183
G1 X153.369 Y102.927 E0.03190
G1 X154.235 Y103.707 E0.03654
G1 X154.893 Y104.745 E0.03855
G1 X155.257 Y106.031 E0.04191
G1 X155.271 Y115.047 E0.28269
G1 X156.064 Y114.260 E0.03503
G1 X157.520 Y113.483 E0.05176
G1 X158.543 Y113.288 E0.03265
G1 X161.558 Y113.292 E0.09452
G1 X162.528 Y113.490 E0.03105
G1 X163.438 Y113.900 E0.03129
G1 X164.607 Y114.892 E0.04808
G1 X165.231 Y115.767 E0.03370
G1 X165.629 Y116.770 E0.03383
G1 X165.883 Y122.851 E0.19082
G1 X165.608 Y124.058 E0.03881
G1 X164.986 Y125.180 E0.04022
G1 X164.114 Y126.095 E0.03964
G1 X163.056 Y126.734 E0.03872
G1 X162.143 Y127.029 E0.03010
G1 X158.307 Y127.091 E0.12028
G1 X157.003 Y126.755 E0.04225
G1 X156.086 Y126.215 E0.03336
G1 X155.970 Y131.300 E0.15949
M73 Q1 S29
G1 X155.607 Y132.545 E0.04064
G1 X155.029 Y133.482 E0.03454
M73 P1 R29
G1 X154.148 Y134.359 E0.03897
G1 X153.164 Y134.937 E0.03578
G1 X152.287 Y135.225 E0.02896
G1 X148.745 Y135.299 E0.11109
G1 X147.379 Y134.958 E0.04412
G1 X146.463 Y134.431 E0.03315
G1 X146.032 Y134.043 E0.01817
G1 X146.043 Y134.794 E0.02354
G1 X145.749 Y136.052 E0.04049
G1 X145.146 Y137.124 E0.03858
G1 X144.274 Y138.040 E0.03966
G1 X143.254 Y138.662 E0.03745
G1 X142.358 Y138.964 E0.02964
G1 X138.518 Y139.042 E0.12045
G1 X137.058 Y138.654 E0.04736
G1 X136.034 Y138.007 E0.03797
G1 X135.216 Y137.165 E0.03681
G1 X134.610 Y136.093 E0.03861
G1 X134.349 Y135.227 E0.02835
G1 X134.350 Y134.023 E0.03776
G1 X133.971 Y134.364 E0.01598
G1 X133.159 Y134.868 E0.02997
G1 X132.135 Y135.219 E0.03394
G1 X128.426 Y135.281 E0.11630
G1 X127.205 Y134.955 E0.03963
G1 X126.181 Y134.343 E0.03741
G1 X125.224 Y133.379 E0.04258
G1 X124.731 Y132.540 E0.03052
G1 X124.513 Y131.894 E0.02137
G1 X123.732 Y132.680 E0.03474
G1 X122.750 Y133.246 E0.03555
G1 X121.413 Y133.577 E0.04318
G1 X120.742 Y133.574 E0.02103
G1 X121.422 Y134.612 E0.03892
G1 X121.846 Y135.879 E0.04186
G1 X121.826 Y139.810 E0.12327
G1 X121.541 Y140.712 E0.02964
G1 X121.084 Y141.521 E0.02915
G1 X120.215 Y142.460 E0.04010
G1 X119.194 Y143.121 E0.03815
G1 X117.820 Y143.519 E0.04486
G1 X112.454 Y143.667 E0.16829
G1 X111.448 Y143.497 E0.03201
G1 X110.378 Y143.027 E0.03662
G1 X109.186 Y142.004 E0.04926
G1 X108.847 Y141.489 E0.01933
G1 X107.635 Y142.745 E0.05471
G1 X106.403 Y143.416 E0.04399
G1 X105.179 Y143.666 E0.03918
G1 X99.788 Y143.519 E0.16909
G1 X98.585 Y143.195 E0.03903
G1 X97.606 Y142.636 E0.03537
G1 X96.622 Y141.651 E0.04366
G1 X96.001 Y140.549 E0.03964
G1 X95.712 Y139.366 E0.03819
G1 X95.718 Y136.162 E0.10048
G1 X96.032 Y134.954 E0.03912
G1 X96.515 Y134.068 E0.03163
G1 X96.921 Y133.620 E0.01896
G1 X92.785 Y133.620 E0.12967
G1 X91.524 Y133.311 E0.04070
G1 X90.361 Y132.623 E0.04238
G1 X89.667 Y131.944 E0.03044
G1 X89.192 Y131.308 E0.02489
G1 X88.591 Y129.515 E0.05930
G1 X88.581 Y116.857 E0.39688
G1 X88.904 Y115.505 E0.04358
G1 X89.581 Y114.369 E0.04146
G1 X90.723 Y113.324 E0.04853
G1 X91.619 Y112.868 E0.03151
G1 X92.548 Y112.633 E0.03004
G1 X93.287 Y112.598 E0.02320
G1 X101.662 Y112.606 E0.26260
G1 X100.696 Y111.586 E0.04405
G1 X100.181 Y110.624 E0.03422
G1 X99.903 Y109.486 E0.03671
G1 X99.906 Y106.193 E0.10325
G1 X100.217 Y105.024 E0.03794
G1 X100.762 Y104.056 E0.03483
G1 X101.438 Y103.364 E0.03033
G1 X98.251 Y103.388 E0.09995
G1 X97.050 Y103.064 E0.03899
G1 X95.995 Y102.431 E0.03859
G1 X95.103 Y101.529 E0.03977
G1 X94.495 Y100.455 E0.03870
G1 X94.227 Y99.531 E0.03015
G1 X94.233 Y98.477 E0.03305
G1 X93.051 Y99.229 E0.04393
G1 X92.028 Y99.582 E0.03391
G1 X88.416 Y99.657 E0.11329
G1 X87.094 Y99.320 E0.04280
G1 X86.067 Y98.708 E0.03747
G1 X85.110 Y97.744 E0.04259
G1 X84.601 Y96.867 E0.03179
G1 X84.288 Y95.860 E0.03308
G1 X84.099 Y90.084 E0.18118
G1 X84.375 Y88.884 E0.03861
G1 X84.997 Y87.764 E0.04017
G1 X85.865 Y86.850 E0.03954
G1 X86.331 Y86.573 E0.01700
G1 X85.877 Y86.278 E0.01699
G1 X85.022 Y85.408 E0.03824
G1 X84.429 Y84.371 E0.03745
G1 X84.151 Y83.465 E0.02971
G1 X84.241 Y77.561 E0.18514
G1 X84.578 Y76.311 E0.04058
G1 X85.157 Y75.346 E0.03529
G1 X85.479 Y75.541 F10800.000
G1 F1200.000
G1 X86.301 Y74.713 E0.03661
G1 X87.065 Y74.233 E0.02829
G1 X87.896 Y73.935 E0.02765
G1 X91.820 Y73.890 E0.12306
G1 X92.531 Y74.087 E0.02314
G1 X93.198 Y74.400 E0.02308
G1 X94.518 Y75.509 E0.05407
G1 X94.518 Y70.622 E0.15322
G1 X94.763 Y69.520 E0.03539
G1 X95.432 Y68.355 E0.04214
G1 X96.586 Y67.320 E0.04862
G1 X97.450 Y66.916 E0.02989
G1 X98.397 Y66.723 E0.03032
G1 X110.955 Y66.726 E0.39374
G1 X111.867 Y66.920 E0.02925
G1 X112.662 Y67.283 E0.02738
G1 X113.746 Y68.213 E0.04478
G1 X114.444 Y69.284 E0.04010
G1 X114.779 Y70.519 E0.04010
G1 X114.780 Y80.199 E0.30352
G1 X115.053 Y80.278 E0.00889
G1 X115.430 Y79.681 E0.02214
G1 X116.199 Y78.908 E0.03419
G1 X117.503 Y78.213 E0.04635
G1 X118.480 Y78.026 E0.03118
G1 X121.389 Y78.030 E0.09119
G1 X122.282 Y78.208 E0.02855
G1 X123.103 Y78.571 E0.02815
G1 X124.171 Y79.463 E0.04365
G1 X124.777 Y80.296 E0.03228
G1 X125.075 Y81.031 E0.02488
G1 X125.444 Y80.409 E0.02266
G1 X126.245 Y79.572 E0.03633
G1 X127.608 Y78.840 E0.04850
G1 X128.517 Y78.667 E0.02903
G1 X131.796 Y78.673 E0.10280
G1 X132.939 Y78.966 E0.03700
G1 X133.955 Y79.569 E0.03704
G1 X134.391 Y80.016 E0.01957
G1 X134.513 Y74.162 E0.18360
G1 X134.864 Y72.963 E0.03917
G1 X135.394 Y72.116 E0.03133
G1 X136.118 Y71.378 E0.03241
G1 X137.468 Y70.648 E0.04812
G1 X138.410 Y70.465 E0.03008
G1 X141.353 Y70.466 E0.09229
G1 X142.248 Y70.645 E0.02862
G1 X143.071 Y71.009 E0.02820
G1 X144.489 Y72.205 E0.05817
G1 X144.445 Y70.639 E0.04910
G1 X144.708 Y69.490 E0.03696
G1 X145.233 Y68.533 E0.03423
G1 X146.047 Y67.666 E0.03727
G1 X146.841 Y67.140 E0.02987
G1 X147.774 Y66.804 E0.03108
G1 X151.951 Y66.769 E0.13099
G1 X152.683 Y66.979 E0.02388
G1 X153.368 Y67.315 E0.02392
G1 X154.434 Y68.258 E0.04461
G1 X155.029 Y69.138 E0.03331
G1 X155.396 Y70.268 E0.03723
G1 X155.361 Y72.319 E0.06433
G1 X156.357 Y71.331 E0.04398
G1 X157.087 Y70.868 E0.02712
G1 X157.890 Y70.565 E0.02690
G1 X161.827 Y70.501 E0.12345
G1 X162.559 Y70.693 E0.02372
G1 X163.252 Y71.016 E0.02399
G1 X164.305 Y71.900 E0.04310
G1 X164.909 Y72.730 E0.03219
G1 X165.311 Y73.803 E0.03593
G1 X165.528 Y79.591 E0.18161
G1 X165.265 Y80.747 E0.03717
G1 X164.714 Y81.739 E0.03556
G1 X163.953 Y82.555 E0.03500
G1 X162.934 Y83.186 E0.03757
G1 X163.919 Y83.784 E0.03610
G1 X164.852 Y84.814 E0.04358
G1 X165.342 Y85.829 E0.03533
G1 X165.511 Y86.618 E0.02530
G1 X165.382 Y92.159 E0.17378
G1 X165.044 Y93.358 E0.03908
G1 X164.501 Y94.237 E0.03239
G1 X163.727 Y95.012 E0.03435
G1 X162.883 Y95.536 E0.03113
G1 X161.931 Y95.844 E0.03138
G1 X158.493 Y95.898 E0.10781
G1 X157.320 Y95.599 E0.03795
G1 X156.448 Y95.098 E0.03153
G1 X155.479 Y94.170 E0.04207
G1 X155.482 Y99.177 E0.15699
G1 X155.191 Y100.343 E0.03769
G1 X154.604 Y101.342 E0.03633
G1 X153.923 Y102.044 E0.03065
G1 X153.345 Y102.474 E0.02262
G1 X152.590 Y102.743 E0.02512
G1 X153.931 Y103.931 E0.05620
M73 P2 R29
M73 Q2 S29
G1 X154.559 Y104.923 E0.03680
G1 X154.887 Y106.107 E0.03851
G1 X154.894 Y115.843 E0.30527
G1 X155.168 Y115.921 E0.00892
G1 X155.544 Y115.316 E0.02233
G1 X156.268 Y114.579 E0.03240
G1 X157.671 Y113.830 E0.04987
G1 X158.593 Y113.662 E0.02938
G1 X161.503 Y113.666 E0.09122
G1 X162.396 Y113.844 E0.02855
G1 X163.216 Y114.207 E0.02814
G1 X164.316 Y115.132 E0.04505
G1 X164.889 Y115.928 E0.03078
G1 X165.266 Y116.880 E0.03208
G1 X165.509 Y122.792 E0.18552
G1 X165.246 Y123.947 E0.03715
G1 X164.669 Y124.974 E0.03695
G1 X163.896 Y125.786 E0.03515
G1 X162.916 Y126.383 E0.03597
G1 X162.107 Y126.652 E0.02673
G1 X158.328 Y126.714 E0.11852
G1 X157.126 Y126.397 E0.03896
G1 X156.199 Y125.839 E0.03395
G1 X155.726 Y125.389 E0.02046
G1 X155.601 Y131.221 E0.18290
G1 X155.272 Y132.371 E0.03751
G1 X154.746 Y133.233 E0.03166
G1 X153.936 Y134.046 E0.03599
G1 X152.992 Y134.601 E0.03435
G1 X152.198 Y134.858 E0.02615
G1 X148.763 Y134.922 E0.10773
G1 X147.545 Y134.618 E0.03936
G1 X146.673 Y134.117 E0.03151
G1 X145.615 Y133.101 E0.04599
G1 X145.669 Y134.736 E0.05130
G1 X145.406 Y135.893 E0.03719
G1 X144.855 Y136.883 E0.03554
G1 X144.055 Y137.731 E0.03655
G1 X143.076 Y138.328 E0.03596
G1 X142.267 Y138.597 E0.02673
G1 X138.537 Y138.665 E0.11697
G1 X137.233 Y138.319 E0.04229
G1 X136.288 Y137.728 E0.03495
G1 X135.504 Y136.920 E0.03531
G1 X134.965 Y135.964 E0.03439
G1 X134.719 Y135.147 E0.02677
G1 X134.742 Y133.083 E0.06472
G1 X133.751 Y134.057 E0.04358
M73 P2 R28
G1 X132.979 Y134.536 E0.02849
G1 X132.043 Y134.853 E0.03099
G1 X128.496 Y134.910 E0.11120
G1 X127.373 Y134.617 E0.03639
G1 X126.430 Y134.059 E0.03437
G1 X125.537 Y133.167 E0.03957
G1 X125.067 Y132.368 E0.02908
G1 X124.681 Y131.179 E0.03919
G1 X123.521 Y132.367 E0.05207
G1 X122.586 Y132.906 E0.03385
G1 X121.350 Y133.204 E0.03984
G1 X119.741 Y133.168 E0.05049
G1 X120.624 Y134.081 E0.03983
G1 X121.074 Y134.759 E0.02552
G1 X121.469 Y135.910 E0.03815
G1 X121.457 Y139.726 E0.11964
G1 X121.202 Y140.546 E0.02694
G1 X120.792 Y141.282 E0.02642
G1 X119.955 Y142.186 E0.03861
G1 X119.014 Y142.789 E0.03505
G1 X117.785 Y143.143 E0.04009
G1 X112.497 Y143.292 E0.16589
G1 X111.577 Y143.142 E0.02922
G1 X110.556 Y142.693 E0.03495
G1 X109.456 Y141.739 E0.04568
G1 X108.801 Y140.700 E0.03852
G1 X108.429 Y141.379 E0.02428
G1 X107.384 Y142.462 E0.04720
G1 X106.299 Y143.052 E0.03873
G1 X105.167 Y143.288 E0.03626
G1 X99.821 Y143.143 E0.16767
G1 X98.708 Y142.838 E0.03617
G1 X97.855 Y142.352 E0.03080
G1 X96.907 Y141.402 E0.04206
G1 X96.361 Y140.433 E0.03488
G1 X96.089 Y139.343 E0.03521
G1 X96.095 Y136.186 E0.09899
G1 X96.375 Y135.114 E0.03473
G1 X96.832 Y134.274 E0.03000
G1 X97.832 Y133.243 E0.04502
G1 X92.808 Y133.243 E0.15750
G1 X91.643 Y132.952 E0.03767
G1 X90.609 Y132.338 E0.03771
G1 X89.942 Y131.685 E0.02927
G1 X89.512 Y131.107 E0.02258
G1 X88.968 Y129.484 E0.05368
G1 X88.958 Y116.878 E0.39524
G1 X89.244 Y115.671 E0.03891
G1 X89.857 Y114.628 E0.03793
G1 X90.958 Y113.620 E0.04679
G1 X91.768 Y113.215 E0.02840
G1 X92.619 Y113.004 E0.02751
G1 X93.290 Y112.976 E0.02106
G1 X102.447 Y112.984 E0.28710
G1 X102.524 Y112.708 E0.00899
G1 X101.961 Y112.369 E0.02060
G1 X101.016 Y111.385 E0.04278
G1 X100.525 Y110.467 E0.03264
G1 X100.280 Y109.463 E0.03239
G1 X100.277 Y106.264 E0.10030
G1 X100.557 Y105.187 E0.03489
G1 X101.078 Y104.265 E0.03320
G1 X102.369 Y102.977 E0.05719
G1 X98.321 Y103.016 E0.12692
G1 X97.221 Y102.727 E0.03569
G1 X96.210 Y102.120 E0.03696
G1 X95.390 Y101.284 E0.03672
G1 X94.836 Y100.291 E0.03566
G1 X94.597 Y99.456 E0.02722
G1 X94.631 Y97.432 E0.06347
G1 X93.670 Y98.394 E0.04265
G1 X92.904 Y98.882 E0.02847
G1 X91.989 Y99.206 E0.03042
G1 X88.434 Y99.280 E0.11151
G1 X87.262 Y98.981 E0.03793
G1 X86.316 Y98.424 E0.03441
G1 X85.423 Y97.531 E0.03959
G1 X84.953 Y96.732 E0.02906
G1 X84.664 Y95.821 E0.02998
G1 X84.477 Y90.097 E0.17955
G1 X84.735 Y88.997 E0.03544
G1 X85.313 Y87.971 E0.03693
G1 X86.115 Y87.134 E0.03634
G1 X87.093 Y86.595 E0.03501
G1 X86.127 Y85.995 E0.03565
G1 X85.337 Y85.199 E0.03517
G1 X84.767 Y84.202 E0.03597
G1 X84.521 Y83.384 E0.02679
G1 X84.617 Y77.591 E0.18166
G1 X84.934 Y76.437 E0.03752
G1 X85.448 Y75.593 E0.03099
G1 E-0.80000 F2100.000
G1 Z0.800 F10800.000
G1 X155.328 Y116.384
G1 Z0.200
G1 E0.80000 F2100.000
G1 F1200.000
G1 X155.829 Y115.564 E0.03012
G1 X156.517 Y114.863 E0.03080
G1 X157.769 Y114.195 E0.04450
G1 X158.611 Y114.039 E0.02684
G1 X161.484 Y114.043 E0.09009
G1 X162.265 Y114.198 E0.02498
G1 X162.996 Y114.514 E0.02498
G1 X164.025 Y115.373 E0.04203
G1 X164.548 Y116.090 E0.02781
G1 X164.904 Y116.989 E0.03032
G1 X165.136 Y122.732 E0.18022
G1 X164.885 Y123.836 E0.03551
G1 X164.379 Y124.733 E0.03227
G1 X163.677 Y125.478 E0.03207
G1 X162.739 Y126.050 E0.03446
G1 X162.018 Y126.285 E0.02379
G1 X158.396 Y126.342 E0.11356
G1 X157.297 Y126.060 E0.03560
G1 X156.414 Y125.529 E0.03229
G1 X155.690 Y124.807 E0.03207
G1 X155.144 Y123.853 E0.03446
G1 X154.929 Y123.124 E0.02383
G1 X155.032 Y117.441 E0.17822
G1 X155.312 Y116.442 E0.03251
G1 X155.674 Y116.546 F10800.000
