; generated by PrusaSlicer 2.3.1+win64 on 2021-08-06 at 16:58:00 UTC

; 

; external perimeters extrusion width = 0.45mm
; perimeters extrusion width = 0.45mm
; infill extrusion width = 0.45mm
; solid infill extrusion width = 0.45mm
; top infill extrusion width = 0.40mm
; support material extrusion width = 0.35mm
; first layer extrusion width = 0.42mm

M73 P0 R23
M73 Q0 S23
M201 X1000 Y1000 Z1000 E5000 ; sets maximum accelerations, mm/sec^2
M203 X200 Y200 Z12 E120 ; sets maximum feedrates, mm/sec
M204 P1250 R1250 T1250 ; sets acceleration (P, T) and retract acceleration (R), mm/sec^2
M205 X8.00 Y8.00 Z0.40 E1.50 ; sets the jerk limits, mm/sec
M205 S0 T0 ; sets the minimum extruding and travel feed rate, mm/sec
M107
;TYPE:Custom
M862.3 P "MK3S" ; printer model check
M862.1 P0.4 ; nozzle diameter check
M115 U3.8.0 ; tell printer latest fw version
G90 ; use absolute coordinates
M83 ; extruder relative mode
M104 S215 ; set extruder temp
M140 S60 ; set bed temp
M190 S60 ; wait for bed temp
M109 S215 ; wait for extruder temp
G28 W ; home all without mesh bed level
G80 ; mesh bed leveling
G1 Y-3.0 F1000.0 ; go outside print area
G92 E0.0
G1 X60.0 E9.0 F1000.0 ; intro line
G1 X100.0 E12.5 F1000.0 ; intro line
G92 E0.0
M221 S95
G21 ; set units to millimeters
G90 ; use absolute coordinates
M83 ; use relative distances for extrusion
M900 K0.05 ; Filament gcode LA 1.5
M900 K30 ; Filament gcode LA 1.0
;LAYER_CHANGE
;Z:0.2
;HEIGHT:0.2
;BEFORE_LAYER_CHANGE
G92 E0.0
;0.2


G1 E-0.80000 F2100.000
G1 Z0.600 F10800.000
;AFTER_LAYER_CHANGE
;0.2
G1 X87.016 Y122.823
G1 Z0.200
G1 E0.80000 F2100.000
M204 S1000
;TYPE:Skirt
;WIDTH:0.42
G1 F1200.000
G1 X87.451 Y122.603 E0.01528
G1 X87.735 Y122.548 E0.00908
G1 X92.707 Y122.688 E0.15594
G1 X93.151 Y122.837 E0.01468
G1 X93.384 Y122.994 E0.00882
G1 X93.856 Y123.509 E0.02191
G1 X94.003 Y123.826 E0.01095
G1 X94.051 Y124.018 E0.00620
G1 X94.051 Y126.798 E0.08717
G1 X94.003 Y126.990 E0.00620
G1 X93.857 Y127.306 E0.01093
G1 X93.323 Y127.874 E0.02442
G1 X93.152 Y127.979 E0.00628
G1 X92.707 Y128.127 E0.01473
G1 X87.735 Y128.267 E0.15595
G1 X87.453 Y128.214 E0.00898
G1 X87.124 Y128.067 E0.01131
G1 X86.577 Y127.566 E0.02327
G1 X86.345 Y127.137 E0.01528
G1 X86.282 Y126.855 E0.00908
G1 X86.282 Y123.961 E0.09073
G1 X86.343 Y123.681 E0.00898
G1 X86.500 Y123.356 E0.01131
G1 X86.974 Y122.866 E0.02139
G1 X87.241 Y123.131 F10800.000
G1 F1200.000
G1 X87.589 Y122.954 E0.01225
G1 X87.744 Y122.926 E0.00493
G1 X92.665 Y123.064 E0.15436
G1 X93.000 Y123.183 E0.01116
G1 X93.125 Y123.267 E0.00470
G1 X93.527 Y123.696 E0.01844
G1 X93.652 Y123.965 E0.00930
G1 X93.679 Y124.080 E0.00370
G1 X93.679 Y126.736 E0.08326
G1 X93.652 Y126.851 E0.00370
G1 X93.528 Y127.119 E0.00928
G1 X93.099 Y127.570 E0.01950
G1 X93.003 Y127.632 E0.00359
G1 X92.665 Y127.751 E0.01123
G1 X87.744 Y127.890 E0.15436
G1 X87.587 Y127.861 E0.00501
G1 X87.308 Y127.736 E0.00957
G1 X86.860 Y127.315 E0.01926
G1 X86.692 Y126.989 E0.01151
G1 X86.659 Y126.835 E0.00493
G1 X86.659 Y123.980 E0.08952
G1 X86.692 Y123.824 E0.00501
G1 X86.825 Y123.549 E0.00957
G1 X87.198 Y123.174 E0.01661
G1 X87.460 Y123.443 F10800.000
G1 F1200.000
G1 X87.494 Y123.409 E0.00149
G1 X87.751 Y123.303 E0.00872
G1 X92.620 Y123.440 E0.15272
G1 X92.841 Y123.525 E0.00744
G1 X93.199 Y123.885 E0.01591
G1 X93.305 Y124.131 E0.00841
G1 X93.305 Y126.684 E0.08005
G1 X93.199 Y126.931 E0.00841
G1 X92.868 Y127.272 E0.01492
G1 X92.620 Y127.375 E0.00841
G1 X87.751 Y127.512 E0.15272
G1 X87.494 Y127.406 E0.00872
G1 X87.150 Y127.071 E0.01506
G1 X87.036 Y126.818 E0.00872
G1 X87.036 Y123.998 E0.08840
G1 X87.150 Y123.744 E0.00872
G1 X87.417 Y123.484 E0.01169
G1 X87.680 Y123.755 F10800.000
G1 F1200.000
G1 X87.726 Y123.710 E0.00203
G1 X87.797 Y123.682 E0.00240
G1 X92.568 Y123.816 E0.14964
G1 X92.636 Y123.846 E0.00231
G1 X92.900 Y124.118 E0.01191
G1 X92.928 Y124.186 E0.00231
G1 X92.928 Y126.629 E0.07660
G1 X92.900 Y126.698 E0.00231
G1 X92.636 Y126.970 E0.01191
G1 X92.568 Y127.000 E0.00231
G1 X87.797 Y127.134 E0.14964
G1 X87.726 Y127.106 E0.00240
G1 X87.443 Y126.831 E0.01239
G1 X87.413 Y126.760 E0.00240
G1 X87.413 Y124.055 E0.08482
G1 X87.443 Y123.985 E0.00240
G1 X87.637 Y123.797 E0.00847
G1 X87.900 Y124.067 F10800.000
G1 F1200.000
G1 X92.444 Y124.190 E0.14255
G1 X92.551 Y124.300 E0.00480
G1 X92.551 Y126.516 E0.06949
G1 X92.444 Y126.626 E0.00480
G1 X87.905 Y126.754 E0.14239
G1 X87.790 Y126.643 E0.00500
G1 X87.790 Y124.173 E0.07743
G1 X87.857 Y124.109 E0.00290
G1 E-0.80000 F2100.000
G1 Z0.800 F10800.000
G1 X91.030 Y117.897
G1 Z0.200
G1 E0.80000 F2100.000
G1 F1200.000
G1 X90.858 Y117.791 E0.00632
G1 X90.397 Y117.328 E0.02050
G1 X90.181 Y116.912 E0.01470
G1 X90.123 Y116.638 E0.00877
G1 X90.126 Y113.977 E0.08345
G1 X90.180 Y113.743 E0.00753
G1 X90.327 Y113.425 E0.01096
G1 X90.882 Y112.847 E0.02515
G1 X91.016 Y112.761 E0.00500
G1 X91.476 Y112.607 E0.01518
G1 X96.528 Y112.473 E0.15846
G1 X96.728 Y112.519 E0.00643
G1 X97.058 Y112.667 E0.01136
G1 X97.606 Y113.168 E0.02327
G1 X97.838 Y113.598 E0.01533
G1 X97.891 Y113.799 E0.00652
G1 X97.891 Y116.854 E0.09577
G1 X97.840 Y117.052 E0.00642
G1 X97.683 Y117.378 E0.01136
G1 X97.166 Y117.911 E0.02327
G1 X96.731 Y118.131 E0.01528
G1 X96.447 Y118.186 E0.00908
G1 X91.476 Y118.046 E0.15594
M73 Q1 S23
G1 X91.087 Y117.916 E0.01285
G1 X91.212 Y117.562 F10800.000
G1 F1200.000
G1 X91.082 Y117.487 E0.00470
G1 X90.688 Y117.087 E0.01761
G1 X90.531 Y116.769 E0.01114
G1 X90.500 Y116.620 E0.00475
G1 X90.504 Y113.999 E0.08219
M73 P1 R23
G1 X90.530 Y113.884 E0.00370
G1 X90.655 Y113.614 E0.00930
G1 X91.135 Y113.127 E0.02146
G1 X91.517 Y112.983 E0.01280
G1 X96.474 Y112.847 E0.15546
G1 X96.594 Y112.872 E0.00384
G1 X96.874 Y112.998 E0.00964
G1 X97.322 Y113.419 E0.01926
G1 X97.491 Y113.747 E0.01159
G1 X97.519 Y113.864 E0.00375
G1 X97.519 Y116.789 E0.09172
G1 X97.491 Y116.908 E0.00384
G1 X97.357 Y117.185 E0.00964
G1 X96.924 Y117.621 E0.01926
G1 X96.593 Y117.780 E0.01151
G1 X96.439 Y117.808 E0.00493
G1 X91.517 Y117.670 E0.15436
G1 X91.269 Y117.582 E0.00827
G1 X91.402 Y117.232 F10800.000
G1 F1200.000
G1 X91.315 Y117.191 E0.00305
G1 X90.983 Y116.849 E0.01492
G1 X90.877 Y116.603 E0.00841
G1 X90.877 Y114.050 E0.08005
G1 X90.982 Y113.805 E0.00834
G1 X91.356 Y113.438 E0.01644
G1 X91.562 Y113.359 E0.00692
G1 X96.431 Y113.222 E0.15272
G1 X96.688 Y113.328 E0.00872
G1 X97.033 Y113.663 E0.01506
G1 X97.146 Y113.917 E0.00872
G1 X97.146 Y116.736 E0.08840
G1 X97.033 Y116.990 E0.00872
G1 X96.688 Y117.325 E0.01506
G1 X96.431 Y117.431 E0.00872
G1 X91.562 Y117.294 E0.15272
G1 X91.459 Y117.254 E0.00349
G1 X91.607 Y116.915 F10800.000
G1 F1200.000
G1 X91.547 Y116.888 E0.00208
G1 X91.282 Y116.616 E0.01191
G1 X91.254 Y116.548 E0.00231
G1 X91.254 Y114.105 E0.07660
G1 X91.282 Y114.036 E0.00231
G1 X91.547 Y113.764 E0.01191
G1 X91.614 Y113.735 E0.00231
G1 X96.385 Y113.600 E0.14964
G1 X96.456 Y113.628 E0.00240
G1 X96.739 Y113.903 E0.01239
G1 X96.769 Y113.974 E0.00240
G1 X96.769 Y116.679 E0.08482
G1 X96.739 Y116.749 E0.00240
G1 X96.456 Y117.024 E0.01239
G1 X96.385 Y117.052 E0.00240
G1 X91.667 Y116.919 E0.14799
G1 X91.738 Y116.544 F10800.000
G1 F1200.000
G1 X91.631 Y116.434 E0.00480
G1 X91.631 Y114.218 E0.06949
G1 X91.738 Y114.108 E0.00480
G1 X96.278 Y113.980 E0.14239
G1 X96.392 Y114.091 E0.00500
G1 X96.392 Y116.561 E0.07743
G1 X96.278 Y116.672 E0.00500
G1 X91.798 Y116.546 E0.14051
G1 E-0.80000 F2100.000
G1 Z0.800 F10800.000
G1 X91.557 Y107.996
G1 Z0.200
G1 E0.80000 F2100.000
G1 F1200.000
G1 X87.832 Y108.101 E0.11683
G1 X87.551 Y108.048 E0.00898
G1 X87.222 Y107.901 E0.01131
G1 X86.674 Y107.400 E0.02327
G1 X86.442 Y106.971 E0.01528
G1 X86.380 Y106.688 E0.00908
G1 X86.380 Y103.795 E0.09073
G1 X86.441 Y103.515 E0.00898
G1 X86.597 Y103.190 E0.01131
G1 X87.114 Y102.657 E0.02327
G1 X87.549 Y102.437 E0.01528
G1 X87.833 Y102.382 E0.00908
G1 X92.804 Y102.522 E0.15594
G1 X93.249 Y102.671 E0.01468
G1 X93.482 Y102.828 E0.00882
G1 X93.954 Y103.343 E0.02191
G1 X94.101 Y103.660 E0.01095
G1 X94.149 Y103.852 E0.00620
G1 X94.149 Y106.632 E0.08717
G1 X94.101 Y106.824 E0.00620
G1 X93.954 Y107.140 E0.01093
G1 X93.421 Y107.707 E0.02442
G1 X93.250 Y107.812 E0.00628
G1 X92.804 Y107.961 E0.01473
G1 X91.617 Y107.995 E0.03724
G1 X91.607 Y107.618 F10800.000
G1 F1200.000
G1 X87.841 Y107.724 E0.11810
G1 X87.684 Y107.695 E0.00501
G1 X87.406 Y107.570 E0.00957
G1 X86.958 Y107.149 E0.01926
G1 X86.790 Y106.823 E0.01151
G1 X86.757 Y106.669 E0.00493
G1 X86.757 Y103.814 E0.08952
G1 X86.790 Y103.658 E0.00501
G1 X86.923 Y103.383 E0.00957
G1 X87.356 Y102.947 E0.01926
G1 X87.687 Y102.788 E0.01151
G1 X87.841 Y102.760 E0.00493
G1 X92.763 Y102.898 E0.15436
G1 X93.098 Y103.017 E0.01116
G1 X93.222 Y103.101 E0.00470
G1 X93.625 Y103.530 E0.01844
G1 X93.750 Y103.799 E0.00930
G1 X93.776 Y103.914 E0.00370
G1 X93.776 Y106.569 E0.08326
G1 X93.750 Y106.684 E0.00370
G1 X93.625 Y106.953 E0.00928
G1 X93.197 Y107.404 E0.01950
G1 X93.100 Y107.466 E0.00359
G1 X92.763 Y107.585 E0.01123
G1 X91.667 Y107.616 E0.03438
G1 X91.656 Y107.239 F10800.000
G1 F1200.000
G1 X87.849 Y107.346 E0.11942
G1 X87.592 Y107.240 E0.00872
G1 X87.247 Y106.905 E0.01506
G1 X87.134 Y106.651 E0.00872
G1 X87.134 Y103.832 E0.08840
G1 X87.247 Y103.578 E0.00872
G1 X87.592 Y103.243 E0.01506
G1 X87.849 Y103.137 E0.00872
G1 X92.718 Y103.274 E0.15272
G1 X92.965 Y103.377 E0.00841
G1 X93.297 Y103.719 E0.01492
G1 X93.403 Y103.965 E0.00841
G1 X93.397 Y106.550 E0.08103
G1 X93.297 Y106.765 E0.00744
G1 X92.939 Y107.124 E0.01591
G1 X92.718 Y107.209 E0.00744
G1 X91.716 Y107.237 E0.03142
G1 X91.705 Y106.860 F10800.000
G1 F1200.000
G1 X87.895 Y106.968 E0.11951
G1 X87.824 Y106.940 E0.00240
G1 X87.541 Y106.665 E0.01239
G1 X87.511 Y106.594 E0.00240
G1 X87.511 Y103.889 E0.08482
G1 X87.541 Y103.819 E0.00240
G1 X87.824 Y103.543 E0.01239
G1 X87.895 Y103.516 E0.00240
G1 X92.666 Y103.650 E0.14964
G1 X92.733 Y103.680 E0.00231
G1 X92.998 Y103.952 E0.01191
G1 X93.026 Y104.020 E0.00231
G1 X93.026 Y106.463 E0.07660
G1 X92.998 Y106.532 E0.00231
G1 X92.733 Y106.804 E0.01191
G1 X92.666 Y106.833 E0.00231
G1 X91.765 Y106.859 E0.02825
G1 X91.755 Y106.482 F10800.000
G1 F1200.000
G1 X88.002 Y106.588 E0.11770
G1 X87.888 Y106.477 E0.00500
G1 X87.888 Y104.007 E0.07743
G1 X88.002 Y103.896 E0.00500
G1 X92.542 Y104.024 E0.14239
G1 X92.649 Y104.134 E0.00480
G1 X92.649 Y106.350 E0.06949
G1 X92.542 Y106.460 E0.00480
G1 X91.815 Y106.480 E0.02281
G1 E-0.80000 F2100.000
G1 Z0.800 F10800.000
G1 X92.056 Y97.893
G1 Z0.200
G1 E0.80000 F2100.000
G1 F1200.000
G1 X91.476 Y97.877 E0.01822
G1 X91.030 Y97.728 E0.01473
G1 X90.858 Y97.622 E0.00632
G1 X90.397 Y97.159 E0.02050
G1 X90.181 Y96.743 E0.01470
G1 X90.123 Y96.469 E0.00877
G1 X90.126 Y93.808 E0.08345
G1 X90.180 Y93.574 E0.00753
G1 X90.327 Y93.256 E0.01096
G1 X90.882 Y92.678 E0.02515
G1 X91.016 Y92.592 E0.00500
G1 X91.476 Y92.438 E0.01518
G1 X96.528 Y92.305 E0.15846
G1 X96.728 Y92.350 E0.00643
G1 X97.058 Y92.498 E0.01136
G1 X97.606 Y92.999 E0.02327
G1 X97.838 Y93.429 E0.01533
G1 X97.891 Y93.630 E0.00652
G1 X97.891 Y96.685 E0.09577
G1 X97.840 Y96.883 E0.00642
G1 X97.683 Y97.209 E0.01136
G1 X97.166 Y97.742 E0.02327
G1 X96.731 Y97.962 E0.01528
G1 X96.447 Y98.017 E0.00908
G1 X92.116 Y97.895 E0.13584
G1 X92.127 Y97.518 F10800.000
G1 F1200.000
G1 X91.517 Y97.501 E0.01913
G1 X91.180 Y97.381 E0.01123
G1 X91.082 Y97.319 E0.00364
G1 X90.688 Y96.918 E0.01761
G1 X90.531 Y96.600 E0.01114
G1 X90.500 Y96.451 E0.00475
G1 X90.504 Y93.830 E0.08219
G1 X90.530 Y93.715 E0.00370
G1 X90.655 Y93.445 E0.00930
G1 X91.135 Y92.958 E0.02146
G1 X91.517 Y92.814 E0.01280
G1 X96.474 Y92.678 E0.15546
G1 X96.594 Y92.703 E0.00384
G1 X96.874 Y92.829 E0.00964
G1 X97.322 Y93.250 E0.01926
G1 X97.491 Y93.578 E0.01159
G1 X97.519 Y93.695 E0.00375
G1 X97.519 Y96.620 E0.09172
G1 X97.491 Y96.739 E0.00384
G1 X97.357 Y97.016 E0.00964
G1 X96.924 Y97.452 E0.01926
G1 X96.593 Y97.611 E0.01151
G1 X96.439 Y97.639 E0.00493
G1 X92.187 Y97.520 E0.13336
G1 X92.198 Y97.143 F10800.000
G1 F1200.000
G1 X91.562 Y97.125 E0.01993
G1 X91.341 Y97.040 E0.00744
G1 X90.983 Y96.680 E0.01591
G1 X90.883 Y96.465 E0.00744
G1 X90.877 Y93.881 E0.08103
G1 X90.982 Y93.636 E0.00834
G1 X91.356 Y93.269 E0.01644
G1 X91.562 Y93.190 E0.00692
G1 X96.431 Y93.053 E0.15272
G1 X96.688 Y93.159 E0.00872
G1 X97.033 Y93.494 E0.01506
G1 X97.146 Y93.748 E0.00872
G1 X97.146 Y96.567 E0.08840
G1 X97.033 Y96.821 E0.00872
G1 X96.688 Y97.156 E0.01506
G1 X96.431 Y97.262 E0.00872
G1 X92.258 Y97.144 E0.13092
G1 X92.268 Y96.767 F10800.000
G1 F1200.000
G1 X91.614 Y96.749 E0.02052
G1 X91.547 Y96.719 E0.00231
G1 X91.282 Y96.447 E0.01191
G1 X91.254 Y96.379 E0.00231
G1 X91.254 Y93.936 E0.07660
G1 X91.282 Y93.868 E0.00231
G1 X91.547 Y93.595 E0.01191
G1 X91.614 Y93.566 E0.00231
G1 X96.385 Y93.431 E0.14964
G1 X96.456 Y93.459 E0.00240
G1 X96.739 Y93.734 E0.01239
G1 X96.769 Y93.805 E0.00240
G1 X96.769 Y96.510 E0.08482
G1 X96.739 Y96.580 E0.00240
G1 X96.456 Y96.856 E0.01239
G1 X96.385 Y96.883 E0.00240
G1 X92.328 Y96.769 E0.12724
G1 X92.339 Y96.392 F10800.000
G1 F1200.000
G1 X91.738 Y96.375 E0.01885
G1 X91.631 Y96.266 E0.00480
G1 X91.631 Y94.049 E0.06949
M73 Q2 S23
G1 X91.738 Y93.939 E0.00480
G1 X96.278 Y93.812 E0.14239
G1 X96.392 Y93.923 E0.00500
G1 X96.392 Y96.392 E0.07743
M73 P2 R23
G1 X96.278 Y96.503 E0.00500
G1 X92.399 Y96.394 E0.12167
G1 E-0.80000 F2100.000
G1 Z0.800 F10800.000
G1 X106.524 Y87.075
G1 Z0.200
G1 E0.80000 F2100.000
G1 F1200.000
G1 X106.308 Y86.659 E0.01470
G1 X106.250 Y86.385 E0.00877
G1 X106.253 Y83.723 E0.08345
G1 X106.307 Y83.489 E0.00753
G1 X106.454 Y83.172 E0.01096
G1 X107.009 Y82.593 E0.02515
G1 X107.143 Y82.507 E0.00500
G1 X107.602 Y82.354 E0.01518
G1 X112.655 Y82.220 E0.15846
G1 X112.855 Y82.266 E0.00643
G1 X113.185 Y82.414 E0.01136
G1 X113.732 Y82.915 E0.02327
G1 X113.965 Y83.345 E0.01533
G1 X114.018 Y83.546 E0.00652
G1 X114.018 Y86.600 E0.09577
G1 X113.967 Y86.799 E0.00642
G1 X113.810 Y87.125 E0.01136
G1 X113.293 Y87.658 E0.02327
G1 X112.858 Y87.878 E0.01528
G1 X112.574 Y87.932 E0.00908
G1 X107.602 Y87.792 E0.15594
G1 X107.157 Y87.644 E0.01473
G1 X106.985 Y87.538 E0.00632
G1 X106.566 Y87.117 E0.01862
G1 X106.834 Y86.853 F10800.000
G1 F1200.000
G1 X106.657 Y86.515 E0.01197
G1 X106.627 Y86.367 E0.00475
G1 X106.630 Y83.745 E0.08219
G1 X106.657 Y83.630 E0.00370
G1 X106.782 Y83.361 E0.00930
G1 X107.291 Y82.855 E0.02253
G1 X107.644 Y82.730 E0.01174
G1 X112.601 Y82.594 E0.15546
G1 X112.720 Y82.619 E0.00384
G1 X113.001 Y82.745 E0.00964
G1 X113.449 Y83.165 E0.01926
G1 X113.618 Y83.494 E0.01159
G1 X113.646 Y83.610 E0.00375
G1 X113.646 Y86.536 E0.09172
G1 X113.618 Y86.655 E0.00384
G1 X113.484 Y86.932 E0.00964
G1 X113.051 Y87.367 E0.01926
G1 X112.720 Y87.526 E0.01151
G1 X112.565 Y87.555 E0.00493
G1 X107.644 Y87.416 E0.15436
G1 X107.306 Y87.297 E0.01123
G1 X107.209 Y87.234 E0.00364
G1 X106.877 Y86.896 E0.01486
G1 X107.146 Y86.634 F10800.000
G1 F1200.000
G1 X107.110 Y86.596 E0.00165
G1 X107.004 Y86.350 E0.00841
G1 X107.004 Y83.796 E0.08005
G1 X107.109 Y83.552 E0.00834
G1 X107.483 Y83.185 E0.01644
G1 X107.689 Y83.106 E0.00692
G1 X112.558 Y82.968 E0.15272
G1 X112.815 Y83.075 E0.00872
G1 X113.160 Y83.409 E0.01506
G1 X113.273 Y83.663 E0.00872
G1 X113.273 Y86.483 E0.08840
G1 X113.160 Y86.737 E0.00872
G1 X112.815 Y87.071 E0.01506
G1 X112.558 Y87.178 E0.00872
G1 X107.689 Y87.040 E0.15272
G1 X107.442 Y86.937 E0.00841
G1 X107.188 Y86.677 E0.01139
G1 X107.459 Y86.414 F10800.000
G1 F1200.000
G1 X107.409 Y86.363 E0.00224
G1 X107.381 Y86.294 E0.00231
G1 X107.381 Y83.851 E0.07660
G1 X107.409 Y83.783 E0.00231
G1 X107.674 Y83.511 E0.01191
G1 X107.741 Y83.481 E0.00231
G1 X112.512 Y83.347 E0.14964
G1 X112.583 Y83.375 E0.00240
G1 X112.866 Y83.650 E0.01239
G1 X112.896 Y83.720 E0.00240
G1 X112.896 Y86.426 E0.08482
G1 X112.866 Y86.496 E0.00240
G1 X112.583 Y86.771 E0.01239
G1 X112.512 Y86.799 E0.00240
G1 X107.741 Y86.665 E0.14964
G1 X107.674 Y86.635 E0.00231
G1 X107.500 Y86.457 E0.00778
G1 X107.771 Y86.194 F10800.000
G1 F1200.000
G1 X107.758 Y86.181 E0.00057
G1 X107.758 Y83.965 E0.06949
G1 X107.865 Y83.855 E0.00480
G1 X112.405 Y83.727 E0.14239
G1 X112.519 Y83.838 E0.00500
G1 X112.519 Y86.308 E0.07743
G1 X112.405 Y86.419 E0.00500
