; G-Code generated by Simplify3D(R) Version 4.0.0
; Dec 18, 2017 at 12:50:32 PM
; Settings Summary
;   processName,Process1
;   applyToModels,River of Slime scoop,River of Slime scoop(2),River of Slime scoop(3),River of Slime scoop(4),River of Slime scoop(5),River of Slime scoop(6),River of Slime scoop(7),River of Slime scoop(8),River of Slime scoop(9),River of Slime scoop(10)
;   profileName,Prusa Research Original Prusa i3 MK2 (modified)
;   profileVersion,2017-12-18 12:08:23
;   baseProfile,
;   printMaterial,PLA
;   printQuality,Fast
;   printExtruders,
;   extruderName,Primary Extruder
;   extruderToolheadNumber,0
;   extruderDiameter,0.4
;   extruderAutoWidth,0
;   extruderWidth,0.4
;   extrusionMultiplier,1
;   extruderUseRetract,1
;   extruderRetractionDistance,1.5
;   extruderExtraRestartDistance,0
;   extruderRetractionZLift,0
;   extruderRetractionSpeed,1800
;   extruderUseCoasting,1
;   extruderCoastingDistance,0.2
;   extruderUseWipe,1
;   extruderWipeDistance,2
;   primaryExtruder,0
;   layerHeight,0.3
;   topSolidLayers,3
;   bottomSolidLayers,3
;   perimeterOutlines,2
;   printPerimetersInsideOut,0
;   startPointOption,2
;   startPointOriginX,125
;   startPointOriginY,0
;   sequentialIslands,0
;   spiralVaseMode,0
;   firstLayerHeightPercentage,90
;   firstLayerWidthPercentage,105
;   firstLayerUnderspeed,0.5
;   useRaft,0
;   raftExtruder,0
;   raftTopLayers,2
;   raftBaseLayers,1
;   raftOffset,2
;   raftSeparationDistance,0.14
;   raftTopInfill,100
;   aboveRaftSpeedMultiplier,0.3
;   useSkirt,0
;   skirtExtruder,0
;   skirtLayers,1
;   skirtOutlines,1
;   skirtOffset,4
;   usePrimePillar,0
;   primePillarExtruder,999
;   primePillarWidth,12
;   primePillarLocation,7
;   primePillarSpeedMultiplier,1
;   useOozeShield,0
;   oozeShieldExtruder,999
;   oozeShieldOffset,2
;   oozeShieldOutlines,1
;   oozeShieldSidewallShape,1
;   oozeShieldSidewallAngle,30
;   oozeShieldSpeedMultiplier,1
;   infillExtruder,0
;   internalInfillPattern,Full Honeycomb
;   externalInfillPattern,Rectilinear
;   infillPercentage,15
;   outlineOverlapPercentage,30
;   infillExtrusionWidthPercentage,125
;   minInfillLength,1
;   infillLayerInterval,1
;   internalInfillAngles,0,120,-120
;   overlapInternalInfillAngles,0
;   externalInfillAngles,45,-45
;   generateSupport,1
;   supportExtruder,0
;   supportInfillPercentage,15
;   supportExtraInflation,0.5
;   supportBaseLayers,0
;   denseSupportExtruder,0
;   denseSupportLayers,0
;   denseSupportInfillPercentage,70
;   supportLayerInterval,1
;   supportHorizontalPartOffset,0.2
;   supportUpperSeparationLayers,1
;   supportLowerSeparationLayers,1
;   supportType,0
;   supportGridSpacing,4
;   maxOverhangAngle,45
;   supportAngles,0
;   temperatureName,Primary Extruder,Heated Bed
;   temperatureNumber,0,0
;   temperatureSetpointCount,1,1
;   temperatureSetpointLayers,1,1
;   temperatureSetpointTemperatures,220,55
;   temperatureStabilizeAtStartup,1,1
;   temperatureHeatedBed,0,1
;   temperatureRelayBetweenLayers,1,1
;   temperatureRelayBetweenLoops,0,0
;   fanLayers,1,2
;   fanSpeeds,0,100
;   blipFanToFullPower,0
;   adjustSpeedForCooling,1
;   minSpeedLayerTime,5
;   minCoolingSpeedSlowdown,10
;   increaseFanForCooling,1
;   minFanLayerTime,45
;   maxCoolingFanSpeed,100
;   increaseFanForBridging,1
;   bridgingFanSpeed,100
;   use5D,1
;   relativeEdistances,0
;   allowEaxisZeroing,1
;   independentExtruderAxes,0
;   includeM10123,0
;   stickySupport,1
;   applyToolheadOffsets,0
;   gcodeXoffset,0
;   gcodeYoffset,0
;   gcodeZoffset,0
;   overrideMachineDefinition,1
;   machineTypeOverride,0
;   strokeXoverride,250
;   strokeYoverride,210
;   strokeZoverride,200
;   originOffsetXoverride,0
;   originOffsetYoverride,0
;   originOffsetZoverride,0
;   homeXdirOverride,-1
;   homeYdirOverride,-1
;   homeZdirOverride,-1
;   flipXoverride,1
;   flipYoverride,-1
;   flipZoverride,1
;   toolheadOffsets,0,0|0,0|0,0|0,0|0,0|0,0
;   overrideFirmwareConfiguration,1
;   firmwareTypeOverride,RepRap (Marlin/Repetier/Sprinter)
;   GPXconfigOverride,r2
;   baudRateOverride,250000
;   overridePrinterModels,1
;   printerModelsOverride
;   startingGcode,M115 U3.0.7 ; use the latest firmware version,G28 W ; home all axes without mesh bed leveling,G80 ; run mesh bed leveling routine,G1 Y-3.0 F1000.0 ; prepare to prime,G92 E0 ; reset extrusion distance,G1 X60.0 E9.0  F1000.0 ; priming,G1 X100.0 E12.5  F1000.0 ; priming
;   layerChangeGcode,
;   retractionGcode,
;   toolChangeGcode,
;   endingGcode,M106 S0 ; turn off cooling fan,M104 S0 ; turn off extruder,M140 S0 ; turn off bed,G1 X0 Y200 ; part removal,M84 ; disable motors
;   exportFileFormat,gcode
;   celebration,0
;   celebrationSong,Random Song
;   postProcessing,
;   defaultSpeed,2400
;   outlineUnderspeed,1
;   solidInfillUnderspeed,1
;   supportUnderspeed,1
;   rapidXYspeed,4800
;   rapidZspeed,1002
;   minBridgingArea,50
;   bridgingExtraInflation,0
;   bridgingExtrusionMultiplier,1
;   bridgingSpeedMultiplier,1
;   useFixedBridgingAngle,0
;   fixedBridgingAngle,0
;   applyBridgingToPerimeters,0
;   filamentDiameters,1.75|1.75|1.75|1.75|1.75|1.75
;   filamentPricesPerKg,40|46|46|46|46|46
;   filamentDensities,1.25|1.25|1.25|1.25|1.25|1.25
;   useMinPrintHeight,0
;   minPrintHeight,0
;   useMaxPrintHeight,0
;   maxPrintHeight,4.9
;   useDiaphragm,0
;   diaphragmLayerInterval,20
;   robustSlicing,1
;   mergeAllIntoSolid,0
;   onlyRetractWhenCrossingOutline,1
;   retractBetweenLayers,0
;   useRetractionMinTravel,1
;   retractionMinTravel,3
;   retractWhileWiping,1
;   onlyWipeOutlines,1
;   avoidCrossingOutline,1
;   maxMovementDetourFactor,3
;   toolChangeRetractionDistance,12
;   toolChangeExtraRestartDistance,-0.5
;   toolChangeRetractionSpeed,600
;   externalThinWallType,0
;   internalThinWallType,2
;   thinWallAllowedOverlapPercentage,25
;   singleExtrusionMinLength,1
;   singleExtrusionMinPrintingWidthPercentage,50
;   singleExtrusionMaxPrintingWidthPercentage,200
;   singleExtrusionEndpointExtension,0.2
;   horizontalSizeCompensation,0
G90
M82
M106 S0
M140 S55
M190 S55
M104 S220 T0
M109 S220 T0
M115 U3.0.7 ; use the latest firmware version
G28 W ; home all axes without mesh bed leveling
G80 ; run mesh bed leveling routine
G1 Y-3.0 F1000.0 ; prepare to prime
G92 E0 ; reset extrusion distance
G1 X60.0 E9.0  F1000.0 ; priming
G1 X100.0 E12.5  F1000.0 ; priming
G92 E0
G1 E-1.5000 F1800
G1 Z0.270 F1002
; process Process1
; layer 1, Z = 0.270
M105
M105
T0
; tool H0.300 W0.420
; outer perimeter
G1 X87.710 Y70.210 F4800
G1 E0.0000 F540
G92 E0
G1 X122.290 Y70.210 E1.8115 F1200
G1 X122.290 Y79.790 E2.3133
G1 X87.710 Y79.790 E4.1248
G1 X87.710 Y70.410 E4.6162
G1 X87.710 Y70.210 F1200
G1 X89.710 Y70.210 F2400
; inner perimeter
G1 X88.130 Y70.630 F4800
G92 E0
G1 X121.870 Y70.630 E1.7675 F1200
G1 X121.870 Y79.370 E2.2253
G1 X88.130 Y79.370 E3.9928
G1 X88.130 Y76.505 E4.1428
G1 X88.368 Y76.446 E4.1557
G1 X88.535 Y76.759 E4.1743
G1 X88.925 Y77.233 E4.2065
G1 X89.400 Y77.623 E4.2387
G1 X89.941 Y77.913 E4.2708
G1 X90.529 Y78.091 E4.3030
G1 X91.140 Y78.151 E4.3352
G1 X91.752 Y78.091 E4.3673
G1 X92.339 Y77.913 E4.3995
G1 X92.881 Y77.623 E4.4317
G1 X93.356 Y77.233 E4.4639
G1 X93.745 Y76.759 E4.4960
G1 X94.035 Y76.217 E4.5282
G1 X94.213 Y75.629 E4.5604
G1 X94.273 Y75.018 E4.5926
G1 X94.213 Y74.407 E4.6247
G1 X94.035 Y73.819 E4.6569
G1 X93.745 Y73.277 E4.6891
G1 X93.356 Y72.803 E4.7213
G1 X92.881 Y72.413 E4.7534
G1 X92.339 Y72.123 E4.7856
G1 X91.752 Y71.945 E4.8178
G1 X91.140 Y71.885 E4.8500
G1 X90.529 Y71.945 E4.8821
G1 X89.941 Y72.123 E4.9143
G1 X89.400 Y72.413 E4.9465
G1 X88.925 Y72.803 E4.9787
G1 X88.535 Y73.277 E5.0108
G1 X88.368 Y73.590 E5.0294
G1 X88.130 Y73.530 E5.0423
G1 X88.130 Y70.830 E5.1838
G1 X88.130 Y70.630 F1200
; outer perimeter
G1 X89.634 Y72.764 F4800
G92 E0
G1 X89.223 Y73.101 E0.0278 F1200
G1 X88.886 Y73.512 E0.0557
G1 X88.636 Y73.981 E0.0835
G1 X88.482 Y74.489 E0.1114
G1 X88.429 Y75.018 E0.1392
G1 X88.482 Y75.547 E0.1670
G1 X88.636 Y76.055 E0.1949
G1 X88.886 Y76.524 E0.2227
G1 X89.223 Y76.935 E0.2506
G1 X89.634 Y77.272 E0.2784
G1 X90.103 Y77.523 E0.3062
G1 X90.612 Y77.677 E0.3341
G1 X91.140 Y77.729 E0.3619
G1 X91.669 Y77.677 E0.3898
G1 X92.178 Y77.523 E0.4176
G1 X92.647 Y77.272 E0.4454
G1 X93.057 Y76.935 E0.4733
G1 X93.395 Y76.524 E0.5011
G1 X93.645 Y76.055 E0.5290
G1 X93.799 Y75.547 E0.5568
G1 X93.851 Y75.018 E0.5846
G1 X93.799 Y74.489 E0.6125
G1 X93.645 Y73.981 E0.6403
G1 X93.395 Y73.512 E0.6682
G1 X93.057 Y73.101 E0.6960
G1 X92.647 Y72.764 E0.7238
G1 X92.178 Y72.513 E0.7517
G1 X91.669 Y72.359 E0.7795
G1 X91.140 Y72.307 E0.8074
G1 X90.612 Y72.359 E0.8352
G1 X90.103 Y72.513 E0.8630
G1 X89.811 Y72.670 E0.8804
G1 X89.634 Y72.764 F1200
G1 X89.223 Y73.101 F2400
G1 X88.886 Y73.512 F2400
G1 X88.636 Y73.981 F2400
G1 X88.518 Y74.369 F2400
; gap fill
G1 X88.008 Y73.948 F4800
G92 E0
G1 X88.258 Y74.198 E0.0185 F1200
G1 X88.188 Y74.431 E0.0313
G1 X88.162 Y74.695 E0.0452
G1 X88.008 Y74.542 E0.0566
G1 X88.008 Y75.136 E0.0877
G1 X88.156 Y75.284 E0.0987
G1 X88.188 Y75.605 E0.1156
G1 X88.320 Y76.042 E0.1395
G1 X88.149 Y75.871 E0.1521
G1 X88.008 Y75.730 F1200
; solid layer
G1 X88.590 Y72.748 F4800
G92 E0
G1 X88.424 Y72.581 E0.0123 F1200
G1 X88.424 Y71.988 E0.0434
G1 X88.888 Y72.452 E0.0779
G1 X89.215 Y72.185 E0.1000
G1 X88.424 Y71.394 E0.1586
G1 X88.424 Y70.924 E0.1832
G1 X88.548 Y70.924 E0.1897
G1 X89.598 Y71.974 E0.2674
G1 X89.828 Y71.850 E0.2811
G1 X90.013 Y71.795 E0.2912
G1 X89.142 Y70.924 E0.3557
G1 X89.736 Y70.924 E0.3868
G1 X90.468 Y71.656 E0.4411
G1 X90.472 Y71.655 E0.4413
G1 X91.009 Y71.602 E0.4695
G1 X90.330 Y70.924 E0.5198
G1 X90.924 Y70.924 E0.5509
G1 X91.639 Y71.639 E0.6038
G1 X91.809 Y71.655 E0.6128
G1 X92.441 Y71.847 E0.6474
G1 X91.518 Y70.924 E0.7158
G1 X92.112 Y70.924 E0.7469
G1 X100.264 Y79.076 E1.3508
G1 X100.858 Y79.076 E1.3819
G1 X92.706 Y70.924 E1.9859
G1 X93.300 Y70.924 E2.0170
G1 X101.452 Y79.076 E2.6209
G1 X102.046 Y79.076 E2.6520
G1 X93.894 Y70.924 E3.2560
G1 X94.488 Y70.924 E3.2871
G1 X102.640 Y79.076 E3.8910
G1 X103.234 Y79.076 E3.9221
G1 X95.082 Y70.924 E4.5260
G1 X95.676 Y70.924 E4.5571
G1 X103.828 Y79.076 E5.1611
G1 X104.422 Y79.076 E5.1922
G1 X96.270 Y70.924 E5.7961
G1 X96.864 Y70.924 E5.8272
G1 X105.016 Y79.076 E6.4312
G1 X105.610 Y79.076 E6.4623
G1 X97.458 Y70.924 E7.0662
G1 X98.052 Y70.924 E7.0973
G1 X106.204 Y79.076 E7.7012
G1 X106.798 Y79.076 E7.7324
G1 X98.646 Y70.924 E8.3363
G1 X99.240 Y70.924 E8.3674
G1 X107.392 Y79.076 E8.9713
G1 X107.986 Y79.076 E9.0024
G1 X99.834 Y70.924 E9.6064
G1 X100.428 Y70.924 E9.6375
G1 X108.580 Y79.076 E10.2414
G1 X109.173 Y79.076 E10.2725
G1 X101.021 Y70.924 E10.8764
G1 X101.615 Y70.924 E10.9076
G1 X109.767 Y79.076 E11.5115
G1 X110.361 Y79.076 E11.5426
G1 X102.209 Y70.924 E12.1465
G1 X102.803 Y70.924 E12.1776
G1 X110.955 Y79.076 E12.7816
G1 X111.549 Y79.076 E12.8127
G1 X103.397 Y70.924 E13.4166
G1 X103.991 Y70.924 E13.4477
G1 X112.143 Y79.076 E14.0516
G1 X112.737 Y79.076 E14.0828
G1 X104.585 Y70.924 E14.6867
G1 X105.179 Y70.924 E14.7178
G1 X113.331 Y79.076 E15.3217
G1 X113.925 Y79.076 E15.3528
G1 X105.773 Y70.924 E15.9568
G1 X106.367 Y70.924 E15.9879
G1 X114.519 Y79.076 E16.5918
G1 X115.113 Y79.076 E16.6229
G1 X106.961 Y70.924 E17.2269
G1 X107.555 Y70.924 E17.2580
G1 X115.707 Y79.076 E17.8619
G1 X116.301 Y79.076 E17.8930
G1 X108.149 Y70.924 E18.4969
G1 X108.743 Y70.924 E18.5281
G1 X116.895 Y79.076 E19.1320
G1 X117.489 Y79.076 E19.1631
G1 X109.337 Y70.924 E19.7670
G1 X109.931 Y70.924 E19.7981
G1 X118.083 Y79.076 E20.4021
G1 X118.677 Y79.076 E20.4332
G1 X110.525 Y70.924 E21.0371
G1 X111.119 Y70.924 E21.0682
G1 X119.271 Y79.076 E21.6721
G1 X119.865 Y79.076 E21.7033
G1 X111.713 Y70.924 E22.3072
G1 X112.307 Y70.924 E22.3383
G1 X120.459 Y79.076 E22.9422
G1 X121.053 Y79.076 E22.9733
G1 X112.901 Y70.924 E23.5773
G1 X113.495 Y70.924 E23.6084
G1 X121.576 Y79.005 E24.2071
G1 X121.576 Y78.411 E24.2382
G1 X114.089 Y70.924 E24.7928
G1 X114.683 Y70.924 E24.8240
G1 X121.576 Y77.817 E25.3346
G1 X121.576 Y77.223 E25.3657
G1 X115.277 Y70.924 E25.8324
G1 X115.871 Y70.924 E25.8635
G1 X121.576 Y76.629 E26.2862
G1 X121.576 Y76.035 E26.3173
G1 X116.465 Y70.924 E26.6959
G1 X117.059 Y70.924 E26.7271
G1 X121.576 Y75.441 E27.0617
G1 X121.576 Y74.847 E27.0928
G1 X117.653 Y70.924 E27.3835
G1 X118.247 Y70.924 E27.4146
G1 X121.576 Y74.253 E27.6612
G1 X121.576 Y73.659 E27.6924
G1 X118.841 Y70.924 E27.8950
G1 X119.435 Y70.924 E27.9261
G1 X121.576 Y73.065 E28.0848
G1 X121.576 Y72.471 E28.1159
G1 X120.029 Y70.924 E28.2305
G1 X120.622 Y70.924 E28.2616
G1 X121.576 Y71.877 E28.3323
G1 X121.576 Y71.283 E28.3634
G1 X121.358 Y71.065 E28.3795
G1 X121.216 Y70.924 F1200
G1 X94.311 Y73.717 F4800
G92 E0
G1 X99.670 Y79.076 E0.3970 F1200
G1 X99.076 Y79.076 E0.4281
G1 X94.520 Y74.520 E0.7656
G1 X94.569 Y75.018 E0.7918
G1 X94.556 Y75.150 E0.7988
G1 X98.482 Y79.076 E1.0897
G1 X97.888 Y79.076 E1.1208
G1 X94.502 Y75.690 E1.3716
G1 X94.364 Y76.146 E1.3966
G1 X97.294 Y79.076 E1.6136
G1 X96.700 Y79.076 E1.6448
G1 X94.185 Y76.561 E1.8311
G1 X93.991 Y76.923 E1.8526
G1 X93.974 Y76.944 E1.8540
G1 X96.106 Y79.076 E2.0120
G1 X95.512 Y79.076 E2.0431
G1 X93.706 Y77.270 E2.1769
G1 X93.565 Y77.442 E2.1886
G1 X93.411 Y77.569 E2.1990
G1 X94.918 Y79.076 E2.3107
G1 X94.324 Y79.076 E2.3418
G1 X93.085 Y77.836 E2.4337
G1 X93.045 Y77.869 E2.4363
G1 X92.705 Y78.051 E2.4565
G1 X93.730 Y79.076 E2.5325
G1 X93.136 Y79.076 E2.5636
G1 X92.294 Y78.234 E2.6260
G1 X91.838 Y78.372 E2.6510
G1 X92.542 Y79.076 E2.7032
G1 X91.948 Y79.076 E2.7343
G1 X91.303 Y78.430 E2.7821
G1 X91.140 Y78.446 E2.7906
G1 X90.679 Y78.401 E2.8149
G1 X91.354 Y79.076 E2.8649
G1 X90.760 Y79.076 E2.8960
G1 X89.888 Y78.204 E2.9607
G1 X89.828 Y78.185 E2.9639
G1 X89.236 Y77.869 E2.9991
G1 X88.716 Y77.442 E3.0343
G1 X88.424 Y77.086 E3.0585
G1 X88.424 Y77.333 E3.0714
G1 X90.166 Y79.076 E3.2005
G1 X89.572 Y79.076 E3.2317
G1 X88.424 Y77.927 E3.3168
G1 X88.424 Y78.521 E3.3479
G1 X88.837 Y78.935 E3.3785
G1 X88.979 Y79.076 F1200
G92 E0
G1 E-1.5000 F1800
; outer perimeter
G1 X88.830 Y79.794 F4800
G1 X87.706 Y79.794 F4800
G1 X87.710 Y85.210 F4800
G1 E0.0000 F1800
G92 E0
G1 X122.290 Y85.210 E1.8115 F1200
G1 X122.290 Y94.790 E2.3133
G1 X87.710 Y94.790 E4.1248
G1 X87.710 Y85.410 E4.6162
G1 X87.710 Y85.210 F1200
G1 X89.710 Y85.210 F2400
; inner perimeter
G1 X88.130 Y85.630 F4800
G92 E0
G1 X121.870 Y85.630 E1.7675 F1200
G1 X121.870 Y94.370 E2.2253
G1 X88.130 Y94.370 E3.9928
G1 X88.130 Y91.505 E4.1428
G1 X88.368 Y91.446 E4.1557
G1 X88.535 Y91.759 E4.1743
G1 X88.925 Y92.233 E4.2065
G1 X89.400 Y92.623 E4.2387
G1 X89.941 Y92.913 E4.2708
G1 X90.529 Y93.091 E4.3030
G1 X91.140 Y93.151 E4.3352
G1 X91.752 Y93.091 E4.3673
G1 X92.339 Y92.913 E4.3995
G1 X92.881 Y92.623 E4.4317
G1 X93.356 Y92.233 E4.4639
G1 X93.745 Y91.759 E4.4960
G1 X94.035 Y91.217 E4.5282
G1 X94.213 Y90.629 E4.5604
G1 X94.273 Y90.018 E4.5926
G1 X94.213 Y89.407 E4.6247
G1 X94.035 Y88.819 E4.6569
G1 X93.745 Y88.277 E4.6891
G1 X93.356 Y87.803 E4.7213
G1 X92.881 Y87.413 E4.7534
G1 X92.339 Y87.123 E4.7856
G1 X91.752 Y86.945 E4.8178
G1 X91.140 Y86.885 E4.8500
G1 X90.529 Y86.945 E4.8821
G1 X89.941 Y87.123 E4.9143
G1 X89.400 Y87.413 E4.9465
G1 X88.925 Y87.803 E4.9787
G1 X88.535 Y88.277 E5.0108
G1 X88.368 Y88.590 E5.0294
G1 X88.130 Y88.530 E5.0423
G1 X88.130 Y85.830 E5.1838
G1 X88.130 Y85.630 F1200
; outer perimeter
G1 X89.634 Y87.764 F4800
G92 E0
G1 X89.223 Y88.101 E0.0278 F1200
G1 X88.886 Y88.512 E0.0557
G1 X88.636 Y88.981 E0.0835
G1 X88.482 Y89.489 E0.1114
G1 X88.429 Y90.018 E0.1392
G1 X88.482 Y90.547 E0.1670
G1 X88.636 Y91.055 E0.1949
G1 X88.886 Y91.524 E0.2227
G1 X89.223 Y91.935 E0.2506
G1 X89.634 Y92.272 E0.2784
G1 X90.103 Y92.523 E0.3062
G1 X90.612 Y92.677 E0.3341
G1 X91.140 Y92.729 E0.3619
G1 X91.669 Y92.677 E0.3898
G1 X92.178 Y92.523 E0.4176
G1 X92.647 Y92.272 E0.4454
G1 X93.057 Y91.935 E0.4733
G1 X93.395 Y91.524 E0.5011
G1 X93.645 Y91.055 E0.5290
G1 X93.799 Y90.547 E0.5568
G1 X93.851 Y90.018 E0.5846
G1 X93.799 Y89.489 E0.6125
G1 X93.645 Y88.981 E0.6403
G1 X93.395 Y88.512 E0.6682
G1 X93.057 Y88.101 E0.6960
G1 X92.647 Y87.764 E0.7238
