; generated by PrusaSlicer 2.1.1+win64 on 2020-03-05 at 19:08:24 UTC

; 

; external perimeters extrusion width = 0.45mm
; perimeters extrusion width = 0.45mm
; infill extrusion width = 0.45mm
; solid infill extrusion width = 0.45mm
; top infill extrusion width = 0.40mm
; support material extrusion width = 0.35mm
; first layer extrusion width = 0.42mm

M73 P0 R83
M73 Q0 S83
M201 X1000 Y1000 Z1000 E5000 ; sets maximum accelerations, mm/sec^2
M203 X200 Y200 Z12 E120 ; sets maximum feedrates, mm/sec
M204 P1250 R1250 T1250 ; sets acceleration (P, T) and retract acceleration (R), mm/sec^2
M205 X8.00 Y8.00 Z0.40 E1.50 ; sets the jerk limits, mm/sec
M205 S0 T0 ; sets the minimum extruding and travel feed rate, mm/sec
M107
M862.3 P "MK3S" ; printer model check
M862.1 P0.4 ; nozzle diameter check
M115 U3.8.0 ; tell printer latest fw version
G90 ; use absolute coordinates
M83 ; extruder relative mode
M104 S215 ; set extruder temp
M140 S60 ; set bed temp
M190 S60 ; wait for bed temp
M109 S215 ; wait for extruder temp
G28 W ; home all without mesh bed level
G80 ; mesh bed leveling
G1 Y-3.0 F1000.0 ; go outside print area
G92 E0.0
G1 X60.0 E9.0 F1000.0 ; intro line
M73 Q0 S83
M73 P0 R83
G1 X100.0 E12.5 F1000.0 ; intro line
G92 E0.0
M221 S95
G21 ; set units to millimeters
G90 ; use absolute coordinates
M83 ; use relative distances for extrusion
M900 K30 ; Filament gcode
;BEFORE_LAYER_CHANGE
G92 E0.0
;0.2


G1 E-0.80000 F2100.00000
G1 Z0.600 F10800.000
;AFTER_LAYER_CHANGE
;0.2
G1 X120.367 Y95.370
G1 Z0.200
G1 E0.80000 F2100.00000
M204 S1000
G1 F1200
G1 X126.311 Y89.425 E0.26358
G1 X126.845 Y89.959 E0.02365
G1 X121.020 Y95.783 E0.25826
G1 X121.554 Y96.316 E0.02365
G1 X127.378 Y90.492 E0.25826
G1 X127.572 Y90.686 E0.00861
G1 X129.204 Y89.055 E0.07234
G1 X129.543 Y89.394 E0.01503
G1 X120.456 Y98.481 E0.40294
G1 X120.989 Y99.014 E0.02365
G1 X130.076 Y89.927 E0.40294
G1 X130.609 Y90.460 E0.02365
G1 X121.522 Y99.547 E0.40294
G1 X121.748 Y99.773 E0.01001
G1 X120.117 Y101.405 E0.07234
G1 X120.424 Y101.712 E0.01363
G1 X131.142 Y90.994 E0.47527
G1 X131.676 Y91.527 E0.02365
G1 X120.957 Y102.245 E0.47527
G1 X121.491 Y102.779 E0.02365
G1 X132.209 Y92.060 E0.47527
G1 X132.742 Y92.593 E0.02365
G1 X118.761 Y106.575 E0.61995
G1 X119.294 Y107.108 E0.02365
G1 X133.276 Y93.127 E0.61995
G1 X133.809 Y93.660 E0.02365
G1 X119.708 Y107.761 E0.62527
G1 E-0.80000 F2100.00000
G1 Z0.800 F10800.000
G1 X121.019 Y112.849
G1 Z0.200
G1 E0.80000 F2100.00000
G1 F1200
G1 X121.221 Y112.647 E0.00900
G1 X122.288 Y112.647 E0.03344
G1 X121.925 Y113.009 E0.01609
G1 X122.832 Y113.169 F10800.000
G1 F1200
G1 X123.721 Y112.280 E0.03944
G1 X123.356 Y111.579 F10800.000
G1 F1200
G1 X123.731 Y111.203 E0.01666
G1 X123.901 Y110.198 E0.03196
G1 X123.705 Y110.163 E0.00626
G1 X122.970 Y110.899 E0.03260
G1 X122.063 Y110.739 E0.02887
G1 X122.798 Y110.003 E0.03260
G1 X121.892 Y109.843 E0.02886
G1 X121.156 Y110.579 E0.03261
G1 X120.250 Y110.419 E0.02887
G1 X121.230 Y109.438 E0.04349
G1 X121.379 Y108.223 E0.03837
G1 X119.343 Y110.259 E0.09027
G1 X118.436 Y110.099 E0.02887
G1 X134.342 Y94.193 E0.70529
G1 X134.875 Y94.727 E0.02365
G1 X121.932 Y107.669 E0.57391
G1 X122.839 Y107.829 E0.02887
G1 X135.409 Y95.260 E0.55735
G1 X135.942 Y95.793 E0.02365
G1 X123.746 Y107.989 E0.54080
G1 X124.652 Y108.149 E0.02887
G1 X136.475 Y96.326 E0.52424
G1 X136.659 Y96.511 E0.00817
G1 X133.397 Y99.773 E0.14467
G1 X133.746 Y100.122 E0.01548
G1 X125.559 Y108.309 E0.36301
G1 X126.361 Y108.450 E0.02552
G1 X126.416 Y108.518 E0.00276
G1 X134.279 Y100.656 E0.34865
G1 X134.812 Y101.189 E0.02365
G1 X126.589 Y109.412 E0.36463
G1 X126.557 Y110.510 E0.03445
G1 X133.714 Y103.353 E0.31735
G1 X134.247 Y103.887 E0.02365
G1 X126.526 Y111.609 E0.34240
G1 X126.496 Y112.628 E0.03197
G1 X126.573 Y112.628 E0.00240
G1 X134.781 Y104.420 E0.36395
G1 X135.028 Y104.667 E0.01096
G1 X131.765 Y107.930 E0.14467
G1 X132.051 Y108.216 E0.01268
G1 X127.639 Y112.628 E0.19563
G1 X128.706 Y112.628 E0.03344
G1 X134.216 Y107.118 E0.24432
G1 X134.749 Y107.651 E0.02365
G1 X129.772 Y112.628 E0.22068
G1 X130.839 Y112.628 E0.03344
G1 X135.282 Y108.184 E0.19703
G1 X135.816 Y108.718 E0.02365
G1 X131.906 Y112.628 E0.17339
G1 X132.972 Y112.628 E0.03344
G1 X136.349 Y109.251 E0.14974
G1 X136.882 Y109.784 E0.02365
G1 X134.039 Y112.628 E0.12609
G1 X135.105 Y112.628 E0.03344
G1 X137.416 Y110.318 E0.10245
G1 X137.949 Y110.851 E0.02365
G1 X136.172 Y112.628 E0.07880
G1 X137.238 Y112.628 E0.03344
G1 X138.482 Y111.384 E0.05515
G1 X139.015 Y111.917 E0.02365
G1 X138.305 Y112.628 E0.03151
G1 X138.959 Y112.628 E0.02052
G1 X139.165 Y112.834 E0.00914
G1 X139.549 Y112.451 E0.01700
G1 X139.745 Y112.647 E0.00871
G1 X140.419 Y112.647 E0.02113
G1 X139.267 Y113.798 E0.05106
G1 X139.267 Y114.865 E0.03344
G1 X141.485 Y112.647 E0.09835
G1 X142.552 Y112.647 E0.03344
G1 X133.693 Y121.506 E0.39283
G1 X134.098 Y121.911 E0.01796
G1 X140.381 Y115.628 E0.27861
G1 X140.638 Y115.628 E0.00805
G1 X141.682 Y114.584 E0.04630
G1 X142.215 Y115.117 E0.02365
G1 X141.534 Y115.798 E0.03018
G1 E-0.80000 F2100.00000
G1 Z0.800 F10800.000
G1 X133.039 Y121.093
G1 Z0.200
G1 E0.80000 F2100.00000
G1 F1200
G1 X138.485 Y115.647 E0.24149
G1 X137.419 Y115.647 E0.03344
G1 X132.626 Y120.440 E0.21252
G1 X132.093 Y119.906 E0.02365
G1 X136.352 Y115.647 E0.18888
G1 X135.286 Y115.647 E0.03344
G1 X131.560 Y119.373 E0.16523
G1 X131.026 Y118.840 E0.02365
G1 X134.219 Y115.647 E0.14159
G1 X133.153 Y115.647 E0.03344
G1 X130.493 Y118.307 E0.11794
G1 X129.960 Y117.773 E0.02365
G1 X132.086 Y115.647 E0.09430
G1 X131.020 Y115.647 E0.03344
G1 X129.427 Y117.240 E0.07065
G1 X129.204 Y117.017 E0.00988
G1 X125.941 Y120.280 E0.14467
G1 X125.631 Y119.969 E0.01376
G1 X129.953 Y115.647 E0.19168
G1 X128.887 Y115.647 E0.03344
G1 X125.097 Y119.436 E0.16804
G1 X124.564 Y118.903 E0.02365
G1 X127.820 Y115.647 E0.14439
G1 X126.754 Y115.646 E0.03344
G1 X124.031 Y118.370 E0.12075
G1 X123.497 Y117.836 E0.02365
G1 X125.687 Y115.646 E0.09710
G1 X124.621 Y115.646 E0.03344
G1 X122.964 Y117.303 E0.07346
G1 X122.431 Y116.770 E0.02365
G1 X123.554 Y115.646 E0.04981
G1 X122.488 Y115.646 E0.03344
G1 X121.898 Y116.237 E0.02617
G1 X121.364 Y115.703 E0.02365
G1 X121.591 Y115.477 E0.01004
G1 E-0.80000 F2100.00000
G1 Z0.800 F10800.000
G1 X125.001 Y114.534
G1 Z0.200
G1 E0.80000 F2100.00000
G1 F1200
G1 X124.297 Y114.534 E0.02207
G1 X125.170 Y109.371 E0.16418
G1 X125.475 Y109.424 E0.00970
G1 X125.351 Y113.741 E0.13540
G1 X138.154 Y113.741 E0.40145
G1 X138.154 Y114.534 E0.02485
G1 X125.061 Y114.534 E0.41054
G1 E-0.80000 F2100.00000
G1 Z0.800 F10800.000
G1 X123.944 Y114.534
G1 Z0.200
G1 E0.80000 F2100.00000
G1 F1200
G1 X112.213 Y114.533 E0.36780
G1 X111.852 Y111.798 E0.08651
G1 X112.533 Y107.527 E0.13560
G1 X113.337 Y107.528 E0.02519
G1 X112.509 Y112.306 E0.15202
G1 X123.962 Y114.327 E0.36465
G1 X123.949 Y114.474 E0.00462
G1 E-0.80000 F2100.00000
G1 Z0.800 F10800.000
G1 X125.001 Y114.911
G1 Z0.200
G1 E0.80000 F2100.00000
G1 F1200
G1 X111.883 Y114.910 E0.41130
G1 X111.471 Y111.793 E0.09860
G1 X112.212 Y107.149 E0.14743
G1 X114.769 Y107.154 E0.08020
G1 X116.355 Y107.433 E0.05047
G1 X116.282 Y108.084 E0.02052
G1 X113.702 Y107.628 E0.08214
G1 X112.945 Y112.000 E0.13910
G1 X124.012 Y113.953 E0.35238
G1 X124.749 Y109.600 E0.13842
G1 X122.007 Y109.116 E0.08731
G1 X122.092 Y108.445 E0.02122
G1 X125.861 Y109.110 E0.12000
G1 X125.739 Y113.364 E0.13345
G1 X138.531 Y113.364 E0.40110
G1 X138.531 Y114.911 E0.04850
G1 X125.061 Y114.911 E0.42236
G1 X124.788 Y114.572 F10800.000
G1 X125.156 Y114.137
G1 F1200
G1 X137.966 Y114.137 E0.44263
G1 E-0.80000 F2100.00000
G1 Z0.800 F10800.000
G1 X125.156 Y114.137
G1 Z0.200
G1 E0.80000 F2100.00000
G1 F1200
G1 X125.087 Y114.114 E0.00284
G1 X124.877 Y114.043 E0.00947
G1 X124.942 Y113.251 E0.03404
G1 X125.041 Y112.244 E0.03157
G1 X125.141 Y111.238 E0.01985
G1 X125.240 Y110.232 E0.00814
G1 X124.991 Y109.300 F10800.000
G1 F1200
G1 X122.236 Y108.813 E0.06964
G1 E-0.80000 F2100.00000
G1 Z0.800 F10800.000
G1 X121.852 Y114.246
G1 Z0.200
G1 E0.80000 F2100.00000
G1 F1200
G1 X120.987 Y114.171 E0.01680
G1 X120.123 Y114.095 E0.02668
G1 X119.834 Y114.070 E0.01218
G1 X119.687 Y114.420 F10800.000
G1 F1200
G1 X119.006 Y113.739 E0.03107
G1 X118.340 Y113.622 E0.02184
G1 X118.969 Y114.251 E0.02870
G1 X118.420 Y114.251 E0.01771
G1 X117.673 Y113.504 E0.03407
G1 X117.007 Y113.387 E0.02184
G1 X117.871 Y114.251 E0.03943
G1 X117.322 Y114.251 E0.01771
G1 X116.340 Y113.269 E0.04480
G1 X115.674 Y113.151 E0.02184
G1 X116.773 Y114.251 E0.05017
G1 X116.224 Y114.251 E0.01771
G1 X115.007 Y113.034 E0.05554
G1 X114.341 Y112.916 E0.02184
G1 X115.675 Y114.251 E0.06091
G1 X115.126 Y114.251 E0.01771
G1 X113.674 Y112.798 E0.06628
G1 X113.008 Y112.681 E0.02184
G1 X114.577 Y114.251 E0.07164
G1 X114.029 Y114.251 E0.01771
G1 X112.511 Y112.733 E0.06925
G1 X112.260 Y112.728 E0.00810
G1 X112.306 Y113.077 E0.01136
G1 X113.480 Y114.251 E0.05355
G1 X112.931 Y114.251 E0.01771
G1 X112.193 Y113.512 E0.03369
G1 E-0.80000 F2100.00000
G1 Z0.800 F10800.000
G1 X112.210 Y112.444
G1 Z0.200
G1 E0.80000 F2100.00000
G1 F1200
G1 X112.214 Y112.284 E0.00313
G1 X112.217 Y112.124 E0.00368
G1 X112.220 Y111.963 E0.00423
G1 X112.223 Y111.803 E0.00477
G1 X112.563 Y109.760 E0.06615
G1 X112.903 Y107.716 E0.07066
G1 X113.554 Y107.375 F10800.000
G1 F1200
G1 X113.851 Y107.402 E0.00313
G1 X114.148 Y107.428 E0.00437
G1 X114.444 Y107.454 E0.00560
G1 X114.741 Y107.480 E0.00683
G1 X116.132 Y107.726 E0.03244
G1 E-0.80000 F2100.00000
G1 Z0.800 F10800.000
G1 X121.852 Y114.246
G1 Z0.200
G1 E0.80000 F2100.00000
G1 F1200
G1 X122.716 Y114.322 E0.00693
M106 S255
;BEFORE_LAYER_CHANGE
G92 E0.0
;0.4


G1 E-0.80000 F2100.00000
G1 Z0.800 F10800.000
;AFTER_LAYER_CHANGE
;0.4
M104 S210 ; set temperature
G1 X125.001 Y114.489
G1 Z0.400
G1 E0.80000 F2100.00000
M204 S800
G1 F900
G1 X124.350 Y114.489 E0.02202
G1 X125.202 Y109.455 E0.17280
G1 X125.429 Y109.477 E0.00771
G1 X125.304 Y113.786 E0.14591
G1 X138.109 Y113.786 E0.43343
G1 X138.109 Y114.489 E0.02378
G1 X125.061 Y114.489 E0.44168
M204 S1000
G1 E-0.80000 F2100.00000
G1 Z1.000 F10800.000
G1 X123.336 Y114.488
G1 Z0.400
G1 E0.80000 F2100.00000
M204 S800
G1 F900
G1 X112.253 Y114.488 E0.37513
G1 X111.897 Y111.798 E0.09184
G1 X112.572 Y107.571 E0.14489
G1 X113.283 Y107.571 E0.02409
G1 X112.457 Y112.342 E0.16389
G1 X123.355 Y114.266 E0.37458
G1 X123.341 Y114.429 E0.00554
M204 S1000
G1 E-0.80000 F2100.00000
G1 Z1.000 F10800.000
G1 X125.001 Y114.896
G1 Z0.400
G1 E0.80000 F2100.00000
M204 S800
G1 F900
G1 X111.896 Y114.895 E0.44357
G1 X111.486 Y111.793 E0.10593
G1 X112.224 Y107.164 E0.15866
G1 X114.742 Y107.164 E0.08521
G1 X116.338 Y107.446 E0.05487
G1 X116.269 Y108.066 E0.02114
G1 X113.690 Y107.611 E0.08865
G1 X112.928 Y112.012 E0.15118
G1 X124.025 Y113.970 E0.38143
G1 X124.766 Y109.588 E0.15044
G1 X122.024 Y109.104 E0.09427
G1 X122.105 Y108.463 E0.02189
G1 X125.846 Y109.122 E0.12857
G1 X125.723 Y113.379 E0.14415
G1 X138.516 Y113.379 E0.43303
G1 X138.516 Y114.896 E0.05134
G1 X125.061 Y114.896 E0.45546
M204 S1000
G1 X124.788 Y114.557 F10800.000
G1 X125.095 Y114.137
G1 F900
G1 X137.906 Y114.137 E0.31486
G1 E-0.80000 F2100.00000
G1 Z1.000 F10800.000
G1 X125.095 Y114.137
G1 Z0.400
G1 E0.80000 F2100.00000
G1 F900
G1 X125.038 Y114.116 E0.00171
G1
G1 X124.982 Y114.094 E0.00193
G1
G1 X124.868 Y114.050 E0.00404
G1 X124.941 Y113.267 E0.02620
M73 Q1 S82
G1
G1 X125.011 Y112.550 E0.01804
G1
G1 X125.082 Y111.833 E0.01212
G1
G1 X125.152 Y111.117 E0.00620
G1 E-0.80000 F2100.00000
G1 Z1.000 F10800.000
G1 X125.021 Y109.305
G1 Z0.400
G1 E0.80000 F2100.00000
M73 P1 R82
G1 F900
G1 X122.265 Y108.819 E0.05568
G1 E-0.80000 F2100.00000
G1 Z1.000 F10800.000
G1 X122.012 Y114.260
G1 Z0.400
G1 E0.80000 F2100.00000
G1 F900
G1 X121.390 Y114.206 E0.00537
G1
G1 X120.767 Y114.151 E0.01049
G1
G1 X120.144 Y114.097 E0.01561
G1
G1 X119.522 Y114.042 E0.02074
G1
G1 X118.899 Y113.988 E0.02586
G1 E-0.80000 F2100.00000
G1 Z1.000 F10800.000
G1 X117.870 Y114.366
G1 Z0.400
G1 E0.80000 F2100.00000
M204 S1250
G1 F900
G1 X118.515 Y113.721 E0.03261
G1 X117.998 Y113.630 E0.01876
G1 X117.445 Y114.183 E0.02795
G1 X116.837 Y114.183 E0.02173
G1 X117.482 Y113.539 E0.03257
G1 X116.965 Y113.448 E0.01876
G1 X116.229 Y114.183 E0.03718
G1 X115.621 Y114.183 E0.02173
G1 X116.448 Y113.357 E0.04179
G1 X115.931 Y113.265 E0.01876
G1 X115.013 Y114.183 E0.04640
G1 X114.405 Y114.183 E0.02173
G1 X115.414 Y113.174 E0.05101
G1 X114.898 Y113.083 E0.01876
G1 X113.798 Y114.183 E0.05562
G1 X113.190 Y114.183 E0.02173
G1 X114.381 Y112.992 E0.06023
G1 X113.864 Y112.900 E0.01876
G1 X112.582 Y114.183 E0.06484
G1 X112.520 Y114.183 E0.00218
G1 X112.457 Y113.700 E0.01742
G1 X113.347 Y112.809 E0.04503
G1 X112.831 Y112.718 E0.01876
G1 X112.222 Y113.326 E0.03074
M204 S1000
G1 X112.211 Y112.439 F10800.000
G1 F900
G1 X112.214 Y112.280 E0.00132
G1
G1 X112.217 Y112.121 E0.00193
G1
G1 X112.220 Y111.962 E0.00254
G1
G1 X112.223 Y111.803 E0.00315
G1
G1 X112.558 Y109.789 E0.04483
G1
G1 X112.893 Y107.775 E0.04928
G1 X113.763 Y107.392 F10800.000
G1 F900
G1 X114.001 Y107.413 E0.00188
G1
G1 X114.239 Y107.434 E0.00268
G1
G1 X114.477 Y107.455 E0.00348
G1
G1 X114.715 Y107.476 E0.00429
G1 X116.103 Y107.721 E0.02532
;BEFORE_LAYER_CHANGE
G92 E0.0
;0.43


G1 E-0.80000 F2100.00000
G1 Z1.000 F10800.000
;AFTER_LAYER_CHANGE
;0.43
G1 X126.329 Y112.436
G1 Z0.430
G1 E0.80000 F2100.00000
G1 F900
G1 X129.204 Y109.561 E0.11689
G1 X127.572 Y107.930 E0.06632
G1 X130.835 Y104.667 E0.13265
G1 X126.568 Y108.935 E0.17349
G1 X126.573 Y108.766 E0.00485
G1 X126.342 Y108.482 E0.01051
G1 X124.145 Y108.095 E0.06414
G1 X130.835 Y101.405 E0.27201
G1 X129.204 Y99.773 E0.06632
G1 X132.466 Y96.511 E0.13265
G1 X122.678 Y106.299 E0.39795
G1 X125.941 Y103.036 E0.13265
G1 X124.310 Y101.405 E0.06632
G1 X130.835 Y94.879 E0.26530
G1 X129.204 Y93.248 E0.06632
G1 X124.310 Y98.142 E0.19897
G1 X125.941 Y96.511 E0.06632
G1 X124.310 Y94.879 E0.06632
G1 X126.039 Y93.150 E0.07030
G1 E-0.80000 F2100.00000
G1 Z1.030 F10800.000
G1 X134.195 Y111.095
G1 Z0.430
G1 E0.80000 F2100.00000
G1 F900
G1 X132.489 Y112.801 E0.06937
G1 E-0.80000 F2100.00000
G1 Z1.030 F10800.000
G1 X132.369 Y116.184
G1 Z0.430
G1 E0.80000 F2100.00000
G1 F900
G1 X132.941 Y115.612 E0.02329
G1 X136.204 Y115.612 E0.09379
G1 X134.000 Y117.816 E0.08961
G1 E-0.80000 F2100.00000
G1 Z1.030 F10800.000
G1 X126.554 Y115.473
G1 Z0.430
G1 E0.80000 F2100.00000
G1 F900
G1 X125.843 Y116.184 E0.02891
;BEFORE_LAYER_CHANGE
G92 E0.0
;0.6


G1 E-0.80000 F2100.00000
G1 Z1.030 F10800.000
;AFTER_LAYER_CHANGE
;0.6
G1 X125.001 Y114.489
G1 Z0.600
G1 E0.80000 F2100.00000
M204 S800
G1 F900
G1 X124.350 Y114.489 E0.02202
G1 X125.202 Y109.455 E0.17280
G1 X125.429 Y109.477 E0.00771
G1 X125.304 Y113.786 E0.14591
G1 X138.109 Y113.786 E0.43343
G1 X138.109 Y114.489 E0.02378
G1 X125.061 Y114.489 E0.44168
M204 S1000
G1 E-0.80000 F2100.00000
G1 Z1.200 F10800.000
G1 X123.336 Y114.488
G1 Z0.600
G1 E0.80000 F2100.00000
M204 S800
G1 F900
G1 X112.253 Y114.488 E0.37513
G1 X111.897 Y111.798 E0.09184
G1 X112.572 Y107.571 E0.14489
G1 X113.283 Y107.571 E0.02409
G1 X112.457 Y112.342 E0.16389
G1 X123.355 Y114.266 E0.37458
G1 X123.341 Y114.429 E0.00554
M204 S1000
G1 E-0.80000 F2100.00000
G1 Z1.200 F10800.000
G1 X125.001 Y114.896
G1 Z0.600
G1 E0.80000 F2100.00000
M204 S800
G1 F900
G1 X111.896 Y114.895 E0.44357
G1 X111.486 Y111.793 E0.10593
G1 X112.224 Y107.164 E0.15866
G1 X114.742 Y107.164 E0.08521
G1 X116.338 Y107.446 E0.05487
G1 X116.269 Y108.066 E0.02114
G1 X113.690 Y107.611 E0.08865
G1 X112.928 Y112.012 E0.15118
G1 X124.025 Y113.970 E0.38143
G1 X124.766 Y109.588 E0.15044
G1 X122.024 Y109.104 E0.09427
G1 X122.105 Y108.463 E0.02189
G1 X125.846 Y109.122 E0.12857
G1 X125.723 Y113.379 E0.14415
G1 X138.516 Y113.379 E0.43303
G1 X138.516 Y114.896 E0.05134
G1 X125.061 Y114.896 E0.45546
M204 S1000
G1 X124.788 Y114.557 F10800.000
G1 X125.095 Y114.137
G1 F900
G1 X137.906 Y114.137 E0.31486
G1 E-0.80000 F2100.00000
G1 Z1.200 F10800.000
G1 X125.095 Y114.137
G1 Z0.600
G1 E0.80000 F2100.00000
G1 F900
G1 X125.038 Y114.116 E0.00171
G1
G1 X124.982 Y114.094 E0.00193
G1
G1 X124.868 Y114.050 E0.00404
G1 X124.941 Y113.267 E0.02620
G1
