; generated by PrusaSlicer 2.2.0+win64 on 2022-02-08 at 17:16:59 UTC

; 

; external perimeters extrusion width = 0.45mm
; perimeters extrusion width = 0.45mm
; infill extrusion width = 0.45mm
; solid infill extrusion width = 0.45mm
; top infill extrusion width = 0.40mm
; first layer extrusion width = 0.42mm

M73 P0 R22
M73 Q0 S22
M201 X1000 Y1000 Z200 E5000 ; sets maximum accelerations, mm/sec^2
M203 X200 Y200 Z12 E120 ; sets maximum feedrates, mm/sec
M204 P1250 R1250 T1250 ; sets acceleration (P, T) and retract acceleration (R), mm/sec^2
M205 X8.00 Y8.00 Z0.40 E4.50 ; sets the jerk limits, mm/sec
M205 S0 T0 ; sets the minimum extruding and travel feed rate, mm/sec
M107
M862.3 P "MK3S" ; printer model check
M862.1 P0.4 ; nozzle diameter check
G90 ; use absolute coordinates
M83 ; extruder relative mode
M104 S215 ; set extruder temp
M140 S60 ; set bed temp
M190 S60 ; wait for bed temp
M109 S215 ; wait for extruder temp
G28 W ; home all without mesh bed level
G80 ; mesh bed leveling
G1 Y-3.0 F1000.0 ; go outside print area
G92 E0.0
G1 X60.0 E9.0 F1000.0 ; intro line
M73 Q0 S22
M73 P0 R22
G1 X100.0 E12.5 F1000.0 ; intro line
G92 E0.0
M221 S95

; Don't change E values below. Excessive value can damage the printer.

M907 E538 ; set extruder motor current
G21 ; set units to millimeters
G90 ; use absolute coordinates
M83 ; use relative distances for extrusion
M900 K0.05 ; Filament gcode LA 1.5
M900 K30 ; Filament gcode LA 1.0
;BEFORE_LAYER_CHANGE
G92 E0.0
;0.2


G1 E-0.80000 F2100.00000
G1 Z0.400 F10800.000
;AFTER_LAYER_CHANGE
;0.2
G1 X97.732 Y77.778
G1 Z0.200
G1 E0.80000 F2100.00000
M204 S1000
G1 F1200.000
G1 X98.189 Y77.389 E0.01882
G1 X98.729 Y77.126 E0.01882
G1 X99.314 Y77.008 E0.01870
G1 X114.487 Y77.001 E0.47576
G1 X151.071 Y84.517 E1.17103
G1 X151.809 Y84.816 E0.02496
G1 X152.409 Y85.345 E0.02508
G1 X152.705 Y85.815 E0.01740
G1 X152.884 Y86.340 E0.01740
G1 X161.031 Y125.499 E1.25411
G1 X161.129 Y126.381 E0.02780
G1 X161.089 Y127.380 E0.03137
G1 X160.892 Y128.361 E0.03137
G1 X160.591 Y129.187 E0.02756
G1 X159.926 Y130.352 E0.04205
G1 X159.352 Y131.043 E0.02815
G1 X158.655 Y131.667 E0.02935
G1 X157.744 Y132.255 E0.03399
G1 X156.812 Y132.658 E0.03185
G1 X155.805 Y132.912 E0.03256
G1 X154.861 Y132.996 E0.02970
G1 X131.362 Y132.999 E0.73680
G1 X130.426 Y132.927 E0.02943
G1 X93.452 Y125.262 E1.18395
G1 X92.375 Y124.831 E0.03636
G1 X91.515 Y124.298 E0.03173
G1 X90.720 Y123.606 E0.03304
G1 X90.149 Y122.923 E0.02791
G1 X89.532 Y121.897 E0.03755
G1 X89.130 Y120.793 E0.03684
G1 X88.961 Y119.926 E0.02768
G1 X88.920 Y119.079 E0.02660
G1 X89.028 Y117.974 E0.03481
G1 X97.163 Y78.890 E1.25170
G1 X97.389 Y78.266 E0.02083
G1 X97.698 Y77.827 E0.01682
; printing object Mount.STL id:0 copy 1
G1 F8640.000
G1 X98.189 Y77.389 E-0.15205
G1 X98.729 Y77.126 E-0.13859
G1 X99.314 Y77.008 E-0.13772
G1 X100.750 Y77.007 E-0.33164
G1 E-0.04000 F2100.00000
G1 Z0.600 F10800.000
G1 X106.502 Y115.413
G1 Z0.200
G1 E0.80000 F2100.00000
G1 F1200.000
G1 X106.947 Y115.374 E0.01402
G1 X107.467 Y115.412 E0.01633
G1 X107.941 Y115.539 E0.01538
G1 X108.381 Y115.745 E0.01525
G1 X108.780 Y116.024 E0.01525
G1 X109.124 Y116.368 E0.01525
G1 X109.380 Y116.734 E0.01402
G1 X109.607 Y117.203 E0.01633
G1 X109.734 Y117.677 E0.01538
G1 X109.776 Y118.161 E0.01525
G1 X109.734 Y118.646 E0.01525
G1 X109.608 Y119.115 E0.01525
G1 X109.403 Y119.556 E0.01525
G1 X109.124 Y119.955 E0.01525
G1 X108.780 Y120.298 E0.01525
G1 X108.381 Y120.577 E0.01525
G1 X107.941 Y120.783 E0.01525
G1 X107.471 Y120.909 E0.01525
G1 X106.986 Y120.951 E0.01525
G1 X106.502 Y120.909 E0.01525
G1 X106.032 Y120.783 E0.01525
G1 X105.591 Y120.577 E0.01525
G1 X105.193 Y120.298 E0.01525
G1 X104.849 Y119.955 E0.01525
G1 X104.570 Y119.556 E0.01525
G1 X104.364 Y119.115 E0.01525
G1 X104.239 Y118.646 E0.01525
G1 X104.196 Y118.161 E0.01525
G1 X104.239 Y117.677 E0.01525
G1 X104.364 Y117.207 E0.01525
G1 X104.570 Y116.766 E0.01525
G1 X104.849 Y116.368 E0.01525
G1 X105.193 Y116.024 E0.01525
G1 X105.591 Y115.745 E0.01525
G1 X106.032 Y115.539 E0.01525
G1 X106.444 Y115.429 E0.01337
G1 X106.541 Y115.793 F10800.000
G1 F1200.000
G1 X106.950 Y115.753 E0.01287
G1 X107.404 Y115.786 E0.01426
G1 X107.811 Y115.895 E0.01323
G1 X108.192 Y116.073 E0.01318
G1 X108.536 Y116.314 E0.01318
G1 X108.834 Y116.611 E0.01318
G1 X109.054 Y116.925 E0.01204
G1 X109.252 Y117.335 E0.01426
G1 X109.361 Y117.742 E0.01323
G1 X109.398 Y118.161 E0.01318
G1 X109.361 Y118.580 E0.01318
G1 X109.252 Y118.986 E0.01318
G1 X109.075 Y119.367 E0.01318
G1 X108.834 Y119.711 E0.01318
G1 X108.536 Y120.008 E0.01318
G1 X108.192 Y120.250 E0.01318
G1 X107.811 Y120.427 E0.01318
G1 X107.405 Y120.536 E0.01318
G1 X106.986 Y120.573 E0.01318
G1 X106.568 Y120.536 E0.01318
G1 X106.161 Y120.427 E0.01318
G1 X105.781 Y120.250 E0.01318
G1 X105.436 Y120.008 E0.01318
G1 X105.139 Y119.711 E0.01318
G1 X104.898 Y119.367 E0.01318
G1 X104.720 Y118.986 E0.01318
G1 X104.611 Y118.580 E0.01318
G1 X104.575 Y118.161 E0.01318
G1 X104.611 Y117.742 E0.01318
G1 X104.720 Y117.336 E0.01318
G1 X104.898 Y116.955 E0.01318
G1 X105.139 Y116.611 E0.01318
G1 X105.436 Y116.314 E0.01318
G1 X105.781 Y116.073 E0.01318
G1 X106.161 Y115.895 E0.01318
G1 X106.483 Y115.809 E0.01045
G1 X106.675 Y115.416 F10800.000
G1 F8640.000
G1 X106.950 Y115.753 E-0.10849
G1 X107.404 Y115.786 E-0.10502
G1 X107.811 Y115.895 E-0.09742
G1 X108.192 Y116.073 E-0.09706
G1 X108.536 Y116.314 E-0.09706
G1 X108.834 Y116.611 E-0.09706
G1 X109.054 Y116.925 E-0.08864
G1 X109.185 Y117.195 E-0.06925
G1 E-0.04000 F2100.00000
G1 Z0.600 F10800.000
G1 X100.276 Y80.166
G1 Z0.200
G1 E0.80000 F2100.00000
G1 F1200.000
G1 X113.696 Y80.166 E0.42077
G1 X113.696 Y97.073 E0.53011
G1 X121.671 Y117.987 E0.70179
G1 X121.825 Y118.514 E0.01721
G1 X121.888 Y119.027 E0.01621
G1 X121.868 Y119.544 E0.01621
G1 X121.765 Y120.051 E0.01621
G1 X121.582 Y120.534 E0.01621
G1 X121.324 Y120.982 E0.01621
G1 X120.997 Y121.383 E0.01621
G1 X120.610 Y121.726 E0.01621
G1 X120.173 Y122.003 E0.01621
G1 X119.698 Y122.206 E0.01621
G1 X119.196 Y122.330 E0.01621
G1 X118.648 Y122.374 E0.01721
G1 X95.324 Y122.374 E0.73131
G1 X94.777 Y122.330 E0.01721
G1 X94.275 Y122.206 E0.01621
G1 X93.799 Y122.003 E0.01621
G1 X93.362 Y121.726 E0.01621
G1 X92.975 Y121.383 E0.01621
G1 X92.649 Y120.982 E0.01621
G1 X92.391 Y120.534 E0.01621
G1 X92.213 Y120.064 E0.01575
G1 X92.105 Y119.543 E0.01671
G1 X92.085 Y119.027 E0.01618
G1 X92.148 Y118.514 E0.01621
G1 X92.302 Y117.987 E0.01721
G1 X100.276 Y97.073 E0.70179
G1 X100.276 Y80.226 E0.52823
G1 X99.899 Y79.789 F10800.000
G1 F1200.000
G1 X114.073 Y79.789 E0.44442
G1 X114.073 Y97.003 E0.53976
G1 X122.029 Y117.867 E0.70009
G1 X122.195 Y118.437 E0.01865
G1 X122.266 Y119.011 E0.01812
G1 X122.243 Y119.589 E0.01812
G1 X122.128 Y120.155 E0.01813
G1 X121.924 Y120.696 E0.01812
G1 X121.635 Y121.197 E0.01813
G1 X121.270 Y121.645 E0.01813
G1 X120.838 Y122.029 E0.01813
G1 X120.349 Y122.338 E0.01813
G1 X119.818 Y122.565 E0.01813
G1 X119.256 Y122.703 E0.01813
G1 X118.664 Y122.751 E0.01865
G1 X95.309 Y122.751 E0.73227
G1 X94.716 Y122.703 E0.01865
G1 X94.155 Y122.565 E0.01813
G1 X93.623 Y122.338 E0.01813
G1 X93.135 Y122.029 E0.01813
G1 X92.702 Y121.645 E0.01813
G1 X92.337 Y121.197 E0.01813
G1 X92.049 Y120.696 E0.01813
G1 X91.850 Y120.170 E0.01764
G1 X91.729 Y119.588 E0.01862
G1 X91.707 Y119.011 E0.01811
G1 X91.778 Y118.437 E0.01812
G1 X91.944 Y117.867 E0.01865
G1 X99.899 Y97.003 E0.70009
G1 X99.899 Y79.849 E0.53788
G1 X100.231 Y80.012 F10800.000
G1 F8640.000
G1 X103.191 Y79.835 E-0.76000
G1 E-0.04000 F2100.00000
G1 Z0.600 F10800.000
G1 X113.583 Y81.045
G1 Z0.200
G1 E0.80000 F2100.00000
G1 F1200.000
G1 X112.987 Y80.448 E0.02657
G1 X112.451 Y80.448 E0.01688
G1 X113.413 Y81.411 E0.04288
G1 X113.413 Y81.947 E0.01688
G1 X111.915 Y80.448 E0.06675
G1 X111.379 Y80.448 E0.01688
G1 X113.413 Y82.482 E0.09062
G1 X113.413 Y83.018 E0.01688
G1 X110.844 Y80.448 E0.11449
G1 X110.308 Y80.448 E0.01688
G1 X113.413 Y83.554 E0.13836
G1 X113.413 Y84.090 E0.01688
G1 X109.772 Y80.448 E0.16223
G1 X109.236 Y80.448 E0.01688
G1 X113.413 Y84.626 E0.18610
G1 X113.413 Y85.161 E0.01688
G1 X108.700 Y80.448 E0.20997
G1 X108.165 Y80.448 E0.01688
G1 X113.413 Y85.697 E0.23384
G1 X113.413 Y86.233 E0.01688
G1 X107.629 Y80.448 E0.25771
G1 X107.093 Y80.448 E0.01688
G1 X113.413 Y86.769 E0.28158
G1 X113.413 Y87.305 E0.01688
G1 X106.557 Y80.448 E0.30545
G1 X106.021 Y80.448 E0.01688
G1 X113.413 Y87.840 E0.32932
G1 X113.413 Y88.376 E0.01688
G1 X105.486 Y80.448 E0.35319
G1 X104.950 Y80.448 E0.01688
G1 X113.413 Y88.912 E0.37706
G1 X113.413 Y89.448 E0.01688
G1 X104.414 Y80.448 E0.40093
G1 X103.878 Y80.448 E0.01688
G1 X113.413 Y89.984 E0.42480
G1 X113.413 Y90.519 E0.01688
G1 X103.342 Y80.448 E0.44867
G1 X102.807 Y80.448 E0.01688
G1 X113.413 Y91.055 E0.47254
G1 X113.413 Y91.591 E0.01688
G1 X102.271 Y80.448 E0.49641
G1 X101.735 Y80.448 E0.01688
G1 X113.413 Y92.127 E0.52028
G1 X113.413 Y92.663 E0.01688
G1 X101.199 Y80.448 E0.54415
G1 X100.664 Y80.448 E0.01688
G1 X113.413 Y93.198 E0.56802
G1 X113.413 Y93.734 E0.01688
G1 X100.559 Y80.880 E0.57267
G1 X100.559 Y81.416 E0.01688
G1 X113.413 Y94.270 E0.57267
G1 X113.413 Y94.806 E0.01688
G1 X100.559 Y81.951 E0.57267
G1 X100.559 Y82.487 E0.01688
G1 X113.413 Y95.341 E0.57267
G1 X113.413 Y95.877 E0.01688
G1 X100.559 Y83.023 E0.57267
G1 X100.559 Y83.559 E0.01688
G1 X113.413 Y96.413 E0.57267
G1 X113.413 Y96.949 E0.01688
G1 X100.559 Y84.095 E0.57267
G1 X100.559 Y84.630 E0.01688
G1 X113.635 Y97.706 E0.58255
G1 X113.965 Y98.572 E0.02920
G1 X100.559 Y85.166 E0.59726
G1 X100.559 Y85.702 E0.01688
G1 X114.296 Y99.438 E0.61198
G1 X114.626 Y100.304 E0.02920
G1 X100.559 Y86.238 E0.62669
G1 X100.559 Y86.774 E0.01688
G1 X114.956 Y101.170 E0.64140
G1 X115.286 Y102.036 E0.02920
G1 X100.559 Y87.309 E0.65611
G1 X100.559 Y87.845 E0.01688
G1 X115.616 Y102.902 E0.67082
G1 X115.947 Y103.768 E0.02920
G1 X100.559 Y88.381 E0.68553
G1 X100.559 Y88.917 E0.01688
G1 X116.277 Y104.634 E0.70025
G1 X116.607 Y105.500 E0.02920
G1 X100.559 Y89.453 E0.71496
M73 Q4 S21
M73 P4 R21
G1 X100.559 Y89.988 E0.01688
G1 X116.937 Y106.366 E0.72967
G1 X117.268 Y107.232 E0.02920
G1 X100.559 Y90.524 E0.74438
G1 X100.559 Y91.060 E0.01688
G1 X117.598 Y108.099 E0.75909
G1 X117.928 Y108.965 E0.02920
G1 X100.559 Y91.596 E0.77380
G1 X100.559 Y92.131 E0.01688
G1 X118.258 Y109.831 E0.78852
G1 X118.588 Y110.697 E0.02920
G1 X100.559 Y92.667 E0.80323
G1 X100.559 Y93.203 E0.01688
G1 X118.919 Y111.563 E0.81794
G1 X119.249 Y112.429 E0.02920
G1 X100.559 Y93.739 E0.83265
G1 X100.559 Y94.275 E0.01688
G1 X119.579 Y113.295 E0.84736
G1 X119.909 Y114.161 E0.02920
G1 X100.559 Y94.810 E0.86207
G1 X100.559 Y95.346 E0.01688
G1 X120.240 Y115.027 E0.87678
G1 X120.570 Y115.893 E0.02920
G1 X100.559 Y95.882 E0.89150
G1 X100.559 Y96.418 E0.01688
G1 X120.900 Y116.759 E0.90621
G1 X121.230 Y117.625 E0.02920
G1 X100.559 Y96.954 E0.92092
G1 X100.559 Y97.125 E0.00540
G1 X100.459 Y97.389 E0.00890
G1 X121.508 Y118.438 E0.93778
G1 X121.547 Y118.571 E0.00436
G1 X121.603 Y119.069 E0.01579
G1 X100.311 Y97.777 E0.94860
G1 X100.163 Y98.165 E0.01308
G1 X121.573 Y119.575 E0.95385
G1 X121.476 Y120.014 E0.01417
G1 X100.015 Y98.552 E0.95614
G1 X99.867 Y98.940 E0.01308
G1 X121.326 Y120.413 E0.95632
G1 X121.135 Y120.744 E0.01204
G1 X99.719 Y99.328 E0.95410
G1 X99.571 Y99.716 E0.01308
G1 X120.904 Y121.049 E0.95043
G1 X120.792 Y121.187 E0.00559
G1 X120.641 Y121.321 E0.00639
G1 X99.423 Y100.104 E0.94526
G1 X99.275 Y100.492 E0.01308
G1 X120.344 Y121.560 E0.93863
G1 X120.012 Y121.764 E0.01227
G1 X99.127 Y100.880 E0.93044
G1 X98.979 Y101.268 E0.01308
G1 X119.636 Y121.925 E0.92029
G1 X119.211 Y122.035 E0.01385
G1 X98.832 Y101.656 E0.90792
G1 X98.684 Y102.043 E0.01308
G1 X118.724 Y122.084 E0.89284
G1 X118.196 Y122.091 E0.01666
G1 X98.536 Y102.431 E0.87587
G1 X98.388 Y102.819 E0.01308
G1 X117.660 Y122.091 E0.85859
G1 X117.124 Y122.091 E0.01688
G1 X98.240 Y103.207 E0.84131
G1 X98.092 Y103.595 E0.01308
G1 X116.588 Y122.091 E0.82403
G1 X116.053 Y122.091 E0.01688
G1 X97.944 Y103.983 E0.80675
G1 X97.796 Y104.371 E0.01308
G1 X115.517 Y122.091 E0.78947
G1 X114.981 Y122.091 E0.01688
G1 X109.761 Y116.871 E0.23258
G1 X109.873 Y117.104 E0.00815
G1 X110.017 Y117.663 E0.01818
G1 X114.445 Y122.091 E0.19730
G1 X113.909 Y122.091 E0.01688
G1 X110.054 Y118.236 E0.17177
G1 X110.006 Y118.724 E0.01544
G1 X113.374 Y122.091 E0.15004
G1 X112.838 Y122.091 E0.01688
G1 X109.893 Y119.146 E0.13121
G1 X109.731 Y119.520 E0.01284
G1 X112.302 Y122.091 E0.11453
G1 X111.766 Y122.091 E0.01688
G1 X109.535 Y119.860 E0.09940
G1 X109.309 Y120.169 E0.01208
G1 X111.230 Y122.091 E0.08562
G1 X110.695 Y122.091 E0.01688
G1 X109.041 Y120.437 E0.07368
G1 X108.962 Y120.516 E0.00350
G1 X108.739 Y120.672 E0.00857
G1 X110.159 Y122.091 E0.06324
G1 X109.623 Y122.091 E0.01688
G1 X108.409 Y120.877 E0.05411
G1 X108.043 Y121.047 E0.01270
G1 X109.087 Y122.091 E0.04652
G1 X108.551 Y122.091 E0.01688
G1 X107.621 Y121.161 E0.04143
G1 X107.520 Y121.188 E0.00331
G1 X107.146 Y121.221 E0.01184
G1 X108.016 Y122.091 E0.03876
G1 X107.480 Y122.091 E0.01688
G1 X106.589 Y121.200 E0.03969
G1 X106.453 Y121.188 E0.00431
G1 X105.874 Y121.021 E0.01896
G1 X106.944 Y122.091 E0.04766
G1 X106.408 Y122.091 E0.01688
G1 X95.282 Y110.965 E0.49570
G1 X95.134 Y111.353 E0.01308
G1 X105.872 Y122.091 E0.47842
G1 X105.337 Y122.091 E0.01688
G1 X94.986 Y111.741 E0.46113
G1 X94.838 Y112.128 E0.01308
G1 X104.801 Y122.091 E0.44385
G1 X104.265 Y122.091 E0.01688
G1 X94.690 Y112.516 E0.42657
G1 X94.542 Y112.904 E0.01308
G1 X103.729 Y122.091 E0.40929
G1 X103.194 Y122.091 E0.01688
G1 X94.394 Y113.292 E0.39201
G1 X94.247 Y113.680 E0.01308
G1 X102.658 Y122.091 E0.37473
G1 X102.122 Y122.091 E0.01688
G1 X94.099 Y114.068 E0.35745
G1 X93.951 Y114.456 E0.01308
G1 X101.586 Y122.091 E0.34017
G1 X101.050 Y122.091 E0.01688
G1 X93.803 Y114.844 E0.32289
G1 X93.655 Y115.232 E0.01308
G1 X100.515 Y122.091 E0.30561
G1 X99.979 Y122.091 E0.01688
G1 X93.507 Y115.619 E0.28833
G1 X93.359 Y116.007 E0.01308
G1 X99.443 Y122.091 E0.27104
G1 X98.907 Y122.091 E0.01688
G1 X93.211 Y116.395 E0.25376
G1 X93.063 Y116.783 E0.01308
G1 X98.371 Y122.091 E0.23648
G1 X97.836 Y122.091 E0.01688
G1 X92.915 Y117.171 E0.21920
M73 Q9 S20
M73 P9 R20
G1 X92.767 Y117.559 E0.01308
G1 X97.300 Y122.091 E0.20192
G1 X96.764 Y122.091 E0.01688
G1 X92.620 Y117.947 E0.18464
G1 X92.490 Y118.353 E0.01342
G1 X96.228 Y122.091 E0.16656
G1 X95.692 Y122.091 E0.01688
G1 X92.398 Y118.797 E0.14677
G1 X92.368 Y119.039 E0.00768
G1 X92.379 Y119.314 E0.00866
G1 X95.141 Y122.075 E0.12304
G1 X94.823 Y122.050 E0.01006
G1 X94.500 Y121.970 E0.01047
G1 X92.478 Y119.948 E0.09008
G1 X92.647 Y120.413 E0.01559
G1 X92.882 Y120.821 E0.01485
G1 X93.178 Y121.184 E0.01475
G1 X93.929 Y121.936 E0.03347
G1 F8640.000
G1 X93.178 Y121.184 E-0.24535
G1 X92.882 Y120.821 E-0.10809
G1 X92.647 Y120.413 E-0.10886
G1 X92.478 Y119.948 E-0.11424
G1 X93.040 Y120.510 E-0.18347
G1 E-0.04000 F2100.00000
G1 Z0.600 F10800.000
G1 X104.486 Y119.633
G1 Z0.200
G1 E0.80000 F2100.00000
G1 F1200.000
G1 X95.430 Y110.577 E0.40345
G1 X95.578 Y110.189 E0.01308
G1 X103.947 Y118.558 E0.37287
G1 X103.912 Y118.161 E0.01257
G1 X103.926 Y118.002 E0.00504
G1 X95.726 Y109.801 E0.36535
G1 X95.873 Y109.413 E0.01308
G1 X103.986 Y117.526 E0.36143
G1 X104.100 Y117.104 E0.01376
G1 X96.021 Y109.025 E0.35992
G1 X96.169 Y108.637 E0.01308
G1 X104.271 Y116.739 E0.36093
G1 X104.324 Y116.624 E0.00399
G1 X104.476 Y116.408 E0.00831
G1 X96.317 Y108.250 E0.36346
G1 X96.465 Y107.862 E0.01308
G1 X104.710 Y116.107 E0.36732
G1 X104.978 Y115.839 E0.01194
G1 X96.613 Y107.474 E0.37267
G1 X96.761 Y107.086 E0.01308
G1 X105.287 Y115.612 E0.37986
G1 X105.449 Y115.499 E0.00623
G1 X105.627 Y115.416 E0.00617
G1 X96.909 Y106.698 E0.38840
G1 X97.057 Y106.310 E0.01308
G1 X106.001 Y115.255 E0.39849
G1 X106.424 Y115.142 E0.01378
G1 X97.205 Y105.922 E0.41073
G1 X97.353 Y105.534 E0.01308
G1 X106.912 Y115.094 E0.42588
G1 X107.484 Y115.130 E0.01806
G1 X97.500 Y105.147 E0.44478
G1 X97.648 Y104.759 E0.01308
G1 X108.765 Y115.876 E0.49528
; stop printing object Mount.STL id:0 copy 1
; printing object Mount.STL id:0 copy 0
G1 F8640.000
