; generated by PrusaSlicer 2.3.1+win64 on 2021-10-13 at 18:02:36 UTC

; 

; external perimeters extrusion width = 0.45mm
; perimeters extrusion width = 0.45mm
; infill extrusion width = 0.45mm
; solid infill extrusion width = 0.45mm
; top infill extrusion width = 0.40mm
; support material extrusion width = 0.35mm
; first layer extrusion width = 0.42mm

M73 P0 R93
M73 Q0 S93
M201 X1000 Y1000 Z1000 E5000 ; sets maximum accelerations, mm/sec^2
M203 X200 Y200 Z12 E120 ; sets maximum feedrates, mm/sec
M204 P1250 R1250 T1250 ; sets acceleration (P, T) and retract acceleration (R), mm/sec^2
M205 X8.00 Y8.00 Z0.40 E1.50 ; sets the jerk limits, mm/sec
M205 S0 T0 ; sets the minimum extruding and travel feed rate, mm/sec
M107
;TYPE:Custom
M862.3 P "MK3S" ; printer model check
M862.1 P0.4 ; nozzle diameter check
M115 U3.8.0 ; tell printer latest fw version
G90 ; use absolute coordinates
M83 ; extruder relative mode
M104 S215 ; set extruder temp
M140 S60 ; set bed temp
M190 S60 ; wait for bed temp
M109 S215 ; wait for extruder temp
G28 W ; home all without mesh bed level
G80 ; mesh bed leveling
G1 Y-3.0 F1000.0 ; go outside print area
G92 E0.0
G1 X60.0 E9.0 F1000.0 ; intro line
G1 X100.0 E12.5 F1000.0 ; intro line
G92 E0.0
M221 S95
G21 ; set units to millimeters
G90 ; use absolute coordinates
M83 ; use relative distances for extrusion
M900 K0.05 ; Filament gcode LA 1.5
M900 K30 ; Filament gcode LA 1.0
;LAYER_CHANGE
;Z:0.2
;HEIGHT:0.2
;BEFORE_LAYER_CHANGE
G92 E0.0
;0.2


G1 E-0.80000 F2100.000
G1 Z0.600 F10800.000
;AFTER_LAYER_CHANGE
;0.2
G1 X92.140 Y86.666
G1 Z0.200
G1 E0.80000 F2100.000
M204 S1000
;TYPE:Support material
;WIDTH:0.42
G1 F1200.000
G1 X93.332 Y85.474 E0.05284
G1 E-0.80000 F2100.000
G1 Z0.800 F10800.000
G1 X90.056 Y91.950
G1 Z0.200
G1 E0.80000 F2100.000
G1 F1200.000
G1 X89.553 Y92.452 E0.02227
G1 E-0.80000 F2100.000
G1 Z0.800 F10800.000
G1 X91.464 Y96.941
G1 Z0.200
G1 E0.80000 F2100.000
G1 F1200.000
G1 X92.262 Y96.143 E0.03539
G1 X93.041 Y96.430 E0.02604
G1 X91.379 Y98.093 E0.07372
G1 X91.136 Y99.401 E0.04173
G1 X93.820 Y96.718 E0.11900
G1 X94.599 Y97.005 E0.02604
G1 X90.952 Y100.652 E0.16170
G1 X90.821 Y101.850 E0.03777
G1 X95.378 Y97.293 E0.20206
G1 X96.157 Y97.580 E0.02604
G1 X90.737 Y103.000 E0.24033
G1 X90.693 Y104.112 E0.03487
G1 X96.936 Y97.868 E0.27686
G1 X97.715 Y98.155 E0.02604
G1 X90.682 Y105.188 E0.31185
G1 X90.703 Y106.234 E0.03280
G1 X98.494 Y98.443 E0.34549
G1 X99.273 Y98.730 E0.02604
G1 X90.751 Y107.253 E0.37790
G1 X90.833 Y108.237 E0.03098
G1 X100.053 Y99.018 E0.40882
G1 X100.832 Y99.305 E0.02604
G1 X90.940 Y109.197 E0.43862
G1 X91.067 Y110.136 E0.02971
G1 X101.611 Y99.593 E0.46751
G1 X102.390 Y99.880 E0.02604
G1 X91.215 Y111.055 E0.49549
G1 X91.392 Y111.944 E0.02845
G1 X103.169 Y100.168 E0.52220
G1 X103.948 Y100.455 E0.02604
G1 X91.584 Y112.819 E0.54821
G1 X91.792 Y113.678 E0.02771
G1 X104.727 Y100.743 E0.57356
G1 X105.506 Y101.030 E0.02604
G1 X92.026 Y114.510 E0.59771
G1 X92.273 Y115.329 E0.02683
G1 X106.285 Y101.318 E0.62130
G1 X107.064 Y101.605 E0.02604
G1 X92.400 Y116.269 E0.65022
M73 P0 R92
G1 X93.962 Y120.040 F10800.000
G1 F1200.000
G1 X129.409 Y84.593 E1.57180
G1 X129.806 Y83.129 E0.04756
G1 X93.752 Y119.184 E1.59873
M73 Q0 S92
G1 X93.424 Y118.445 E0.02534
G1 X130.204 Y81.665 E1.63089
G1 X130.601 Y80.201 E0.04756
G1 X93.113 Y117.689 E1.66227
G1 X92.819 Y116.917 E0.02591
G1 X130.998 Y78.737 E1.69295
G1 X131.396 Y77.274 E0.04756
G1 X107.759 Y100.911 E1.04810
G1 X107.909 Y100.301 E0.01967
G1 X108.173 Y99.430 E0.02857
G1 X131.793 Y75.810 E1.04734
G1 X132.190 Y74.346 E0.04756
G1 X108.858 Y97.678 E1.03459
G1 X109.250 Y96.867 E0.02824
G1 X109.695 Y96.058 E0.02895
G1 X110.156 Y95.313 E0.02747
G1 X132.587 Y72.882 E0.99464
G1 X132.933 Y71.609 E0.04138
G1 X132.821 Y71.582 E0.00362
G1 X109.925 Y94.478 E1.01523
G1 X109.275 Y94.061 E0.02421
G1 X131.949 Y71.387 E1.00541
G1 X131.055 Y71.215 E0.02855
G1 X108.625 Y93.645 E0.99458
G1 X107.975 Y93.228 E0.02421
G1 X130.137 Y71.066 E0.98271
G1 X129.201 Y70.936 E0.02964
G1 X107.325 Y92.812 E0.97001
G1 X106.675 Y92.395 E0.02421
G1 X128.243 Y70.827 E0.95636
G1 X127.252 Y70.752 E0.03117
G1 X106.025 Y91.979 E0.94122
G1 X105.375 Y91.562 E0.02421
G1 X126.236 Y70.702 E0.92499
G1 X125.192 Y70.678 E0.03272
G1 X104.725 Y91.145 E0.90755
M73 Q1 S92
G1 X104.075 Y90.729 E0.02421
M73 P1 R92
G1 X124.119 Y70.686 E0.88875
G1 X123.004 Y70.733 E0.03497
G1 X103.425 Y90.312 E0.86817
G1 X102.775 Y89.896 E0.02421
G1 X121.849 Y70.822 E0.84574
G1 X120.649 Y70.955 E0.03784
G1 X102.125 Y89.479 E0.82137
G1 X101.475 Y89.063 E0.02421
G1 X119.399 Y71.139 E0.79476
G1 X118.090 Y71.382 E0.04175
G1 X100.825 Y88.646 E0.76552
G1 X100.175 Y88.229 E0.02421
G1 X116.710 Y71.695 E0.73318
G1 X115.247 Y72.092 E0.04755
G1 X99.525 Y87.813 E0.69711
G1 X98.875 Y87.396 E0.02421
G1 X113.676 Y72.596 E0.65629
G1 X112.486 Y73.035 E0.03978
G1 X111.947 Y73.258 E0.01829
G1 X98.225 Y86.980 E0.60843
G1 X97.575 Y86.563 E0.02421
G1 X110.029 Y74.110 E0.55219
G1 X108.852 Y74.709 E0.04140
G1 X107.747 Y75.326 E0.03968
G1 X96.925 Y86.147 E0.47983
G1 X96.502 Y85.876 E0.01575
G1 X96.954 Y85.209 E0.02525
G1 X97.389 Y84.616 E0.02305
G1 X105.375 Y76.631 E0.35410
G1 E-0.80000 F2100.000
G1 Z0.800 F10800.000
G1 X136.007 Y69.463
G1 Z0.200
G1 E0.80000 F2100.000
G1 F1200.000
G1 X136.324 Y69.146 E0.01405
G1 E-0.80000 F2100.000
G1 Z0.800 F10800.000
G1 X143.446 Y72.689
G1 Z0.200
G1 E0.80000 F2100.000
G1 F1200.000
G1 X143.613 Y72.522 E0.00737
G1 X144.247 Y72.955 E0.02407
G1 X144.117 Y73.084 E0.00576
G1 E-0.80000 F2100.000
G1 Z0.800 F10800.000
G1 X142.240 Y79.227
G1 Z0.200
G1 E0.80000 F2100.000
G1 F1200.000
G1 X144.625 Y76.843 E0.10574
G1 X145.247 Y77.288 E0.02397
G1 X140.752 Y81.782 E0.19929
G1 X138.662 Y84.939 E0.11873
G1 X145.860 Y77.741 E0.31918
G1 X146.454 Y78.213 E0.02380
G1 X135.968 Y88.699 E0.46497
G1 X142.831 Y108.500 F10800.000
G1 F1200.000
G1 X157.465 Y93.866 E0.64889
G1 X157.728 Y94.669 E0.02650
G1 X143.742 Y108.655 E0.62017
G1 X144.521 Y108.943 E0.02604
G1 X157.974 Y95.490 E0.59651
G1 X158.207 Y96.323 E0.02713
G1 X145.300 Y109.230 E0.57231
G1 X146.079 Y109.518 E0.02604
G1 X158.417 Y97.180 E0.54706
G1 X158.608 Y98.056 E0.02810
G1 X146.859 Y109.805 E0.52098
M73 P1 R91
G1 X147.638 Y110.092 E0.02604
G1 X158.783 Y98.947 E0.49422
G1 X158.934 Y99.863 E0.02911
G1 X148.417 Y110.380 E0.46634
G1 X149.196 Y110.667 E0.02604
G1 X159.060 Y100.803 E0.43740
G1 X159.166 Y101.764 E0.03030
G1 X149.975 Y110.955 E0.40754
G1 X150.754 Y111.242 E0.02604
G1 X159.249 Y102.747 E0.37670
G1 X159.297 Y103.766 E0.03197
G1 X151.533 Y111.530 E0.34428
G1 X152.312 Y111.817 E0.02604
G1 X159.317 Y104.813 E0.31060
M73 Q1 S91
G1 X159.306 Y105.890 E0.03379
G1 X153.091 Y112.105 E0.27557
G1 X153.870 Y112.392 E0.02604
G1 X159.260 Y107.002 E0.23901
G1 X159.175 Y108.153 E0.03619
G1 X154.649 Y112.680 E0.20071
G1 X155.428 Y112.967 E0.02604
G1 X159.046 Y109.350 E0.16042
G1 X158.862 Y110.600 E0.03962
G1 X156.207 Y113.255 E0.11773
G1 X156.986 Y113.542 E0.02604
G1 X158.620 Y111.909 E0.07243
G1 X158.305 Y113.290 E0.04440
G1 X157.633 Y113.962 E0.02981
G1 E-0.80000 F2100.000
G1 Z0.800 F10800.000
G1 X160.447 Y117.548
G1 Z0.200
G1 E0.80000 F2100.000
G1 F1200.000
G1 X159.972 Y118.023 E0.02106
G1 E-0.80000 F2100.000
G1 Z0.800 F10800.000
G1 X144.667 Y133.327
G1 Z0.200
G1 E0.80000 F2100.000
G1 F1200.000
G1 X152.604 Y125.390 E0.35195
G1 X153.474 Y124.162 E0.04719
G1 X153.886 Y123.524 E0.02381
G1 X153.574 Y123.354 E0.01115
G1 X142.280 Y134.648 E0.50081
G1 X140.855 Y135.439 E0.05108
G1 X139.995 Y135.866 E0.03010
G1 X152.884 Y122.977 E0.57152
G1 X152.195 Y122.600 E0.02464
G1 X138.064 Y136.731 E0.62659
G1 X137.258 Y137.057 E0.02724
G1 X136.341 Y137.388 E0.03059
G1 X151.505 Y122.223 E0.67241
G1 X150.815 Y121.847 E0.02464
G1 X134.758 Y137.904 E0.71202
G1 X133.296 Y138.299 E0.04748
G1 X150.125 Y121.470 E0.74625
G1 X149.436 Y121.093 E0.02464
G1 X131.917 Y138.612 E0.77681
G1 X130.607 Y138.855 E0.04176
G1 X148.746 Y120.716 E0.80429
G1 X148.056 Y120.339 E0.02464
G1 X129.357 Y139.039 E0.82916
G1 X128.157 Y139.172 E0.03786
G1 X147.366 Y119.963 E0.85179
G1 X146.677 Y119.586 E0.02464
G1 X127.000 Y139.262 E0.87247
G1 X125.890 Y139.306 E0.03484
G1 X145.987 Y119.209 E0.89113
G1 X145.297 Y118.832 E0.02464
G1 X124.815 Y139.314 E0.90822
G1 X123.771 Y139.292 E0.03275
G1 X144.607 Y118.455 E0.92394
G1 X143.918 Y118.079 E0.02464
G1 X122.754 Y139.242 E0.93844
G1 X121.762 Y139.167 E0.03118
G1 X143.228 Y117.702 E0.95182
G1 X142.538 Y117.325 E0.02464
G1 X120.805 Y139.058 E0.96368
M73 P2 R91
M73 Q2 S91
G1 X119.868 Y138.928 E0.02965
G1 X141.848 Y116.948 E0.97464
G1 X141.159 Y116.572 E0.02464
G1 X118.950 Y138.780 E0.98476
G1 X118.056 Y138.608 E0.02855
G1 X140.469 Y116.195 E0.99382
G1 X139.780 Y115.817 E0.02463
G1 X117.184 Y138.413 E1.00192
G1 X116.328 Y138.203 E0.02766
G1 X139.815 Y114.716 E1.04146
G1 X140.065 Y114.333 E0.01433
G1 X140.501 Y113.590 E0.02702
G1 X140.900 Y112.826 E0.02702
G1 X141.126 Y112.338 E0.01687
G1 X116.066 Y137.398 E1.11120
G1 X116.618 Y135.779 E0.05363
G1 X141.818 Y110.580 E1.11738
G1 X142.114 Y109.605 E0.03194
G1 X142.239 Y109.092 E0.01654
G1 X117.171 Y134.160 E1.11155
G1 X117.723 Y132.541 E0.05363
G1 X157.182 Y93.082 E1.74970
G1 X156.890 Y92.308 E0.02594
G1 X118.275 Y130.923 E1.71223
G1 X118.827 Y129.304 E0.05363
G1 X156.576 Y91.555 E1.67385
G1 X156.250 Y90.814 E0.02537
G1 X119.379 Y127.685 E1.63491
G1 X119.932 Y126.066 E0.05363
G1 X155.913 Y90.085 E1.59548
G1 X155.556 Y89.376 E0.02490
G1 X135.263 Y109.668 E0.89980
M73 P2 R90
G1 X134.730 Y109.135 E0.02365
G1 X155.191 Y88.674 E0.90726
G1 X154.808 Y87.990 E0.02457
G1 X134.197 Y108.602 E0.91395
G1 X133.858 Y108.263 E0.01503
G1 X135.489 Y106.631 E0.07234
G1 X135.295 Y106.437 E0.00861
G1 X154.414 Y87.318 E0.84778
M73 Q2 S90
G1 X154.010 Y86.656 E0.02433
G1 X134.762 Y105.904 E0.85349
G1 X134.228 Y105.371 E0.02365
G1 X153.587 Y86.012 E0.85841
G1 X153.159 Y85.373 E0.02410
G1 X135.326 Y103.206 E0.79072
G1 X134.793 Y102.673 E0.02365
G1 X152.712 Y84.754 E0.79454
G1 X152.257 Y84.143 E0.02390
G1 X134.260 Y102.139 E0.79800
G1 X133.858 Y101.737 E0.01783
G1 X135.489 Y100.106 E0.07234
G1 X135.358 Y99.975 E0.00582
G1 X151.788 Y83.544 E0.72855
G1 X151.307 Y82.959 E0.02376
G1 X134.825 Y99.441 E0.73085
G1 X134.291 Y98.908 E0.02365
G1 X150.818 Y82.382 E0.73281
G1 X150.311 Y81.823 E0.02367
G1 X133.758 Y98.375 E0.73396
G1 X133.225 Y97.842 E0.02365
G1 X149.798 Y81.268 E0.73489
G1 X149.268 Y80.732 E0.02365
G1 X132.692 Y97.308 E0.73502
G1 X132.158 Y96.775 E0.02365
G1 X148.730 Y80.204 E0.73481
G1 X148.179 Y79.688 E0.02366
G1 X131.625 Y96.242 E0.73403
G1 X131.092 Y95.709 E0.02365
G1 X147.615 Y79.185 E0.73269
G1 X147.044 Y78.690 E0.02371
G1 X130.559 Y95.175 E0.73099
G1 X130.025 Y94.642 E0.02365
G1 X134.581 Y90.087 E0.20199
G1 X133.919 Y89.682 E0.02432
G1 X127.861 Y95.740 E0.26863
G1 X127.327 Y95.207 E0.02365
G1 X133.231 Y89.303 E0.26178
G1 X132.518 Y88.950 E0.02496
G1 X126.794 Y94.674 E0.25379
G1 X126.631 Y94.511 E0.00722
G1 X125.000 Y96.142 E0.07234
G1 X124.629 Y95.772 E0.01643
G1 X131.777 Y88.624 E0.31693
M73 P3 R90
M73 Q3 S90
G1 X131.008 Y88.327 E0.02586
G1 X124.096 Y95.238 E0.30647
G1 X123.563 Y94.705 E0.02365
G1 X130.208 Y88.060 E0.29465
G1 X129.375 Y87.826 E0.02712
G1 X121.398 Y95.803 E0.35372
G1 X120.865 Y95.270 E0.02365
G1 X128.723 Y87.412 E0.34844
G1 X128.669 Y87.319 E0.00336
G1 X129.012 Y86.056 E0.04102
G1 X120.332 Y94.737 E0.38489
G1 X120.106 Y94.511 E0.01001
G1 X114.511 Y100.106 E0.24809
G1 X114.737 Y100.332 E0.01001
G1 X94.445 Y120.623 E0.89975
G1 X94.812 Y121.323 E0.02477
G1 X115.270 Y100.865 E0.90712
G1 X115.803 Y101.398 E0.02365
G1 X95.192 Y122.009 E0.91393
G1 X95.588 Y122.680 E0.02441
G1 X114.705 Y103.563 E0.84767
G1 X115.238 Y104.096 E0.02365
G1 X95.991 Y123.343 E0.85345
G1 X96.414 Y123.987 E0.02415
G1 X115.772 Y104.629 E0.85833
G1 X116.142 Y105.000 E0.01643
G1 X114.511 Y106.631 E0.07234
G1 X114.674 Y106.794 E0.00722
G1 X96.845 Y124.623 E0.79055
G1 X97.289 Y125.245 E0.02397
G1 X115.207 Y107.327 E0.79449
G1 X115.740 Y107.861 E0.02365
G1 X97.747 Y125.854 E0.79785
G1 X98.212 Y126.455 E0.02384
G1 X114.642 Y110.025 E0.72853
G1 X115.175 Y110.558 E0.02365
G1 X98.696 Y127.038 E0.73073
G1 X99.185 Y127.615 E0.02373
G1 X115.709 Y111.092 E0.73268
G1 X116.242 Y111.625 E0.02365
G1 X99.692 Y128.175 E0.73387
G1 X100.207 Y128.727 E0.02366
G1 X116.775 Y112.158 E0.73468
G1 X117.308 Y112.692 E0.02365
G1 X100.734 Y129.266 E0.73496
G1 X101.274 Y129.792 E0.02365
G1 X117.842 Y113.225 E0.73463
G1 X118.375 Y113.758 E0.02365
G1 X101.822 Y130.311 E0.73400
G1 X102.388 Y130.812 E0.02369
G1 X118.908 Y114.291 E0.73254
G1 X119.442 Y114.825 E0.02365
G1 X114.788 Y119.479 E0.20636
G1 X115.423 Y119.910 E0.02408
G1 X119.975 Y115.358 E0.20183
G1 X120.106 Y115.489 E0.00582
G1 X121.737 Y113.858 E0.07234
G1 X122.139 Y114.260 E0.01783
G1 X116.087 Y120.312 E0.26836
G1 X116.776 Y120.690 E0.02462
G1 X122.673 Y114.793 E0.26149
G1 X123.206 Y115.326 E0.02365
G1 X117.489 Y121.043 E0.25351
G1 X118.229 Y121.370 E0.02536
G1 X125.371 Y114.228 E0.31669
G1 X125.904 Y114.762 E0.02365
G1 X118.996 Y121.669 E0.30629
G1 X119.794 Y121.938 E0.02640
G1 X126.437 Y115.295 E0.29455
G1 X126.631 Y115.489 E0.00861
G1 X128.263 Y113.858 E0.07234
G1 X128.602 Y114.197 E0.01503
G1 X120.627 Y122.172 E0.35363
G1 X120.884 Y122.241 E0.00836
G1 X121.099 Y122.644 E0.01432
G1 X121.036 Y122.829 E0.00612
G1 X129.135 Y114.730 E0.35912
G1 X129.668 Y115.263 E0.02365
G1 X120.212 Y124.720 E0.41932
M73 P3 R89
G1 E-0.80000 F2100.000
G1 Z0.800 F10800.000
G1 X113.143 Y121.123
G1 Z0.200
G1 E0.80000 F2100.000
G1 F1200.000
G1 X102.960 Y131.307 E0.45154
G1 X103.548 Y131.785 E0.02377
G1 X110.986 Y124.346 E0.32983
G1 X109.336 Y127.063 E0.09968
G1 X104.146 Y132.253 E0.23013
G1 X104.755 Y132.711 E0.02389
G1 X107.685 Y129.781 E0.12992
G1 X106.035 Y132.498 E0.09968
G1 X105.258 Y133.275 E0.03445
G1 E-0.80000 F2100.000
G1 Z0.800 F10800.000
G1 X105.623 Y137.176
G1 Z0.200
G1 E0.80000 F2100.000
G1 F1200.000
G1 X105.762 Y137.037 E0.00616
G1 X106.435 Y137.430 E0.02445
G1 X106.253 Y137.612 E0.00808
G1 E-0.80000 F2100.000
G1 Z0.800 F10800.000
G1 X112.073 Y140.325
G1 Z0.200
G1 E0.80000 F2100.000
G1 F1200.000
G1 X112.264 Y140.133 E0.00849
G1 X113.057 Y140.407 E0.02630
G1 X112.910 Y140.554 E0.00653
G1 E-0.80000 F2100.000
G1 Z0.800 F10800.000
G1 X114.402 Y138.830
G1 Z0.200
G1 E0.80000 F2100.000
;TYPE:Perimeter
G1 F1200.000
G1 X119.772 Y123.087 E0.52153
G1 X119.407 Y122.985 E0.01189
G1 X118.451 Y122.659 E0.03166
G1 X117.514 Y122.283 E0.03166
G1 X116.607 Y121.861 E0.03136
G1 X115.707 Y121.383 E0.03195
G1 X114.843 Y120.861 E0.03166
G1 X114.533 Y120.651 E0.01172
G1 X105.899 Y134.866 E0.52147
M73 Q3 S89
G1 X104.277 Y133.743 E0.06183
G1 X103.189 Y132.927 E0.04264
G1 X102.173 Y132.102 E0.04104
G1 X101.112 Y131.173 E0.04423
G1 X100.125 Y130.236 E0.04266
G1 X99.175 Y129.263 E0.04264
G1 X98.263 Y128.255 E0.04264
G1 X97.423 Y127.251 E0.04104
G1 X96.558 Y126.136 E0.04423
G1 X95.767 Y125.029 E0.04266
G1 X95.020 Y123.892 E0.04264
G1 X94.317 Y122.728 E0.04264
G1 X93.684 Y121.582 E0.04104
G1 X93.048 Y120.323 E0.04423
G1 X92.483 Y119.086 E0.04265
G1 X91.967 Y117.827 E0.04264
G1 X91.499 Y116.550 E0.04264
G1 X91.096 Y115.305 E0.04104
G1 X90.711 Y113.948 E0.04423
G1 X90.393 Y112.625 E0.04265
G1 X90.126 Y111.292 E0.04264
G1 X89.910 Y109.949 E0.04264
G1 X89.752 Y108.649 E0.04104
G1 X89.634 Y107.244 E0.04423
G1 X89.574 Y105.885 E0.04265
G1 X89.566 Y104.526 E0.04260
G1 X89.610 Y103.168 E0.04260
G1 X89.706 Y101.813 E0.04260
G1 X89.854 Y100.462 E0.04260
G1 X90.053 Y99.118 E0.04260
G1 X90.304 Y97.783 E0.04260
G1 X90.606 Y96.458 E0.04260
G1 X91.123 Y94.536 E0.06241
G1 X106.761 Y100.307 E0.52265
G1 X107.120 Y99.066 E0.04051
G1 X107.453 Y98.143 E0.03077
G1 X107.830 Y97.247 E0.03047
G1 X108.261 Y96.355 E0.03106
G1 X108.734 Y95.495 E0.03077
G1 X108.937 Y95.167 E0.01211
G1 X94.940 Y86.196 E0.52127
G1 X96.075 Y84.525 E0.06332
G1 X96.860 Y83.457 E0.04158
G1 X97.719 Y82.379 E0.04319
G1 X98.618 Y81.336 E0.04320
G1 X99.558 Y80.329 E0.04319
G1 X100.536 Y79.358 E0.04321
G1 X101.590 Y78.394 E0.04479
G1 X102.601 Y77.536 E0.04158
G1 X103.686 Y76.686 E0.04319
G1 X104.802 Y75.879 E0.04320
