; generated by PrusaSlicer 2.4.1+win64 on 2022-08-05 at 22:18:34 UTC

; 

; external perimeters extrusion width = 0.45mm
; perimeters extrusion width = 0.45mm
; infill extrusion width = 0.45mm
; solid infill extrusion width = 0.45mm
; top infill extrusion width = 0.40mm
; first layer extrusion width = 0.42mm

M73 P0 R29
M73 C9
M73 Q0 S29
M73 D9
M107
;TYPE:Custom
M862.3 P "MK3S" ; printer model check
M862.1 P0.4 ; nozzle diameter check
G90 ; use absolute coordinates
M83 ; extruder relative mode
M104 S215 ; set extruder temp
M140 S60 ; set bed temp
M190 S60 ; wait for bed temp
M109 S215 ; wait for extruder temp
G28 W ; home all without mesh bed level
G80 ; mesh bed leveling
G1 Y-3.0 F1000.0 ; go outside print area
G92 E0.0
G1 X60.0 E9.0 F1000.0 ; intro line
G1 X100.0 E12.5 F1000.0 ; intro line
G92 E0.0
M221 S95

; Don't change E values below. Excessive value can damage the printer.
M907 E430 ; set extruder motor current
G21 ; set units to millimeters
G90 ; use absolute coordinates
M83 ; use relative distances for extrusion
M900 K0.05 ; Filament gcode LA 1.5
M900 K30 ; Filament gcode LA 1.0
M107
;LAYER_CHANGE
;Z:0.2
;HEIGHT:0.2
;BEFORE_LAYER_CHANGE
G92 E0.0
;0.2


G1 E-.8 F2100
G1 Z.4 F720
;AFTER_LAYER_CHANGE
;0.2
G1 X95.792 Y85.349 F10800
G1 Z.2 F720
G1 E.8 F2100
M204 S800
;TYPE:Skirt/Brim
;WIDTH:0.42
G1 F1200
G1 X97.304 Y83.963 E.06431
G1 X98.247 Y83.821 E.02992
G1 X152.279 Y83.87 E1.69411
G1 X153.022 Y84.107 E.02448
G1 X154.044 Y85.012 E.04278
G1 X154.323 Y85.666 E.02229
G1 X156.37 Y95.461 E.31374
G1 X156.36 Y96.475 E.03181
G1 X156.014 Y97.351 E.02951
G1 X144.436 Y115.331 E.67051
G1 X141.992 Y118.588 E.12768
G1 X139.338 Y121.115 E.11492
G1 X136.116 Y123.29 E.12187
G1 X132.584 Y124.881 E.12145
G1 X129.142 Y125.792 E.11165
G1 X124.985 Y126.179 E.13091
G1 X121.446 Y125.891 E.11134
G1 X120.804 Y125.779 E.02041
G1 X117.365 Y124.865 E.11157
G1 X114.092 Y123.397 E.11248
G1 X110.533 Y121.012 E.13433
G1 X107.866 Y118.44 E.1162
G1 X105.678 Y115.502 E.11484
G1 X94.009 Y97.35 E.6766
G1 X93.772 Y96.879 E.01655
G1 X93.621 Y95.508 E.04323
G1 X95.626 Y85.861 E.30895
G1 X95.773 Y85.406 E.01499
M204 S1000
; printing object Sign.stl id:0 copy 0
;WIPE_START
G1 F8640
G1 X97.304 Y83.963 E-.4857
G1 X98.247 Y83.821 E-.22033
G1 X98.481 Y83.821 E-.05397
;WIPE_END
G1 E-.04 F2100
G1 Z.6 F720
G1 X98.667 Y87.014 F10800
G1 Z.2 F720
G1 E.8 F2100
M204 S800
;TYPE:Perimeter
G1 F1200
G1 X142.762 Y87.016 E1.38258
G1 X142.847 Y87.451 E.01388
M73 P1 R29
M73 Q1 S29
G1 X142.898 Y87.507 E.00239
G1 X143.006 Y88.068 E.01792
G1 X143.152 Y88.206 E.00631
G1 X143.317 Y88.517 E.01103
G1 X143.959 Y88.683 E.02081
G1 X144.434 Y88.6 E.01512
G1 X144.76 Y88.513 E.01056
G1 X144.777 Y88.492 E.00086
G1 X145.364 Y88.354 E.01889
G1 X145.382 Y88.33 E.00093
G1 X145.957 Y88.211 E.01841
G1 X145.986 Y88.17 E.00156
G1 X146.348 Y88.092 E.01159
G1 X146.395 Y88.053 E.00192
G1 X146.686 Y87.997 E.00929
G1 X147.011 Y87.91 E.01054
G1 X147.03 Y87.887 E.00095
G1 X147.288 Y87.835 E.00827
G1 X147.634 Y87.729 E.01133
G1 X147.649 Y87.706 E.00086
G1 X148.068 Y87.602 E.01354
G1 X148.097 Y87.565 E.00147
G1 X148.514 Y87.461 E.01348
G1 X148.545 Y87.423 E.00153
G1 X148.875 Y87.341 E.01068
G1 X149.376 Y87.013 E.01878
G1 X151.341 Y87.019 E.06159
G1 X151.379 Y87.271 E.00799
G1 X151.429 Y87.332 E.00245
G1 X151.534 Y88.024 E.02194
G1 X151.582 Y88.081 E.00236
G1 X151.688 Y88.776 E.02204
G1 X151.736 Y88.83 E.00228
G1 X151.842 Y89.527 E.02212
G1 X151.891 Y89.579 E.00225
G1 X151.97 Y90.092 E.01626
G1 X152.023 Y90.174 E.00306
G1 X152.129 Y90.87 E.02208
G1 X152.178 Y90.932 E.00248
G1 X152.283 Y91.623 E.02193
G1 X152.332 Y91.681 E.00237
G1 X152.437 Y92.376 E.02203
G1 X152.486 Y92.43 E.00229
G1 X152.591 Y93.127 E.02211
G1 X152.641 Y93.18 E.00225
G1 X152.719 Y93.689 E.01616
G1 X152.772 Y93.774 E.00314
G1 X152.878 Y94.47 E.02207
G1 X152.928 Y94.532 E.00249
G1 X153.033 Y95.223 E.02192
G1 X153.083 Y95.29 E.00263
G1 X144.855 Y95.29 E.25798
G1 X144.584 Y95.322 E.00855
G1 X144.163 Y95.452 E.01384
G1 X143.922 Y95.75 E.01202
G1 X143.802 Y96.048 E.01006
G1 X143.748 Y96.317 E.00861
G1 X143.748 Y97.172 E.02681
G1 X143.775 Y97.545 E.01172
G1 X143.888 Y98.231 E.02178
G1 X143.937 Y98.286 E.00231
G1 X144.016 Y98.781 E.01571
G1 X144.072 Y98.881 E.00361
G1 X144.183 Y99.577 E.0221
G1 X144.233 Y99.636 E.0024
G1 X144.343 Y100.332 E.02209
G1 X144.393 Y100.385 E.00229
G1 X144.48 Y100.924 E.01712
G1 X144.499 Y100.948 E.00096
G1 X144.581 Y103.638 E.08441
G1 X144.626 Y104.011 E.01175
G1 X144.568 Y104.46 E.0142
G1 X144.515 Y105.112 E.02054
G1 X144.475 Y105.147 E.00165
G1 X144.366 Y106.324 E.03705
G1 X144.325 Y106.365 E.00181
G1 X144.225 Y107.345 E.0309
G1 X144.121 Y107.749 E.01307
G1 X144.083 Y107.779 E.00151
G1 X143.981 Y108.196 E.01347
G1 X143.944 Y108.223 E.00144
G1 X143.84 Y108.643 E.01356
G1 X143.799 Y108.67 E.00154
G1 X143.664 Y109.251 E.0187
G1 X143.629 Y109.281 E.00144
G1 X143.526 Y109.697 E.01345
G1 X143.503 Y109.715 E.00092
G1 X143.38 Y110.149 E.01413
G1 X143.355 Y110.166 E.00095
G1 X143.231 Y110.624 E.01487
G1 X143.098 Y110.866 E.00865
G1 X142.984 Y111.141 E.00934
G1 X142.948 Y111.166 E.00137
G1 X142.833 Y111.441 E.00933
G1 X142.797 Y111.466 E.00138
G1 X142.683 Y111.741 E.00933
G1 X142.647 Y111.766 E.00138
G1 X142.532 Y112.041 E.00933
G1 X142.496 Y112.067 E.00138
G1 X142.382 Y112.341 E.00932
G1 X142.346 Y112.367 E.00138
G1 X142.232 Y112.641 E.00932
G1 X142.196 Y112.667 E.00139
G1 X142.081 Y112.941 E.00932
G1 X141.743 Y113.616 E.02367
G1 X141.522 Y113.883 E.01087
G1 X141.425 Y114.067 E.00652
G1 X141.367 Y114.105 E.00217
G1 X141.066 Y114.504 E.01567
G1 X141.009 Y114.631 E.00435
G1 X140.626 Y115.091 E.0188
G1 X140.561 Y115.237 E.00499
G1 X140.178 Y115.694 E.01869
G1 X140.115 Y115.838 E.00495
G1 X139.737 Y116.285 E.01835
G1 X139.687 Y116.394 E.00376
G1 X139.209 Y116.849 E.02069
G1 X139.095 Y116.908 E.004
G1 X137.293 Y118.667 E.07896
G1 X136.818 Y118.96 E.01752
G1 X136.78 Y119.019 E.0022
G1 X136.719 Y119.061 E.00231
G1 X136.375 Y119.25 E.01233
G1 X136.341 Y119.305 E.00203
G1 X135.724 Y119.702 E.023
G1 X135.458 Y119.882 E.01004
G1 X135.44 Y119.912 E.00111
G1 X135.276 Y120.004 E.0059
G1 X135.008 Y120.185 E.01014
G1 X134.99 Y120.215 E.0011
G1 X134.814 Y120.311 E.00629
G1 X134.544 Y120.515 E.01062
G1 X134.332 Y120.579 E.00692
G1 X134 Y120.743 E.01162
G1 X133.726 Y120.847 E.0092
G1 X133.702 Y120.883 E.00134
G1 X133.43 Y120.987 E.00915
G1 X133.404 Y121.023 E.00137
G1 X133.133 Y121.127 E.0091
G1 X133.106 Y121.163 E.00142
G1 X132.077 Y121.595 E.03501
G1 X132.053 Y121.631 E.00135
G1 X131.78 Y121.735 E.00915
G1 X131.755 Y121.771 E.00138
G1 X131.484 Y121.875 E.0091
G1 X131.093 Y121.967 E.01259
G1 X131.066 Y121.999 E.00132
G1 X130.499 Y122.114 E.01814
G1 X130.466 Y122.153 E.0016
G1 X129.896 Y122.269 E.01825
G1 X129.865 Y122.308 E.00154
G1 X129.293 Y122.424 E.01831
G1 X129.264 Y122.462 E.0015
G1 X128.69 Y122.579 E.01837
G1 X128.661 Y122.619 E.00155
G1 X128.294 Y122.71 E.01185
G1 X127.279 Y122.775 E.03188
G1 X126.863 Y122.817 E.01311
G1 X126.819 Y122.852 E.00176
G1 X125.48 Y122.927 E.04205
G1 X125.006 Y122.976 E.01494
G1 X124.986 Y123 E.00099
G1 X124.829 Y122.995 E.00493
G1 X124.771 Y122.958 E.00214
G1 X124.456 Y122.925 E.00995
G1 X123.159 Y122.851 E.04073
G1 X123.112 Y122.819 E.00175
G1 X122.799 Y122.78 E.00991
G1 X121.724 Y122.711 E.03376
G1 X121.695 Y122.687 E.00119
G1 X121.153 Y122.583 E.01732
G1 X121.081 Y122.529 E.00282
G1 X120.554 Y122.428 E.01682
G1 X120.45 Y122.369 E.00374
G1 X120.107 Y122.302 E.01097
G1 X120.053 Y122.249 E.00237
G1 X119.506 Y122.147 E.01745
G1 X119.451 Y122.095 E.00235
G1 X118.906 Y121.992 E.01739
G1 X118.854 Y121.946 E.0022
G1 X118.503 Y121.871 E.01123
G1 X118.472 Y121.837 E.00146
G1 X118.229 Y121.759 E.00801
G1 X118.173 Y121.693 E.00271
G1 X117.772 Y121.568 E.01319
G1 X117.696 Y121.507 E.00304
G1 X117.482 Y121.435 E.00707
G1 X117.421 Y121.374 E.00272
G1 X117.181 Y121.294 E.00792
G1 X117.122 Y121.232 E.0027
G1 X116.879 Y121.153 E.008
G1 X116.822 Y121.088 E.00271
G1 X116.579 Y121.011 E.00801
G1 X116.523 Y120.944 E.00272
G1 X116.123 Y120.82 E.01315
G1 X116.056 Y120.763 E.00275
G1 X115.832 Y120.687 E.00742
G1 X115.771 Y120.626 E.0027
G1 X115.539 Y120.549 E.00767
G1 X115.51 Y120.516 E.0014
G1 X115.291 Y120.418 E.00752
G1 X115.232 Y120.358 E.00264
G1 X115.155 Y120.319 E.00271
G1 X115.092 Y120.237 E.00324
G1 X114.846 Y120.119 E.00855
G1 X114.706 Y120.016 E.00546
G1 X114.642 Y119.934 E.00326
G1 X114.546 Y119.888 E.00332
G1 X114.481 Y119.792 E.00364
G1 X114.239 Y119.691 E.00823
G1 X114.192 Y119.632 E.00236
G1 X114.097 Y119.586 E.00331
G1 X114.032 Y119.491 E.00361
G1 X113.79 Y119.389 E.00824
G1 X113.743 Y119.33 E.00237
G1 X113.648 Y119.284 E.00329
G1 X113.583 Y119.19 E.00359
G1 X113.341 Y119.087 E.00826
G1 X113.293 Y119.028 E.00237
G1 X113.199 Y118.982 E.00327
G1 X113.134 Y118.89 E.00356
G1 X112.892 Y118.785 E.00828
G1 X112.843 Y118.726 E.00238
G1 X112.753 Y118.682 E.00315
G1 X112.709 Y118.619 E.00239
G1 X112.64 Y118.582 E.00248
G1 X112.588 Y118.492 E.00324
G1 X112.492 Y118.44 E.00342
G1 X112.438 Y118.344 E.00345
G1 X112.341 Y118.291 E.00346
G1 X112.294 Y118.208 E.003
G1 X112.054 Y118.066 E.00872
G1 X111.774 Y117.8 E.0121
G1 X111.712 Y117.715 E.00331
G1 X111.624 Y117.655 E.00334
G1 X111.561 Y117.567 E.0034
G1 X111.472 Y117.507 E.00334
G1 X111.409 Y117.419 E.0034
G1 X111.321 Y117.359 E.00335
G1 X111.258 Y117.271 E.0034
G1 X111.169 Y117.211 E.00336
G1 X111.107 Y117.122 E.0034
G1 X111.017 Y117.063 E.00337
G1 X110.956 Y116.974 E.0034
G1 X110.865 Y116.915 E.00337
G1 X110.804 Y116.825 E.0034
G1 X110.714 Y116.767 E.00338
G1 X110.653 Y116.677 E.00341
G1 X110.562 Y116.619 E.00339
G1 X110.502 Y116.528 E.00341
G1 X110.41 Y116.47 E.00339
G1 X110.351 Y116.38 E.00338
G1 X110.271 Y116.33 E.00296
G1 X110.23 Y116.262 E.00251
G1 X110.165 Y116.213 E.00254
G1 X110.062 Y116.083 E.0052
G1 X109.94 Y115.838 E.00859
G1 X109.854 Y115.778 E.00328
G1 X109.805 Y115.685 E.00329
G1 X109.747 Y115.638 E.00235
G1 X109.638 Y115.398 E.00828
G1 X109.542 Y115.335 E.00359
G1 X109.494 Y115.239 E.00338
G1 X109.407 Y115.176 E.00337
G1 X109.359 Y115.084 E.00325
G1 X109.3 Y115.037 E.00236
G1 X109.189 Y114.796 E.00832
G1 X109.095 Y114.733 E.00354
G1 X109.047 Y114.638 E.00336
G1 X108.961 Y114.574 E.00336
G1 X108.912 Y114.484 E.00321
G1 X108.853 Y114.435 E.00239
G1 X108.74 Y114.194 E.00837
G1 X108.648 Y114.132 E.00348
G1 X108.599 Y114.037 E.00334
G1 X108.514 Y113.972 E.00335
G1 X108.466 Y113.884 E.00316
G1 X108.407 Y113.834 E.00243
G1 X108.293 Y113.597 E.00825
G1 X108.23 Y113.552 E.00241
G1 X108.158 Y113.447 E.00401
G1 X108.073 Y113.224 E.00746
G1 X108.007 Y113.147 E.00318
G1 X107.922 Y112.923 E.00753
G1 X107.857 Y112.847 E.00313
G1 X107.771 Y112.621 E.00759
G1 X107.706 Y112.547 E.00308
G1 X107.62 Y112.319 E.00765
G1 X107.556 Y112.247 E.00302
G1 X107.469 Y112.017 E.00771
G1 X107.405 Y111.946 E.00297
G1 X107.318 Y111.715 E.00777
G1 X107.255 Y111.646 E.00292
G1 X107.167 Y111.412 E.00783
G1 X107.104 Y111.346 E.00287
G1 X107.016 Y111.11 E.00789
G1 X106.953 Y111.045 E.00282
G1 X106.864 Y110.808 E.00794
G1 X106.818 Y110.76 E.0021
G1 X106.711 Y110.402 E.0117
G1 X106.676 Y110.368 E.00153
G1 X106.589 Y109.974 E.01266
G1 X106.534 Y109.918 E.00246
G1 X106.447 Y109.529 E.0125
G1 X106.394 Y109.468 E.00254
G1 X106.314 Y109.115 E.01136
G1 X106.256 Y109.025 E.00335
G1 X106.136 Y108.473 E.01773
G1 X106.08 Y108.418 E.00244
G1 X105.993 Y108.027 E.01256
G1 X105.939 Y107.968 E.00249
G1 X105.853 Y107.585 E.01231
G1 X105.805 Y107.527 E.00236
G1 X105.721 Y106.755 E.02436
G1 X105.681 Y106.706 E.00197
G1 X105.615 Y105.91 E.02505
G1 X105.563 Y105.545 E.01155
G1 X105.529 Y105.504 E.00166
G1 X105.444 Y104.579 E.02914
G1 X105.394 Y104.448 E.00439
G1 X105.37 Y104.04 E.01282
G1 X105.401 Y102.959 E.03393
G1 X105.437 Y102.924 E.00156
G1 X105.468 Y102.437 E.0153
G1 X105.523 Y100.891 E.04849
G1 X105.652 Y100.163 E.02319
G1 X105.69 Y100.131 E.00157
G1 X105.788 Y99.567 E.01794
G1 X105.817 Y99.546 E.00114
G1 X105.955 Y98.808 E.02353
G1 X105.975 Y98.792 E.00079
G1 X106.05 Y98.449 E.01101
G1 X106.116 Y98.025 E.01348
G1 X106.153 Y97.976 E.00192
G1 X106.245 Y97.501 E.01518
G1 X106.265 Y97.166 E.01054
G1 X106.264 Y96.279 E.02779
G1 X106.115 Y95.755 E.01709
G1 X105.9 Y95.617 E.00799
G1 X105.758 Y95.415 E.00775
G1 X105.244 Y95.29 E.01659
G1 X96.924 Y95.29 E.26087
G1 X96.967 Y95.021 E.00857
G1 X97.011 Y94.961 E.00233
G1 X97.093 Y94.463 E.01582
G1 X97.133 Y94.433 E.00156
G1 X97.248 Y93.711 E.02293
G1 X97.277 Y93.688 E.00116
G1 X97.408 Y92.955 E.02335
G1 X97.429 Y92.938 E.00084
G1 X97.501 Y92.594 E.011
G1 X97.559 Y92.208 E.01225
G1 X97.596 Y92.175 E.00156
G1 X97.716 Y91.423 E.02387
G1 X97.759 Y91.367 E.00223
G1 X97.842 Y90.863 E.01601
G1 X97.882 Y90.833 E.00156
G1 X97.998 Y90.111 E.02294
G1 X98.037 Y90.08 E.00155
G1 X98.152 Y89.36 E.02287
G1 X98.191 Y89.328 E.0016
G1 X98.305 Y88.61 E.02278
G1 X98.346 Y88.575 E.00167
G1 X98.465 Y87.827 E.02378
G1 X98.508 Y87.773 E.00215
G1 X98.592 Y87.263 E.01621
G1 X98.629 Y87.236 E.00145
G1 X98.657 Y87.074 E.00515
M204 S1000
G1 X98.348 Y86.637 F10800
M204 S800
;TYPE:External perimeter
G1 F1200
G1 X143.034 Y86.639 E1.40108
G1 X143.043 Y86.68 E.00131
G1 X143.092 Y86.739 E.00242
G1 X143.196 Y87.274 E.01709
G1 X143.248 Y87.33 E.0024
G1 X143.353 Y87.877 E.01745
G1 X143.457 Y87.974 E.00445
G1 X143.572 Y88.193 E.00777
G1 X143.975 Y88.297 E.01303
G1 X144.353 Y88.231 E.01204
G1 X144.548 Y88.179 E.00632
G1 X144.575 Y88.146 E.00134
G1 X145.145 Y88.022 E.01828
G1 X145.171 Y87.989 E.00131
G1 X145.738 Y87.871 E.01816
G1 X145.766 Y87.833 E.0015
G1 X146.178 Y87.743 E.01324
G1 X146.23 Y87.7 E.00209
G1 X146.797 Y87.577 E.01819
G1 X146.824 Y87.544 E.00136
G1 X147.195 Y87.469 E.01187
G1 X147.399 Y87.406 E.00668
G1 X147.421 Y87.375 E.00122
G1 X147.848 Y87.268 E.01379
G1 X147.876 Y87.231 E.00147
G1 X148.301 Y87.125 E.01371
G1 X148.331 Y87.087 E.00154
G1 X148.723 Y86.991 E.01263
G1 X149.17 Y86.697 E.01679
G1 X149.176 Y86.635 E.00195
G1 X151.664 Y86.643 E.07802
G1 X151.737 Y87.113 E.01492
G1 X151.786 Y87.175 E.00247
G1 X151.89 Y87.861 E.02176
G1 X151.939 Y87.918 E.00236
G1 X152.044 Y88.607 E.02187
G1 X152.092 Y88.662 E.00228
G1 X152.197 Y89.354 E.02196
G1 X152.246 Y89.405 E.00223
G1 X152.331 Y89.957 E.01749
G1 X152.383 Y90.039 E.00307
G1 X152.486 Y90.714 E.02138
G1 X152.536 Y90.775 E.00248
G1 X152.64 Y91.461 E.02174
G1 X152.689 Y91.519 E.00237
G1 X152.793 Y92.208 E.02186
G1 X152.842 Y92.262 E.00229
G1 X152.947 Y92.954 E.02195
G1 X152.996 Y93.006 E.00223
G1 X153.08 Y93.556 E.01744
G1 X153.133 Y93.641 E.00315
G1 X153.236 Y94.314 E.02132
G1 X153.285 Y94.376 E.00249
G1 X153.39 Y95.061 E.02173
G1 X153.439 Y95.119 E.00238
G1 X153.522 Y95.667 E.01738
G1 X144.877 Y95.668 E.27105
G1 X144.662 Y95.692 E.00677
G1 X144.384 Y95.778 E.00912
G1 X144.251 Y95.943 E.00665
G1 X144.165 Y96.156 E.00721
G1 X144.125 Y96.355 E.00633
G1 X144.125 Y97.159 E.02521
G1 X144.15 Y97.501 E.01076
G1 X144.243 Y98.063 E.01786
G1 X144.292 Y98.119 E.00233
G1 X144.378 Y98.655 E.01703
G1 X144.434 Y98.756 E.00362
G1 X144.539 Y99.414 E.02092
G1 X144.589 Y99.473 E.00241
G1 X144.697 Y100.158 E.02172
G1 X144.747 Y100.21 E.00226
G1 X144.836 Y100.766 E.01766
G1 X144.872 Y100.811 E.00179
G1 X144.957 Y103.616 E.08798
G1 X144.98 Y103.861 E.00771
G1 X145.011 Y103.906 E.00172
G1 X145.021 Y104.053 E.00463
G1 X145.021 Y104.103 E.00156
G1 X144.99 Y104.131 E.00129
G1 X144.943 Y104.499 E.01163
G1 X144.878 Y105.293 E.02498
G1 X144.837 Y105.33 E.00173
G1 X144.729 Y106.493 E.03662
G1 X144.687 Y106.535 E.00187
G1 X144.586 Y107.521 E.03106
G1 X144.559 Y107.547 E.00118
G1 X144.457 Y107.963 E.01343
G1 X144.419 Y107.994 E.00152
G1 X144.314 Y108.419 E.01374
G1 X144.277 Y108.446 E.00144
G1 X144.171 Y108.875 E.01384
G1 X144.133 Y108.901 E.00144
G1 X144.003 Y109.461 E.01804
G1 X143.965 Y109.492 E.00153
G1 X143.861 Y109.917 E.0137
G1 X143.828 Y109.941 E.00128
G1 X143.716 Y110.374 E.01401
G1 X143.683 Y110.397 E.00125
G1 X143.575 Y110.797 E.01301
G1 X143.435 Y111.09 E.01016
G1 X143.404 Y111.111 E.00118
G1 X143.29 Y111.386 E.00933
G1 X143.254 Y111.411 E.00138
G1 X143.14 Y111.686 E.00933
G1 X143.104 Y111.711 E.00138
M73 P1 R28
G1 X142.989 Y111.986 E.00932
