; generated by PrusaSlicer 2.1.1+win64 on 2020-05-12 at 15:53:10 UTC

; 

; external perimeters extrusion width = 0.45mm
; perimeters extrusion width = 0.45mm
; infill extrusion width = 0.45mm
; solid infill extrusion width = 0.45mm
; top infill extrusion width = 0.40mm
; first layer extrusion width = 0.42mm

M73 P0 R76
M73 Q0 S77
M201 X1000 Y1000 Z1000 E5000 ; sets maximum accelerations, mm/sec^2
M203 X200 Y200 Z12 E120 ; sets maximum feedrates, mm/sec
M204 P1250 R1250 T1250 ; sets acceleration (P, T) and retract acceleration (R), mm/sec^2
M205 X8.00 Y8.00 Z0.40 E1.50 ; sets the jerk limits, mm/sec
M205 S0 T0 ; sets the minimum extruding and travel feed rate, mm/sec
M107
M862.3 P "MK3S" ; printer model check
M862.1 P0.4 ; nozzle diameter check
M115 U3.8.0 ; tell printer latest fw version
G90 ; use absolute coordinates
M83 ; extruder relative mode
M104 S215 ; set extruder temp
M140 S60 ; set bed temp
M190 S60 ; wait for bed temp
M109 S215 ; wait for extruder temp
G28 W ; home all without mesh bed level
G80 ; mesh bed leveling
G1 Y-3.0 F1000.0 ; go outside print area
G92 E0.0
G1 X60.0 E9.0 F1000.0 ; intro line
M73 Q0 S77
M73 P0 R76
G1 X100.0 E12.5 F1000.0 ; intro line
G92 E0.0
M221 S95
G21 ; set units to millimeters
G90 ; use absolute coordinates
M83 ; use relative distances for extrusion
M900 K30 ; Filament gcode
;BEFORE_LAYER_CHANGE
G92 E0.0
;0.2


G1 E-0.80000 F2100.00000
G1 Z0.600 F10800.000
;AFTER_LAYER_CHANGE
;0.2
G1 X106.372 Y99.752
G1 Z0.200
G1 E0.80000 F2100.00000
M204 S1000
G1 F1200
G1 X102.466 Y92.662 E0.25383
G1 X98.466 Y95.919 E0.16173
G1 X98.621 Y90.971 E0.15522
G1 X91.522 Y92.908 E0.23071
G1 X91.439 Y92.741 E0.00584
G1 X96.512 Y88.860 E0.20027
G1 X93.019 Y87.316 E0.11976
G1 X97.222 Y85.986 E0.13826
G1 X91.385 Y82.980 E0.20587
G1 X91.428 Y82.806 E0.00561
G1 X98.686 Y82.877 E0.22759
G1 X99.240 Y78.348 E0.14305
G1 X102.931 Y82.030 E0.16348
G1 X105.534 Y80.312 E0.09782
G1 X106.283 Y81.929 E0.05588
G1 X111.277 Y79.813 E0.17009
G1 X111.318 Y82.066 E0.07065
G1 X119.073 Y79.673 E0.25445
G1 X119.162 Y79.834 E0.00578
G1 X113.809 Y84.407 E0.22073
G1 X117.985 Y86.982 E0.15380
G1 X112.773 Y87.713 E0.16503
G1 X117.169 Y91.536 E0.18268
G1 X117.100 Y91.689 E0.00528
G1 X110.238 Y90.776 E0.21705
G1 X111.597 Y95.778 E0.16250
G1 X107.453 Y93.268 E0.15191
G1 X106.533 Y99.723 E0.20445
G1 X106.431 Y99.742 E0.00323
G1 E-0.80000 F2100.00000
G1 Z0.800 F10800.000
G1 X106.587 Y100.922
G1 Z0.200
G1 E0.80000 F2100.00000
G1 F1200
G1 X102.353 Y93.240 E0.27503
G1 X98.063 Y96.733 E0.17347
G1 X98.228 Y91.469 E0.16514
G1 X89.763 Y93.779 E0.27510
G1 X89.681 Y93.612 E0.00584
G1 X95.777 Y88.948 E0.24069
G1 X91.954 Y87.258 E0.13108
G1 X96.237 Y85.902 E0.14086
G1 X89.799 Y82.587 E0.22704
G1 X89.842 Y82.414 E0.00561
G1 X98.353 Y82.496 E0.26687
G1 X98.959 Y77.535 E0.15671
G1 X102.979 Y81.546 E0.17806
G1 X105.692 Y79.755 E0.10193
G1 X106.471 Y81.440 E0.05819
G1 X111.644 Y79.248 E0.17615
G1 X111.686 Y81.557 E0.07244
G1 X120.704 Y78.775 E0.29592
G1 X120.793 Y78.936 E0.00578
G1 X114.448 Y84.358 E0.26169
G1 X119.073 Y87.210 E0.17038
G1 X113.645 Y87.971 E0.17188
G1 X118.364 Y92.075 E0.19610
G1 X118.295 Y92.228 E0.00528
G1 X110.751 Y91.225 E0.23863
G1 X112.208 Y96.589 E0.17428
G1 X107.746 Y93.886 E0.16358
G1 X106.747 Y100.893 E0.22193
G1 X106.646 Y100.911 E0.00323
G1 X106.475 Y100.538 F10800.000
G1 E-0.80000 F2100.00000
G1 Z0.800 F10800.000
G1 X89.534 Y93.789
G1 Z0.200
G1 E0.80000 F2100.00000
G1 F1200
G1 X89.396 Y93.857 E0.00561
G1 X89.258 Y93.925 E0.00505
G1 X89.120 Y93.994 E0.00449
G1 X88.981 Y94.062 E0.00394
G1 X88.843 Y94.130 E0.00338
G1 X88.705 Y94.199 E0.00282
G1 X88.567 Y94.267 E0.00227
G1 E-0.80000 F2100.00000
G1 Z0.800 F10800.000
G1 X90.270 Y93.424
G1 Z0.200
G1 E0.80000 F2100.00000
G1 F1200
G1 X90.400 Y93.360 E0.00115
G1 X90.530 Y93.295 E0.00169
G1 X90.661 Y93.231 E0.00223
G1 X90.791 Y93.166 E0.00277
G1 X90.921 Y93.102 E0.00332
G1 X91.051 Y93.037 E0.00386
G1 X91.181 Y92.973 E0.00440
G1 X91.312 Y92.908 E0.00494
G1 X92.029 Y92.553 F10800.000
G1 F1200
G1 X92.159 Y92.489 E0.00115
G1 X92.289 Y92.424 E0.00169
G1 X92.419 Y92.360 E0.00223
G1 X92.550 Y92.295 E0.00277
G1 X92.680 Y92.231 E0.00332
G1 X92.810 Y92.167 E0.00386
G1 X92.940 Y92.102 E0.00440
G1 X93.070 Y92.038 E0.00494
G1 X93.937 Y92.132 F10800.000
G1 F1200
G1 X93.401 Y91.597 E0.02403
G1 X93.707 Y91.363 E0.01221
G1 X94.222 Y91.878 E0.02313
G1 X94.646 Y91.763 E0.01394
G1 X94.012 Y91.129 E0.02844
G1 X94.318 Y90.895 E0.01221
G1 X95.070 Y91.647 E0.03374
G1 X95.494 Y91.531 E0.01394
G1 X94.624 Y90.661 E0.03904
G1 X94.930 Y90.427 E0.01221
G1 X95.918 Y91.416 E0.04435
G1 X96.342 Y91.300 E0.01394
G1 X95.235 Y90.193 E0.04965
G1 X95.541 Y89.959 E0.01221
G1 X96.766 Y91.184 E0.05496
G1 X97.190 Y91.068 E0.01394
G1 X95.847 Y89.725 E0.06026
G1 X96.152 Y89.492 E0.01221
G1 X97.614 Y90.953 E0.06556
G1 X98.038 Y90.837 E0.01394
G1 X96.458 Y89.258 E0.07087
G1 X96.764 Y89.024 E0.01221
G1 X98.600 Y90.860 E0.08237
G1 E-0.80000 F2100.00000
G1 Z0.800 F10800.000
G1 X96.448 Y88.708
G1 Z0.200
G1 E0.80000 F2100.00000
G1 F1200
G1 X94.792 Y87.052 E0.07432
G1 X94.382 Y87.181 E0.01364
G1 X95.149 Y87.949 E0.03442
G1 X94.182 Y87.522 E0.03353
G1 X93.837 Y87.176 E0.01550
G1 E-0.80000 F2100.00000
G1 Z0.800 F10800.000
G1 X95.314 Y84.876
G1 Z0.200
G1 E0.80000 F2100.00000
G1 F1200
G1 X93.548 Y83.110 E0.07924
G1 X93.003 Y83.104 E0.01729
G1 X94.201 Y84.303 E0.05378
G1 E-0.80000 F2100.00000
G1 Z0.800 F10800.000
G1 X93.089 Y83.730
G1 Z0.200
G1 E0.80000 F2100.00000
G1 F1200
G1 X92.287 Y82.928 E0.03601
G1 E-0.80000 F2100.00000
G1 Z0.800 F10800.000
G1 X96.426 Y85.448
G1 Z0.200
G1 E0.80000 F2100.00000
G1 F1200
G1 X94.093 Y83.115 E0.10469
G1 X94.638 Y83.120 E0.01729
G1 X106.870 Y95.353 E0.54886
G1 X106.938 Y94.881 E0.01514
G1 X95.182 Y83.125 E0.52744
G1 X95.727 Y83.131 E0.01729
G1 X107.005 Y94.408 E0.50601
G1 X107.072 Y93.936 E0.01514
G1 X96.272 Y83.136 E0.48458
G1 X96.817 Y83.141 E0.01729
G1 X107.140 Y93.464 E0.46316
G1 X107.207 Y92.991 E0.01514
G1 X97.362 Y83.147 E0.44173
G1 X97.907 Y83.152 E0.01729
G1 X108.562 Y93.807 E0.47807
G1 E-0.80000 F2100.00000
G1 Z0.800 F10800.000
G1 X109.930 Y94.636
G1 Z0.200
G1 E0.80000 F2100.00000
G1 F1200
G1 X98.452 Y83.157 E0.51502
G1 X98.936 Y83.162 E0.01537
G1 X98.943 Y83.108 E0.00171
G1 X110.796 Y94.961 E0.53183
G1 X111.139 Y95.169 E0.01274
G1 X110.988 Y94.614 E0.01825
G1 X99.001 Y82.628 E0.53782
G1 X99.060 Y82.147 E0.01537
G1 X110.787 Y93.873 E0.52615
G1 X110.585 Y93.132 E0.02436
G1 X99.119 Y81.666 E0.51448
G1 X99.178 Y81.185 E0.01537
G1 X110.384 Y92.391 E0.50280
G1 X110.182 Y91.650 E0.02436
G1 X99.237 Y80.704 E0.49113
G1 X99.295 Y80.223 E0.01537
G1 X109.981 Y90.909 E0.47945
G1 X109.853 Y90.440 E0.01543
G1 X110.082 Y90.470 E0.00730
G1 X99.354 Y79.743 E0.48133
G1 X99.413 Y79.262 E0.01537
G1 X110.704 Y90.553 E0.50662
G1 X111.326 Y90.636 E0.01992
G1 X103.009 Y82.318 E0.37321
G1 X103.334 Y82.103 E0.01236
G1 X111.949 Y90.719 E0.38656
G1 X112.571 Y90.801 E0.01992
G1 X103.659 Y81.889 E0.39990
G1 X103.984 Y81.674 E0.01236
G1 X113.194 Y90.884 E0.41324
G1 X113.816 Y90.967 E0.01992
G1 X104.309 Y81.460 E0.42659
G1 X104.634 Y81.245 E0.01236
G1 X114.439 Y91.050 E0.43993
G1 X115.061 Y91.133 E0.01992
G1 X104.959 Y81.030 E0.45327
G1 X105.284 Y80.816 E0.01236
G1 X105.952 Y81.484 E0.02997
G1 E-0.80000 F2100.00000
G1 Z0.800 F10800.000
G1 X111.182 Y80.778
G1 Z0.200
G1 E0.80000 F2100.00000
G1 F1200
G1 X110.748 Y80.344 E0.01947
G1 X110.369 Y80.505 E0.01306
G1 X111.019 Y81.155 E0.02917
G1 X111.029 Y81.704 E0.01744
G1 X109.990 Y80.665 E0.04662
G1 X109.611 Y80.826 E0.01306
G1 X115.789 Y87.004 E0.27721
G1 X116.262 Y86.938 E0.01516
G1 X113.953 Y84.629 E0.10360
G1 E-0.80000 F2100.00000
G1 Z0.800 F10800.000
G1 X115.361 Y85.496
G1 Z0.200
G1 E0.80000 F2100.00000
G1 F1200
G1 X116.886 Y87.022 E0.06843
G1 E-0.80000 F2100.00000
G1 Z0.800 F10800.000
G1 X115.466 Y87.221
G1 Z0.200
G1 E0.80000 F2100.00000
G1 F1200
G1 X109.232 Y80.987 E0.27972
G1 X108.853 Y81.147 E0.01306
G1 X114.843 Y87.137 E0.26875
G1 X114.369 Y87.203 E0.01516
G1 X108.474 Y81.308 E0.26452
G1 X108.095 Y81.468 E0.01306
G1 X113.896 Y87.270 E0.26029
G1 X113.423 Y87.336 E0.01516
G1 X107.716 Y81.629 E0.25607
G1 X107.337 Y81.790 E0.01306
G1 X112.950 Y87.402 E0.25184
G1 X112.476 Y87.469 E0.01516
G1 X106.958 Y81.950 E0.24761
G1 X106.579 Y82.111 E0.01306
G1 X115.683 Y91.215 E0.40851
G1 X116.306 Y91.298 E0.01992
G1 X113.521 Y88.514 E0.12494
G1 E-0.80000 F2100.00000
G1 Z0.800 F10800.000
G1 X111.464 Y82.139
G1 Z0.200
G1 E0.80000 F2100.00000
G1 F1200
G1 X113.567 Y84.242 E0.09437
G1 X113.858 Y83.994 E0.01214
G1 X112.012 Y82.148 E0.08284
G1 X112.424 Y82.020 E0.01369
G1 X114.149 Y83.745 E0.07739
G1 X114.440 Y83.497 E0.01214
G1 X112.836 Y81.893 E0.07195
G1 X113.249 Y81.766 E0.01369
G1 X114.731 Y83.248 E0.06650
G1 X115.022 Y82.999 E0.01214
G1 X113.661 Y81.639 E0.06105
G1 X114.074 Y81.511 E0.01369
G1 X115.313 Y82.751 E0.05561
G1 X115.604 Y82.502 E0.01214
G1 X114.486 Y81.384 E0.05016
G1 X114.898 Y81.257 E0.01369
G1 X115.895 Y82.253 E0.04472
G1 X116.186 Y82.005 E0.01214
G1 X115.311 Y81.130 E0.03927
G1 X115.723 Y81.002 E0.01369
G1 X116.477 Y81.756 E0.03382
G1 X116.768 Y81.508 E0.01214
G1 X116.135 Y80.875 E0.02838
G1 X116.548 Y80.748 E0.01369
G1 X117.059 Y81.259 E0.02293
G1 X117.350 Y81.010 E0.01214
G1 X116.960 Y80.621 E0.01749
G1 X117.372 Y80.493 E0.01369
G1 X117.641 Y80.762 E0.01204
G1 X117.932 Y80.513 E0.01214
G1 X117.785 Y80.366 E0.00659
G1 X118.197 Y80.239 E0.01369
G1 X118.343 Y80.385 E0.00655
G1 E-0.80000 F2100.00000
G1 Z0.800 F10800.000
G1 X106.953 Y95.975
G1 Z0.200
G1 E0.80000 F2100.00000
G1 F1200
G1 X97.251 Y86.273 E0.43532
G1 X96.841 Y86.403 E0.01364
G1 X106.736 Y96.297 E0.44395
G1 X106.668 Y96.770 E0.01514
G1 X102.637 Y92.738 E0.18089
G1 X102.437 Y92.539 F10800.000
G1 F1200
G1 X96.431 Y86.533 E0.26949
G1 X96.021 Y86.662 E0.01364
G1 X102.019 Y92.660 E0.26913
G1 X101.722 Y92.903 E0.01217
G1 X95.612 Y86.792 E0.27417
G1 X95.202 Y86.922 E0.01364
G1 X101.425 Y93.145 E0.27922
G1 X101.127 Y93.387 E0.01217
G1 X98.898 Y91.158 E0.10004
G1 X98.881 Y91.681 E0.01661
G1 X100.830 Y93.629 E0.08743
G1 X100.532 Y93.872 E0.01217
G1 X98.865 Y92.204 E0.07481
G1 X98.849 Y92.727 E0.01661
G1 X100.235 Y94.114 E0.06220
G1 X99.938 Y94.356 E0.01217
G1 X98.832 Y93.251 E0.04959
G1 X98.816 Y93.774 E0.01661
G1 X99.640 Y94.598 E0.03698
G1 X99.343 Y94.840 E0.01217
G1 X98.800 Y94.297 E0.02437
G1 X98.783 Y94.820 E0.01661
G1 X99.166 Y95.203 E0.01717
G1 E-0.80000 F2100.00000
G1 Z0.800 F10800.000
G1 X103.299 Y93.940
G1 Z0.200
G1 E0.80000 F2100.00000
G1 F1200
G1 X106.751 Y97.392 E0.15489
G1 X106.684 Y97.864 F10800.000
G1 F1200
G1 X103.961 Y95.142 E0.12215
G1 E-0.80000 F2100.00000
G1 Z0.800 F10800.000
G1 X104.623 Y96.344
G1 Z0.200
G1 E0.80000 F2100.00000
G1 F1200
G1 X106.616 Y98.336 E0.08942
G1 X106.549 Y98.809 F10800.000
G1 F1200
G1 X105.286 Y97.545 E0.05668
G1 E-0.80000 F2100.00000
G1 Z0.800 F10800.000
G1 X106.372 Y130.495
G1 Z0.200
G1 E0.80000 F2100.00000
G1 F1200
G1 X102.466 Y123.404 E0.25383
G1 X98.466 Y126.661 E0.16173
G1 X98.621 Y121.713 E0.15522
G1 X91.522 Y123.650 E0.23071
G1 X91.439 Y123.484 E0.00584
G1 X96.512 Y119.602 E0.20027
G1 X93.019 Y118.059 E0.11976
G1 X97.222 Y116.728 E0.13826
G1 X91.385 Y113.722 E0.20587
G1 X91.428 Y113.549 E0.00561
G1 X98.686 Y113.619 E0.22759
G1 X99.240 Y109.090 E0.14305
M73 Q1 S76
G1 X102.931 Y112.773 E0.16348
G1 X105.534 Y111.054 E0.09782
M73 P1 R75
G1 X106.283 Y112.672 E0.05588
G1 X111.277 Y110.555 E0.17009
G1 X111.318 Y112.808 E0.07065
G1 X119.073 Y110.415 E0.25445
G1 X119.162 Y110.576 E0.00578
G1 X113.809 Y115.149 E0.22073
G1 X117.985 Y117.724 E0.15380
G1 X112.773 Y118.455 E0.16503
G1 X117.169 Y122.278 E0.18268
G1 X117.100 Y122.431 E0.00528
G1 X110.238 Y121.518 E0.21705
G1 X111.597 Y126.520 E0.16250
G1 X107.453 Y124.010 E0.15191
G1 X106.533 Y130.465 E0.20445
G1 X106.431 Y130.484 E0.00323
G1 E-0.80000 F2100.00000
G1 Z0.800 F10800.000
G1 X106.587 Y131.665
G1 Z0.200
G1 E0.80000 F2100.00000
G1 F1200
G1 X102.353 Y123.982 E0.27503
G1 X98.063 Y127.476 E0.17347
G1 X98.228 Y122.212 E0.16514
G1 X89.763 Y124.521 E0.27510
G1 X89.681 Y124.354 E0.00584
G1 X95.777 Y119.690 E0.24069
G1 X91.954 Y118.000 E0.13108
G1 X96.237 Y116.644 E0.14086
G1 X89.799 Y113.330 E0.22704
G1 X89.842 Y113.156 E0.00561
G1 X98.353 Y113.239 E0.26687
G1 X98.959 Y108.278 E0.15671
G1 X102.979 Y112.289 E0.17806
G1 X105.692 Y110.498 E0.10193
G1 X106.471 Y112.182 E0.05819
G1 X111.644 Y109.990 E0.17615
G1 X111.686 Y112.300 E0.07244
G1 X120.704 Y109.517 E0.29592
G1 X120.793 Y109.678 E0.00578
G1 X114.448 Y115.100 E0.26169
G1 X119.073 Y117.952 E0.17038
G1 X113.645 Y118.714 E0.17188
G1 X118.364 Y122.817 E0.19610
G1 X118.295 Y122.971 E0.00528
G1 X110.751 Y121.967 E0.23863
G1 X112.208 Y127.331 E0.17428
G1 X107.746 Y124.628 E0.16358
G1 X106.747 Y131.635 E0.22193
G1 X106.646 Y131.654 E0.00323
G1 X106.475 Y131.280 F10800.000
G1 E-0.80000 F2100.00000
G1 Z0.800 F10800.000
G1 X89.534 Y124.531
G1 Z0.200
G1 E0.80000 F2100.00000
G1 F1200
G1 X89.396 Y124.599 E0.00561
G1 X89.258 Y124.668 E0.00505
G1 X89.120 Y124.736 E0.00449
G1 X88.981 Y124.804 E0.00394
G1 X88.843 Y124.873 E0.00338
G1 X88.705 Y124.941 E0.00282
G1 X88.567 Y125.009 E0.00227
G1 E-0.80000 F2100.00000
G1 Z0.800 F10800.000
G1 X90.270 Y124.166
G1 Z0.200
G1 E0.80000 F2100.00000
G1 F1200
G1 X90.400 Y124.102 E0.00115
G1 X90.530 Y124.037 E0.00169
G1 X90.661 Y123.973 E0.00223
G1 X90.791 Y123.909 E0.00277
G1 X90.921 Y123.844 E0.00332
G1 X91.051 Y123.780 E0.00386
G1 X91.181 Y123.715 E0.00440
G1 X91.312 Y123.651 E0.00494
G1 X92.029 Y123.296 F10800.000
G1 F1200
G1 X92.159 Y123.231 E0.00115
G1 X92.289 Y123.167 E0.00169
G1 X92.419 Y123.102 E0.00223
G1 X92.550 Y123.038 E0.00277
G1 X92.680 Y122.973 E0.00332
G1 X92.810 Y122.909 E0.00386
G1 X92.940 Y122.844 E0.00440
G1 X93.070 Y122.780 E0.00494
G1 X93.937 Y122.874 F10800.000
G1 F1200
G1 X93.401 Y122.339 E0.02403
G1 X93.707 Y122.105 E0.01221
G1 X94.222 Y122.621 E0.02313
G1 X94.646 Y122.505 E0.01394
G1 X94.012 Y121.871 E0.02844
G1 X94.318 Y121.637 E0.01221
G1 X95.070 Y122.389 E0.03374
G1 X95.494 Y122.273 E0.01394
G1 X94.624 Y121.403 E0.03904
G1 X94.930 Y121.169 E0.01221
G1 X95.918 Y122.158 E0.04435
G1 X96.342 Y122.042 E0.01394
G1 X95.235 Y120.936 E0.04965
G1 X95.541 Y120.702 E0.01221
G1 X96.766 Y121.926 E0.05496
G1 X97.190 Y121.811 E0.01394
G1 X95.847 Y120.468 E0.06026
G1 X96.152 Y120.234 E0.01221
G1 X97.614 Y121.695 E0.06556
G1 X98.038 Y121.579 E0.01394
G1 X96.458 Y120.000 E0.07087
G1 X96.764 Y119.766 E0.01221
G1 X98.600 Y121.602 E0.08237
G1 E-0.80000 F2100.00000
G1 Z0.800 F10800.000
G1 X96.448 Y119.450
G1 Z0.200
G1 E0.80000 F2100.00000
G1 F1200
G1 X94.792 Y117.794 E0.07432
G1 X94.382 Y117.924 E0.01364
G1 X95.149 Y118.691 E0.03442
G1 X94.182 Y118.264 E0.03353
G1 X93.837 Y117.918 E0.01550
G1 E-0.80000 F2100.00000
G1 Z0.800 F10800.000
G1 X95.314 Y115.618
G1 Z0.200
G1 E0.80000 F2100.00000
G1 F1200
G1 X93.548 Y113.852 E0.07924
G1 X93.003 Y113.847 E0.01729
G1 X94.201 Y115.045 E0.05378
G1 E-0.80000 F2100.00000
G1 Z0.800 F10800.000
G1 X93.089 Y114.472
G1 Z0.200
G1 E0.80000 F2100.00000
G1 F1200
G1 X92.287 Y113.670 E0.03601
G1 E-0.80000 F2100.00000
G1 Z0.800 F10800.000
G1 X96.426 Y116.191
G1 Z0.200
G1 E0.80000 F2100.00000
G1 F1200
G1 X94.093 Y113.857 E0.10469
G1 X94.638 Y113.862 E0.01729
G1 X106.870 Y126.095 E0.54886
G1 X106.938 Y125.623 E0.01514
G1 X95.182 Y113.868 E0.52744
G1 X95.727 Y113.873 E0.01729
G1 X107.005 Y125.151 E0.50601
G1 X107.072 Y124.678 E0.01514
G1 X96.272 Y113.878 E0.48458
G1 X96.817 Y113.884 E0.01729
G1 X107.140 Y124.206 E0.46316
G1 X107.207 Y123.734 E0.01514
G1 X97.362 Y113.889 E0.44173
G1 X97.907 Y113.894 E0.01729
G1 X108.562 Y124.549 E0.47807
G1 E-0.80000 F2100.00000
G1 Z0.800 F10800.000
G1 X109.930 Y125.378
G1 Z0.200
G1 E0.80000 F2100.00000
G1 F1200
G1 X98.452 Y113.899 E0.51502
G1 X98.936 Y113.904 E0.01537
G1 X98.943 Y113.851 E0.00171
G1 X110.796 Y125.704 E0.53183
G1 X111.139 Y125.912 E0.01274
G1 X110.988 Y125.356 E0.01825
G1 X99.001 Y113.370 E0.53782
G1 X99.060 Y112.889 E0.01537
G1 X110.787 Y124.615 E0.52615
G1 X110.585 Y123.874 E0.02436
G1 X99.119 Y112.408 E0.51448
G1 X99.178 Y111.927 E0.01537
