; generated by PrusaSlicer 2.1.1+win64 on 2020-05-12 at 15:52:35 UTC

; 

; external perimeters extrusion width = 0.45mm
; perimeters extrusion width = 0.45mm
; infill extrusion width = 0.45mm
; solid infill extrusion width = 0.45mm
; top infill extrusion width = 0.40mm
; first layer extrusion width = 0.42mm

M73 P0 R57
M73 Q0 S57
M201 X1000 Y1000 Z1000 E5000 ; sets maximum accelerations, mm/sec^2
M203 X200 Y200 Z12 E120 ; sets maximum feedrates, mm/sec
M204 P1250 R1250 T1250 ; sets acceleration (P, T) and retract acceleration (R), mm/sec^2
M205 X8.00 Y8.00 Z0.40 E1.50 ; sets the jerk limits, mm/sec
M205 S0 T0 ; sets the minimum extruding and travel feed rate, mm/sec
M107
M862.3 P "MK3S" ; printer model check
M862.1 P0.4 ; nozzle diameter check
M115 U3.8.0 ; tell printer latest fw version
G90 ; use absolute coordinates
M83 ; extruder relative mode
M104 S215 ; set extruder temp
M140 S60 ; set bed temp
M190 S60 ; wait for bed temp
M109 S215 ; wait for extruder temp
G28 W ; home all without mesh bed level
G80 ; mesh bed leveling
G1 Y-3.0 F1000.0 ; go outside print area
G92 E0.0
G1 X60.0 E9.0 F1000.0 ; intro line
M73 Q0 S57
M73 P0 R57
G1 X100.0 E12.5 F1000.0 ; intro line
G92 E0.0
M221 S95
G21 ; set units to millimeters
G90 ; use absolute coordinates
M83 ; use relative distances for extrusion
M900 K30 ; Filament gcode
;BEFORE_LAYER_CHANGE
G92 E0.0
;0.2


G1 E-0.80000 F2100.00000
G1 Z0.600 F10800.000
;AFTER_LAYER_CHANGE
;0.2
G1 X204.923 Y132.380
G1 Z0.200
G1 E0.80000 F2100.00000
M204 S1000
G1 F1200
G1 X204.343 Y132.204 E0.01899
G1 X203.809 Y131.919 E0.01899
G1 X203.341 Y131.534 E0.01899
G1 X202.956 Y131.066 E0.01899
G1 X202.671 Y130.532 E0.01899
G1 X202.495 Y129.952 E0.01899
G1 X202.436 Y129.350 E0.01899
G1 X202.495 Y128.747 E0.01899
G1 X202.671 Y128.167 E0.01899
G1 X202.956 Y127.633 E0.01899
G1 X203.341 Y127.165 E0.01899
G1 X203.809 Y126.780 E0.01899
G1 X204.343 Y126.495 E0.01899
G1 X204.923 Y126.319 E0.01899
G1 X205.489 Y126.263 E0.01785
G1 X206.125 Y126.318 E0.02000
G1 X206.708 Y126.495 E0.01911
G1 X207.242 Y126.780 E0.01899
G1 X207.710 Y127.165 E0.01899
G1 X208.095 Y127.633 E0.01899
G1 X208.380 Y128.167 E0.01899
G1 X208.556 Y128.747 E0.01899
G1 X208.615 Y129.350 E0.01899
G1 X208.556 Y129.952 E0.01899
G1 X208.380 Y130.532 E0.01899
G1 X208.095 Y131.066 E0.01899
G1 X207.710 Y131.534 E0.01899
G1 X207.242 Y131.919 E0.01899
G1 X206.708 Y132.204 E0.01899
G1 X206.128 Y132.380 E0.01899
G1 X205.525 Y132.439 E0.01899
G1 X204.982 Y132.386 E0.01711
G1 X204.997 Y132.009 F10800.000
G1 F1200
G1 X204.488 Y131.854 E0.01666
G1 X204.019 Y131.604 E0.01666
G1 X203.609 Y131.267 E0.01666
G1 X203.271 Y130.856 E0.01666
G1 X203.021 Y130.387 E0.01666
G1 X202.867 Y129.878 E0.01666
G1 X202.814 Y129.350 E0.01666
G1 X202.867 Y128.821 E0.01666
G1 X203.021 Y128.312 E0.01666
G1 X203.271 Y127.843 E0.01666
G1 X203.609 Y127.433 E0.01666
G1 X204.019 Y127.095 E0.01666
G1 X204.488 Y126.845 E0.01666
G1 X204.997 Y126.691 E0.01666
G1 X205.492 Y126.642 E0.01560
G1 X206.053 Y126.690 E0.01767
G1 X206.563 Y126.845 E0.01670
G1 X207.032 Y127.095 E0.01666
G1 X207.442 Y127.433 E0.01666
G1 X207.780 Y127.843 E0.01666
G1 X208.030 Y128.312 E0.01666
G1 X208.184 Y128.821 E0.01666
G1 X208.237 Y129.350 E0.01666
G1 X208.184 Y129.878 E0.01666
G1 X208.030 Y130.387 E0.01666
G1 X207.780 Y130.856 E0.01666
G1 X207.442 Y131.267 E0.01666
G1 X207.032 Y131.604 E0.01666
G1 X206.563 Y131.854 E0.01666
G1 X206.054 Y132.008 E0.01666
G1 X205.525 Y132.061 E0.01666
G1 X205.056 Y132.014 E0.01478
G1 X204.733 Y132.309 F10800.000
G1 E-0.80000 F2100.00000
G1 Z0.800 F10800.000
G1 X171.013 Y127.090
G1 Z0.200
G1 E0.80000 F2100.00000
G1 F1200
G1 X169.727 Y126.963 E0.04050
G1 X168.491 Y126.588 E0.04050
G1 X167.352 Y125.979 E0.04051
G1 X166.353 Y125.160 E0.04051
G1 X165.533 Y124.161 E0.04051
G1 X164.924 Y123.022 E0.04050
G1 X164.549 Y121.786 E0.04051
G1 X164.423 Y120.500 E0.04051
G1 X164.549 Y119.214 E0.04051
G1 X164.924 Y117.978 E0.04051
G1 X165.533 Y116.839 E0.04051
G1 X166.353 Y115.840 E0.04051
G1 X167.352 Y115.021 E0.04050
G1 X168.491 Y114.412 E0.04051
G1 X169.727 Y114.037 E0.04050
G1 X171.013 Y113.910 E0.04051
G1 X172.298 Y114.037 E0.04050
G1 X173.535 Y114.412 E0.04051
G1 X174.674 Y115.021 E0.04050
G1 X175.673 Y115.840 E0.04051
G1 X176.492 Y116.839 E0.04050
G1 X177.101 Y117.978 E0.04051
G1 X177.476 Y119.214 E0.04051
G1 X177.603 Y120.500 E0.04051
G1 X177.476 Y121.786 E0.04051
G1 X177.101 Y123.022 E0.04051
G1 X176.492 Y124.161 E0.04051
G1 X175.673 Y125.160 E0.04050
G1 X174.674 Y125.979 E0.04051
G1 X173.535 Y126.588 E0.04051
G1 X172.298 Y126.963 E0.04051
G1 X171.072 Y127.084 E0.03862
G1 X171.013 Y126.711 F10800.000
G1 F1200
G1 X169.801 Y126.592 E0.03818
G1 X168.636 Y126.238 E0.03818
G1 X167.562 Y125.664 E0.03818
G1 X166.621 Y124.892 E0.03818
G1 X165.848 Y123.951 E0.03818
G1 X165.275 Y122.877 E0.03818
G1 X164.921 Y121.712 E0.03818
G1 X164.802 Y120.500 E0.03818
G1 X164.921 Y119.288 E0.03818
G1 X165.275 Y118.123 E0.03818
G1 X165.848 Y117.049 E0.03818
G1 X166.621 Y116.108 E0.03818
G1 X167.562 Y115.336 E0.03818
G1 X168.636 Y114.762 E0.03818
G1 X169.801 Y114.408 E0.03818
G1 X171.013 Y114.289 E0.03818
G1 X172.224 Y114.408 E0.03818
G1 X173.390 Y114.762 E0.03818
G1 X174.463 Y115.336 E0.03818
G1 X175.405 Y116.108 E0.03818
G1 X176.177 Y117.049 E0.03818
G1 X176.751 Y118.123 E0.03818
G1 X177.104 Y119.288 E0.03818
G1 X177.224 Y120.500 E0.03818
G1 X177.104 Y121.712 E0.03818
G1 X176.751 Y122.877 E0.03818
G1 X176.177 Y123.951 E0.03818
G1 X175.405 Y124.892 E0.03818
G1 X174.463 Y125.664 E0.03818
G1 X173.390 Y126.238 E0.03818
G1 X172.224 Y126.592 E0.03818
G1 X171.072 Y126.705 E0.03630
G1 X170.813 Y127.057 F10800.000
G1 E-0.80000 F2100.00000
G1 Z0.800 F10800.000
G1 X137.103 Y132.380
G1 Z0.200
G1 E0.80000 F2100.00000
G1 F1200
G1 X136.500 Y132.439 E0.01899
G1 X135.897 Y132.380 E0.01899
G1 X135.318 Y132.204 E0.01899
G1 X134.783 Y131.919 E0.01899
G1 X134.315 Y131.534 E0.01899
G1 X133.931 Y131.066 E0.01899
G1 X133.645 Y130.532 E0.01899
G1 X133.469 Y129.952 E0.01899
G1 X133.410 Y129.350 E0.01899
G1 X133.469 Y128.747 E0.01899
G1 X133.645 Y128.167 E0.01899
G1 X133.931 Y127.633 E0.01899
G1 X134.315 Y127.165 E0.01899
G1 X134.783 Y126.780 E0.01899
G1 X135.318 Y126.495 E0.01899
G1 X135.897 Y126.319 E0.01899
G1 X136.464 Y126.263 E0.01785
G1 X137.099 Y126.318 E0.02000
G1 X137.682 Y126.495 E0.01911
G1 X138.217 Y126.780 E0.01899
G1 X138.685 Y127.165 E0.01899
G1 X139.069 Y127.633 E0.01899
G1 X139.355 Y128.167 E0.01899
G1 X139.531 Y128.747 E0.01899
G1 X139.590 Y129.350 E0.01899
G1 X139.531 Y129.952 E0.01899
G1 X139.355 Y130.532 E0.01899
G1 X139.069 Y131.066 E0.01899
G1 X138.685 Y131.534 E0.01899
G1 X138.217 Y131.919 E0.01899
G1 X137.682 Y132.204 E0.01899
G1 X137.160 Y132.363 E0.01711
G1 X137.029 Y132.008 F10800.000
G1 F1200
G1 X136.500 Y132.061 E0.01666
G1 X135.971 Y132.008 E0.01666
G1 X135.463 Y131.854 E0.01666
G1 X134.994 Y131.604 E0.01666
G1 X134.583 Y131.267 E0.01666
G1 X134.246 Y130.856 E0.01666
G1 X133.995 Y130.387 E0.01666
G1 X133.841 Y129.878 E0.01666
G1 X133.789 Y129.350 E0.01666
G1 X133.841 Y128.821 E0.01666
G1 X133.995 Y128.312 E0.01666
G1 X134.246 Y127.843 E0.01666
G1 X134.583 Y127.433 E0.01666
G1 X134.994 Y127.095 E0.01666
G1 X135.463 Y126.845 E0.01666
G1 X135.971 Y126.691 E0.01666
G1 X136.466 Y126.642 E0.01560
G1 X137.028 Y126.690 E0.01767
G1 X137.537 Y126.845 E0.01670
G1 X138.006 Y127.095 E0.01666
G1 X138.417 Y127.433 E0.01666
G1 X138.754 Y127.843 E0.01666
G1 X139.005 Y128.312 E0.01666
G1 X139.159 Y128.821 E0.01666
G1 X139.211 Y129.350 E0.01666
G1 X139.159 Y129.878 E0.01666
G1 X139.005 Y130.387 E0.01666
G1 X138.754 Y130.856 E0.01666
G1 X138.417 Y131.267 E0.01666
G1 X138.006 Y131.604 E0.01666
G1 X137.537 Y131.854 E0.01666
G1 X137.086 Y131.991 E0.01478
G1 X136.900 Y132.387 F10800.000
G1 E-0.80000 F2100.00000
G1 Z0.800 F10800.000
G1 X141.937 Y142.413
G1 Z0.200
G1 E0.80000 F2100.00000
G1 F1200
G1 X138.090 Y142.413 E0.12061
G1 X137.817 Y142.340 E0.00887
G1 X137.673 Y142.196 E0.00637
G1 X137.600 Y141.923 E0.00887
G1 X137.600 Y135.822 E0.19128
G1 X137.405 Y135.096 E0.02359
G1 X136.817 Y134.507 E0.02609
G1 X136.090 Y134.312 E0.02359
G1 X129.077 Y134.312 E0.21988
G1 X128.804 Y134.239 E0.00887
G1 X128.660 Y134.096 E0.00637
G1 X128.587 Y133.822 E0.00887
G1 X128.587 Y124.877 E0.28047
G1 X128.660 Y124.604 E0.00887
G1 X128.804 Y124.460 E0.00637
G1 X129.077 Y124.387 E0.00887
G1 X136.090 Y124.387 E0.21988
G1 X136.817 Y124.192 E0.02359
G1 X137.405 Y123.604 E0.02609
G1 X137.600 Y122.877 E0.02359
G1 X137.600 Y109.077 E0.43268
G1 X137.673 Y108.804 E0.00887
G1 X137.817 Y108.660 E0.00637
G1 X138.090 Y108.587 E0.00887
G1 X203.935 Y108.587 E2.06454
G1 X204.209 Y108.660 E0.00887
G1 X204.352 Y108.804 E0.00637
G1 X204.426 Y109.077 E0.00887
G1 X204.426 Y122.877 E0.43268
G1 X204.620 Y123.604 E0.02359
G1 X205.209 Y124.192 E0.02609
G1 X205.935 Y124.387 E0.02359
G1 X212.948 Y124.387 E0.21988
G1 X213.222 Y124.460 E0.00887
G1 X213.365 Y124.604 E0.00637
G1 X213.438 Y124.877 E0.00887
G1 X213.438 Y133.822 E0.28047
G1 X213.365 Y134.096 E0.00887
G1 X213.222 Y134.239 E0.00637
G1 X212.948 Y134.312 E0.00887
G1 X205.935 Y134.312 E0.21988
G1 X205.209 Y134.507 E0.02359
G1 X204.620 Y135.096 E0.02609
G1 X204.426 Y135.822 E0.02359
G1 X204.426 Y141.923 E0.19128
G1 X204.352 Y142.196 E0.00887
G1 X204.209 Y142.340 E0.00637
G1 X203.935 Y142.413 E0.00887
G1 X200.092 Y142.413 E0.12052
G1 X199.818 Y142.340 E0.00887
G1 X199.675 Y142.196 E0.00637
G1 X199.601 Y141.923 E0.00887
G1 X199.601 Y135.822 E0.19128
G1 X199.407 Y135.096 E0.02359
G1 X198.818 Y134.507 E0.02609
G1 X198.092 Y134.312 E0.02359
G1 X143.937 Y134.312 E1.69799
G1 X143.210 Y134.507 E0.02359
G1 X142.622 Y135.096 E0.02609
G1 X142.427 Y135.822 E0.02359
G1 X142.427 Y141.923 E0.19128
G1 X142.354 Y142.196 E0.00887
G1 X142.210 Y142.340 E0.00637
G1 X141.995 Y142.397 E0.00699
G1 X141.986 Y142.790 F10800.000
G1 F1200
G1 X138.040 Y142.790 E0.12372
G1 X137.621 Y142.678 E0.01360
G1 X137.335 Y142.391 E0.01270
G1 X137.223 Y141.972 E0.01360
G1 X137.223 Y135.872 E0.19128
G1 X137.067 Y135.291 E0.01886
G1 X136.621 Y134.845 E0.01976
G1 X136.040 Y134.689 E0.01886
G1 X129.028 Y134.689 E0.21988
G1 X128.609 Y134.577 E0.01360
G1 X128.322 Y134.291 E0.01270
G1 X128.210 Y133.872 E0.01360
G1 X128.210 Y124.827 E0.28358
G1 X128.322 Y124.408 E0.01360
G1 X128.609 Y124.122 E0.01270
G1 X129.028 Y124.010 E0.01360
G1 X136.040 Y124.010 E0.21988
G1 X136.621 Y123.854 E0.01886
G1 X137.067 Y123.408 E0.01976
G1 X137.223 Y122.827 E0.01886
G1 X137.223 Y109.028 E0.43268
G1 X137.335 Y108.609 E0.01360
G1 X137.621 Y108.322 E0.01270
G1 X138.040 Y108.210 E0.01360
G1 X203.985 Y108.210 E2.06765
G1 X204.404 Y108.322 E0.01360
G1 X204.690 Y108.609 E0.01270
G1 X204.803 Y109.028 E0.01360
G1 X204.803 Y122.827 E0.43268
G1 X204.958 Y123.408 E0.01886
G1 X205.404 Y123.854 E0.01976
G1 X205.985 Y124.010 E0.01886
G1 X212.998 Y124.010 E0.21988
G1 X213.417 Y124.122 E0.01360
G1 X213.703 Y124.408 E0.01270
G1 X213.815 Y124.827 E0.01360
G1 X213.815 Y133.872 E0.28358
G1 X213.703 Y134.291 E0.01360
G1 X213.417 Y134.577 E0.01270
G1 X212.998 Y134.689 E0.01360
G1 X205.985 Y134.689 E0.21988
G1 X205.404 Y134.845 E0.01886
G1 X204.958 Y135.291 E0.01976
G1 X204.803 Y135.872 E0.01886
G1 X204.803 Y141.972 E0.19128
G1 X204.690 Y142.391 E0.01360
G1 X204.404 Y142.678 E0.01270
G1 X203.985 Y142.790 E0.01360
G1 X200.042 Y142.790 E0.12363
G1 X199.623 Y142.678 E0.01360
G1 X199.337 Y142.391 E0.01270
G1 X199.224 Y141.972 E0.01360
G1 X199.224 Y135.872 E0.19128
G1 X199.069 Y135.291 E0.01886
G1 X198.623 Y134.845 E0.01976
G1 X198.042 Y134.689 E0.01886
G1 X143.986 Y134.689 E1.69488
G1 X143.405 Y134.845 E0.01886
G1 X142.960 Y135.291 E0.01976
G1 X142.804 Y135.872 E0.01886
G1 X142.804 Y141.972 E0.19128
G1 X142.692 Y142.391 E0.01360
G1 X142.405 Y142.678 E0.01270
G1 X142.044 Y142.774 E0.01172
G1 X141.730 Y142.483 F10800.000
G1 E-0.80000 F2100.00000
G1 Z0.800 F10800.000
G1 X142.314 Y139.848
G1 Z0.200
G1 E0.80000 F2100.00000
G1 F1200
G1 X137.748 Y135.281 E0.20340
G1 X137.883 Y135.785 E0.01642
G1 X137.883 Y135.952 E0.00526
G1 X142.144 Y140.214 E0.18983
G1 X142.144 Y140.749 E0.01687
G1 X137.883 Y136.488 E0.18983
G1 X137.883 Y137.023 E0.01687
G1 X142.144 Y141.285 E0.18983
G1 X142.144 Y141.821 E0.01687
G1 X137.883 Y137.559 E0.18983
G1 X137.883 Y138.095 E0.01687
G1 X141.914 Y142.126 E0.17958
G1 X141.382 Y142.130 E0.01675
G1 X137.883 Y138.631 E0.15589
G1 X137.883 Y139.166 E0.01687
G1 X140.846 Y142.130 E0.13202
G1 X140.311 Y142.130 E0.01687
G1 X137.883 Y139.702 E0.10816
G1 X137.883 Y140.238 E0.01687
G1 X139.775 Y142.130 E0.08429
G1 X139.239 Y142.130 E0.01687
G1 X137.883 Y140.774 E0.06043
G1 X137.883 Y141.309 E0.01687
G1 X138.703 Y142.130 E0.03656
G1 X138.168 Y142.130 E0.01687
G1 X137.713 Y141.675 E0.02026
G1 E-0.80000 F2100.00000
G1 Z0.800 F10800.000
G1 X135.328 Y132.326
G1 Z0.200
G1 E0.80000 F2100.00000
G1 F1200
G1 X142.144 Y139.142 E0.30365
G1 X142.144 Y138.606 E0.01687
G1 X136.235 Y132.698 E0.26321
G1 X136.500 Y132.724 E0.00838
G1 X136.771 Y132.697 E0.00856
G1 X142.144 Y138.071 E0.23937
G1 X142.144 Y137.535 E0.01687
G1 X137.242 Y132.633 E0.21835
G1 X137.654 Y132.509 E0.01353
G1 X142.144 Y136.999 E0.20004
G1 X142.144 Y136.463 E0.01687
G1 X138.023 Y132.343 E0.18356
G1 X138.373 Y132.156 E0.01247
G1 X142.144 Y135.928 E0.16801
G1 X142.144 Y135.785 E0.00450
G1 X142.227 Y135.475 E0.01010
G1 X138.667 Y131.915 E0.15859
G1 X138.886 Y131.735 E0.00891
G1 X138.948 Y131.660 E0.00308
G1 X142.340 Y135.053 E0.15113
G1 X142.368 Y134.949 E0.00337
G1 X142.570 Y134.747 E0.00901
G1 X139.189 Y131.366 E0.15062
G1 X139.305 Y131.224 E0.00577
G1 X139.402 Y131.043 E0.00647
G1 X142.838 Y134.479 E0.15306
G1 X143.064 Y134.253 E0.01004
G1 X143.131 Y134.236 E0.00218
G1 X139.589 Y130.694 E0.15777
G1 X139.723 Y130.292 E0.01334
G1 X143.553 Y134.122 E0.17062
G1 X143.899 Y134.030 E0.01129
G1 X143.996 Y134.030 E0.00304
G1 X139.824 Y129.858 E0.18585
G1 X139.872 Y129.370 E0.01544
G1 X144.532 Y134.030 E0.20757
G1 X145.068 Y134.030 E0.01687
G1 X139.818 Y128.780 E0.23385
G1 X139.809 Y128.691 E0.00281
G1 X139.600 Y128.026 E0.02195
G1 X145.603 Y134.030 E0.26741
G1 X146.139 Y134.030 E0.01687
G1 X136.641 Y124.532 E0.42308
G1 X136.963 Y124.446 E0.01049
G1 X137.027 Y124.382 E0.00285
G1 X146.675 Y134.030 E0.42977
G1 X147.210 Y134.030 E0.01687
G1 X137.295 Y124.114 E0.44170
G1 X137.563 Y123.846 E0.01193
G1 X147.746 Y134.030 E0.45363
G1 X148.282 Y134.030 E0.01687
G1 X137.731 Y123.479 E0.46999
G1 X137.845 Y123.056 E0.01378
G1 X148.818 Y134.030 E0.48881
G1 X149.353 Y134.030 E0.01687
G1 X137.883 Y122.559 E0.51098
G1 X137.883 Y122.023 E0.01687
G1 X149.889 Y134.030 E0.53484
G1 X150.425 Y134.030 E0.01687
G1 X137.883 Y121.487 E0.55870
G1 X137.883 Y120.952 E0.01687
G1 X150.961 Y134.030 E0.58257
G1 X151.496 Y134.030 E0.01687
G1 X137.883 Y120.416 E0.60643
G1 X137.883 Y119.880 E0.01687
G1 X152.032 Y134.030 E0.63030
G1 X152.568 Y134.030 E0.01687
G1 X137.883 Y119.344 E0.65416
G1 X137.883 Y118.809 E0.01687
G1 X153.103 Y134.030 E0.67803
M73 Q1 S56
M73 P1 R56
G1 X153.639 Y134.030 E0.01687
G1 X137.883 Y118.273 E0.70189
G1 X137.883 Y117.737 E0.01687
G1 X154.175 Y134.030 E0.72576
G1 X154.711 Y134.030 E0.01687
G1 X137.883 Y117.202 E0.74962
G1 X137.883 Y116.666 E0.01687
G1 X155.246 Y134.030 E0.77348
G1 X155.782 Y134.030 E0.01687
G1 X137.883 Y116.130 E0.79735
G1 X137.883 Y115.594 E0.01687
G1 X156.318 Y134.030 E0.82121
G1 X156.854 Y134.030 E0.01687
G1 X137.883 Y115.059 E0.84508
G1 X137.883 Y114.523 E0.01687
G1 X157.389 Y134.030 E0.86894
G1 X157.925 Y134.030 E0.01687
G1 X137.883 Y113.987 E0.89281
G1 X137.883 Y113.451 E0.01687
G1 X158.461 Y134.030 E0.91667
G1 X158.996 Y134.030 E0.01687
G1 X137.883 Y112.916 E0.94054
G1 X137.883 Y112.380 E0.01687
G1 X159.532 Y134.030 E0.96440
G1 X160.068 Y134.030 E0.01687
G1 X137.883 Y111.844 E0.98827
G1 X137.883 Y111.309 E0.01687
G1 X160.604 Y134.030 E1.01213
G1 X161.139 Y134.030 E0.01687
G1 X137.883 Y110.773 E1.03599
G1 X137.883 Y110.237 E0.01687
G1 X161.675 Y134.030 E1.05986
G1 X162.211 Y134.030 E0.01687
G1 X137.883 Y109.701 E1.08372
G1 X137.883 Y109.166 E0.01687
G1 X162.747 Y134.030 E1.10759
G1 X163.282 Y134.030 E0.01687
