; generated by PrusaSlicer 2.4.2+win64 on 2022-06-09 at 17:43:57 UTC

; 

; external perimeters extrusion width = 0.45mm
; perimeters extrusion width = 0.45mm
; infill extrusion width = 0.45mm
; solid infill extrusion width = 0.45mm
; top infill extrusion width = 0.40mm
; first layer extrusion width = 0.42mm

M73 P0 R62
M73 Q0 S63
M107
;TYPE:Custom
M862.3 P "MK3S" ; printer model check
M862.1 P0.4 ; nozzle diameter check
M115 U3.8.0 ; tell printer latest fw version
G90 ; use absolute coordinates
M83 ; extruder relative mode
M104 S215 ; set extruder temp
M140 S60 ; set bed temp
M190 S60 ; wait for bed temp
M109 S215 ; wait for extruder temp
G28 W ; home all without mesh bed level
G80 ; mesh bed leveling
G1 Y-3.0 F1000.0 ; go outside print area
G92 E0.0
G1 X60.0 E9.0 F1000.0 ; intro line
G1 X100.0 E12.5 F1000.0 ; intro line
G92 E0.0
M221 S95
G21 ; set units to millimeters
G90 ; use absolute coordinates
M83 ; use relative distances for extrusion
M900 K0.05 ; Filament gcode LA 1.5
M900 K30 ; Filament gcode LA 1.0
M107
;LAYER_CHANGE
;Z:0.2
;HEIGHT:0.2
;BEFORE_LAYER_CHANGE
G92 E0.0
;0.2


G1 E-.8 F2100
M73 Q0 S62
G1 Z.6 F10800
;AFTER_LAYER_CHANGE
;0.2
G1 X78.68 Y43.194
G1 Z.2
G1 E.8 F2100
M204 S1000
;TYPE:Skirt/Brim
;WIDTH:0.42
G1 F1200
G1 X79.055 Y42.637 E.02105
G1 X79.513 Y42.146 E.02105
G1 X80.297 Y41.576 E.03038
G1 X97.415 Y32.403 E.60895
G1 X98.061 Y32.218 E.02106
G1 X98.914 Y32.129 E.02689
G1 X106.199 Y32.129 E.22841
G1 X161.99 Y33.205 E1.74962
G1 X162.797 Y33.294 E.02546
G1 X163.442 Y33.479 E.02105
G1 X164.051 Y33.763 E.02105
G1 X164.607 Y34.138 E.02105
G1 X165.099 Y34.596 E.02105
G1 X172.567 Y43.756 E.37058
G1 X173.056 Y44.554 E.02934
G1 X222.705 Y157.432 E3.86644
G1 X222.864 Y158.576 E.0362
G1 X222.864 Y165.815 E.22697
G1 X222.705 Y166.958 E.0362
G1 X222.306 Y167.921 E.03269
G1 X221.736 Y168.705 E.03038
G1 X221.245 Y169.163 E.02105
G1 X212.312 Y176.438 E.36121
G1 X211.19 Y177.061 E.04026
G1 X210.545 Y177.246 E.02105
G1 X209.704 Y177.336 E.02651
G1 X104.582 Y177.871 E3.29605
G1 X40.122 Y177.864 E2.02112
G1 X39.455 Y177.782 E.02105
G1 X38.81 Y177.597 E.02105
G1 X37.688 Y176.974 E.04025
G1 X28.798 Y169.735 E.35946
G1 X28.07 Y169.014 E.03213
G1 X27.694 Y168.457 E.02105
G1 X27.41 Y167.849 E.02105
G1 X27.225 Y167.203 E.02105
G1 X27.143 Y166.537 E.02105
G1 X27.136 Y159.111 E.23282
G1 X27.225 Y158.258 E.02689
G1 X27.41 Y157.613 E.02105
G1 X78.655 Y43.248 E3.92934
; printing object explosion prem bracket black.STL id:1 copy 0
G1 E-.8 F2100
G1 Z.8 F10800
G1 X73.082 Y145.779
G1 Z.2
G1 E.8 F2100
;TYPE:Perimeter
G1 F1200
G1 X73.759 Y145.869 E.02143
G1 X74.406 Y146.017 E.0208
G1 X75.037 Y146.222 E.0208
G1 X75.646 Y146.483 E.0208
G1 X76.231 Y146.797 E.0208
G1 X76.784 Y147.162 E.0208
G1 X77.303 Y147.576 E.0208
G1 X77.782 Y148.034 E.0208
G1 X78.218 Y148.534 E.0208
G1 X78.608 Y149.07 E.0208
G1 X78.948 Y149.64 E.0208
G1 X79.236 Y150.237 E.0208
G1 X79.469 Y150.858 E.0208
G1 X79.646 Y151.498 E.0208
G1 X79.764 Y152.15 E.0208
G1 X79.824 Y152.811 E.0208
G1 X79.824 Y153.474 E.0208
G1 X79.764 Y154.135 E.0208
G1 X79.646 Y154.787 E.0208
G1 X79.469 Y155.427 E.0208
G1 X79.236 Y156.048 E.0208
G1 X78.948 Y156.645 E.0208
G1 X78.608 Y157.215 E.0208
G1 X78.218 Y157.751 E.0208
G1 X77.782 Y158.251 E.0208
G1 X77.303 Y158.709 E.0208
M73 Q1 S62
G1 X76.784 Y159.123 E.0208
G1 X76.274 Y159.459 E.01917
G1 X75.648 Y159.801 E.02236
G1 X75.037 Y160.063 E.02086
G1 X74.406 Y160.268 E.0208
G1 X73.759 Y160.415 E.0208
G1 X73.102 Y160.505 E.0208
G1 X72.439 Y160.534 E.0208
G1 X71.777 Y160.505 E.0208
G1 X71.119 Y160.415 E.0208
M73 P1 R62
G1 X70.473 Y160.268 E.0208
G1 X69.842 Y160.063 E.0208
G1 X69.232 Y159.802 E.0208
G1 X68.648 Y159.488 E.0208
G1 X68.094 Y159.123 E.0208
G1 X67.576 Y158.709 E.0208
G1 X67.134 Y158.287 E.01917
G1 X66.661 Y157.753 E.02236
G1 X66.27 Y157.215 E.02086
G1 X65.93 Y156.645 E.0208
G1 X65.642 Y156.048 E.0208
G1 X65.409 Y155.427 E.0208
G1 X65.233 Y154.787 E.0208
G1 X65.114 Y154.135 E.0208
G1 X65.055 Y153.474 E.0208
G1 X65.055 Y152.811 E.0208
G1 X65.114 Y152.15 E.0208
G1 X65.233 Y151.498 E.0208
G1 X65.409 Y150.858 E.0208
G1 X65.642 Y150.237 E.0208
G1 X65.93 Y149.64 E.0208
G1 X66.27 Y149.07 E.0208
G1 X66.66 Y148.534 E.0208
G1 X67.096 Y148.034 E.0208
G1 X67.576 Y147.576 E.0208
G1 X68.094 Y147.162 E.0208
G1 X68.648 Y146.797 E.0208
G1 X69.232 Y146.483 E.0208
G1 X69.842 Y146.222 E.0208
G1 X70.473 Y146.017 E.0208
G1 X71.119 Y145.869 E.0208
G1 X71.777 Y145.78 E.0208
G1 X72.387 Y145.753 E.01917
G1 X73.022 Y145.777 E.0199
G1 X73.067 Y146.156 F10800
;TYPE:External perimeter
G1 F1200
G1 X73.692 Y146.241 E.01976
G1 X74.305 Y146.381 E.01973
G1 X74.904 Y146.575 E.01973
G1 X75.483 Y146.823 E.01973
G1 X76.037 Y147.121 E.01973
G1 X76.562 Y147.468 E.01973
G1 X77.054 Y147.86 E.01973
G1 X77.509 Y148.295 E.01973
G1 X77.923 Y148.769 E.01973
G1 X78.293 Y149.278 E.01973
G1 X78.616 Y149.818 E.01973
G1 X78.889 Y150.386 E.01973
G1 X79.11 Y150.975 E.01973
G1 X79.278 Y151.582 E.01973
G1 X79.39 Y152.201 E.01973
G1 X79.447 Y152.828 E.01973
G1 X79.447 Y153.457 E.01973
G1 X79.39 Y154.084 E.01973
G1 X79.278 Y154.703 E.01973
G1 X79.11 Y155.31 E.01973
G1 X78.889 Y155.899 E.01973
G1 X78.616 Y156.466 E.01973
G1 X78.293 Y157.007 E.01973
G1 X77.923 Y157.516 E.01973
G1 X77.509 Y157.99 E.01973
G1 X77.054 Y158.425 E.01973
G1 X76.562 Y158.817 E.01973
G1 X76.079 Y159.136 E.01815
G1 X75.483 Y159.462 E.02129
G1 X74.904 Y159.71 E.01976
G1 X74.305 Y159.904 E.01973
G1 X73.692 Y160.044 E.01973
G1 X73.068 Y160.129 E.01973
G1 X72.439 Y160.157 E.01973
G1 X71.81 Y160.129 E.01973
G1 X71.187 Y160.044 E.01973
G1 X70.573 Y159.904 E.01973
G1 X69.975 Y159.71 E.01973
G1 X69.396 Y159.462 E.01973
G1 X68.842 Y159.164 E.01973
G1 X68.316 Y158.817 E.01973
G1 X67.824 Y158.425 E.01973
G1 X67.406 Y158.025 E.01815
G1 X66.956 Y157.516 E.02129
G1 X66.585 Y157.007 E.01976
G1 X66.262 Y156.466 E.01973
G1 X65.989 Y155.899 E.01973
G1 X65.768 Y155.31 E.01973
G1 X65.601 Y154.703 E.01973
G1 X65.488 Y154.084 E.01973
G1 X65.432 Y153.457 E.01973
G1 X65.432 Y152.828 E.01973
G1 X65.488 Y152.201 E.01973
G1 X65.601 Y151.582 E.01973
G1 X65.768 Y150.975 E.01973
G1 X65.989 Y150.386 E.01973
G1 X66.262 Y149.818 E.01973
G1 X66.585 Y149.278 E.01973
G1 X66.955 Y148.769 E.01973
G1 X67.369 Y148.295 E.01973
G1 X67.824 Y147.86 E.01973
G1 X68.316 Y147.468 E.01973
G1 X68.842 Y147.121 E.01973
G1 X69.396 Y146.823 E.01973
G1 X69.975 Y146.575 E.01973
G1 X70.573 Y146.381 E.01973
G1 X71.187 Y146.241 E.01973
G1 X71.81 Y146.156 E.01973
G1 X72.389 Y146.13 E.01815
G1 X73.007 Y146.154 E.01941
G1 X73.298 Y145.829 F10800
G1 E-.8 F2100
G1 Z.8 F10800
G1 X40.789 Y160.117
G1 Z.2
G1 E.8 F2100
;TYPE:Perimeter
G1 F1200
G1 X40.988 Y160.575 E.01566
G1 X41.107 Y161.032 E.0148
G1 X41.159 Y161.502 E.0148
G1 X41.142 Y161.973 E.0148
G1 X41.056 Y162.438 E.0148
G1 X40.903 Y162.884 E.0148
G1 X40.687 Y163.304 E.0148
G1 X40.413 Y163.688 E.0148
G1 X40.085 Y164.028 E.0148
G1 X39.711 Y164.317 E.0148
G1 X39.3 Y164.548 E.0148
G1 X38.859 Y164.716 E.0148
G1 X38.398 Y164.819 E.0148
G1 X37.927 Y164.854 E.0148
G1 X37.456 Y164.819 E.0148
G1 X36.995 Y164.716 E.0148
G1 X36.554 Y164.548 E.0148
G1 X36.143 Y164.317 E.0148
G1 X35.769 Y164.028 E.0148
G1 X35.441 Y163.688 E.0148
G1 X35.192 Y163.34 E.01345
G1 X34.952 Y162.888 E.01602
G1 X34.798 Y162.438 E.01493
G1 X34.712 Y161.973 E.0148
G1 X34.695 Y161.502 E.0148
G1 X34.747 Y161.032 E.0148
G1 X34.866 Y160.575 E.0148
G1 X35.051 Y160.141 E.0148
G1 X35.297 Y159.738 E.0148
G1 X35.599 Y159.375 E.0148
G1 X35.95 Y159.06 E.0148
G1 X36.344 Y158.799 E.0148
G1 X36.772 Y158.599 E.0148
G1 X37.224 Y158.463 E.0148
G1 X37.677 Y158.396 E.01435
G1 X37.905 Y158.388 E.00718
G1 X38.175 Y158.396 E.00847
G1 X38.63 Y158.463 E.01441
G1 X39.082 Y158.599 E.0148
G1 X39.51 Y158.799 E.0148
G1 X39.903 Y159.06 E.0148
G1 X40.255 Y159.375 E.0148
G1 X40.557 Y159.738 E.0148
G1 X40.757 Y160.066 E.01206
G1 X40.467 Y160.314 F10800
;TYPE:External perimeter
G1 F1200
G1 X40.63 Y160.698 E.01307
G1 X40.735 Y161.101 E.01307
G1 X40.781 Y161.515 E.01307
G1 X40.766 Y161.932 E.01307
G1 X40.69 Y162.342 E.01307
G1 X40.555 Y162.737 E.01307
G1 X40.365 Y163.107 E.01307
G1 X40.122 Y163.446 E.01307
G1 X39.833 Y163.747 E.01307
G1 X39.503 Y164.001 E.01307
G1 X39.139 Y164.205 E.01307
G1 X38.75 Y164.354 E.01307
G1 X38.343 Y164.445 E.01307
G1 X37.927 Y164.475 E.01307
G1 X37.511 Y164.445 E.01307
G1 X37.104 Y164.354 E.01307
G1 X36.715 Y164.205 E.01307
G1 X36.351 Y164.001 E.01307
G1 X36.021 Y163.747 E.01307
G1 X35.732 Y163.446 E.01307
G1 X35.513 Y163.14 E.0118
G1 X35.299 Y162.738 E.01429
G1 X35.164 Y162.342 E.01312
G1 X35.088 Y161.932 E.01307
G1 X35.073 Y161.515 E.01307
G1 X35.119 Y161.101 E.01307
G1 X35.224 Y160.698 E.01307
G1 X35.387 Y160.314 E.01307
G1 X35.604 Y159.958 E.01307
G1 X35.871 Y159.637 E.01307
G1 X36.182 Y159.359 E.01307
G1 X36.529 Y159.129 E.01307
G1 X36.907 Y158.952 E.01307
G1 X37.306 Y158.832 E.01307
G1 X37.711 Y158.773 E.01284
G1 X37.907 Y158.765 E.00614
G1 X38.142 Y158.772 E.00739
G1 X38.548 Y158.832 E.01286
G1 X38.947 Y158.952 E.01307
G1 X39.325 Y159.129 E.01307
G1 X39.672 Y159.359 E.01307
G1 X39.983 Y159.637 E.01307
G1 X40.25 Y159.958 E.01307
G1 X40.436 Y160.263 E.01119
G1 X40.866 Y160.333 F10800
G1 E-.8 F2100
G1 Z.8 F10800
G1 X103.723 Y161.474
G1 Z.2
G1 E.8 F2100
;TYPE:Perimeter
G1 F1200
G1 X103.767 Y161.075 E.01258
G1 X103.889 Y160.579 E.01602
G1 X104.075 Y160.141 E.01493
G1 X104.321 Y159.738 E.0148
G1 X104.596 Y159.408 E.01345
G1 X104.972 Y159.062 E.01602
G1 X105.369 Y158.799 E.01493
G1 X105.796 Y158.599 E.0148
G1 X106.248 Y158.463 E.0148
G1 X106.715 Y158.394 E.0148
G1 X107.188 Y158.394 E.0148
G1 X107.655 Y158.463 E.0148
G1 X108.107 Y158.599 E.0148
G1 X108.534 Y158.799 E.0148
G1 X108.928 Y159.06 E.0148
G1 X109.28 Y159.375 E.0148
G1 X109.582 Y159.738 E.0148
G1 X109.828 Y160.141 E.0148
G1 X110.012 Y160.575 E.0148
G1 X110.132 Y161.032 E.0148
G1 X110.183 Y161.502 E.0148
G1 X110.166 Y161.973 E.0148
G1 X110.08 Y162.438 E.0148
G1 X109.928 Y162.884 E.0148
G1 X109.732 Y163.266 E.01345
G1 X109.44 Y163.685 E.01602
G1 X109.11 Y164.028 E.01493
G1 X108.736 Y164.317 E.0148
G1 X108.324 Y164.548 E.0148
G1 X107.883 Y164.716 E.0148
G1 X107.422 Y164.819 E.0148
G1 X106.951 Y164.854 E.0148
G1 X106.481 Y164.819 E.0148
G1 X106.02 Y164.716 E.0148
G1 X105.579 Y164.548 E.0148
G1 X105.167 Y164.317 E.0148
G1 X104.793 Y164.028 E.0148
G1 X104.496 Y163.719 E.01345
G1 X104.193 Y163.308 E.01602
G1 X103.975 Y162.884 E.01493
G1 X103.823 Y162.438 E.0148
G1 X103.737 Y161.973 E.0148
G1 X103.721 Y161.534 E.01379
G1 X104.098 Y161.515 F10800
;TYPE:External perimeter
G1 F1200
G1 X104.139 Y161.141 E.0118
G1 X104.248 Y160.699 E.01429
G1 X104.412 Y160.314 E.01312
G1 X104.629 Y159.958 E.01307
G1 X104.87 Y159.669 E.0118
G1 X105.205 Y159.36 E.01429
G1 X105.554 Y159.129 E.01312
G1 X105.931 Y158.952 E.01307
G1 X106.331 Y158.832 E.01307
G1 X106.743 Y158.771 E.01307
G1 X107.16 Y158.771 E.01307
G1 X107.572 Y158.832 E.01307
G1 X107.972 Y158.952 E.01307
G1 X108.349 Y159.129 E.01307
G1 X108.697 Y159.359 E.01307
G1 X109.007 Y159.637 E.01307
G1 X109.274 Y159.958 E.01307
G1 X109.491 Y160.314 E.01307
G1 X109.654 Y160.698 E.01307
G1 X109.76 Y161.101 E.01307
G1 X109.805 Y161.515 E.01307
M73 P1 R61
G1 X109.79 Y161.932 E.01307
G1 X109.714 Y162.342 E.01307
G1 X109.58 Y162.737 E.01307
G1 X109.408 Y163.071 E.0118
G1 X109.148 Y163.445 E.01429
G1 X108.857 Y163.747 E.01312
G1 X108.527 Y164.001 E.01307
G1 X108.164 Y164.205 E.01307
G1 X107.774 Y164.354 E.01307
G1 X107.367 Y164.445 E.01307
G1 X106.951 Y164.475 E.01307
G1 X106.536 Y164.445 E.01307
G1 X106.129 Y164.354 E.01307
G1 X105.739 Y164.205 E.01307
G1 X105.376 Y164.001 E.01307
G1 X105.046 Y163.747 E.01307
G1 X104.785 Y163.476 E.0118
G1 X104.514 Y163.109 E.01429
G1 X104.323 Y162.737 E.01312
G1 X104.189 Y162.342 E.01307
G1 X104.113 Y161.932 E.01307
G1 X104.1 Y161.575 E.01119
G1 X103.779 Y161.315 F10800
G1 E-.8 F2100
G1 Z.8 F10800
G1 X106.774 Y157.462
G1 Z.2
G1 E.8 F2100
;TYPE:Perimeter
G1 F1200
G1 X107.157 Y157.702 E.01418
G1 X107.548 Y157.864 E.01326
G1 X107.959 Y157.963 E.01326
G1 X108.349 Y157.993 E.01228
G1 X113.429 Y157.993 E.15928
G1 X113.635 Y158.01 E.00646
G1 X113.805 Y158.051 E.00549
G1 X113.967 Y158.117 E.00549
G1 X114.116 Y158.209 E.00549
G1 X114.249 Y158.323 E.00549
G1 X114.363 Y158.456 E.00549
G1 X114.454 Y158.605 E.00549
G1 X114.521 Y158.767 E.00549
G1 X114.562 Y158.937 E.00549
G1 X114.578 Y159.142 E.00646
G1 X114.578 Y166.319 E.22503
G1 X114.562 Y166.525 E.00646
G1 X114.521 Y166.695 E.00549
G1 X114.454 Y166.857 E.00549
G1 X114.363 Y167.006 E.00549
G1 X114.249 Y167.139 E.00549
G1 X114.116 Y167.253 E.00549
G1 X113.967 Y167.344 E.00549
G1 X113.805 Y167.411 E.00549
G1 X113.635 Y167.452 E.00549
G1 X113.429 Y167.468 E.00646
G1 X108.349 Y167.468 E.15928
G1 X107.959 Y167.499 E.01228
G1 X107.548 Y167.598 E.01326
G1 X107.157 Y167.76 E.01326
G1 X106.796 Y167.98 E.01326
G1 X106.475 Y168.255 E.01326
G1 X106.2 Y168.577 E.01326
G1 X105.979 Y168.937 E.01326
G1 X105.818 Y169.328 E.01326
G1 X105.719 Y169.739 E.01326
G1 X105.688 Y170.129 E.01228
G1 X105.688 Y173.558 E.10751
G1 X105.672 Y173.764 E.00646
G1 X105.631 Y173.934 E.00549
G1 X105.564 Y174.096 E.00549
G1 X105.473 Y174.245 E.00549
G1 X105.359 Y174.378 E.00549
G1 X105.226 Y174.492 E.00549
G1 X105.077 Y174.583 E.00549
G1 X104.915 Y174.65 E.00549
G1 X104.745 Y174.691 E.00549
G1 X104.539 Y174.707 E.00646
G1 X102.442 Y174.707 E.06575
G1 X102.237 Y174.691 E.00646
G1 X102.067 Y174.65 E.00549
G1 X101.905 Y174.583 E.00549
G1 X101.759 Y174.494 E.00536
G1 X101.622 Y174.378 E.00564
G1 X101.509 Y174.245 E.00546
G1 X101.417 Y174.096 E.00549
G1 X101.35 Y173.934 E.00549
G1 X101.309 Y173.764 E.00549
G1 X101.293 Y173.558 E.00646
G1 X101.293 Y169.367 E.13141
G1 X101.263 Y168.977 E.01228
G1 X101.164 Y168.566 E.01326
G1 X101.002 Y168.175 E.01326
G1 X100.781 Y167.815 E.01326
G1 X100.507 Y167.493 E.01326
G1 X100.185 Y167.218 E.01326
G1 X99.825 Y166.998 E.01326
G1 X99.434 Y166.836 E.01326
G1 X99.023 Y166.737 E.01326
G1 X98.632 Y166.706 E.01228
G1 X46.246 Y166.706 E1.64252
G1 X45.856 Y166.737 E.01228
G1 X45.445 Y166.836 E.01326
G1 X45.054 Y166.998 E.01326
G1 X44.693 Y167.218 E.01326
G1 X44.372 Y167.493 E.01326
G1 X44.097 Y167.815 E.01326
G1 X43.876 Y168.175 E.01326
G1 X43.715 Y168.566 E.01326
G1 X43.616 Y168.977 E.01326
G1 X43.585 Y169.367 E.01228
G1 X43.585 Y173.558 E.13141
G1 X43.569 Y173.764 E.00646
G1 X43.528 Y173.934 E.00549
G1 X43.461 Y174.096 E.00549
G1 X43.37 Y174.245 E.00549
G1 X43.256 Y174.378 E.00549
G1 X43.123 Y174.492 E.00549
G1 X42.974 Y174.583 E.00549
G1 X42.812 Y174.65 E.00549
G1 X42.642 Y174.691 E.00549
G1 X42.436 Y174.707 E.00646
G1 X40.339 Y174.707 E.06575
G1 X40.134 Y174.691 E.00646
G1 X39.964 Y174.65 E.00549
G1 X39.802 Y174.583 E.00549
G1 X39.653 Y174.492 E.00549
G1 X39.519 Y174.378 E.00549
G1 X39.406 Y174.245 E.00549
G1 X39.314 Y174.096 E.00549
G1 X39.247 Y173.934 E.00549
G1 X39.206 Y173.764 E.00549
G1 X39.19 Y173.558 E.00646
G1 X39.19 Y170.129 E.10751
G1 X39.16 Y169.739 E.01228
G1 X39.06 Y169.323 E.0134
G1 X38.878 Y168.902 E.01439
G1 X38.678 Y168.577 E.01197
G1 X38.404 Y168.255 E.01326
G1 X38.082 Y167.98 E.01326
G1 X37.722 Y167.76 E.01326
G1 X37.331 Y167.598 E.01326
G1 X36.92 Y167.499 E.01326
G1 X36.529 Y167.468 E.01228
G1 X31.449 Y167.468 E.15928
G1 X31.244 Y167.452 E.00646
G1 X31.074 Y167.411 E.00549
G1 X30.912 Y167.344 E.00549
G1 X30.763 Y167.253 E.00549
G1 X30.629 Y167.139 E.00549
G1 X30.516 Y167.006 E.00549
G1 X30.424 Y166.857 E.00549
G1 X30.357 Y166.695 E.00549
G1 X30.316 Y166.525 E.00549
G1 X30.3 Y166.319 E.00646
G1 X30.3 Y159.142 E.22503
G1 X30.316 Y158.937 E.00646
G1 X30.357 Y158.767 E.00549
G1 X30.424 Y158.605 E.00549
G1 X30.516 Y158.456 E.00549
G1 X30.629 Y158.323 E.00549
G1 X30.763 Y158.209 E.00549
G1 X30.912 Y158.117 E.00549
G1 X31.07 Y158.052 E.00536
G1 X31.245 Y158.01 E.00564
G1 X31.449 Y157.993 E.00644
G1 X36.529 Y157.993 E.15928
G1 X36.92 Y157.963 E.01228
G1 X37.331 Y157.864 E.01326
G1 X37.722 Y157.702 E.01326
G1 X38.082 Y157.481 E.01326
G1 X38.404 Y157.207 E.01326
G1 X38.678 Y156.885 E.01326
G1 X38.899 Y156.525 E.01326
G1 X39.061 Y156.134 E.01326
G1 X39.16 Y155.723 E.01326
G1 X39.19 Y155.332 E.01228
