; generated by PrusaSlicer 2.2.0+win64 on 2020-09-03 at 20:12:23 UTC

; 

; external perimeters extrusion width = 0.45mm
; perimeters extrusion width = 0.45mm
; infill extrusion width = 0.45mm
; solid infill extrusion width = 0.45mm
; top infill extrusion width = 0.40mm
; support material extrusion width = 0.35mm
; first layer extrusion width = 0.42mm

M73 P0 R130
M73 Q0 S131
M201 X1000 Y1000 Z1000 E5000 ; sets maximum accelerations, mm/sec^2
M203 X200 Y200 Z12 E120 ; sets maximum feedrates, mm/sec
M204 P1250 R1250 T1250 ; sets acceleration (P, T) and retract acceleration (R), mm/sec^2
M205 X8.00 Y8.00 Z0.40 E1.50 ; sets the jerk limits, mm/sec
M205 S0 T0 ; sets the minimum extruding and travel feed rate, mm/sec
M107
M862.3 P "MK3S" ; printer model check
M862.1 P0.4 ; nozzle diameter check
M115 U3.8.0 ; tell printer latest fw version
G90 ; use absolute coordinates
M83 ; extruder relative mode
M104 S215 ; set extruder temp
M140 S60 ; set bed temp
M190 S60 ; wait for bed temp
M109 S215 ; wait for extruder temp
G28 W ; home all without mesh bed level
G80 ; mesh bed leveling
G1 Y-3.0 F1000.0 ; go outside print area
G92 E0.0
G1 X60.0 E9.0 F1000.0 ; intro line
M73 Q0 S131
M73 P0 R130
G1 X100.0 E12.5 F1000.0 ; intro line
G92 E0.0
M221 S95
G21 ; set units to millimeters
G90 ; use absolute coordinates
M83 ; use relative distances for extrusion
M900 K0.06 ; Filament gcode LA 1.5
M900 K30 ; Filament gcode LA 1.0
;BEFORE_LAYER_CHANGE
G92 E0.0
;0.2


G1 E-0.80000 F2100.00000
G1 Z0.600 F10800.000
;AFTER_LAYER_CHANGE
;0.2
G1 X83.522 Y83.959
G1 Z0.200
G1 E0.80000 F2100.00000
M204 S1000
G1 F1200.000
G1 X80.678 Y83.761 E0.08940
G1 X77.889 Y83.168 E0.08940
G1 X75.210 Y82.193 E0.08940
G1 X72.692 Y80.854 E0.08940
G1 X70.386 Y79.178 E0.08940
G1 X68.335 Y77.197 E0.08940
G1 X66.579 Y74.951 E0.08940
G1 X65.154 Y72.481 E0.08940
G1 X64.086 Y69.838 E0.08940
G1 X63.407 Y67.115 E0.08797
G1 X63.098 Y64.236 E0.09079
G1 X63.197 Y61.386 E0.08942
G1 X63.692 Y58.578 E0.08940
G1 X64.574 Y55.867 E0.08940
G1 X65.823 Y53.304 E0.08940
G1 X67.418 Y50.940 E0.08940
G1 X69.326 Y48.821 E0.08940
G1 X71.475 Y47.018 E0.08797
G1 X73.927 Y45.478 E0.09079
G1 X76.533 Y44.318 E0.08942
G1 X79.229 Y43.545 E0.08797
G1 X82.096 Y43.135 E0.09079
G1 X84.948 Y43.135 E0.08942
G1 X87.772 Y43.532 E0.08940
G1 X90.512 Y44.318 E0.08940
G1 X93.075 Y45.459 E0.08797
G1 X95.534 Y46.988 E0.09079
G1 X97.719 Y48.821 E0.08942
G1 X99.627 Y50.940 E0.08940
G1 X101.221 Y53.304 E0.08940
G1 X102.471 Y55.867 E0.08940
G1 X103.352 Y58.578 E0.08940
G1 X103.847 Y61.386 E0.08940
G1 X103.947 Y64.236 E0.08940
G1 X103.654 Y67.026 E0.08797
G1 X102.959 Y69.837 E0.09079
G1 X101.891 Y72.481 E0.08942
G1 X100.488 Y74.911 E0.08797
G1 X98.711 Y77.197 E0.09079
G1 X96.659 Y79.178 E0.08942
G1 X94.389 Y80.827 E0.08797
G1 X91.836 Y82.192 E0.09079
G1 X89.156 Y83.168 E0.08942
G1 X86.367 Y83.761 E0.08940
G1 X83.582 Y83.955 E0.08752
G1 X83.522 Y83.581 F10800.000
G1 F1200.000
G1 X80.731 Y83.386 E0.08774
G1 X77.993 Y82.804 E0.08774
G1 X75.364 Y81.847 E0.08774
G1 X72.893 Y80.533 E0.08774
G1 X70.629 Y78.889 E0.08774
G1 X68.616 Y76.945 E0.08774
G1 X66.893 Y74.739 E0.08774
G1 X65.493 Y72.316 E0.08774
G1 X64.445 Y69.721 E0.08774
G1 X63.779 Y67.049 E0.08633
G1 X63.476 Y64.223 E0.08914
G1 X63.573 Y61.426 E0.08775
G1 X64.059 Y58.670 E0.08774
G1 X64.924 Y56.008 E0.08774
G1 X66.151 Y53.493 E0.08774
G1 X67.716 Y51.173 E0.08774
G1 X69.588 Y49.093 E0.08774
G1 X71.697 Y47.323 E0.08633
G1 X74.105 Y45.811 E0.08914
G1 X76.662 Y44.673 E0.08775
G1 X79.308 Y43.914 E0.08633
G1 X82.123 Y43.512 E0.08914
G1 X84.922 Y43.512 E0.08775
G1 X87.693 Y43.902 E0.08774
G1 X90.383 Y44.673 E0.08774
G1 X92.898 Y45.793 E0.08633
G1 X95.313 Y47.294 E0.08914
G1 X97.457 Y49.093 E0.08775
G1 X99.329 Y51.173 E0.08774
G1 X100.894 Y53.493 E0.08774
G1 X102.121 Y56.008 E0.08774
G1 X102.986 Y58.670 E0.08774
G1 X103.472 Y61.426 E0.08774
G1 X103.569 Y64.222 E0.08774
G1 X103.281 Y66.961 E0.08633
G1 X102.600 Y69.721 E0.08914
G1 X101.551 Y72.316 E0.08775
G1 X100.175 Y74.700 E0.08633
G1 X98.429 Y76.944 E0.08914
G1 X96.416 Y78.889 E0.08775
G1 X94.189 Y80.507 E0.08633
G1 X91.681 Y81.847 E0.08914
G1 X89.051 Y82.804 E0.08775
G1 X86.314 Y83.386 E0.08774
G1 X83.582 Y83.577 E0.08586
G1 X83.322 Y83.928 F10800.000
G1 E-0.80000 F2100.00000
G1 Z0.800 F10800.000
G1 X90.579 Y99.447
G1 Z0.200
G1 E0.80000 F2100.00000
G1 F1200.000
G1 X83.522 Y85.036 E0.50311
G1 X76.465 Y99.447 E0.50311
G1 X76.295 Y99.413 E0.00546
G1 X75.290 Y83.398 E0.50311
G1 X63.255 Y94.012 E0.50311
G1 X63.110 Y93.915 E0.00546
G1 X68.310 Y78.735 E0.50311
G1 X53.130 Y83.935 E0.50311
G1 X53.033 Y83.790 E0.00546
G1 X63.646 Y71.755 E0.50311
G1 X47.632 Y70.750 E0.50311
G1 X47.598 Y70.579 E0.00546
G1 X62.009 Y63.522 E0.50311
G1 X47.598 Y56.465 E0.50311
G1 X47.632 Y56.295 E0.00546
G1 X63.646 Y55.290 E0.50311
G1 X53.033 Y43.255 E0.50311
G1 X53.130 Y43.110 E0.00546
G1 X68.310 Y48.310 E0.50311
G1 X63.110 Y33.130 E0.50311
G1 X63.255 Y33.033 E0.00546
G1 X75.290 Y43.646 E0.50311
G1 X76.295 Y27.632 E0.50311
G1 X76.465 Y27.598 E0.00546
G1 X83.522 Y42.009 E0.50311
G1 X90.579 Y27.598 E0.50311
G1 X90.750 Y27.632 E0.00546
G1 X91.755 Y43.646 E0.50311
G1 X103.790 Y33.033 E0.50311
G1 X103.935 Y33.130 E0.00546
G1 X98.735 Y48.310 E0.50311
G1 X113.915 Y43.110 E0.50311
G1 X114.012 Y43.255 E0.00546
G1 X103.398 Y55.290 E0.50311
G1 X119.413 Y56.295 E0.50311
G1 X119.447 Y56.465 E0.00546
G1 X105.036 Y63.522 E0.50311
G1 X119.447 Y70.579 E0.50311
G1 X119.413 Y70.750 E0.00546
G1 X103.398 Y71.755 E0.50311
G1 X114.012 Y83.790 E0.50311
G1 X113.915 Y83.935 E0.00546
G1 X98.735 Y78.735 E0.50311
G1 X103.935 Y93.915 E0.50311
G1 X103.790 Y94.012 E0.00546
G1 X91.755 Y83.398 E0.50311
G1 X90.750 Y99.413 E0.50311
G1 X90.638 Y99.435 E0.00358
G1 E-0.80000 F2100.00000
G1 Z0.800 F10800.000
G1 X90.867 Y100.891
G1 Z0.200
G1 E0.80000 F2100.00000
G1 F1200.000
G1 X83.522 Y85.893 E0.52358
G1 X76.178 Y100.891 E0.52358
G1 X76.007 Y100.857 E0.00546
G1 X74.961 Y84.191 E0.52358
G1 X62.437 Y95.236 E0.52358
G1 X62.292 Y95.139 E0.00546
G1 X67.704 Y79.341 E0.52358
G1 X51.906 Y84.753 E0.52358
G1 X51.809 Y84.608 E0.00546
G1 X62.854 Y72.083 E0.52358
G1 X46.188 Y71.037 E0.52358
G1 X46.154 Y70.867 E0.00546
G1 X61.151 Y63.522 E0.52358
G1 X46.154 Y56.178 E0.52358
G1 X46.188 Y56.007 E0.00546
G1 X62.854 Y54.961 E0.52358
G1 X51.809 Y42.437 E0.52358
G1 X51.906 Y42.292 E0.00546
G1 X67.704 Y47.704 E0.52358
G1 X62.292 Y31.906 E0.52358
G1 X62.437 Y31.809 E0.00546
G1 X74.961 Y42.854 E0.52358
G1 X76.007 Y26.188 E0.52358
G1 X76.178 Y26.154 E0.00546
G1 X83.522 Y41.151 E0.52358
G1 X90.867 Y26.154 E0.52358
G1 X91.037 Y26.188 E0.00546
G1 X92.083 Y42.854 E0.52358
G1 X104.608 Y31.809 E0.52358
M73 Q0 S130
G1 X104.753 Y31.906 E0.00546
G1 X99.341 Y47.704 E0.52358
M73 P0 R129
G1 X115.139 Y42.292 E0.52358
G1 X115.236 Y42.437 E0.00546
G1 X104.191 Y54.961 E0.52358
G1 X120.857 Y56.007 E0.52358
G1 X120.891 Y56.178 E0.00546
G1 X105.893 Y63.522 E0.52358
G1 X120.891 Y70.867 E0.52358
G1 X120.857 Y71.037 E0.00546
G1 X104.191 Y72.083 E0.52358
G1 X115.236 Y84.608 E0.52358
G1 X115.139 Y84.753 E0.00546
G1 X99.341 Y79.341 E0.52358
G1 X104.753 Y95.139 E0.52358
G1 X104.608 Y95.236 E0.00546
G1 X92.083 Y84.191 E0.52358
G1 X91.037 Y100.857 E0.52358
G1 X90.926 Y100.879 E0.00358
G1 X90.756 Y100.506 F10800.000
G1 E-0.80000 F2100.00000
G1 Z0.800 F10800.000
G1 X105.120 Y95.952
G1 Z0.200
G1 E0.80000 F2100.00000
G1 F1200.000
G1 X105.120 Y95.562 E0.00593
G1 E-0.80000 F2100.00000
G1 Z0.800 F10800.000
G1 X51.482 Y85.120
G1 Z0.200
G1 E0.80000 F2100.00000
G1 F1200.000
G1 X51.093 Y85.120 E0.00593
G1 E-0.80000 F2100.00000
G1 Z0.800 F10800.000
G1 X53.706 Y83.198
G1 Z0.200
G1 E0.80000 F2100.00000
G1 F1200.000
G1 X53.885 Y83.377 E0.00797
G1 X54.284 Y83.240 E0.01325
G1 X54.077 Y83.034 E0.00920
G1 X54.328 Y82.749 E0.01193
G1 X54.682 Y83.104 E0.01577
G1 X55.081 Y82.967 E0.01325
G1 X54.579 Y82.465 E0.02235
G1 X54.829 Y82.181 E0.01193
G1 X55.479 Y82.831 E0.02892
G1 X55.878 Y82.694 E0.01325
G1 X55.080 Y81.897 E0.03550
G1 X55.331 Y81.612 E0.01193
G1 X56.277 Y82.558 E0.04207
G1 X56.675 Y82.421 E0.01325
G1 X55.582 Y81.328 E0.04865
G1 X55.832 Y81.044 E0.01193
G1 X57.074 Y82.285 E0.05523
G1 X57.472 Y82.148 E0.01325
G1 X56.083 Y80.759 E0.06180
G1 X56.334 Y80.475 E0.01193
G1 X57.871 Y82.012 E0.06838
G1 X58.269 Y81.875 E0.01325
G1 X56.584 Y80.191 E0.07495
G1 X56.835 Y79.906 E0.01193
G1 X58.668 Y81.739 E0.08153
G1 X59.066 Y81.602 E0.01325
G1 X57.086 Y79.622 E0.08810
G1 X57.337 Y79.338 E0.01193
G1 X59.465 Y81.466 E0.09468
G1 X59.863 Y81.329 E0.01325
G1 X57.587 Y79.053 E0.10125
G1 X57.838 Y78.769 E0.01193
G1 X60.262 Y81.193 E0.10783
G1 X60.660 Y81.056 E0.01325
G1 X58.089 Y78.485 E0.11440
G1 X58.340 Y78.200 E0.01193
G1 X61.059 Y80.920 E0.12098
G1 X61.457 Y80.783 E0.01325
G1 X58.590 Y77.916 E0.12756
G1 X58.841 Y77.632 E0.01193
G1 X61.856 Y80.647 E0.13413
G1 X62.254 Y80.510 E0.01325
G1 X59.092 Y77.348 E0.14071
G1 X59.343 Y77.063 E0.01193
G1 X62.653 Y80.374 E0.14728
G1 X63.052 Y80.237 E0.01325
G1 X59.593 Y76.779 E0.15386
G1 X59.844 Y76.495 E0.01193
G1 X63.450 Y80.101 E0.16043
G1 X63.849 Y79.964 E0.01325
G1 X60.095 Y76.210 E0.16701
G1 X60.345 Y75.926 E0.01193
G1 X64.247 Y79.828 E0.17358
G1 X64.646 Y79.691 E0.01325
G1 X60.596 Y75.642 E0.18016
G1 X60.847 Y75.357 E0.01193
G1 X65.044 Y79.555 E0.18673
G1 X65.443 Y79.418 E0.01325
G1 X61.098 Y75.073 E0.19331
G1 X61.348 Y74.789 E0.01193
G1 X65.841 Y79.282 E0.19988
G1 X66.240 Y79.145 E0.01325
G1 X61.599 Y74.504 E0.20646
G1 X61.850 Y74.220 E0.01193
G1 X66.638 Y79.009 E0.21304
G1 X67.037 Y78.872 E0.01325
G1 X62.101 Y73.936 E0.21961
G1 X62.351 Y73.651 E0.01193
G1 X67.435 Y78.736 E0.22619
G1 X67.834 Y78.599 E0.01325
G1 X62.602 Y73.367 E0.23276
G1 X62.853 Y73.083 E0.01193
G1 X68.366 Y78.596 E0.24528
G1 E-0.80000 F2100.00000
G1 Z0.800 F10800.000
G1 X66.829 Y75.454
G1 Z0.200
G1 E0.80000 F2100.00000
G1 F1200.000
G1 X63.605 Y72.230 E0.14344
G1 X63.856 Y71.946 E0.01193
G1 X65.422 Y73.512 E0.06970
G1 X64.899 Y72.606 E0.03293
G1 X64.796 Y72.351 E0.00865
G1 X58.165 Y65.720 E0.29501
G1 X58.524 Y65.544 E0.01258
G1 X64.433 Y71.453 E0.26290
G1 X64.071 Y70.555 E0.03046
G1 X58.883 Y65.368 E0.23078
G1 X59.242 Y65.192 E0.01258
G1 X63.763 Y69.713 E0.20112
G1 X63.585 Y69.000 E0.02311
G1 X59.602 Y65.016 E0.17724
G1 X59.961 Y64.840 E0.01258
G1 X63.408 Y68.287 E0.15335
G1 X63.230 Y67.574 E0.02311
G1 X60.320 Y64.664 E0.12947
G1 X60.679 Y64.489 E0.01258
G1 X63.100 Y66.910 E0.10773
G1 X63.036 Y66.311 E0.01896
G1 X61.038 Y64.313 E0.08889
G1 X61.397 Y64.137 E0.01258
G1 X62.972 Y65.711 E0.07004
G1 X62.907 Y65.112 E0.01896
G1 X61.756 Y63.961 E0.05120
G1 X62.116 Y63.785 E0.01258
G1 X63.034 Y64.704 E0.04087
G1 E-0.80000 F2100.00000
G1 Z0.800 F10800.000
G1 X63.546 Y71.636
G1 Z0.200
G1 E0.80000 F2100.00000
G1 F1200.000
G1 X57.806 Y65.896 E0.25537
G1 X57.447 Y66.071 E0.01258
G1 X62.794 Y71.418 E0.23788
G1 X62.223 Y71.383 E0.01799
G1 X57.087 Y66.247 E0.22846
G1 X56.728 Y66.423 E0.01258
G1 X61.652 Y71.347 E0.21904
G1 X61.081 Y71.311 E0.01799
G1 X56.369 Y66.599 E0.20963
G1 X56.010 Y66.775 E0.01258
G1 X60.510 Y71.275 E0.20021
G1 X59.939 Y71.239 E0.01799
G1 X55.651 Y66.951 E0.19079
G1 X55.292 Y67.127 E0.01258
G1 X59.368 Y71.203 E0.18137
G1 X58.797 Y71.168 E0.01799
G1 X54.932 Y67.303 E0.17195
G1 X54.573 Y67.479 E0.01258
G1 X58.227 Y71.132 E0.16253
G1 X57.656 Y71.096 E0.01799
G1 X54.214 Y67.654 E0.15311
G1 X53.855 Y67.830 E0.01258
G1 X57.085 Y71.060 E0.14369
G1 X56.514 Y71.024 E0.01799
G1 X53.496 Y68.006 E0.13427
G1 X53.137 Y68.182 E0.01258
G1 X55.943 Y70.988 E0.12486
G1 X55.372 Y70.953 E0.01799
G1 X52.777 Y68.358 E0.11544
G1 X52.418 Y68.534 E0.01258
G1 X54.801 Y70.917 E0.10602
G1 X54.230 Y70.881 E0.01799
G1 X52.059 Y68.710 E0.09660
G1 X51.700 Y68.886 E0.01258
G1 X53.660 Y70.845 E0.08718
G1 X53.089 Y70.809 E0.01799
G1 X51.341 Y69.061 E0.07776
G1 X50.982 Y69.237 E0.01258
G1 X52.518 Y70.774 E0.06834
G1 X51.947 Y70.738 E0.01799
G1 X50.622 Y69.413 E0.05892
G1 X50.263 Y69.589 E0.01258
G1 X51.376 Y70.702 E0.04950
G1 X50.805 Y70.666 E0.01799
G1 X49.904 Y69.765 E0.04009
G1 X49.545 Y69.941 E0.01258
G1 X50.234 Y70.630 E0.03067
G1 X49.663 Y70.594 E0.01799
G1 X49.186 Y70.117 E0.02125
G1 X48.827 Y70.293 E0.01258
G1 X49.093 Y70.559 E0.01183
G1 X48.522 Y70.523 E0.01799
G1 X48.341 Y70.342 E0.00805
G1 E-0.80000 F2100.00000
G1 Z0.800 F10800.000
G1 X48.875 Y56.965
G1 Z0.200
G1 E0.80000 F2100.00000
G1 F1200.000
G1 X48.438 Y56.527 E0.01945
G1 X48.941 Y56.496 E0.01587
G1 X49.553 Y57.108 E0.02723
G1 X50.602 Y57.621 E0.03673
G1 X49.444 Y56.464 E0.05148
G1 X49.948 Y56.433 E0.01587
G1 X51.650 Y58.135 E0.07573
G1 X52.699 Y58.648 E0.03673
G1 X50.451 Y56.401 E0.09998
G1 X50.955 Y56.369 E0.01587
G1 X53.747 Y59.162 E0.12423
G1 X54.796 Y59.675 E0.03673
G1 X51.458 Y56.338 E0.14848
G1 X51.962 Y56.306 E0.01587
G1 X55.844 Y60.189 E0.17273
G1 X56.893 Y60.702 E0.03673
G1 X52.465 Y56.275 E0.19697
G1 X52.969 Y56.243 E0.01587
G1 X57.941 Y61.216 E0.22122
G1 X58.990 Y61.729 E0.03673
G1 X53.472 Y56.211 E0.24547
G1 X53.975 Y56.180 E0.01587
G1 X60.038 Y62.242 E0.26972
G1 X61.087 Y62.756 E0.03673
G1 X54.479 Y56.148 E0.29397
G1 X54.982 Y56.117 E0.01587
G1 X62.825 Y63.959 E0.34889
G1 X62.843 Y63.442 E0.01627
G1 X55.486 Y56.085 E0.32730
G1 X55.989 Y56.053 E0.01587
G1 X62.861 Y62.925 E0.30570
G1 X62.879 Y62.408 E0.01627
G1 X56.493 Y56.022 E0.28411
G1 X56.996 Y55.990 E0.01587
G1 X62.897 Y61.891 E0.26251
G1 X62.915 Y61.374 E0.01627
G1 X57.500 Y55.959 E0.24092
G1 X58.003 Y55.927 E0.01587
G1 X62.993 Y60.917 E0.22200
G1 X63.073 Y60.462 E0.01453
G1 X58.506 Y55.895 E0.20317
G1 X59.010 Y55.864 E0.01587
G1 X63.153 Y60.007 E0.18434
G1 X63.234 Y59.552 E0.01453
G1 X59.513 Y55.832 E0.16551
G1 X60.017 Y55.801 E0.01587
G1 X63.314 Y59.098 E0.14668
G1 X63.394 Y58.643 E0.01453
G1 X60.520 Y55.769 E0.12785
G1 X61.024 Y55.737 E0.01587
G1 X63.510 Y58.224 E0.11062
G1 X63.641 Y57.820 E0.01336
G1 X61.527 Y55.706 E0.09406
G1 X62.031 Y55.674 E0.01587
G1 X63.773 Y57.416 E0.07750
G1 X63.904 Y57.012 E0.01336
G1 X62.534 Y55.643 E0.06094
G1 X63.038 Y55.611 E0.01587
G1 X64.035 Y56.609 E0.04438
G1 X64.166 Y56.205 E0.01336
G1 X63.541 Y55.579 E0.02782
G1 X64.044 Y55.548 E0.01587
G1 X64.298 Y55.801 E0.01126
G1 X64.468 Y55.437 E0.01265
G1 X61.801 Y52.770 E0.11866
G1 X57.806 Y48.240 E0.19001
G1 X64.644 Y55.077 E0.30420
G1 X64.819 Y54.718 E0.01259
G1 X53.726 Y43.613 E0.49377
G1 X54.523 Y43.886 E0.02649
G1 X64.995 Y54.358 E0.46588
G1 X65.170 Y53.998 E0.01259
G1 X55.337 Y44.165 E0.43748
G1 X56.151 Y44.444 E0.02706
G1 X65.346 Y53.639 E0.40908
G1 X65.521 Y53.279 E0.01259
G1 X56.964 Y44.723 E0.38067
G1 X57.778 Y45.001 E0.02706
G1 X65.723 Y52.947 E0.35348
G1 X65.939 Y52.627 E0.01212
G1 X58.592 Y45.280 E0.32686
G1 X59.406 Y45.559 E0.02706
G1 X66.154 Y52.307 E0.30024
G1 X66.370 Y51.988 E0.01212
G1 X60.220 Y45.838 E0.27362
G1 X61.033 Y46.116 E0.02706
G1 X66.585 Y51.668 E0.24701
G1 X66.801 Y51.349 E0.01212
G1 X61.847 Y46.395 E0.22039
G1 X62.661 Y46.674 E0.02706
G1 X67.017 Y51.029 E0.19377
G1 X67.239 Y50.716 E0.01207
G1 X63.475 Y46.953 E0.16745
G1 X64.289 Y47.231 E0.02706
G1 X67.492 Y50.435 E0.14252
G1 X67.746 Y50.153 E0.01192
G1 X65.103 Y47.510 E0.11759
G1 X65.916 Y47.789 E0.02706
G1 X67.999 Y49.872 E0.09266
G1 X68.253 Y49.590 E0.01192
G1 X66.730 Y48.068 E0.06774
G1 X67.544 Y48.347 E0.02706
G1 X68.506 Y49.309 E0.04281
G1 X68.760 Y49.027 E0.01192
G1 X68.358 Y48.625 E0.01788
G1 X68.765 Y48.765 E0.01353
G1 X68.625 Y48.358 E0.01353
G1 X69.013 Y48.746 E0.01726
G1 X69.129 Y48.617 E0.00543
G1 X69.287 Y48.484 E0.00650
G1 X68.346 Y47.544 E0.04184
G1 X68.068 Y46.730 E0.02706
G1 X69.578 Y48.240 E0.06719
G1 X69.869 Y47.996 E0.01195
G1 X67.789 Y45.916 E0.09254
G1 X67.510 Y45.102 E0.02706
G1 X70.160 Y47.752 E0.11788
G1 X70.451 Y47.508 E0.01195
G1 X67.231 Y44.289 E0.14323
G1 X66.953 Y43.475 E0.02706
G1 X70.742 Y47.264 E0.16857
G1 X71.033 Y47.020 E0.01195
G1 X66.674 Y42.661 E0.19392
G1 X66.395 Y41.847 E0.02706
G1 X71.326 Y46.778 E0.21935
G1 X71.654 Y46.571 E0.01221
G1 X66.116 Y41.033 E0.24638
G1 X65.838 Y40.220 E0.02706
G1 X71.983 Y46.365 E0.27340
G1 X72.312 Y46.159 E0.01221
G1 X65.559 Y39.406 E0.30042
G1 X65.280 Y38.592 E0.02706
G1 X72.640 Y45.952 E0.32745
