; generated by PrusaSlicer 2.4.2+win64 on 2022-07-29 at 01:47:18 UTC

; 

; external perimeters extrusion width = 0.45mm
; perimeters extrusion width = 0.45mm
; infill extrusion width = 0.45mm
; solid infill extrusion width = 0.45mm
; top infill extrusion width = 0.40mm
; support material extrusion width = 0.35mm
; first layer extrusion width = 0.42mm

M73 P0 R149
M73 Q0 S150
M107
;TYPE:Custom
M862.3 P "MK3S" ; printer model check
M862.1 P0.4 ; nozzle diameter check
M115 U3.8.0 ; tell printer latest fw version
G90 ; use absolute coordinates
M83 ; extruder relative mode
M104 S215 ; set extruder temp
M140 S60 ; set bed temp
M190 S60 ; wait for bed temp
M109 S215 ; wait for extruder temp
G28 W ; home all without mesh bed level
G80 ; mesh bed leveling
G1 Y-3.0 F1000.0 ; go outside print area
G92 E0.0
G1 X60.0 E9.0 F1000.0 ; intro line
G1 X100.0 E12.5 F1000.0 ; intro line
G92 E0.0
M221 S95
G21 ; set units to millimeters
G90 ; use absolute coordinates
M83 ; use relative distances for extrusion
M900 K0.05 ; Filament gcode LA 1.5
M900 K30 ; Filament gcode LA 1.0
M107
;LAYER_CHANGE
;Z:0.2
;HEIGHT:0.2
;BEFORE_LAYER_CHANGE
G92 E0.0
;0.2


G1 E-.8 F2100
M73 Q0 S149
G1 Z.6 F7500
;AFTER_LAYER_CHANGE
;0.2
G1 X89.949 Y99.749
G1 Z.2
G1 E.8 F2100
M204 S1000
;TYPE:Skirt/Brim
;WIDTH:0.42
G1 F1080
G1 X109.903 Y85.868 E.76212
G1 X110.476 Y85.575 E.02018
G1 X113.68 Y84.456 E.10641
G1 X114.464 Y84.323 E.02494
G1 X153.583 Y84.323 E1.22655
G1 X155.264 Y85.019 E.05704
G1 X161.121 Y90.877 E.25975
G1 X161.818 Y92.558 E.05704
G1 X161.818 Y102.442 E.30991
G1 X161.121 Y104.123 E.05704
G1 X155.264 Y109.981 E.25975
G1 X154.523 Y110.483 E.02804
G1 X133.498 Y119.543 E.71783
G1 X132.97 Y119.701 E.01728
G1 X99.288 Y125.641 E1.07239
G1 X91.306 Y125.677 E.25025
G1 X89.626 Y124.981 E.05704
G1 X83.768 Y119.123 E.25975
G1 X83.071 Y117.442 E.05704
G1 X83.071 Y107.558 E.30991
G1 X83.768 Y105.877 E.05704
G1 X89.906 Y99.791 E.27104
G1 E-.8 F2100
G1 Z.8 F7500
G1 X91.369 Y102.949
G1 Z.2
G1 E.8 F2100
G1 F1080
G1 X93.096 Y102.338 E.05743
G1 X93.753 Y102.248 E.02078
G1 X110.61 Y88.829 E.67556
G1 X112.573 Y87.771 E.06992
G1 X115.528 Y87.095 E.09504
G1 X150.307 Y87.099 E1.09046
G1 X152.433 Y87.527 E.06802
G1 X154.408 Y88.423 E.06798
G1 X156.561 Y90.201 E.08755
G1 X158.146 Y92.539 E.08857
G1 X158.967 Y95.253 E.0889
G1 X159.05 Y99.157 E.12245
G1 X158.158 Y102.445 E.1068
G1 X156.714 Y104.627 E.08206
G1 X155.219 Y106.012 E.06389
G1 X153.454 Y107.077 E.06463
G1 X150.287 Y107.915 E.10274
G1 X119.374 Y107.915 E.96925
G1 X102.442 Y121.34 E.67751
G1 X101.017 Y122.093 E.05052
G1 X98.247 Y122.87 E.09022
G1 X93.324 Y122.712 E.15443
G1 X91.052 Y121.891 E.07573
G1 X89.215 Y120.645 E.0696
G1 X87.695 Y119.034 E.06946
G1 X86.536 Y117.018 E.0729
G1 X85.821 Y113.773 E.10417
G1 X86.055 Y109.463 E.13534
G1 X86.557 Y107.948 E.05003
M73 P0 R148
G1 X87.26 Y106.58 E.04825
G1 X88.884 Y104.649 E.0791
G1 X91.32 Y102.983 E.09253
G1 X91.518 Y103.296 F7500
G1 F1080
G1 X93.203 Y102.7 E.05602
G1 X93.905 Y102.609 E.0222
G1 X110.831 Y89.134 E.67834
G1 X112.729 Y88.116 E.06754
G1 X115.549 Y87.472 E.09069
G1 X150.287 Y87.476 E1.0892
G1 X152.337 Y87.892 E.06557
G1 X154.228 Y88.755 E.06518
G1 X156.299 Y90.473 E.08437
G1 X157.817 Y92.725 E.08516
G1 X158.598 Y95.336 E.08544
G1 X158.672 Y99.138 E.11923
G1 X157.826 Y102.263 E.10151
G1 X156.441 Y104.366 E.07898
G1 X154.977 Y105.722 E.06255
G1 X153.283 Y106.74 E.06197
G1 X150.262 Y107.538 E.09797
G1 X119.242 Y107.538 E.97261
G1 X102.221 Y121.034 E.68109
G1 X100.896 Y121.736 E.04701
G1 X98.173 Y122.499 E.08867
G1 X93.367 Y122.336 E.15078
G1 X91.204 Y121.545 E.0722
G1 X89.445 Y120.345 E.06677
G1 X87.985 Y118.792 E.06684
G1 X86.878 Y116.856 E.06993
G1 X86.199 Y113.768 E.09912
G1 X86.43 Y109.509 E.13373
G1 X86.909 Y108.082 E.04719
G1 X87.586 Y106.772 E.04625
G1 X89.155 Y104.911 E.07632
G1 X91.469 Y103.33 E.08786
G1 X91.667 Y103.644 F7500
G1 F1080
G1 X93.308 Y103.063 E.05459
G1 X94.056 Y102.97 E.02361
G1 X111.052 Y89.44 E.68116
G1 X112.884 Y88.46 E.06514
G1 X115.57 Y87.849 E.08636
G1 X150.269 Y87.853 E1.08795
G1 X152.2 Y88.244 E.06178
G1 X154.049 Y89.088 E.06371
G1 X156.037 Y90.745 E.08116
G1 X157.488 Y92.911 E.08174
G1 X158.229 Y95.418 E.08197
G1 X158.295 Y99.118 E.11603
G1 X157.495 Y102.081 E.09625
G1 X156.167 Y104.106 E.07591
G1 X154.766 Y105.409 E.05999
G1 X153.112 Y106.403 E.06051
G1 X150.238 Y107.161 E.09319
G1 X119.111 Y107.161 E.97596
G1 X102 Y120.728 E.68467
G1 X100.775 Y121.378 E.0435
G1 X98.1 Y122.128 E.08712
G1 X93.411 Y121.96 E.1471
G1 X91.358 Y121.2 E.06866
G1 X89.675 Y120.046 E.06396
G1 X88.276 Y118.551 E.06422
G1 X87.22 Y116.694 E.06696
G1 X86.577 Y113.763 E.09411
G1 X86.796 Y109.605 E.13054
G1 X87.262 Y108.216 E.04593
G1 X87.91 Y106.964 E.04421
G1 X89.426 Y105.175 E.07354
G1 X91.618 Y103.677 E.08321
G1 X91.816 Y103.991 F7500
G1 F1080
G1 X93.414 Y103.425 E.05314
G1 X94.206 Y103.333 E.02501
G1 X111.274 Y89.746 E.68401
G1 X113.039 Y88.805 E.06273
G1 X115.591 Y88.226 E.08203
G1 X150.249 Y88.23 E1.08669
G1 X152.103 Y88.609 E.05932
G1 X153.868 Y89.42 E.06089
G1 X155.773 Y91.017 E.07795
G1 X157.158 Y93.096 E.07832
G1 X157.86 Y95.499 E.0785
G1 X157.918 Y99.097 E.11284
G1 X157.162 Y101.9 E.09102
G1 X155.893 Y103.846 E.07283
G1 X154.524 Y105.119 E.05863
G1 X152.941 Y106.066 E.05782
G1 X150.214 Y106.784 E.08844
G1 X118.98 Y106.784 E.97932
G1 X101.779 Y120.422 E.68825
G1 X100.653 Y121.021 E.03999
G1 X98.026 Y121.757 E.08555
G1 X93.456 Y121.585 E.14339
G1 X91.512 Y120.855 E.0651
G1 X89.907 Y119.748 E.06116
G1 X88.567 Y118.31 E.06161
G1 X87.562 Y116.534 E.064
G1 X86.955 Y113.757 E.08911
G1 X87.171 Y109.651 E.12892
G1 X87.614 Y108.352 E.04304
G1 X88.235 Y107.157 E.04222
G1 X89.697 Y105.438 E.07076
G1 X91.767 Y104.025 E.07857
G1 X91.965 Y104.338 F7500
G1 F1080
G1 X93.518 Y103.788 E.05167
G1 X94.355 Y103.696 E.02639
G1 X111.495 Y90.052 E.6869
G1 X113.194 Y89.15 E.06031
G1 X115.612 Y88.603 E.07773
G1 X150.23 Y88.607 E1.08543
G1 X152.005 Y88.974 E.05683
G1 X153.686 Y89.751 E.05808
G1 X155.509 Y91.287 E.07474
G1 X156.827 Y93.279 E.07489
G1 X157.491 Y95.579 E.07504
G1 X157.54 Y99.076 E.10968
G1 X156.83 Y101.72 E.08583
G1 X155.619 Y103.586 E.06975
G1 X154.313 Y104.806 E.05603
G1 X152.771 Y105.728 E.05635
G1 X150.189 Y106.407 E.08368
G1 X118.848 Y106.407 E.98268
G1 X101.558 Y120.116 E.69184
M73 Q0 S148
G1 X100.532 Y120.663 E.03647
G1 X97.953 Y121.386 E.08397
G1 X93.502 Y121.209 E.13966
G1 X91.669 Y120.511 E.06153
G1 X90.139 Y119.45 E.05838
G1 X88.859 Y118.071 E.059
G1 X87.905 Y116.374 E.06104
G1 X87.333 Y113.751 E.08416
G1 X87.537 Y109.748 E.12568
G1 X87.966 Y108.487 E.04176
G1 X88.559 Y107.351 E.04019
G1 X89.968 Y105.702 E.06798
G1 X91.915 Y104.372 E.07396
G1 X92.114 Y104.686 F7500
G1 F1080
G1 X93.623 Y104.151 E.05019
G1 X94.503 Y104.06 E.02775
G1 X111.716 Y90.358 E.68982
G1 X113.348 Y89.495 E.05788
G1 X115.633 Y88.98 E.07343
G1 X150.21 Y88.985 E1.08416
G1 X151.906 Y89.339 E.05432
G1 X153.504 Y90.082 E.05525
G1 X155.245 Y91.557 E.07153
G1 X156.496 Y93.462 E.07146
G1 X157.121 Y95.657 E.07158
G1 X157.163 Y99.055 E.10654
G1 X156.497 Y101.541 E.08068
G1 X155.344 Y103.327 E.06665
G1 X154.071 Y104.516 E.05465
G1 X152.601 Y105.391 E.05362
G1 X150.165 Y106.03 E.07895
G1 X118.717 Y106.03 E.98604
G1 X101.337 Y119.81 E.69543
G1 X100.41 Y120.306 E.03296
G1 X97.88 Y121.015 E.08239
G1 X93.55 Y120.834 E.1359
G1 X91.826 Y120.168 E.05793
G1 X90.372 Y119.153 E.05562
G1 X89.151 Y117.831 E.0564
G1 X88.248 Y116.214 E.05808
G1 X87.711 Y113.745 E.07922
G1 X87.912 Y109.794 E.12404
G1 X88.318 Y108.625 E.03881
G1 X88.883 Y107.545 E.03822
G1 X90.237 Y105.967 E.0652
G1 X92.064 Y104.719 E.06936
G1 X92.263 Y105.033 F7500
G1 F1080
G1 X93.726 Y104.515 E.04868
G1 X94.65 Y104.425 E.0291
G1 X111.937 Y90.664 E.69279
G1 X113.501 Y89.84 E.05544
G1 X115.653 Y89.358 E.06916
G1 X150.19 Y89.362 E1.08288
G1 X151.807 Y89.703 E.0518
G1 X153.321 Y90.413 E.05242
G1 X154.979 Y91.826 E.06832
G1 X156.164 Y93.643 E.06803
G1 X156.752 Y95.735 E.06812
G1 X156.786 Y99.033 E.10343
G1 X156.164 Y101.362 E.07557
G1 X155.069 Y103.068 E.06356
G1 X153.86 Y104.203 E.05199
G1 X152.431 Y105.053 E.05214
G1 X150.141 Y105.653 E.07422
G1 X118.586 Y105.653 E.9894
G1 X101.116 Y119.504 E.69903
G1 X100.288 Y119.948 E.02945
G1 X97.807 Y120.644 E.08079
G1 X93.598 Y120.459 E.13211
G1 X91.986 Y119.826 E.05431
G1 X90.605 Y118.856 E.05289
G1 X89.444 Y117.593 E.05379
G1 X88.591 Y116.056 E.05513
G1 X88.089 Y113.739 E.07433
G1 X88.277 Y109.892 E.12075
G1 X88.669 Y108.762 E.03752
G1 X89.207 Y107.74 E.03621
G1 X90.507 Y106.232 E.06243
G1 X92.213 Y105.067 E.06478
G1 X92.412 Y105.38 F7500
G1 F1080
G1 X93.829 Y104.878 E.04715
G1 X94.796 Y104.791 E.03043
G1 X112.157 Y90.97 E.69579
G1 X113.654 Y90.186 E.05298
G1 X115.674 Y89.735 E.06489
G1 X150.17 Y89.739 E1.08161
M73 P0 R147
G1 X151.706 Y90.067 E.04924
M73 P1 R147
M73 Q1 S148
G1 X153.136 Y90.742 E.04959
G1 X154.713 Y92.094 E.06511
G1 X155.832 Y93.823 E.06459
G1 X156.382 Y95.811 E.06466
G1 X156.408 Y99.011 E.10034
G1 X155.83 Y101.184 E.0705
G1 X154.793 Y102.809 E.06045
G1 X153.617 Y103.914 E.05058
G1 X152.262 Y104.715 E.04937
G1 X150.117 Y105.276 E.06951
G1 X118.454 Y105.276 E.99276
G1 X100.895 Y119.198 E.70263
G1 X100.166 Y119.591 E.02594
G1 X97.735 Y120.272 E.07918
G1 X93.648 Y120.084 E.12828
G1 X92.147 Y119.484 E.05067
G1 X90.84 Y118.56 E.05019
G1 X89.738 Y117.356 E.0512
G1 X88.935 Y115.898 E.05218
G1 X88.466 Y113.733 E.06946
G1 X88.652 Y109.939 E.1191
G1 X89.02 Y108.902 E.03451
G1 X89.53 Y107.935 E.03426
G1 X90.776 Y106.497 E.05966
G1 X92.362 Y105.414 E.06023
G1 X92.56 Y105.727 F7500
G1 F1080
G1 X93.931 Y105.242 E.0456
G1 X94.941 Y105.158 E.03175
G1 X112.378 Y91.277 E.69882
G1 X113.806 Y90.532 E.05051
G1 X115.694 Y90.112 E.06065
G1 X150.15 Y90.116 E1.08032
G1 X151.604 Y90.431 E.04667
G1 X152.951 Y91.072 E.04676
G1 X154.445 Y92.361 E.06189
G1 X155.499 Y94.002 E.06114
G1 X156.011 Y95.886 E.06121
G1 X156.031 Y98.988 E.09728
G1 X155.496 Y101.007 E.06548
G1 X154.517 Y102.552 E.05735
G1 X153.407 Y103.6 E.04787
G1 X152.093 Y104.377 E.04787
G1 X150.093 Y104.899 E.0648
G1 X118.323 Y104.899 E.99612
G1 X100.673 Y118.893 E.70624
G1 X100.044 Y119.233 E.02243
G1 X97.663 Y119.901 E.07755
G1 X93.699 Y119.709 E.12443
G1 X92.31 Y119.144 E.04701
G1 X91.075 Y118.265 E.04751
G1 X90.032 Y117.119 E.0486
G1 X89.278 Y115.741 E.04923
G1 X88.844 Y113.726 E.06465
G1 X89.017 Y110.039 E.11574
G1 X89.371 Y109.041 E.03319
G1 X89.853 Y108.131 E.03228
G1 X91.044 Y106.763 E.05688
G1 X92.511 Y105.761 E.05569
G1 X92.709 Y106.075 F7500
G1 F1080
G1 X94.033 Y105.606 E.04403
G1 X95.084 Y105.526 E.03305
G1 X112.598 Y91.583 E.7019
G1 X113.958 Y90.878 E.04802
G1 X115.715 Y90.489 E.05643
G1 X150.129 Y90.493 E1.07903
G1 X151.502 Y90.794 E.04406
G1 X152.764 Y91.4 E.04392
G1 X154.177 Y92.628 E.05867
G1 X155.165 Y94.179 E.05768
G1 X155.641 Y95.959 E.05776
G1 X155.654 Y98.965 E.09425
G1 X155.162 Y100.831 E.0605
G1 X154.241 Y102.294 E.05421
G1 X153.164 Y103.311 E.04643
G1 X151.925 Y104.038 E.04506
G1 X150.069 Y104.522 E.06012
G1 X118.192 Y104.522 E.99949
G1 X100.451 Y118.587 E.70986
G1 X99.922 Y118.876 E.01892
G1 X97.591 Y119.53 E.07591
G1 X93.751 Y119.334 E.12054
G1 X92.475 Y118.804 E.04333
G1 X91.341 Y117.996 E.04365
G1 X90.327 Y116.882 E.04724
G1 X89.623 Y115.586 E.04625
G1 X89.222 Y113.718 E.05988
G1 X89.382 Y110.138 E.11238
G1 X89.721 Y109.18 E.03186
G1 X90.175 Y108.328 E.03027
G1 X91.312 Y107.029 E.05411
G1 X92.66 Y106.109 E.05118
G1 X92.858 Y106.422 F7500
G1 F1080
G1 X94.134 Y105.97 E.04244
G1 X95.227 Y105.894 E.03434
G1 X112.819 Y91.89 E.70501
G1 X114.109 Y91.224 E.04551
G1 X115.735 Y90.866 E.05222
G1 X150.109 Y90.87 E1.07776
G1 X151.358 Y91.144 E.04011
G1 X152.578 Y91.729 E.04241
G1 X153.907 Y92.893 E.0554
G1 X154.83 Y94.355 E.05422
G1 X155.27 Y96.031 E.05431
G1 X155.277 Y98.941 E.09126
G1 X154.826 Y100.655 E.05557
G1 X153.963 Y102.038 E.0511
G1 X152.954 Y102.997 E.04365
G1 X151.756 Y103.7 E.04355
G1 X150.045 Y104.145 E.05544
G1 X118.06 Y104.145 E1.00286
G1 X100.229 Y118.282 E.71349
G1 X99.797 Y118.519 E.01545
G1 X97.577 Y119.151 E.07237
G1 X93.865 Y118.973 E.11652
G1 X92.639 Y118.464 E.04163
G1 X91.605 Y117.727 E.03981
G1 X90.647 Y116.682 E.04446
G1 X89.967 Y115.43 E.04466
G1 X89.6 Y113.711 E.05509
G1 X89.757 Y110.184 E.1107
G1 X90.071 Y109.322 E.02875
G1 X90.497 Y108.526 E.02834
G1 X91.579 Y107.296 E.05135
G1 X92.809 Y106.456 E.0467
G1 X93.007 Y106.769 F7500
G1 F1080
G1 X94.235 Y106.335 E.04083
G1 X95.368 Y106.263 E.03561
G1 X113.039 Y92.197 E.70816
G1 X114.259 Y91.571 E.04299
G1 X115.755 Y91.243 E.04804
G1 X150.088 Y91.247 E1.07647
G1 X151.254 Y91.507 E.03747
M73 Q1 S147
G1 X152.39 Y92.057 E.03956
G1 X153.638 Y93.158 E.05218
G1 X154.473 Y94.48 E.04906
G1 X154.893 Y96.056 E.05114
G1 X154.9 Y98.918 E.08972
G1 X154.491 Y100.481 E.05067
G1 X153.685 Y101.782 E.04799
G1 X152.742 Y102.684 E.0409
G1 X151.634 Y103.342 E.04042
G1 X150.02 Y103.768 E.05232
G1 X117.929 Y103.768 E1.0062
G1 X100.007 Y117.977 E.71713
G1 X99.671 Y118.163 E.01202
G1 X97.563 Y118.773 E.06883
G1 X93.978 Y118.612 E.11251
G1 X92.839 Y118.143 E.03861
G1 X91.869 Y117.457 E.03725
G1 X90.941 Y116.444 E.04308
G1 X90.312 Y115.275 E.04163
G1 X89.977 Y113.703 E.05039
G1 X90.122 Y110.285 E.10728
G1 X90.41 Y109.488 E.02656
G1 X90.819 Y108.723 E.02721
G1 X91.846 Y107.564 E.04856
G1 X92.958 Y106.803 E.04224
G1 X93.156 Y107.117 F7500
G1 F1080
G1 X94.335 Y106.699 E.0392
G1 X95.509 Y106.634 E.03687
G1 X113.258 Y92.504 E.71134
G1 X114.408 Y91.918 E.04045
G1 X115.776 Y91.62 E.04389
G1 X150.066 Y91.624 E1.07516
G1 X151.149 Y91.869 E.0348
G1 X152.2 Y92.384 E.0367
G1 X153.366 Y93.421 E.04893
G1 X154.138 Y94.656 E.04566
G1 X154.516 Y96.081 E.04624
G1 X154.523 Y98.895 E.08821
G1 X154.155 Y100.308 E.04579
G1 X153.406 Y101.528 E.04488
G1 X152.529 Y102.372 E.03816
G1 X151.51 Y102.985 E.03728
G1 X149.995 Y103.391 E.04917
G1 X117.798 Y103.391 E1.00953
G1 X99.784 Y117.673 E.7208
G1 X99.544 Y117.808 E.00864
G1 X97.547 Y118.395 E.06526
G1 X94.089 Y118.25 E.10851
G1 X93.038 Y117.822 E.03559
G1 X92.132 Y117.186 E.03471
G1 X91.261 Y116.244 E.04021
G1 X90.657 Y115.12 E.04002
G1 X90.355 Y113.695 E.04569
G1 X90.486 Y110.386 E.10384
G1 X90.759 Y109.63 E.0252
G1 X91.14 Y108.922 E.0252
G1 X92.112 Y107.832 E.04578
G1 X93.107 Y107.15 E.03781
G1 X93.306 Y107.464 F7500
G1 F1080
G1 X94.434 Y107.064 E.03754
G1 X95.648 Y107.005 E.03811
G1 X113.478 Y92.811 E.71456
G1 X114.556 Y92.266 E.03789
G1 X115.796 Y91.997 E.03976
G1 X150.045 Y92.001 E1.07385
G1 X151.042 Y92.232 E.0321
G1 X152.009 Y92.71 E.03384
G1 X153.094 Y93.683 E.04568
G1 X153.803 Y94.829 E.04227
G1 X154.139 Y96.106 E.04139
G1 X154.145 Y98.872 E.08671
G1 X153.818 Y100.136 E.04096
G1 X153.125 Y101.275 E.04178
G1 X152.314 Y102.062 E.03544
G1 X151.385 Y102.629 E.03414
G1 X149.97 Y103.013 E.04597
G1 X117.666 Y103.013 E1.01285
G1 X99.56 Y117.369 E.72451
G1 X99.413 Y117.454 E.0053
G1 X97.53 Y118.018 E.06165
G1 X94.199 Y117.888 E.10451
G1 X93.235 Y117.5 E.03257
G1 X92.393 Y116.914 E.03217
G1 X91.582 Y116.044 E.0373
G1 X91.002 Y114.966 E.03839
G1 X90.733 Y113.685 E.04102
G1 X90.851 Y110.486 E.10039
G1 X91.109 Y109.771 E.02383
G1 X91.461 Y109.121 E.02317
M73 P1 R146
G1 X92.377 Y108.101 E.043
G1 X93.256 Y107.498 E.03342
G1 X93.468 Y107.809 F7500
G1 F1080
G1 X94.531 Y107.43 E.03539
G1 X95.786 Y107.377 E.03939
G1 X113.697 Y93.118 E.71781
G1 X114.704 Y92.613 E.0353
G1 X115.815 Y92.374 E.03566
G1 X150.022 Y92.378 E1.07253
G1 X150.933 Y92.593 E.02935
G1 X151.817 Y93.035 E.03099
G1 X152.82 Y93.943 E.04243
G1 X153.466 Y95.002 E.03888
G1 X153.762 Y96.131 E.0366
G1 X153.768 Y98.849 E.08521
G1 X153.481 Y99.966 E.03616
G1 X152.844 Y101.022 E.03868
G1 X152.097 Y101.753 E.03275
G1 X151.257 Y102.273 E.03098
G1 X149.944 Y102.636 E.04272
G1 X117.535 Y102.636 E1.01616
G1 X99.338 Y117.064 E.72811
G1 X99.248 Y117.114 E.00324
G1 X97.511 Y117.64 E.05688
G1 X94.307 Y117.525 E.10052
G1 X93.431 Y117.178 E.02956
G1 X92.655 Y116.641 E.02959
G1 X91.875 Y115.805 E.03585
G1 X91.348 Y114.813 E.03523
G1 X91.11 Y113.676 E.03643
G1 X91.216 Y110.585 E.09696
G1 X91.448 Y109.938 E.02155
G1 X91.782 Y109.321 E.02199
G1 X92.641 Y108.371 E.04017
G1 X93.418 Y107.843 E.02945
