; generated by PrusaSlicer 2.5.0+win64 on 2022-11-08 at 21:19:20 UTC

; 

; external perimeters extrusion width = 0.45mm
; perimeters extrusion width = 0.45mm
; infill extrusion width = 0.45mm
; solid infill extrusion width = 0.45mm
; top infill extrusion width = 0.40mm
; support material extrusion width = 0.35mm
; first layer extrusion width = 0.42mm

; external perimeters extrusion width = 0.45mm
; perimeters extrusion width = 0.45mm
; infill extrusion width = 0.45mm
; solid infill extrusion width = 0.45mm
; top infill extrusion width = 0.40mm
; support material extrusion width = 0.35mm
; first layer extrusion width = 0.42mm

M73 P0 R55
M73 C14
M73 Q0 S55
M73 D14
M107
;TYPE:Custom
M862.3 P "MK3S" ; printer model check
M862.1 P0.4 ; nozzle diameter check
M115 U3.9.3 ; tell printer latest fw version
G90 ; use absolute coordinates
M83 ; extruder relative mode
M104 S215 ; set extruder temp
M140 S60 ; set bed temp
M190 S60 ; wait for bed temp
M109 S215 ; wait for extruder temp
G28 W ; home all without mesh bed level
G80 ; mesh bed leveling
G1 Y-3.0 F1000.0 ; go outside print area
G92 E0.0
G1 X60.0 E9.0 F1000.0 ; intro line
G1 X100.0 E12.5 F1000.0 ; intro line
G92 E0.0
M221 S95

; Don't change E values below. Excessive value can damage the printer.
M907 E430 ; set extruder motor current
G21 ; set units to millimeters
G90 ; use absolute coordinates
M83 ; use relative distances for extrusion
M900 K0.05 ; Filament gcode LA 1.5
M900 K30 ; Filament gcode LA 1.0
M107
;LAYER_CHANGE
;Z:0.2
;HEIGHT:0.2
;BEFORE_LAYER_CHANGE
G92 E0.0
;0.2


G1 E-.8 F2100
G1 Z.4 F10800
;AFTER_LAYER_CHANGE
;0.2
G1 X90.386 Y80.195
G1 Z.2
G1 E.8 F2100
M204 S1000
;TYPE:Skirt/Brim
;WIDTH:0.42
G1 F1200
G1 X90.925 Y79.6 E.02516
G1 X91.637 Y79.034 E.02851
G1 X92.544 Y78.556 E.03216
G1 X93.472 Y78.274 E.03039
G1 X94.424 Y78.169 E.03005
G1 X106.72 Y77.968 E.38559
G1 X147.174 Y77.969 E1.26839
M73 P0 R54
G1 X155.634 Y78.171 E.26533
G1 X157.026 Y78.402 E.04423
G1 X157.817 Y78.72 E.02675
G1 X158.363 Y79.034 E.01975
G1 X159.43 Y79.971 E.04451
G1 X160.16 Y81.063 E.04118
G1 X160.606 Y82.352 E.04276
G1 X160.709 Y83.246 E.02823
G1 X160.912 Y88.961 E.17929
G1 X160.71 Y98.121 E.2873
G1 X159.759 Y126.717 E.89708
G1 X159.654 Y127.549 E.02631
G1 X159.389 Y128.345 E.02631
G1 X158.973 Y129.074 E.02631
G1 X158.423 Y129.708 E.02631
G1 X157.6 Y130.319 E.03214
G1 X156.611 Y130.729 E.03358
G1 X142.483 Y133.975 E.45449
G1 X141.952 Y134.035 E.01678
G1 X108.048 Y134.035 E1.06301
G1 X107.517 Y133.975 E.01678
G1 X93.389 Y130.729 E.45449
G1 X92.4 Y130.319 E.03358
G1 X91.412 Y129.543 E.03939
G1 X90.897 Y128.881 E.02631
G1 X90.611 Y128.345 E.01903
G1 X90.346 Y127.549 E.02631
G1 X90.25 Y126.903 E.02047
G1 X89.088 Y93.878 E1.03612
M73 C13
G1 X89.33 Y82.743 E.34921
G1 X89.522 Y81.854 E.02851
G1 X89.893 Y80.959 E.03039
G1 X90.353 Y80.245 E.02663
;WIPE_START
G1 F8640
G1 X90.925 Y79.6 E-.19899
G1 X91.637 Y79.034 E-.20997
G1 X92.544 Y78.556 E-.23684
G1 X93.017 Y78.412 E-.1142
;WIPE_END
G1 E-.04 F2100
G1 Z.6 F10800
G1 X92.552 Y92.239
G1 Z.2
G1 E.8 F2100
G1 F1200
G1 X92.823 Y92.249 E.0085
G1 X93.361 Y92.523 E.01893
G1 X93.846 Y92.858 E.01846
G1 X94.247 Y93.314 E.01903
G1 X94.552 Y93.584 E.01277
G1 X100.142 Y97.511 E.21421
G1 X100.923 Y98.037 E.02953
G1 X101.298 Y98.243 E.01342
G1 X101.81 Y98.467 E.01753
G1 X102.266 Y98.754 E.01687
G1 X102.712 Y99.068 E.0171
G1 X103.175 Y99.495 E.01975
G1 X103.202 Y99.541 E.00168
G1 X103.271 Y99.857 E.01014
G1 X103.133 Y100.297 E.01445
G1 X103.104 Y100.341 E.00168
G1 X102.896 Y100.517 E.00852
G1 X102.848 Y100.539 E.00168
G1 X102.202 Y100.626 E.02042
G1 X101.193 Y100.611 E.03166
G1 X100.632 Y100.497 E.01795
G1 X100.215 Y100.445 E.01317
G1 X99.779 Y100.429 E.01367
G1 X94.51 Y100.426 E.16522
G1 X94.093 Y100.386 E.01313
G1 X93.774 Y100.307 E.0103
G1 X93.378 Y100.138 E.01349
G1 X92.99 Y99.88 E.01463
G1 X92.681 Y99.576 E.01358
G1 X92.483 Y99.311 E.01038
G1 X92.28 Y98.921 E.01378
G1 X92.192 Y98.664 E.00851
G1 X92.117 Y98.287 E.01206
G1 X92.083 Y94.787 E.10977
G1 X92.035 Y94.406 E.01205
G1 X91.905 Y93.882 E.01692
G1 X91.9 Y93.316 E.01773
G1 X92.004 Y92.64 E.02147
G1 X92.17 Y92.425 E.00851
G1 X92.495 Y92.257 E.01148
G1 X92.622 Y92.616 F10800
G1 F1200
G1 X92.713 Y92.616 E.00286
G1 X93.178 Y92.853 E.01639
G1 X93.61 Y93.153 E.01648
G1 X93.977 Y93.579 E.01762
G1 X94.318 Y93.88 E.01426
G1 X99.928 Y97.821 E.21498
G1 X100.727 Y98.36 E.03019
G1 X101.133 Y98.582 E.01452
G1 X101.622 Y98.794 E.01672
G1 X102.465 Y99.354 E.03174
G1 X102.859 Y99.717 E.01678
G1 X102.887 Y99.822 E.00341
G1 X102.798 Y100.106 E.00935
G1 X102.715 Y100.177 E.00341
G1 X102.193 Y100.249 E.01651
G1 X101.217 Y100.234 E.03062
G1 X100.694 Y100.125 E.01674
G1 X100.245 Y100.069 E.01419
G1 X99.786 Y100.051 E.0144
G1 X94.519 Y100.048 E.16515
G1 X94.143 Y100.012 E.01184
G1 X93.906 Y99.953 E.00768
G1 X93.569 Y99.813 E.01142
G1 X93.24 Y99.597 E.01234
G1 X92.955 Y99.317 E.01252
G1 X92.81 Y99.122 E.00765
G1 X92.631 Y98.783 E.01201
G1 X92.559 Y98.577 E.00682
G1 X92.49 Y98.231 E.01107
G1 X92.46 Y94.761 E.10881
G1 X92.406 Y94.336 E.01344
G1 X92.276 Y93.814 E.01686
G1 X92.276 Y93.331 E.01515
M73 D13
G1 X92.351 Y92.803 E.01672
G1 X92.404 Y92.729 E.00285
G1 X92.568 Y92.644 E.0058
;WIPE_START
G1 F8640
G1 X92.713 Y92.616 E-.03397
G1 X93.178 Y92.853 E-.12068
G1 X93.61 Y93.153 E-.12137
G1 X93.977 Y93.579 E-.12976
G1 X94.318 Y93.88 E-.10502
G1 X95.201 Y94.5 E-.24919
;WIPE_END
G1 E-.04 F2100
G1 Z.6 F10800
G1 X95.458 Y88.509
G1 Z.2
G1 E.8 F2100
G1 F1200
G1 X92.335 Y86.326 E.11947
G1 X92.241 Y86.225 E.00432
G1 X92.142 Y86.044 E.00648
G1 X92.099 Y85.869 E.00565
G1 X92.109 Y83.194 E.08387
G1 X92.214 Y82.667 E.01687
G1 X92.365 Y82.301 E.01242
G1 X92.534 Y82.018 E.01031
G1 X92.778 Y81.721 E.01206
G1 X92.976 Y81.536 E.00851
G1 X93.339 Y81.288 E.01378
G1 X93.637 Y81.147 E.01033
G1 X94.017 Y81.033 E.01243
G1 X94.515 Y80.979 E.01572
G1 X96.346 Y80.988 E.05741
G1 X96.604 Y81.08 E.00859
G1 X120.415 Y97.752 E.91139
G1 X120.8 Y98.015 E.01461
G1 X121.109 Y98.198 E.01129
G1 X121.951 Y98.584 E.02904
G1 X122.68 Y99.094 E.02789
G1 X123.113 Y99.507 E.01874
G1 X123.139 Y99.553 E.00167
G1 X123.202 Y99.868 E.01007
G1 X123.059 Y100.302 E.01432
G1 X123.029 Y100.346 E.00166
G1 X122.774 Y100.54 E.01005
G1 X122.143 Y100.624 E.01995
G1 X121.589 Y100.625 E.01738
G1 X121.041 Y100.593 E.01722
G1 X120.495 Y100.485 E.01743
G1 X120.06 Y100.44 E.01373
G1 X119.598 Y100.427 E.01448
G1 X112.642 Y100.426 E.21809
G1 X112.44 Y100.379 E.00651
G1 X95.507 Y88.544 E.64774
G1 X95.722 Y88.236 F10800
G1 F1200
G1 X92.572 Y86.032 E.12055
G1 X92.476 Y85.848 E.00651
G1 X92.486 Y83.214 E.08258
G1 X92.57 Y82.793 E.01345
G1 X92.708 Y82.457 E.0114
G1 X92.834 Y82.247 E.00769
G1 X93.061 Y81.971 E.01119
G1 X93.221 Y81.823 E.00682
G1 X93.538 Y81.609 E.01201
G1 X93.759 Y81.504 E.00767
G1 X94.108 Y81.399 E.01142
G1 X94.523 Y81.357 E.01309
G1 X96.309 Y81.365 E.05599
G1 X96.406 Y81.402 E.00325
G1 X120.201 Y98.062 E.91077
G1 X120.597 Y98.333 E.01506
G1 X120.935 Y98.533 E.01232
G1 X121.75 Y98.903 E.02805
G1 X122.452 Y99.395 E.02687
G1 X122.792 Y99.722 E.01482
G1 X122.818 Y99.827 E.00338
G1 X122.726 Y100.108 E.00927
G1 X122.643 Y100.177 E.00339
G1 X122.129 Y100.247 E.01625
G1 X121.594 Y100.248 E.0168
G1 X121.076 Y100.217 E.01624
G1 X120.552 Y100.112 E.01676
G1 X120.084 Y100.063 E.01476
G1 X119.603 Y100.05 E.01509
G1 X112.668 Y100.049 E.21744
G1 X112.568 Y100.023 E.00323
G1 X95.771 Y88.271 E.64277
;WIPE_START
G1 F8640
G1 X93.075 Y86.384 E-.76
;WIPE_END
G1 E-.04 F2100
G1 Z.6 F10800
G1 X105.757 Y81.91
G1 Z.2
G1 E.8 F2100
G1 F1200
G1 X105.66 Y81.601 E.01016
G1 X105.661 Y81.548 E.00168
G1 X105.8 Y81.107 E.01449
G1 X105.83 Y81.062 E.00168
G1 X106.038 Y80.887 E.00854
G1 X106.087 Y80.865 E.00168
G1 X106.691 Y80.783 E.01912
G1 X107.282 Y80.78 E.01852
G1 X107.818 Y80.812 E.01684
G1 X108.364 Y80.92 E.01743
G1 X108.797 Y80.965 E.01366
G1 X116.215 Y80.979 E.23258
G1 X116.53 Y81.079 E.01038
M73 Q0 S54
G1 X140.343 Y97.752 E.91144
G1 X140.727 Y98.015 E.01461
M73 P1 R54
M73 Q1 S54
G1 X141.037 Y98.198 E.01129
G1 X141.879 Y98.584 E.02904
G1 X142.608 Y99.094 E.02789
G1 X143.04 Y99.507 E.01874
G1 X143.067 Y99.553 E.00167
G1 X143.129 Y99.868 E.01007
G1 X142.987 Y100.302 E.01432
G1 X142.957 Y100.346 E.00166
G1 X142.701 Y100.54 E.01005
G1 X142.071 Y100.624 E.01995
G1 X141.516 Y100.625 E.01738
G1 X140.968 Y100.593 E.01722
G1 X140.423 Y100.485 E.01743
G1 X139.99 Y100.44 E.01366
G1 X132.572 Y100.426 E.23258
G1 X132.256 Y100.326 E.01038
G1 X108.401 Y83.625 E.91303
G1 X108.02 Y83.375 E.01429
G1 X107.64 Y83.166 E.0136
G1 X107.129 Y82.941 E.01749
G1 X106.678 Y82.659 E.0167
G1 X106.22 Y82.338 E.01753
G1 X105.801 Y81.951 E.01789
G1 X106.073 Y81.689 F10800
G1 F1200
G1 X106.045 Y81.583 E.00343
G1 X106.135 Y81.298 E.00938
G1 X106.219 Y81.228 E.00343
G1 X106.73 Y81.158 E.01616
G1 X107.265 Y81.157 E.0168
G1 X107.782 Y81.188 E.01624
G1 X108.306 Y81.293 E.01676
G1 X108.777 Y81.342 E.01483
G1 X116.185 Y81.356 E.23228
G1 X116.338 Y81.405 E.00502
G1 X140.128 Y98.062 E.91061
G1 X140.525 Y98.333 E.01506
G1 X140.863 Y98.533 E.01232
G1 X141.677 Y98.903 E.02805
G1 X142.379 Y99.395 E.02687
G1 X142.72 Y99.722 E.01482
G1 X142.746 Y99.827 E.00338
G1 X142.654 Y100.108 E.00927
G1 X142.57 Y100.177 E.00339
G1 X142.057 Y100.247 E.01625
G1 X141.521 Y100.248 E.0168
G1 X141.004 Y100.217 E.01624
G1 X140.48 Y100.112 E.01676
G1 X140.009 Y100.063 E.01483
G1 X132.601 Y100.049 E.23228
G1 X132.449 Y100 E.00502
G1 X108.613 Y83.313 E.9123
G1 X108.215 Y83.052 E.01493
G1 X107.806 Y82.827 E.01463
G1 X107.317 Y82.614 E.01674
G1 X106.89 Y82.348 E.01576
G1 X106.448 Y82.037 E.01696
G1 X106.117 Y81.73 E.01415
;WIPE_START
G1 F8640
G1 X106.045 Y81.583 E-.0377
G1 X106.135 Y81.298 E-.06907
G1 X106.219 Y81.228 E-.02526
G1 X106.73 Y81.158 E-.11903
G1 X107.265 Y81.157 E-.12369
G1 X107.782 Y81.188 E-.11963
G1 X108.306 Y81.293 E-.12344
G1 X108.777 Y81.342 E-.10924
G1 X108.92 Y81.342 E-.03295
;WIPE_END
G1 E-.04 F2100
G1 Z.6 F10800
G1 X125.587 Y81.601
G1 Z.2
G1 E.8 F2100
G1 F1200
G1 X125.588 Y81.548 E.00168
G1 X125.728 Y81.107 E.01449
G1 X125.757 Y81.062 E.00168
G1 X125.966 Y80.887 E.00854
G1 X126.015 Y80.865 E.00168
G1 X126.619 Y80.783 E.01912
G1 X127.21 Y80.78 E.01852
G1 X127.746 Y80.812 E.01684
G1 X128.291 Y80.92 E.01743
G1 X128.724 Y80.965 E.01366
G1 X136.142 Y80.979 E.23258
G1 X136.458 Y81.079 E.01038
G1 X157.663 Y95.927 E.81164
G1 X157.782 Y96.063 E.00567
G1 X157.859 Y96.211 E.00525
G1 X157.896 Y96.344 E.00431
G1 X157.892 Y98.205 E.05834
G1 X157.796 Y98.704 E.01594
G1 X157.594 Y99.183 E.0163
G1 X157.339 Y99.555 E.01416
G1 X157.159 Y99.747 E.00825
G1 X156.858 Y99.994 E.01221
G1 X156.445 Y100.224 E.01482
G1 X155.993 Y100.37 E.01487
G1 X155.486 Y100.426 E.01601
G1 X152.5 Y100.426 E.09362
G1 X152.184 Y100.326 E.0104
G1 X128.329 Y83.625 E.91303
G1 X127.948 Y83.375 E.01429
G1 X127.568 Y83.166 E.0136
G1 X127.057 Y82.941 E.01749
G1 X126.605 Y82.659 E.0167
G1 X126.148 Y82.338 E.01753
G1 X125.684 Y81.91 E.01977
G1 X125.603 Y81.659 E.00828
G1 X125.973 Y81.583 F10800
G1 F1200
G1 X126.063 Y81.298 E.00938
G1 X126.146 Y81.228 E.00343
G1 X126.657 Y81.158 E.01616
G1 X127.193 Y81.157 E.0168
G1 X127.71 Y81.188 E.01624
G1 X128.234 Y81.293 E.01676
G1 X128.705 Y81.342 E.01483
G1 X136.113 Y81.356 E.23228
G1 X136.265 Y81.405 E.00502
G1 X157.428 Y96.223 E.81003
G1 X157.524 Y96.407 E.00652
G1 X157.515 Y98.184 E.05571
G1 X157.43 Y98.611 E.01366
G1 X157.271 Y98.987 E.01278
G1 X157.052 Y99.31 E.01227
G1 X156.909 Y99.464 E.00658
G1 X156.633 Y99.691 E.01122
G1 X156.281 Y99.884 E.01257
G1 X155.899 Y100.004 E.01255
G1 X155.476 Y100.049 E.01333
G1 X152.529 Y100.049 E.09242
G1 X152.376 Y100 E.00501
G1 X128.541 Y83.313 E.9123
G1 X128.143 Y83.052 E.01493
G1 X127.734 Y82.827 E.01463
G1 X127.244 Y82.614 E.01674
G1 X126.818 Y82.348 E.01576
G1 X126.376 Y82.037 E.01696
G1 X126.001 Y81.689 E.01603
G1 X125.988 Y81.641 E.00155
;WIPE_START
G1 F8640
G1 X126.063 Y81.298 E-.08112
G1 X126.146 Y81.228 E-.02526
G1 X126.657 Y81.158 E-.11903
G1 X127.193 Y81.157 E-.12369
G1 X127.71 Y81.188 E-.11963
G1 X128.234 Y81.293 E-.12344
G1 X128.705 Y81.342 E-.10924
G1 X128.958 Y81.342 E-.0586
;WIPE_END
G1 E-.04 F2100
G1 Z.6 F10800
G1 X145.515 Y81.601
G1 Z.2
G1 E.8 F2100
G1 F1200
G1 X145.516 Y81.547 E.00168
G1 X145.655 Y81.107 E.01447
G1 X145.684 Y81.063 E.00168
G1 X145.892 Y80.887 E.00853
G1 X145.941 Y80.865 E.00168
G1 X146.54 Y80.783 E.01896
G1 X147.123 Y80.78 E.01827
G1 X147.653 Y80.807 E.01663
G1 X148.2 Y80.917 E.01751
G1 X148.631 Y80.964 E.01357
G1 X149.085 Y80.977 E.01426
G1 X155.7 Y80.99 E.20739
G1 X155.996 Y81.036 E.00941
G1 X156.416 Y81.168 E.0138
G1 X156.66 Y81.288 E.00854
G1 X157.04 Y81.551 E.01447
G1 X157.37 Y81.889 E.01482
G1 X157.61 Y82.253 E.01367
G1 X157.793 Y82.69 E.01487
G1 X157.887 Y83.156 E.01491
G1 X157.911 Y87.349 E.13147
G1 X157.954 Y87.763 E.01305
G1 X158.09 Y88.343 E.01865
G1 X158.101 Y88.893 E.01725
G1 X157.997 Y89.61 E.02271
G1 X157.832 Y89.827 E.00856
G1 X157.448 Y90.015 E.01341
G1 X157.175 Y90.005 E.00856
G1 X156.583 Y89.697 E.02091
G1 X156.14 Y89.382 E.01707
G1 X155.743 Y88.932 E.0188
G1 X155.436 Y88.661 E.01284
G1 X155.071 Y88.395 E.01417
G1 X148.244 Y83.617 E.26128
G1 X147.865 Y83.369 E.01418
G1 X147.487 Y83.162 E.01352
G1 X146.975 Y82.937 E.01753
G1 X146.519 Y82.65 E.01687
G1 X146.054 Y82.32 E.01789
G1 X145.612 Y81.91 E.01892
G1 X145.53 Y81.659 E.00828
G1 X145.9 Y81.583 F10800
G1 F1200
G1 X145.99 Y81.298 E.00937
G1 X146.073 Y81.228 E.00343
G1 X146.579 Y81.158 E.01601
G1 X147.109 Y81.157 E.01661
G1 X147.619 Y81.183 E.01602
G1 X148.142 Y81.289 E.01673
G1 X148.604 Y81.34 E.01459
G1 X149.079 Y81.354 E.01489
G1 X155.658 Y81.365 E.20629
G1 X155.9 Y81.401 E.00765
G1 X156.266 Y81.514 E.01201
G1 X156.461 Y81.608 E.0068
G1 X156.786 Y81.829 E.01231
G1 X157.068 Y82.115 E.01258
G1 X157.271 Y82.418 E.01145
G1 X157.428 Y82.787 E.01258
G1 X157.51 Y83.178 E.01253
G1 X157.534 Y87.37 E.13144
G1 X157.582 Y87.828 E.01444
G1 X157.713 Y88.371 E.01751
G1 X157.724 Y88.886 E.01613
G1 X157.649 Y89.449 E.01782
G1 X157.597 Y89.524 E.00287
G1 X157.378 Y89.638 E.00773
G1 X157.287 Y89.639 E.00287
G1 X156.791 Y89.382 E.01749
G1 X156.378 Y89.088 E.01591
G1 X156.012 Y88.666 E.0175
G1 X155.672 Y88.367 E.0142
G1 X155.29 Y88.088 E.01482
G1 X148.455 Y83.304 E.26158
G1 X148.059 Y83.045 E.01484
G1 X147.652 Y82.822 E.01455
G1 X147.163 Y82.611 E.01672
G1 X146.732 Y82.339 E.01596
G1 X146.301 Y82.035 E.01655
G1 X145.928 Y81.689 E.01596
G1 X145.915 Y81.641 E.00155
; printing object screw cover female id:0 copy 0
;WIPE_START
G1 F8640
G1 X145.99 Y81.298 E-.08104
G1 X146.073 Y81.228 E-.02524
G1 X146.579 Y81.158 E-.11787
G1 X147.109 Y81.157 E-.12229
G1 X147.619 Y81.183 E-.11799
G1 X148.142 Y81.289 E-.12318
G1 X148.604 Y81.34 E-.10748
G1 X148.885 Y81.348 E-.06492
;WIPE_END
G1 E-.04 F2100
G1 Z.6 F10800
G1 X137.833 Y126.606
G1 Z.2
G1 E.8 F2100
;TYPE:Support material
G1 F1200
G1 X137.845 Y126.848 E.0076
G1 X137.933 Y127.287 E.01403
G1 X138.011 Y127.51 E.00741
G1 X138.123 Y127.746 E.00818
G1 X138.371 Y128.118 E.01403
G1 X138.546 Y128.311 E.00818
G1 X138.722 Y128.469 E.00741
G1 X139.094 Y128.717 E.01403
G1 X139.529 Y128.9 E.0148
G1 X139.758 Y128.959 E.00741
G1 X140.016 Y128.997 E.00818
G1 X142.31 Y129.008 E.07192
G1 X141.883 Y131.469 E.07834
G1 X129.707 Y131.469 E.38176
G1 X129.28 Y129.008 E.07834
G1 X131.574 Y128.997 E.07192
G1 X131.832 Y128.959 E.00818
G1 X132.283 Y128.82 E.0148
G1 X132.698 Y128.595 E.0148
G1 X133.044 Y128.311 E.01403
G1 X133.203 Y128.137 E.00741
G1 X133.345 Y127.948 E.00741
G1 X133.479 Y127.724 E.00818
G1 X133.65 Y127.311 E.01403
G1 X133.709 Y127.082 E.00741
G1 X133.758 Y126.606 E.01499
G1 X133.758 Y113.767 E.40255
G1 X137.833 Y113.767 E.12777
G1 X137.833 Y126.55 E.40077
;WIPE_START
G1 F8640
G1 X137.833 Y123.258 E-.76
;WIPE_END
G1 E-.04 F2100
G1 Z.6 F10800
G1 X141.759 Y131.19
G1 Z.2
G1 E.8 F2100
G1 F1200
G1 X141.759 Y129.347 E.05779
G1 X141.34 Y129.347 E.01314
G1 X141.34 Y131.13 E.05591
G1 X140.921 Y131.13 E.01314
G1 X140.921 Y129.347 E.05591
G1 X140.502 Y129.347 E.01314
G1 X140.502 Y131.13 E.05591
G1 X140.083 Y131.13 E.01314
G1 X140.083 Y129.34 E.05612
G1 X139.664 Y129.285 E.01325
G1 X139.664 Y131.13 E.05784
