; generated by PrusaSlicer 2.5.0+win64 on 2022-10-07 at 03:10:08 UTC

; 

; external perimeters extrusion width = 0.45mm
; perimeters extrusion width = 0.45mm
; infill extrusion width = 0.45mm
; solid infill extrusion width = 0.45mm
; top infill extrusion width = 0.40mm
; support material extrusion width = 0.35mm
; first layer extrusion width = 0.42mm

; external perimeters extrusion width = 0.45mm
; perimeters extrusion width = 0.45mm
; infill extrusion width = 0.45mm
; solid infill extrusion width = 0.45mm
; top infill extrusion width = 0.40mm
; support material extrusion width = 0.35mm
; first layer extrusion width = 0.42mm

M73 P0 R49
M73 C13
M73 Q0 S49
M73 D13
M107
;TYPE:Custom
M862.3 P "MK3S" ; printer model check
M862.1 P0.4 ; nozzle diameter check
M115 U3.8.0 ; tell printer latest fw version
G90 ; use absolute coordinates
M83 ; extruder relative mode
M104 S215 ; set extruder temp
M140 S60 ; set bed temp
M190 S60 ; wait for bed temp
M109 S215 ; wait for extruder temp
G28 W ; home all without mesh bed level
G80 ; mesh bed leveling
G1 Y-3.0 F1000.0 ; go outside print area
G92 E0.0
G1 X60.0 E9.0 F1000.0 ; intro line
G1 X100.0 E12.5 F1000.0 ; intro line
G92 E0.0
M221 S95
G21 ; set units to millimeters
G90 ; use absolute coordinates
M83 ; use relative distances for extrusion
M900 K0.05 ; Filament gcode LA 1.5
M900 K30 ; Filament gcode LA 1.0
M107
;LAYER_CHANGE
;Z:0.2
;HEIGHT:0.2
;BEFORE_LAYER_CHANGE
G92 E0.0
;0.2


G1 E-.8 F2100
G1 Z.6 F10800
;AFTER_LAYER_CHANGE
;0.2
G1 X102.811 Y72.351
G1 Z.2
G1 E.8 F2100
M204 S1000
;TYPE:Skirt/Brim
;WIDTH:0.42
G1 F1200
G1 X103.379 Y71.592 E.02974
G1 X104.321 Y70.837 E.03782
G1 X105.133 Y70.465 E.02801
G1 X106.33 Y70.244 E.03819
G1 X143.5 Y70.238 E1.16543
G1 X144.276 Y70.312 E.02445
G1 X144.867 Y70.465 E.01914
G1 X145.431 Y70.701 E.01915
G1 X146.168 Y71.175 E.02749
G1 X147.006 Y72.066 E.03834
G1 X147.456 Y72.888 E.0294
G1 X147.648 Y73.468 E.01915
G1 X147.757 Y74.079 E.01947
G1 X149.126 Y94.015 E.62653
G1 X150.089 Y118.052 E.75426
G1 X147.743 Y136.058 E.56936
G1 X147.555 Y136.847 E.02544
G1 X147.189 Y137.649 E.02764
G1 X146.428 Y138.601 E.03819
G1 X145.669 Y139.169 E.02974
G1 X144.552 Y139.628 E.03786
G1 X143.5 Y139.762 E.03326
G1 X106.5 Y139.762 E1.16011
G1 X105.464 Y139.632 E.03273
G1 X104.336 Y139.171 E.03822
G1 X103.572 Y138.601 E.0299
G1 X102.811 Y137.649 E.03819
G1 X102.353 Y136.534 E.03782
G1 X102.218 Y135.48 E.0333
G1 X102.218 Y74.52 E1.91136
G1 X102.349 Y73.478 E.03293
G1 X102.788 Y72.406 E.03631
; printing object right-male-dovetail-cautious-mus-blk.STL id:0 copy 0
G1 E-.8 F2100
G1 Z.8 F10800
G1 X106.865 Y136.598
G1 Z.2
G1 E.8 F2100
;TYPE:Perimeter
;WIDTH:0.419999
G1 F1200
G1 X122.223 Y114.664 E.83956
G1 X122.223 Y125.48 E.33914
G1 X122.132 Y125.355 E.00485
M73 C12
G1 X121.753 Y125.236 E.01244
G1 X121.393 Y125.243 E.01129
G1 X121.226 Y125.337 E.00601
G1 X121.12 Y125.451 E.00489
G1 X113.892 Y135.774 E.3951
G1 X113.805 Y135.968 E.00668
G1 X113.854 Y136.359 E.01236
G1 X113.978 Y136.598 E.00843
G1 X106.925 Y136.598 E.22114
G1 E-.8 F2100
G1 Z.8 F10800
G1 X114.188 Y136.185
G1 Z.2
G1 E.8 F2100
;TYPE:External perimeter
G1 F1200
G1 X114.201 Y135.99 E.00613
G1 X121.429 Y125.668 E.3951
G1 X121.52 Y125.598 E.00359
G1 X121.64 Y125.596 E.00376
G1 X122.018 Y125.715 E.01244
;WIDTH:0.456462
G1 X122.168 Y125.895 E.00805
G1 X122.168 Y135.443 E.32831
G1 X122.116 Y135.8 E.01243
;WIDTH:0.456084
G1 X122.005 Y136.041 E.0091
;WIDTH:0.454962
G1 X121.758 Y136.313 E.0126
;WIDTH:0.450871
G1 X121.433 Y136.486 E.01248
;WIDTH:0.456457
G1 X121.082 Y136.543 E.01222
G1 X114.479 Y136.543 E.22704
G1 X114.312 Y136.424 E.00707
;WIDTH:0.419999
G1 X114.216 Y136.238 E.00655
G1 E-.8 F2100
G1 Z.8 F10800
G1 X105.382 Y124.014
G1 Z.2
G1 E.8 F2100
;TYPE:Perimeter
G1 F1200
G1 X105.382 Y113.218 E.3385
G1 X105.473 Y113.322 E.00435
G1 X105.852 Y113.442 E.01244
G1 X106.212 Y113.435 E.01129
G1 X106.379 Y113.341 E.00601
G1 X106.485 Y113.227 E.00489
G1 X122.223 Y90.751 E.8603
G1 X122.223 Y101.567 E.33914
M73 D12
G1 X122.132 Y101.442 E.00485
G1 X121.753 Y101.323 E.01244
G1 X121.393 Y101.33 E.01129
G1 X121.226 Y101.424 E.00601
G1 X121.12 Y101.538 E.00489
G1 X105.416 Y123.965 E.85842
G1 X105.437 Y124.627 F10800
;TYPE:External perimeter
;WIDTH:0.456459
G1 F1200
G1 X105.484 Y124.515 E.00417
;WIDTH:0.432395
G1 X110.61 Y117.205 E.28914
;WIDTH:0.419999
G1 X121.429 Y101.754 E.5914
G1 X121.52 Y101.685 E.00359
M73 Q1 S49
G1 X121.64 Y101.683 E.00376
M73 P1 R49
G1 X122.018 Y101.802 E.01244
;WIDTH:0.456462
G1 X122.168 Y101.982 E.00805
G1 X122.168 Y114.051 E.41502
;WIDTH:0.459595
G1 X122.167 Y114.087 E.00125
G1 X122.124 Y114.165 E.00308
;WIDTH:0.440532
G1 X116.995 Y121.473 E.29518
;WIDTH:0.419999
G1 X106.499 Y136.463 E.57376
;WIDTH:0.434814
G1 X106.351 Y136.55 E.00561
;WIDTH:0.45422
G1 X105.937 Y136.381 E.01531
G1 X105.66 Y136.124 E.01289
;WIDTH:0.450286
G1 X105.493 Y135.804 E.01224
;WIDTH:0.456459
G1 X105.437 Y135.457 E.01208
G1 X105.437 Y124.687 E.37036
G1 X105.351 Y124.541 F10800
G1 E-.8 F2100
G1 Z.8 F10800
G1 X105.382 Y100.101
G1 Z.2
G1 E.8 F2100
;TYPE:Perimeter
;WIDTH:0.419999
G1 F1200
G1 X105.382 Y89.305 E.3385
G1 X105.473 Y89.409 E.00435
G1 X105.852 Y89.529 E.01244
G1 X106.212 Y89.522 E.01129
G1 X106.379 Y89.428 E.00601
G1 X106.485 Y89.313 E.00489
G1 X117.049 Y74.226 E.57748
G1 X117.136 Y74.032 E.00668
G1 X117.088 Y73.641 E.01236
G1 X116.964 Y73.402 E.00843
G1 X120.968 Y73.402 E.12555
G1 X121.418 Y73.454 E.01422
G1 X121.706 Y73.585 E.00991
G1 X121.945 Y73.792 E.00992
G1 X122.116 Y74.058 E.00992
G1 X122.223 Y74.548 E.01572
G1 X122.223 Y77.654 E.09738
G1 X122.132 Y77.529 E.00485
G1 X121.753 Y77.41 E.01244
G1 X121.429 Y77.405 E.01017
G1 X121.26 Y77.485 E.00584
G1 X121.12 Y77.625 E.00622
G1 X105.416 Y100.052 E.85842
G1 X105.484 Y100.602 F10800
;TYPE:External perimeter
;WIDTH:0.432395
G1 F1200
G1 X110.61 Y93.292 E.28914
;WIDTH:0.419999
G1 X121.429 Y77.841 E.5914
G1 X121.532 Y77.768 E.00396
M73 P1 R48
G1 X122.018 Y77.889 E.01571
;WIDTH:0.456462
G1 X122.168 Y78.069 E.00805
G1 X122.168 Y90.138 E.41502
;WIDTH:0.459595
G1 X122.167 Y90.174 E.00125
G1 X122.124 Y90.252 E.00308
;WIDTH:0.440532
G1 X116.995 Y97.56 E.29518
;WIDTH:0.419999
G1 X106.176 Y113.01 E.5914
G1 X106.085 Y113.08 E.00359
G1 X105.965 Y113.082 E.00376
G1 X105.587 Y112.963 E.01244
;WIDTH:0.456459
G1 X105.437 Y112.783 E.00805
G1 X105.437 Y100.714 E.41501
G1 X105.461 Y100.657 E.00211
G1 X105.246 Y100.281 F10800
G1 E-.8 F2100
G1 Z.8 F10800
G1 X105.382 Y76.188
G1 Z.2
G1 E.8 F2100
;TYPE:Perimeter
;WIDTH:0.419999
G1 F1200
G1 X105.382 Y74.603 E.04968
G1 X105.422 Y74.286 E.01002
G1 X105.531 Y73.994 E.00978
G1 X105.719 Y73.741 E.00988
G1 X106.038 Y73.509 E.01239
G1 X106.528 Y73.402 E.01572
G1 X107.333 Y73.402 E.02523
G1 X105.416 Y76.139 E.10475
G1 E-.8 F2100
G1 Z.8 F10800
G1 X107.685 Y73.555
G1 Z.2
G1 E.8 F2100
;TYPE:External perimeter
;WIDTH:0.45646
G1 F1200
G1 X107.84 Y73.457 E.00632
G1 X116.462 Y73.457 E.29647
G1 X116.629 Y73.576 E.00707
;WIDTH:0.419999
G1 X116.753 Y73.815 E.00843
G1 X116.74 Y74.01 E.00613
G1 X106.176 Y89.097 E.57748
G1 X106.085 Y89.167 E.00359
G1 X105.965 Y89.169 E.00376
G1 X105.587 Y89.05 E.01244
;WIDTH:0.456459
G1 X105.437 Y88.87 E.00805
G1 X105.437 Y76.801 E.41501
G1 X105.484 Y76.689 E.00417
;WIDTH:0.432395
G1 X106.6 Y75.106 E.06271
;WIDTH:0.419999
G1 X107.188 Y74.265 E.03219
;WIDTH:0.422499
G1 X107.65 Y73.604 E.02546
G1 E-.8 F2100
G1 Z.8 F10800
G1 X106.208 Y73.066
G1 Z.2
G1 E.8 F2100
;WIDTH:0.419999
G1 F1200
G1 X106.543 Y73.025 E.01058
;WIDTH:0.45646
G1 X107.84 Y73.043 E.04461
G1 X116.462 Y73.043 E.29647
G1 X116.964 Y73.025 E.01727
;WIDTH:0.419999
G1 X120.968 Y73.025 E.12555
G1 X121.526 Y73.088 E.0176
G1 X121.912 Y73.264 E.01332
G1 X122.233 Y73.543 E.01332
G1 X122.463 Y73.9 E.01332
G1 X122.522 Y74.104 E.00666
G1 X122.6 Y74.535 E.01373
G1 X122.6 Y77.462 E.09179
;WIDTH:0.456462
G1 X122.582 Y78.069 E.02086
G1 X122.59 Y90.399 E.42398
;WIDTH:0.440532
G1 X122.6 Y99.327 E.29518
;WIDTH:0.419999
G1 X122.6 Y101.375 E.06423
;WIDTH:0.456462
G1 X122.582 Y101.982 E.02086
G1 X122.59 Y114.312 E.42398
;WIDTH:0.440532
G1 X122.6 Y123.24 E.29518
;WIDTH:0.419999
G1 X122.6 Y125.288 E.06423
;WIDTH:0.456462
G1 X122.582 Y125.895 E.02086
G1 X122.582 Y135.443 E.32831
G1 X122.524 Y135.866 E.01469
;WIDTH:0.456084
G1 X122.4 Y136.165 E.01111
;WIDTH:0.4526
G1 X122.125 Y136.534 E.0157
G1 X121.97 Y136.662 E.00682
;WIDTH:0.450871
G1 X121.569 Y136.869 E.01533
;WIDTH:0.456458
G1 X121.09 Y136.957 E.01674
G1 X114.479 Y136.957 E.2273
G1 X113.978 Y136.975 E.01727
;WIDTH:0.419999
G1 X106.766 Y136.975 E.22613
;WIDTH:0.441505
G1 X106.142 Y136.91 E.0208
;WIDTH:0.45422
G1 X105.68 Y136.702 E.01732
G1 X105.435 Y136.49 E.01108
;WIDTH:0.453227
G1 X105.311 Y136.335 E.00676
;WIDTH:0.450286
G1 X105.11 Y135.94 E.01502
;WIDTH:0.456459
G1 X105.023 Y135.465 E.01661
G1 X105.011 Y124.366 E.38164
;WIDTH:0.432395
G1 X105.005 Y115.438 E.28914
;WIDTH:0.419999
G1 X105.005 Y113.389 E.06423
;WIDTH:0.456459
G1 X105.023 Y112.783 E.02086
G1 X105.011 Y100.453 E.42398
;WIDTH:0.432395
G1 X105.005 Y91.525 E.28914
;WIDTH:0.419999
G1 X105.005 Y89.476 E.06423
;WIDTH:0.456459
G1 X105.023 Y88.87 E.02086
G1 X105.011 Y76.54 E.42398
;WIDTH:0.432395
G1 X105.005 Y74.603 E.06271
;WIDTH:0.419999
M73 Q1 S48
G1 X105.068 Y74.099 E.01593
G1 X105.244 Y73.713 E.01332
G1 X105.523 Y73.392 E.01332
G1 X105.88 Y73.162 E.01332
G1 X106.15 Y73.083 E.00883
G1 X106.439 Y73.312 F10800
G1 X106.314 Y73.546
;TYPE:Solid infill
;WIDTH:0.463352
G1 F1200
G1 X106.651 Y73.882 E.01665
G1 X106.406 Y74.232 E.01492
G1 X106.027 Y73.852 E.01877
G1 X105.959 Y73.896 E.0028
G1 X105.805 Y74.074 E.00822
G1 X105.758 Y74.178 E.00401
G1 X106.161 Y74.582 E.01997
G1 X105.917 Y74.931 E.01492
G1 X105.503 Y74.518 E.02042
G1 E-.8 F2100
G1 Z.8 F10800
G1 X120.729 Y73.515
G1 Z.2
G1 E.8 F2100
;WIDTH:0.422206
G1 F1200
G1 X121.94 Y74.726 E.05401
G1 X121.94 Y75.263 E.01692
G1 X120.362 Y73.685 E.07037
G1 X119.826 Y73.685 E.01692
G1 X121.94 Y75.799 E.09429
G1 X121.94 Y76.335 E.01692
G1 X119.29 Y73.685 E.11821
G1 X118.753 Y73.685 E.01692
G1 X121.94 Y76.872 E.14214
G1 X121.94 Y77.172 E.00948
G1 X121.825 Y77.136 E.0038
G1 X121.666 Y77.134 E.00502
G1 X118.217 Y73.685 E.15383
G1 X117.68 Y73.685 E.01692
G1 X121.199 Y77.204 E.15695
G1 X121.098 Y77.252 E.00353
G1 X120.902 Y77.443 E.00864
G1 X117.398 Y73.939 E.15631
G1 X117.417 Y74.09 E.00481
G1 X117.292 Y74.369 E.00964
G1 X120.681 Y77.759 E.15119
G1 X120.461 Y78.074 E.01215
G1 X117.073 Y74.686 E.15111
G1 X116.852 Y75.002 E.01215
G1 X120.24 Y78.39 E.15111
G1 X120.019 Y78.705 E.01215
G1 X116.631 Y75.317 E.15111
G1 X116.41 Y75.633 E.01215
G1 X119.798 Y79.021 E.15111
G1 X119.577 Y79.336 E.01215
G1 X116.189 Y75.948 E.15111
G1 X115.968 Y76.264 E.01215
G1 X119.356 Y79.651 E.15111
G1 X119.135 Y79.967 E.01215
G1 X115.747 Y76.579 E.15111
G1 X115.526 Y76.895 E.01215
G1 X118.914 Y80.282 E.15111
G1 X118.693 Y80.598 E.01215
G1 X115.305 Y77.21 E.15111
G1 X115.084 Y77.525 E.01215
G1 X118.472 Y80.913 E.15111
G1 X118.251 Y81.229 E.01215
G1 X114.863 Y77.841 E.15111
G1 X114.643 Y78.156 E.01215
G1 X118.031 Y81.544 E.15111
G1 X117.81 Y81.86 E.01215
G1 X114.422 Y78.472 E.1511
G1 X114.201 Y78.787 E.01215
G1 X117.589 Y82.175 E.1511
G1 X117.368 Y82.491 E.01215
G1 X113.98 Y79.103 E.1511
G1 X113.759 Y79.418 E.01215
G1 X117.147 Y82.806 E.1511
G1 X116.926 Y83.122 E.01215
M73 Q2 S48
G1 X113.538 Y79.734 E.1511
G1 X113.317 Y80.049 E.01215
M73 P2 R48
G1 X116.705 Y83.437 E.1511
G1 X116.484 Y83.753 E.01215
G1 X113.096 Y80.365 E.1511
G1 X112.875 Y80.68 E.01215
G1 X116.263 Y84.068 E.1511
G1 X116.042 Y84.384 E.01215
G1 X112.654 Y80.996 E.1511
G1 X112.434 Y81.311 E.01215
G1 X115.821 Y84.699 E.1511
G1 X115.601 Y85.015 E.01215
G1 X112.213 Y81.627 E.1511
G1 X111.992 Y81.942 E.01215
G1 X115.38 Y85.33 E.1511
G1 X115.159 Y85.646 E.01215
G1 X111.771 Y82.258 E.1511
G1 X111.55 Y82.573 E.01215
G1 X114.938 Y85.961 E.1511
G1 X114.717 Y86.277 E.01215
G1 X111.329 Y82.889 E.1511
G1 X111.108 Y83.204 E.01215
G1 X114.496 Y86.592 E.1511
G1 X114.275 Y86.908 E.01215
G1 X110.887 Y83.52 E.1511
G1 X110.666 Y83.835 E.01215
G1 X114.054 Y87.223 E.1511
G1 X113.833 Y87.539 E.01215
G1 X110.445 Y84.151 E.1511
G1 X110.224 Y84.466 E.01215
G1 X113.612 Y87.854 E.1511
G1 X113.391 Y88.17 E.01215
G1 X110.004 Y84.782 E.1511
G1 X109.783 Y85.097 E.01215
G1 X113.171 Y88.485 E.1511
G1 X112.95 Y88.8 E.01215
G1 X109.562 Y85.413 E.1511
G1 X109.341 Y85.728 E.01215
G1 X112.729 Y89.116 E.1511
G1 X112.508 Y89.431 E.01215
G1 X109.12 Y86.044 E.1511
G1 X108.899 Y86.359 E.01215
G1 X112.287 Y89.747 E.1511
G1 X112.066 Y90.062 E.01215
G1 X108.678 Y86.675 E.1511
G1 X108.457 Y86.99 E.01215
G1 X111.845 Y90.378 E.1511
G1 X111.624 Y90.693 E.01215
G1 X108.236 Y87.306 E.1511
G1 X108.015 Y87.621 E.01215
G1 X111.403 Y91.009 E.1511
G1 X111.182 Y91.324 E.01215
G1 X107.795 Y87.937 E.1511
G1 X107.574 Y88.252 E.01215
G1 X110.961 Y91.64 E.1511
G1 X110.741 Y91.955 E.01215
G1 X107.353 Y88.567 E.1511
G1 X107.132 Y88.883 E.01215
G1 X110.52 Y92.271 E.1511
G1 X110.299 Y92.586 E.01215
G1 X106.911 Y89.198 E.1511
G1 X106.686 Y89.51 E.01212
G1 X110.078 Y92.902 E.15128
G1 X109.857 Y93.217 E.01215
G1 X106.385 Y89.746 E.15484
G1 X106.301 Y89.793 E.00306
G1 X105.904 Y89.801 E.01252
G1 X109.636 Y93.533 E.16646
G1 X109.415 Y93.848 E.01215
G1 X105.665 Y90.098 E.16726
G1 X105.665 Y90.634 E.01692
G1 X109.194 Y94.164 E.15741
G1 X108.973 Y94.479 E.01215
G1 X105.665 Y91.171 E.14756
G1 X105.665 Y91.707 E.01692
G1 X108.752 Y94.795 E.13771
G1 X108.531 Y95.11 E.01215
G1 X105.665 Y92.244 E.12785
G1 X105.665 Y92.78 E.01692
G1 X108.311 Y95.426 E.118
G1 X108.09 Y95.741 E.01215
G1 X105.665 Y93.316 E.10815
G1 X105.665 Y93.853 E.01692
G1 X107.869 Y96.057 E.0983
G1 X107.648 Y96.372 E.01215
G1 X105.665 Y94.389 E.08844
G1 X105.665 Y94.926 E.01692
G1 X107.427 Y96.688 E.07859
G1 X107.206 Y97.003 E.01215
G1 X105.665 Y95.462 E.06874
G1 X105.665 Y95.998 E.01692
G1 X106.985 Y97.319 E.05888
G1 X106.764 Y97.634 E.01215
G1 X105.665 Y96.535 E.04903
G1 X105.665 Y97.071 E.01692
G1 X106.543 Y97.95 E.03918
G1 X106.322 Y98.265 E.01215
G1 X105.665 Y97.607 E.02933
G1 X105.665 Y98.144 E.01692
G1 X106.101 Y98.58 E.01947
G1 X105.881 Y98.896 E.01215
G1 X105.495 Y98.511 E.01719
G1 E-.8 F2100
G1 Z.8 F10800
G1 X122.11 Y92.342
G1 Z.2
G1 E.8 F2100
;WIDTH:0.42245
G1 F1200
G1 X121.724 Y91.956 E.01721
G1 X121.503 Y92.272 E.01216
G1 X121.94 Y92.709 E.0195
G1 X121.94 Y93.245 E.01694
G1 X121.282 Y92.587 E.02937
G1 X121.061 Y92.903 E.01216
G1 X121.94 Y93.782 E.03923
G1 X121.94 Y94.319 E.01694
G1 X120.84 Y93.219 E.0491
G1 X120.619 Y93.534 E.01216
G1 X121.94 Y94.856 E.05897
G1 X121.94 Y95.392 E.01694
G1 X120.398 Y93.85 E.06883
G1 X120.177 Y94.166 E.01216
G1 X121.94 Y95.929 E.0787
G1 X121.94 Y96.466 E.01694
G1 X119.956 Y94.482 E.08856
G1 X119.735 Y94.797 E.01216
G1 X121.94 Y97.003 E.09843
G1 X121.94 Y97.539 E.01694
G1 X119.514 Y95.113 E.10829
G1 X119.293 Y95.429 E.01216
G1 X121.94 Y98.076 E.11816
G1 X121.94 Y98.613 E.01694
G1 X119.072 Y95.744 E.12802
G1 X118.851 Y96.06 E.01216
G1 X121.94 Y99.15 E.13789
G1 X121.94 Y99.686 E.01694
G1 X118.629 Y96.376 E.14775
G1 X118.408 Y96.691 E.01216
G1 X121.94 Y100.223 E.15762
G1 X121.94 Y100.76 E.01694
G1 X118.187 Y97.007 E.16748
G1 X117.966 Y97.323 E.01216
G1 X121.695 Y101.051 E.1664
G1 X121.304 Y101.058 E.01233
G1 X121.215 Y101.109 E.00322
G1 X117.745 Y97.638 E.15487
G1 X117.524 Y97.954 E.01216
G1 X120.915 Y101.345 E.15135
G1 X120.691 Y101.658 E.01214
G1 X117.303 Y98.27 E.1512
G1 X117.082 Y98.585 E.01216
G1 X120.47 Y101.973 E.1512
G1 X120.249 Y102.289 E.01216
G1 X116.861 Y98.901 E.1512
G1 X116.64 Y99.217 E.01216
G1 X120.028 Y102.605 E.1512
G1 X119.807 Y102.92 E.01216
G1 X116.419 Y99.533 E.1512
G1 X116.198 Y99.848 E.01216
G1 X119.586 Y103.236 E.1512
G1 X119.365 Y103.552 E.01216
G1 X115.977 Y100.164 E.1512
G1 X115.756 Y100.48 E.01216
G1 X119.144 Y103.867 E.1512
G1 X118.923 Y104.183 E.01216
G1 X115.535 Y100.795 E.1512
G1 X115.314 Y101.111 E.01216
G1 X118.702 Y104.499 E.1512
G1 X118.481 Y104.814 E.01216
G1 X115.093 Y101.427 E.1512
G1 X114.872 Y101.742 E.01216
G1 X118.259 Y105.13 E.1512
G1 X118.038 Y105.446 E.01216
G1 X114.651 Y102.058 E.1512
G1 X114.43 Y102.374 E.01216
