; generated by PrusaSlicer 2.3.1+win64 on 2021-11-10 at 20:14:06 UTC

; 

; external perimeters extrusion width = 0.45mm
; perimeters extrusion width = 0.45mm
; infill extrusion width = 0.45mm
; solid infill extrusion width = 0.45mm
; top infill extrusion width = 0.40mm
; support material extrusion width = 0.35mm
; first layer extrusion width = 0.42mm

M73 P0 R28
M73 Q0 S29
M201 X1000 Y1000 Z1000 E5000 ; sets maximum accelerations, mm/sec^2
M203 X200 Y200 Z12 E120 ; sets maximum feedrates, mm/sec
M204 P1250 R1250 T1250 ; sets acceleration (P, T) and retract acceleration (R), mm/sec^2
M205 X8.00 Y8.00 Z0.40 E1.50 ; sets the jerk limits, mm/sec
M205 S0 T0 ; sets the minimum extruding and travel feed rate, mm/sec
M107
;TYPE:Custom
M862.3 P "MK3S" ; printer model check
M862.1 P0.4 ; nozzle diameter check
M115 U3.8.0 ; tell printer latest fw version
G90 ; use absolute coordinates
M83 ; extruder relative mode
M104 S215 ; set extruder temp
M140 S60 ; set bed temp
M190 S60 ; wait for bed temp
M109 S215 ; wait for extruder temp
G28 W ; home all without mesh bed level
G80 ; mesh bed leveling
G1 Y-3.0 F1000.0 ; go outside print area
G92 E0.0
G1 X60.0 E9.0 F1000.0 ; intro line
G1 X100.0 E12.5 F1000.0 ; intro line
G92 E0.0
M221 S95
G21 ; set units to millimeters
G90 ; use absolute coordinates
M83 ; use relative distances for extrusion
M900 K0.05 ; Filament gcode LA 1.5
M900 K30 ; Filament gcode LA 1.0
;LAYER_CHANGE
;Z:0.2
;HEIGHT:0.2
;BEFORE_LAYER_CHANGE
G92 E0.0
;0.2


G1 E-0.80000 F2100.000
G1 Z0.600 F10800.000
;AFTER_LAYER_CHANGE
;0.2
G1 X156.547 Y116.911
G1 Z0.200
G1 E0.80000 F2100.000
M204 S1000
;TYPE:Perimeter
;WIDTH:0.42
G1 F1200.000
G1 X156.788 Y117.654 E0.02450
G1 X156.953 Y118.261 E0.01972
G1 X157.093 Y118.874 E0.01972
G1 X157.208 Y119.492 E0.01972
G1 X157.297 Y120.115 E0.01972
G1 X157.362 Y120.740 E0.01972
G1 X157.400 Y121.368 E0.01972
G1 X157.413 Y121.997 E0.01972
G1 X157.400 Y122.625 E0.01972
G1 X157.362 Y123.253 E0.01972
G1 X157.297 Y123.878 E0.01972
G1 X157.211 Y124.480 E0.01905
G1 X157.093 Y125.119 E0.02040
G1 X156.953 Y125.732 E0.01970
G1 X156.788 Y126.339 E0.01972
G1 X156.599 Y126.939 E0.01972
G1 X156.385 Y127.530 E0.01972
G1 X156.148 Y128.112 E0.01972
G1 X155.886 Y128.684 E0.01972
G1 X155.602 Y129.245 E0.01972
G1 X155.295 Y129.794 E0.01972
G1 X154.977 Y130.311 E0.01905
G1 X154.615 Y130.852 E0.02040
G1 X154.244 Y131.359 E0.01970
G1 X153.852 Y131.850 E0.01972
G1 X153.440 Y132.325 E0.01972
G1 X153.009 Y132.783 E0.01972
G1 X152.560 Y133.223 E0.01972
G1 X152.109 Y133.631 E0.01905
G1 X151.609 Y134.047 E0.02040
G1 X151.110 Y134.429 E0.01970
G1 X150.596 Y134.790 E0.01972
G1 X150.067 Y135.130 E0.01972
G1 X149.524 Y135.448 E0.01972
G1 X148.969 Y135.744 E0.01972
G1 X148.403 Y136.017 E0.01972
G1 X147.826 Y136.266 E0.01972
G1 X147.239 Y136.492 E0.01972
G1 X146.643 Y136.693 E0.01972
G1 X146.040 Y136.871 E0.01972
G1 X145.450 Y137.018 E0.01905
G1 X144.814 Y137.150 E0.02040
G1 X144.193 Y137.253 E0.01970
G1 X143.569 Y137.329 E0.01972
G1 X142.943 Y137.381 E0.01972
G1 X142.314 Y137.406 E0.01972
G1 X141.057 Y137.381 E0.03943
G1 X140.431 Y137.329 E0.01970
G1 X139.807 Y137.253 E0.01972
G1 X139.186 Y137.150 E0.01972
G1 X138.570 Y137.023 E0.01972
G1 X137.960 Y136.871 E0.01972
G1 X137.357 Y136.693 E0.01972
G1 X136.761 Y136.492 E0.01972
G1 X136.174 Y136.266 E0.01972
G1 X135.597 Y136.017 E0.01972
G1 X135.031 Y135.744 E0.01972
G1 X134.476 Y135.448 E0.01972
G1 X133.933 Y135.130 E0.01972
G1 X133.404 Y134.790 E0.01972
G1 X132.890 Y134.429 E0.01972
G1 X132.390 Y134.047 E0.01972
G1 X131.907 Y133.645 E0.01972
G1 X131.440 Y133.224 E0.01972
G1 X130.991 Y132.783 E0.01972
G1 X130.560 Y132.325 E0.01972
G1 X130.148 Y131.850 E0.01972
G1 X129.756 Y131.359 E0.01972
G1 X129.385 Y130.851 E0.01972
G1 X129.034 Y130.329 E0.01972
G1 X128.705 Y129.794 E0.01972
G1 X128.398 Y129.245 E0.01972
G1 X128.114 Y128.684 E0.01972
G1 X127.852 Y128.112 E0.01972
G1 X127.615 Y127.530 E0.01972
G1 X127.401 Y126.939 E0.01972
G1 X127.212 Y126.339 E0.01972
G1 X127.047 Y125.732 E0.01972
G1 X126.907 Y125.119 E0.01972
G1 X126.792 Y124.501 E0.01972
G1 X126.703 Y123.879 E0.01972
G1 X126.638 Y123.253 E0.01972
G1 X126.600 Y122.625 E0.01972
G1 X126.587 Y121.997 E0.01972
G1 X126.600 Y121.368 E0.01972
G1 X126.638 Y120.740 E0.01972
G1 X126.703 Y120.115 E0.01972
G1 X126.792 Y119.492 E0.01972
G1 X126.907 Y118.874 E0.01972
G1 X127.047 Y118.261 E0.01972
G1 X127.212 Y117.654 E0.01972
G1 X127.401 Y117.055 E0.01972
G1 X127.615 Y116.463 E0.01972
G1 X127.852 Y115.881 E0.01972
G1 X128.105 Y115.329 E0.01905
G1 X128.398 Y114.748 E0.02040
G1 X128.705 Y114.200 E0.01970
G1 X129.034 Y113.664 E0.01972
G1 X129.385 Y113.142 E0.01972
G1 X129.756 Y112.635 E0.01972
G1 X130.148 Y112.143 E0.01972
G1 X130.560 Y111.668 E0.01972
G1 X130.991 Y111.210 E0.01972
G1 X131.440 Y110.770 E0.01972
G1 X131.907 Y110.348 E0.01972
G1 X132.390 Y109.946 E0.01972
G1 X132.890 Y109.565 E0.01972
G1 X133.934 Y108.863 E0.03943
G1 X134.476 Y108.545 E0.01970
G1 X135.031 Y108.250 E0.01972
G1 X135.597 Y107.977 E0.01972
G1 X136.762 Y107.501 E0.03943
G1 X137.357 Y107.300 E0.01970
G1 X137.960 Y107.123 E0.01972
G1 X138.570 Y106.970 E0.01972
G1 X139.186 Y106.843 E0.01972
G1 X139.806 Y106.741 E0.01972
G1 X140.431 Y106.664 E0.01972
G1 X141.057 Y106.613 E0.01972
G1 X141.686 Y106.587 E0.01972
G1 X142.314 Y106.587 E0.01972
G1 X142.921 Y106.612 E0.01905
G1 X143.570 Y106.664 E0.02040
G1 X144.193 Y106.741 E0.01970
G1 X144.814 Y106.843 E0.01972
G1 X145.430 Y106.970 E0.01972
G1 X146.040 Y107.123 E0.01972
G1 X146.643 Y107.300 E0.01972
G1 X147.239 Y107.501 E0.01972
G1 X147.825 Y107.727 E0.01972
G1 X148.403 Y107.977 E0.01972
G1 X148.969 Y108.250 E0.01972
G1 X149.524 Y108.545 E0.01972
G1 X150.067 Y108.863 E0.01972
G1 X150.596 Y109.203 E0.01972
G1 X151.110 Y109.565 E0.01972
G1 X151.610 Y109.946 E0.01972
G1 X152.093 Y110.348 E0.01972
G1 X152.560 Y110.770 E0.01972
G1 X153.009 Y111.210 E0.01972
G1 X153.440 Y111.668 E0.01972
G1 X153.852 Y112.143 E0.01972
G1 X154.244 Y112.635 E0.01972
G1 X154.615 Y113.142 E0.01972
G1 X154.966 Y113.664 E0.01972
G1 X155.284 Y114.181 E0.01905
G1 X155.602 Y114.749 E0.02040
G1 X155.886 Y115.309 E0.01970
G1 X156.148 Y115.881 E0.01972
G1 X156.527 Y116.855 E0.03276
G1 X156.881 Y116.727 F10800.000
;TYPE:External perimeter
G1 F1200.000
G1 X157.150 Y117.548 E0.02710
G1 X157.319 Y118.170 E0.02020
G1 X157.463 Y118.798 E0.02020
G1 X157.580 Y119.431 E0.02020
G1 X157.672 Y120.069 E0.02020
G1 X157.737 Y120.710 E0.02020
G1 X157.777 Y121.353 E0.02020
G1 X157.790 Y121.997 E0.02020
G1 X157.777 Y122.641 E0.02020
G1 X157.737 Y123.284 E0.02020
G1 X157.672 Y123.925 E0.02020
G1 X157.583 Y124.541 E0.01952
G1 X157.463 Y125.196 E0.02088
G1 X157.319 Y125.824 E0.02019
G1 X157.150 Y126.445 E0.02020
G1 X156.956 Y127.059 E0.02020
G1 X156.737 Y127.665 E0.02020
G1 X156.494 Y128.262 E0.02020
G1 X156.226 Y128.848 E0.02020
G1 X155.935 Y129.422 E0.02020
G1 X155.621 Y129.984 E0.02020
G1 X155.295 Y130.515 E0.01952
G1 X154.924 Y131.068 E0.02088
G1 X154.543 Y131.588 E0.02019
G1 X154.142 Y132.091 E0.02020
G1 X153.720 Y132.578 E0.02020
G1 X153.279 Y133.047 E0.02020
G1 X152.818 Y133.498 E0.02020
G1 X152.356 Y133.915 E0.01952
G1 X151.845 Y134.342 E0.02088
G1 X151.333 Y134.733 E0.02019
G1 X150.806 Y135.103 E0.02020
G1 X150.264 Y135.451 E0.02020
G1 X149.708 Y135.777 E0.02020
G1 X149.140 Y136.080 E0.02020
G1 X148.559 Y136.360 E0.02020
G1 X147.968 Y136.615 E0.02020
G1 X147.367 Y136.847 E0.02020
G1 X146.757 Y137.053 E0.02020
G1 X146.139 Y137.235 E0.02020
G1 X145.535 Y137.385 E0.01952
G1 X144.883 Y137.521 E0.02088
G1 X144.247 Y137.626 E0.02019
G1 X143.608 Y137.705 E0.02020
G1 X142.966 Y137.757 E0.02020
G1 X142.322 Y137.783 E0.02020
G1 X141.700 Y137.783 E0.01952
G1 X141.034 Y137.757 E0.02088
G1 X140.392 Y137.705 E0.02019
G1 X139.753 Y137.626 E0.02020
G1 X139.117 Y137.521 E0.02020
G1 X138.486 Y137.391 E0.02020
G1 X137.861 Y137.235 E0.02020
G1 X137.243 Y137.053 E0.02020
G1 X136.633 Y136.847 E0.02020
G1 X136.032 Y136.615 E0.02020
G1 X135.441 Y136.360 E0.02020
G1 X134.860 Y136.080 E0.02020
G1 X134.292 Y135.777 E0.02020
G1 X133.736 Y135.451 E0.02020
G1 X133.194 Y135.103 E0.02020
G1 X132.667 Y134.733 E0.02020
G1 X132.155 Y134.342 E0.02020
G1 X131.660 Y133.930 E0.02020
G1 X131.182 Y133.498 E0.02020
G1 X130.722 Y133.047 E0.02020
G1 X130.280 Y132.578 E0.02020
G1 X129.858 Y132.091 E0.02020
G1 X129.457 Y131.588 E0.02020
G1 X129.076 Y131.068 E0.02020
G1 X128.717 Y130.533 E0.02020
G1 X128.380 Y129.984 E0.02020
G1 X128.065 Y129.422 E0.02020
G1 X127.774 Y128.848 E0.02020
G1 X127.506 Y128.262 E0.02020
G1 X127.263 Y127.665 E0.02020
G1 X127.044 Y127.059 E0.02020
G1 X126.850 Y126.445 E0.02020
G1 X126.681 Y125.824 E0.02020
G1 X126.537 Y125.196 E0.02020
G1 X126.420 Y124.562 E0.02020
G1 X126.328 Y123.925 E0.02020
G1 X126.263 Y123.284 E0.02020
G1 X126.223 Y122.641 E0.02020
G1 X126.210 Y121.997 E0.02020
G1 X126.223 Y121.353 E0.02020
G1 X126.263 Y120.710 E0.02020
G1 X126.328 Y120.069 E0.02020
G1 X126.420 Y119.431 E0.02020
G1 X126.537 Y118.798 E0.02020
G1 X126.681 Y118.170 E0.02020
G1 X126.850 Y117.548 E0.02020
G1 X127.044 Y116.934 E0.02020
G1 X127.263 Y116.328 E0.02020
G1 X127.506 Y115.732 E0.02020
G1 X127.765 Y115.165 E0.01952
G1 X128.065 Y114.571 E0.02088
G1 X128.379 Y114.009 E0.02019
G1 X128.717 Y113.460 E0.02020
G1 X129.076 Y112.925 E0.02020
G1 X129.457 Y112.406 E0.02020
G1 X129.858 Y111.902 E0.02020
G1 X130.280 Y111.415 E0.02020
G1 X130.721 Y110.946 E0.02020
G1 X131.182 Y110.495 E0.02020
G1 X131.660 Y110.063 E0.02020
G1 X132.155 Y109.652 E0.02020
G1 X132.667 Y109.260 E0.02020
G1 X133.176 Y108.903 E0.01952
G1 X133.736 Y108.542 E0.02088
G1 X134.292 Y108.216 E0.02019
G1 X134.860 Y107.913 E0.02020
G1 X135.441 Y107.634 E0.02020
G1 X136.012 Y107.387 E0.01952
G1 X136.633 Y107.147 E0.02088
G1 X137.243 Y106.940 E0.02019
G1 X137.861 Y106.759 E0.02020
G1 X138.486 Y106.603 E0.02020
G1 X139.117 Y106.472 E0.02020
G1 X139.753 Y106.367 E0.02020
G1 X140.392 Y106.289 E0.02020
G1 X141.034 Y106.236 E0.02020
G1 X141.678 Y106.210 E0.02020
G1 X142.322 Y106.210 E0.02020
G1 X142.944 Y106.235 E0.01952
G1 X143.608 Y106.289 E0.02088
G1 X144.247 Y106.367 E0.02019
G1 X144.883 Y106.472 E0.02020
G1 X145.514 Y106.603 E0.02020
G1 X146.139 Y106.759 E0.02020
G1 X146.757 Y106.940 E0.02020
G1 X147.367 Y107.147 E0.02020
G1 X147.968 Y107.378 E0.02020
G1 X148.559 Y107.634 E0.02020
G1 X149.140 Y107.913 E0.02020
G1 X149.708 Y108.216 E0.02020
G1 X150.264 Y108.542 E0.02020
G1 X150.806 Y108.890 E0.02020
G1 X151.333 Y109.260 E0.02020
G1 X151.845 Y109.652 E0.02020
G1 X152.340 Y110.063 E0.02020
G1 X152.818 Y110.495 E0.02020
G1 X153.278 Y110.946 E0.02020
G1 X153.720 Y111.415 E0.02020
G1 X154.142 Y111.902 E0.02020
G1 X154.543 Y112.406 E0.02020
G1 X154.924 Y112.925 E0.02020
G1 X155.283 Y113.460 E0.02020
G1 X155.609 Y113.990 E0.01952
M73 P1 R28
M73 Q1 S29
G1 X155.935 Y114.571 E0.02088
G1 X156.226 Y115.146 E0.02019
G1 X156.494 Y115.732 E0.02020
G1 X156.861 Y116.670 E0.03160
G1 X156.622 Y117.031 F10800.000
G1 E-0.80000 F2100.000
G1 Z0.800 F10800.000
G1 X142.904 Y106.894
G1 Z0.200
G1 E0.80000 F2100.000
;TYPE:Solid infill
;WIDTH:0.421168
G1 F1200.000
G1 X143.541 Y106.945 E0.02010
G1 X144.153 Y107.021 E0.01940
G1 X144.762 Y107.121 E0.01941
G1 X145.367 Y107.246 E0.01941
G1 X145.966 Y107.396 E0.01941
G1 X146.558 Y107.570 E0.01941
G1 X147.142 Y107.767 E0.01941
G1 X147.719 Y107.989 E0.01941
G1 X148.285 Y108.234 E0.01941
G1 X148.841 Y108.502 E0.01941
G1 X149.386 Y108.792 E0.01941
G1 X149.918 Y109.104 E0.01941
G1 X150.438 Y109.438 E0.01941
G1 X150.943 Y109.793 E0.01941
G1 X151.433 Y110.168 E0.01941
G1 X151.908 Y110.562 E0.01941
G1 X152.366 Y110.976 E0.01941
G1 X152.807 Y111.408 E0.01941
G1 X153.230 Y111.857 E0.01941
G1 X153.634 Y112.324 E0.01941
G1 X154.019 Y112.807 E0.01941
G1 X154.384 Y113.304 E0.01941
G1 X154.726 Y113.814 E0.01932
G1 X155.354 Y114.884 E0.03901
G1 X155.632 Y115.432 E0.01931
G1 X155.888 Y115.993 E0.01941
G1 X156.121 Y116.565 E0.01941
G1 X156.331 Y117.145 E0.01941
G1 X156.517 Y117.734 E0.01941
G1 X156.679 Y118.330 E0.01941
G1 X156.816 Y118.932 E0.01941
G1 X156.929 Y119.538 E0.01941
G1 X157.017 Y120.149 E0.01941
G1 X157.080 Y120.763 E0.01941
G1 X157.117 Y121.380 E0.01941
G1 X157.130 Y121.997 E0.01941
G1 X157.117 Y122.614 E0.01941
G1 X157.080 Y123.230 E0.01941
G1 X156.932 Y124.434 E0.03815
G1 X156.816 Y125.062 E0.02010
G1 X156.679 Y125.664 E0.01940
G1 X156.517 Y126.259 E0.01941
G1 X156.331 Y126.848 E0.01941
G1 X156.121 Y127.428 E0.01941
G1 X155.888 Y128.000 E0.01941
G1 X155.632 Y128.561 E0.01941
G1 X155.353 Y129.112 E0.01941
G1 X154.739 Y130.158 E0.03815
G1 X154.384 Y130.689 E0.02010
G1 X154.019 Y131.187 E0.01940
G1 X153.634 Y131.669 E0.01941
G1 X153.230 Y132.136 E0.01941
G1 X152.807 Y132.585 E0.01941
G1 X151.924 Y133.417 E0.03815
G1 X151.433 Y133.826 E0.02010
G1 X150.943 Y134.201 E0.01940
G1 X150.438 Y134.555 E0.01941
G1 X149.919 Y134.889 E0.01941
G1 X149.386 Y135.201 E0.01941
G1 X148.841 Y135.492 E0.01941
G1 X148.285 Y135.759 E0.01941
G1 X147.719 Y136.004 E0.01941
G1 X147.143 Y136.226 E0.01941
G1 X146.558 Y136.424 E0.01941
G1 X145.387 Y136.742 E0.03815
G1 X144.762 Y136.872 E0.02010
G1 X144.153 Y136.973 E0.01940
G1 X143.541 Y137.048 E0.01941
G1 X142.925 Y137.098 E0.01941
G1 X142.312 Y137.123 E0.01932
G1 X141.071 Y137.098 E0.03901
G1 X140.459 Y137.048 E0.01931
G1 X139.847 Y136.973 E0.01941
G1 X139.238 Y136.872 E0.01941
G1 X138.633 Y136.747 E0.01941
G1 X138.034 Y136.598 E0.01941
G1 X137.442 Y136.424 E0.01941
G1 X136.858 Y136.226 E0.01941
G1 X136.281 Y136.004 E0.01941
G1 X135.715 Y135.759 E0.01941
G1 X135.159 Y135.492 E0.01941
G1 X134.614 Y135.201 E0.01941
G1 X134.081 Y134.889 E0.01941
G1 X133.562 Y134.555 E0.01941
G1 X133.057 Y134.201 E0.01941
G1 X132.567 Y133.826 E0.01941
G1 X132.092 Y133.431 E0.01941
G1 X131.634 Y133.017 E0.01941
G1 X131.193 Y132.585 E0.01941
G1 X130.770 Y132.136 E0.01941
G1 X130.366 Y131.669 E0.01941
G1 X129.981 Y131.187 E0.01941
G1 X129.616 Y130.689 E0.01941
G1 X129.272 Y130.177 E0.01941
G1 X128.949 Y129.651 E0.01941
G1 X128.648 Y129.112 E0.01941
G1 X128.368 Y128.561 E0.01941
G1 X128.112 Y128.000 E0.01941
G1 X127.879 Y127.428 E0.01941
G1 X127.669 Y126.848 E0.01941
G1 X127.483 Y126.259 E0.01941
G1 X127.321 Y125.664 E0.01941
G1 X127.184 Y125.062 E0.01941
G1 X127.071 Y124.455 E0.01941
G1 X126.983 Y123.844 E0.01941
G1 X126.920 Y123.230 E0.01941
G1 X126.883 Y122.614 E0.01941
G1 X126.870 Y121.997 E0.01941
G1 X126.883 Y121.380 E0.01941
G1 X126.920 Y120.763 E0.01941
G1 X126.983 Y120.149 E0.01941
G1 X127.071 Y119.538 E0.01941
G1 X127.184 Y118.932 E0.01941
G1 X127.321 Y118.330 E0.01941
G1 X127.483 Y117.734 E0.01941
G1 X127.669 Y117.146 E0.01941
G1 X127.879 Y116.565 E0.01941
G1 X128.360 Y115.451 E0.03815
G1 X128.648 Y114.881 E0.02010
G1 X128.949 Y114.343 E0.01940
G1 X129.272 Y113.817 E0.01941
G1 X129.616 Y113.304 E0.01941
G1 X129.981 Y112.807 E0.01941
G1 X130.366 Y112.324 E0.01941
G1 X130.770 Y111.858 E0.01941
G1 X131.193 Y111.408 E0.01941
G1 X131.634 Y110.976 E0.01941
G1 X132.092 Y110.562 E0.01941
G1 X132.567 Y110.168 E0.01941
G1 X133.055 Y109.794 E0.01932
G1 X134.084 Y109.103 E0.03901
G1 X134.614 Y108.792 E0.01931
G1 X135.159 Y108.502 E0.01941
G1 X135.712 Y108.235 E0.01932
G1 X136.861 Y107.766 E0.03901
G1 X137.442 Y107.570 E0.01931
G1 X138.034 Y107.396 E0.01941
G1 X138.633 Y107.246 E0.01941
G1 X139.238 Y107.121 E0.01941
G1 X139.847 Y107.021 E0.01941
G1 X140.459 Y106.945 E0.01941
G1 X141.075 Y106.895 E0.01941
G1 X141.691 Y106.870 E0.01941
G1 X142.844 Y106.892 E0.03627
G1 X142.881 Y107.272 F10800.000
G1 F1200.000
G1 X143.503 Y107.322 E0.01961
G1 X144.099 Y107.395 E0.01890
G1 X145.283 Y107.615 E0.03785
G1 X146.444 Y107.930 E0.03785
G1 X147.576 Y108.339 E0.03785
G1 X148.128 Y108.578 E0.01893
G1 X149.201 Y109.122 E0.03785
G1 X150.227 Y109.752 E0.03785
G1 X150.719 Y110.098 E0.01893
G1 X151.197 Y110.463 E0.01893
G1 X152.107 Y111.251 E0.03785
G1 X152.949 Y112.111 E0.03785
G1 X153.718 Y113.036 E0.03785
G1 X154.406 Y114.016 E0.03764
G1 X155.022 Y115.066 E0.03828
G1 X155.541 Y116.144 E0.03762
G1 X155.768 Y116.701 E0.01893
G1 X156.154 Y117.841 E0.03785
G1 X156.446 Y119.008 E0.03785
G1 X156.556 Y119.600 E0.01893
