; generated by PrusaSlicer 2.5.0+win64 on 2022-12-21 at 23:14:53 UTC


;
;
; 

; external perimeters extrusion width = 0.45mm
; perimeters extrusion width = 0.45mm
; infill extrusion width = 0.45mm
; solid infill extrusion width = 0.45mm
; top infill extrusion width = 0.40mm
; first layer extrusion width = 0.42mm

M73 P0 R133
M73 Q0 S135
M201 X1000 Y1000 Z200 E5000 ; sets maximum accelerations, mm/sec^2
M203 X200 Y200 Z12 E120 ; sets maximum feedrates, mm / sec
M204 P1250 R1250 T1250 ; sets acceleration (P, T) and retract acceleration (R), mm/sec^2
M205 X8.00 Y8.00 Z0.40 E4.50 ; sets the jerk limits, mm/sec
M205 S0 T0 ; sets the minimum extruding and travel feed rate, mm/sec
M107
;TYPE:Custom
M862.3 P "MK3S" ; printer model check
M862.1 P0.4 ; nozzle diameter check
M115 U3.11.0 ; tell printer latest fw version
G90 ; use absolute coordinates
M83 ; extruder relative mode
M104 S215 ; set extruder temp
M140 S60 ; set bed temp
M190 S60 ; wait for bed temp
M109 S215 ; wait for extruder temp
G28 W ; home all without mesh bed level
G80 ; mesh bed leveling

G1 Z0.2 F720
G1 Y-3 F1000 ; go outside print area
G92 E0
G1 X60 E9 F1000 ; intro line
G1 X100 E12.5 F1000 ; intro line

G92 E0
M221 S95

; Don't change E values below. Excessive value can damage the printer.

G21 ; set units to millimeters
G90 ; use absolute coordinates
M83 ; use relative distances for extrusion
M900 K0.05 ; Filament gcode LA 1.5
M900 K30 ; Filament gcode LA 1.0
M107
;LAYER_CHANGE
;Z:0.2
;HEIGHT:0.2
;BEFORE_LAYER_CHANGE
G92 E0.0
;0.2


G1 E-.8 F2100
G1 Z.4 F900
;AFTER_LAYER_CHANGE
;0.2
G1 X115.916 Y66.055 F13200
G1 Z.2 F900
G1 E.8 F2100
M204 S800
;TYPE:Skirt/Brim
;WIDTH:0.42
G1 F600
G1 X116.962 Y65.178 E.04278
G1 X117.902 Y64.985 E.03008
G1 X127.111 Y64.985 E.28876
G1 X128.794 Y65.683 E.05713
G1 X136.329 Y73.237 E.33454
G1 X136.8 Y73.91 E.02575
G1 X137.163 Y74.961 E.03487
G1 X137.239 Y75.718 E.02383
G1 X137.212 Y134.736 E1.85047
G1 X136.952 Y135.903 E.0375
G1 X136.327 Y136.914 E.03726
G1 X128.818 Y144.515 E.33502
G1 X127.127 Y145.221 E.05746
G1 X117.902 Y145.221 E.28924
G1 X116.595 Y144.829 E.04278
G1 X115.718 Y143.784 E.04278
G1 X115.525 Y142.844 E.03008
G1 X115.525 Y67.362 E2.36669
G1 X115.899 Y66.112 E.0409
M204 S1000
; printing object Underwater Bracket.stl id:0 copy 0
;WIPE_START
G1 F10560
G1 X116.962 Y65.178 E-.26731
G1 X117.902 Y64.985 E-.18127
G1 X119.55 Y64.985 E-.31142
;WIPE_END
G1 E-.04 F2100
G1 Z.6 F900
G1 X125.962 Y141.68 F13200
G1 Z.2 F900
G1 E.8 F2100
M204 S800
;TYPE:Perimeter
;WIDTH:0.419999
G1 F540
G1 X119.066 Y141.68 E.21623
G1 X119.066 Y68.526 E2.29369
G1 X125.947 Y68.526 E.21577
M73 Q0 S134
G1 X125.95 Y75.014 E.20343
G1 X125.964 Y75.176 E.00511
G1 X126.095 Y75.516 E.01143
G1 X126.305 Y75.751 E.00985
G1 X126.519 Y75.879 E.00781
G1 X126.893 Y75.956 E.01198
G1 X133.697 Y75.956 E.21335
G1 X133.69 Y84.203 E.25858
G1 X126.762 Y84.213 E.21721
G1 X126.426 Y84.33 E.01116
G1 X126.198 Y84.514 E.00919
G1 X126.022 Y84.796 E.01042
G1 X125.955 Y85.146 E.01117
G1 X125.955 Y125.014 E1.25002
G1 X125.969 Y125.176 E.00513
G1 X126.1 Y125.516 E.01141
G1 X126.309 Y125.75 E.00985
G1 X126.523 Y125.879 E.00782
G1 X126.898 Y125.956 E.01199
G1 X133.697 Y125.956 E.2132
G1 X133.69 Y134.203 E.25858
G1 X126.902 Y134.203 E.21281
G1 X126.767 Y134.213 E.00426
G1 X126.43 Y134.33 E.01117
G1 X126.202 Y134.514 E.00919
G1 X126.027 Y134.797 E.01042
G1 X125.959 Y135.146 E.01116
G1 X125.962 Y141.62 E.20298
M204 S1000
G1 X126.339 Y142.057 F13200
M204 S800
G1 F540
G1 X118.689 Y142.057 E.23988
G1 X118.689 Y68.149 E2.31733
G1 X126.324 Y68.149 E.23941
M73 P0 R132
G1 X126.327 Y75.014 E.21525
G1 X126.336 Y75.111 E.00307
G1 X126.414 Y75.315 E.00686
G1 X126.61 Y75.504 E.00852
G1 X126.893 Y75.579 E.00917
G1 X134.051 Y75.579 E.22445
G1 X134.074 Y75.766 E.00591
G1 X134.066 Y84.379 E.27006
G1 X134.043 Y84.58 E.00634
G1 X126.816 Y84.586 E.22659
G1 X126.544 Y84.704 E.00929
G1 X126.372 Y84.936 E.00906
G1 X126.332 Y85.146 E.0067
G1 X126.34 Y125.111 E1.25308
G1 X126.419 Y125.315 E.00685
G1 X126.615 Y125.503 E.00852
G1 X126.898 Y125.579 E.00918
G1 X134.051 Y125.579 E.22429
G1 X134.074 Y125.779 E.0063
G1 X134.066 Y134.379 E.26967
G1 X134.043 Y134.58 E.00634
G1 X126.902 Y134.58 E.22389
G1 X126.821 Y134.586 E.00255
G1 X126.549 Y134.704 E.0093
G1 X126.377 Y134.936 E.00906
G1 X126.337 Y135.146 E.00669
G1 X126.339 Y141.997 E.2148
M204 S1000
G1 X126.717 Y142.434 F13200
M204 S800
;TYPE:External perimeter
G1 F300
G1 X118.312 Y142.434 E.26353
G1 X118.312 Y67.772 E2.34098
G1 X126.701 Y67.772 E.26305
M73 P1 R132
M73 Q1 S134
G1 X126.704 Y75.014 E.22706
G1 X126.753 Y75.14 E.00425
M73 Q1 S133
G1 X126.893 Y75.202 E.0048
G1 X134.315 Y75.202 E.23272
G1 X134.389 Y75.336 E.00482
G1 X134.452 Y75.743 E.0129
G1 X134.444 Y84.38 E.2708
G1 X134.401 Y84.753 E.01178
G1 X134.311 Y84.957 E.007
G1 X126.897 Y84.957 E.23247
G1 X126.78 Y84.999 E.00391
G1 X126.709 Y85.146 E.00513
G1 X126.709 Y125.014 E1.25002
G1 X126.758 Y125.14 E.00425
G1 X126.898 Y125.202 E.0048
G1 X134.315 Y125.202 E.23257
G1 X134.389 Y125.336 E.00482
G1 X134.452 Y125.779 E.01401
G1 X134.444 Y134.38 E.26967
G1 X134.401 Y134.753 E.01178
G1 X134.311 Y134.957 E.007
G1 X126.902 Y134.957 E.23231
G1 X126.784 Y134.999 E.00391
G1 X126.714 Y135.146 E.00512
G1 X126.717 Y142.374 E.22663
M204 S1000
G1 X126.371 Y142.233 F13200
;WIPE_START
G1 F10560
G1 X122.694 Y142.403 E-.76
;WIPE_END
G1 E-.04 F2100
G1 Z.6 F900
G1 X132.816 Y76.069 F13200
G1 Z.2 F900
G1 E.8 F2100
M204 S800
;TYPE:Solid infill
;WIDTH:0.422469
G1 F960
G1 X133.414 Y76.667 E.02666
G1 X133.413 Y77.203 E.01692
G1 X132.449 Y76.239 E.04302
G1 X131.913 Y76.239 E.01694
G1 X133.413 Y77.739 E.06695
G1 X133.412 Y78.275 E.01692
G1 X131.376 Y76.239 E.09089
G1 X130.839 Y76.239 E.01694
G1 X133.412 Y78.812 E.11482
G1 X133.411 Y79.348 E.01692
G1 X130.302 Y76.239 E.13876
G1 X129.766 Y76.239 E.01694
G1 X133.411 Y79.884 E.16269
G1 X133.41 Y80.42 E.01692
G1 X129.229 Y76.239 E.18663
G1 X128.692 Y76.239 E.01694
G1 X133.41 Y80.957 E.21056
G1 X133.409 Y81.493 E.01692
G1 X128.155 Y76.239 E.2345
G1 X127.619 Y76.239 E.01694
G1 X133.409 Y82.029 E.25843
G1 X133.408 Y82.566 E.01692
G1 X126.912 Y76.069 E.28994
M204 S1000
;WIPE_START
G1 F10560
G1 X129.757 Y78.914 E-.76
;WIPE_END
G1 E-.04 F2100
G1 Z.6 F900
G1 X125.834 Y69.087 F13200
G1 Z.2 F900
G1 E.8 F2100
M204 S800
G1 F960
G1 X125.556 Y68.809 E.01244
G1 X125.019 Y68.809 E.01694
G1 X125.665 Y69.455 E.02883
G1 X125.665 Y69.992 E.01695
G1 X124.482 Y68.809 E.05279
M73 P1 R131
G1 X123.946 Y68.809 E.01694
G1 X125.665 Y70.528 E.07676
G1 X125.666 Y71.065 E.01695
G1 X123.409 Y68.809 E.10073
G1 X122.872 Y68.809 E.01694
G1 X125.666 Y71.602 E.12469
G1 X125.666 Y72.139 E.01695
G1 X122.335 Y68.809 E.14866
G1 X121.798 Y68.809 E.01694
G1 X125.666 Y72.676 E.17262
G1 X125.666 Y73.213 E.01695
G1 X121.262 Y68.809 E.19659
G1 X120.725 Y68.809 E.01694
G1 X125.667 Y73.75 E.22056
G1 X125.667 Y74.287 E.01695
G1 X120.188 Y68.809 E.24452
G1 X119.651 Y68.809 E.01694
G1 X125.837 Y74.994 E.27607
M204 S1000
;WIPE_START
G1 F10560
G1 X122.992 Y72.149 E-.76
;WIPE_END
G1 E-.04 F2100
G1 Z.6 F900
G1 X119.179 Y68.873 F13200
G1 Z.2 F900
G1 E.8 F2100
M204 S800
G1 F960
G1 X133.408 Y83.102 E.63506
G1 X133.407 Y83.638 E.01692
G1 X119.349 Y69.579 E.62747
G1 X119.349 Y70.116 E.01694
G1 X133.154 Y83.921 E.61614
G1 X132.618 Y83.922 E.01691
G1 X119.349 Y70.653 E.59223
G1 X119.349 Y71.19 E.01694
G1 X132.082 Y83.923 E.56831
G1 X131.546 Y83.924 E.01691
G1 X119.349 Y71.726 E.5444
G1 X119.349 Y72.263 E.01694
G1 X131.01 Y83.925 E.52048
G1 X130.474 Y83.926 E.01691
G1 X119.349 Y72.8 E.49657
G1 X119.349 Y73.337 E.01694
G1 X129.939 Y83.927 E.47265
G1 X129.403 Y83.928 E.01691
G1 X119.349 Y73.873 E.44874
G1 X119.349 Y74.41 E.01694
G1 X128.867 Y83.929 E.42482
G1 X128.331 Y83.929 E.01691
G1 X119.349 Y74.947 E.4009
G1 X119.349 Y75.484 E.01694
G1 X127.795 Y83.93 E.37699
G1 X127.259 Y83.931 E.01691
G1 X119.349 Y76.021 E.35307
G1 X119.349 Y76.557 E.01694
G1 X126.724 Y83.932 E.32917
G1 X126.554 Y83.969 E.00547
G1 X126.322 Y84.068 E.00796
G1 X119.349 Y77.094 E.31125
G1 X119.349 Y77.631 E.01694
G1 X126.016 Y84.298 E.29756
G1 X125.86 Y84.493 E.00788
G1 X125.797 Y84.616 E.00436
G1 X119.349 Y78.168 E.28781
G1 X119.349 Y78.704 E.01694
G1 X125.682 Y85.037 E.28266
G1 X125.672 Y85.564 E.01663
G1 X119.349 Y79.241 E.28221
G1 X119.349 Y79.778 E.01694
G1 X125.672 Y86.101 E.28221
G1 X125.672 Y86.638 E.01694
G1 X119.349 Y80.315 E.28222
G1 X119.349 Y80.851 E.01694
G1 X125.672 Y87.175 E.28222
G1 X125.672 Y87.711 E.01694
G1 X119.349 Y81.388 E.28222
G1 X119.349 Y81.925 E.01694
G1 X125.672 Y88.248 E.28222
G1 X125.672 Y88.785 E.01694
G1 X119.349 Y82.462 E.28222
G1 X119.349 Y82.998 E.01694
G1 X125.672 Y89.322 E.28222
G1 X125.672 Y89.858 E.01694
G1 X119.349 Y83.535 E.28222
G1 X119.349 Y84.072 E.01694
G1 X125.672 Y90.395 E.28222
G1 X125.672 Y90.932 E.01694
G1 X119.349 Y84.609 E.28222
G1 X119.349 Y85.145 E.01694
G1 X125.672 Y91.469 E.28222
G1 X125.672 Y92.005 E.01694
G1 X119.349 Y85.682 E.28222
G1 X119.349 Y86.219 E.01694
G1 X125.672 Y92.542 E.28222
G1 X125.672 Y93.079 E.01694
G1 X119.349 Y86.756 E.28222
G1 X119.349 Y87.293 E.01694
G1 X125.672 Y93.616 E.28222
G1 X125.672 Y94.153 E.01694
G1 X119.349 Y87.829 E.28222
G1 X119.349 Y88.366 E.01694
G1 X125.672 Y94.689 E.28222
G1 X125.672 Y95.226 E.01694
G1 X119.349 Y88.903 E.28222
G1 X119.349 Y89.44 E.01694
G1 X125.672 Y95.763 E.28222
G1 X125.672 Y96.3 E.01694
G1 X119.349 Y89.976 E.28222
G1 X119.349 Y90.513 E.01694
G1 X125.672 Y96.836 E.28222
G1 X125.672 Y97.373 E.01694
M73 Q1 S132
G1 X119.349 Y91.05 E.28222
G1 X119.349 Y91.587 E.01694
G1 X125.672 Y97.91 E.28222
G1 X125.672 Y98.447 E.01694
G1 X119.349 Y92.123 E.28222
G1 X119.349 Y92.66 E.01694
G1 X125.672 Y98.983 E.28222
G1 X125.672 Y99.52 E.01694
G1 X119.349 Y93.197 E.28222
G1 X119.349 Y93.734 E.01694
G1 X125.672 Y100.057 E.28222
G1 X125.672 Y100.594 E.01694
G1 X119.349 Y94.27 E.28222
G1 X119.349 Y94.807 E.01694
G1 X125.672 Y101.131 E.28222
G1 X125.672 Y101.667 E.01694
G1 X119.349 Y95.344 E.28222
G1 X119.349 Y95.881 E.01694
G1 X125.672 Y102.204 E.28222
G1 X125.672 Y102.741 E.01694
G1 X119.349 Y96.418 E.28222
G1 X119.349 Y96.954 E.01694
G1 X125.672 Y103.278 E.28222
G1 X125.672 Y103.814 E.01694
G1 X119.349 Y97.491 E.28222
G1 X119.349 Y98.028 E.01694
G1 X125.672 Y104.351 E.28222
G1 X125.672 Y104.888 E.01694
G1 X119.349 Y98.565 E.28222
G1 X119.349 Y99.101 E.01694
G1 X125.672 Y105.425 E.28222
G1 X125.672 Y105.961 E.01694
G1 X119.349 Y99.638 E.28222
G1 X119.349 Y100.175 E.01694
G1 X125.672 Y106.498 E.28222
G1 X125.672 Y107.035 E.01694
G1 X119.349 Y100.712 E.28222
G1 X119.349 Y101.248 E.01694
M73 P2 R131
G1 X125.672 Y107.572 E.28222
G1 X125.672 Y108.108 E.01694
G1 X119.349 Y101.785 E.28222
G1 X119.349 Y102.322 E.01694
M73 Q2 S132
G1 X125.672 Y108.645 E.28222
G1 X125.672 Y109.182 E.01694
G1 X119.349 Y102.859 E.28222
G1 X119.349 Y103.395 E.01694
G1 X125.672 Y109.719 E.28222
G1 X125.672 Y110.256 E.01694
G1 X119.349 Y103.932 E.28222
G1 X119.349 Y104.469 E.01694
G1 X125.672 Y110.792 E.28222
G1 X125.672 Y111.329 E.01694
G1 X119.349 Y105.006 E.28222
G1 X119.349 Y105.542 E.01694
G1 X125.672 Y111.866 E.28223
G1 X125.672 Y112.403 E.01694
G1 X119.349 Y106.079 E.28223
G1 X119.349 Y106.616 E.01694
G1 X125.672 Y112.939 E.28223
G1 X125.672 Y113.476 E.01694
G1 X119.349 Y107.153 E.28223
G1 X119.349 Y107.69 E.01694
G1 X125.672 Y114.013 E.28223
G1 X125.672 Y114.55 E.01694
G1 X119.349 Y108.226 E.28223
G1 X119.349 Y108.763 E.01694
G1 X125.672 Y115.086 E.28223
G1 X125.672 Y115.623 E.01694
G1 X119.349 Y109.3 E.28223
G1 X119.349 Y109.837 E.01694
G1 X125.672 Y116.16 E.28223
G1 X125.672 Y116.697 E.01694
G1 X119.349 Y110.373 E.28223
G1 X119.349 Y110.91 E.01694
G1 X125.672 Y117.234 E.28223
G1 X125.672 Y117.77 E.01694
G1 X119.349 Y111.447 E.28223
G1 X119.349 Y111.984 E.01694
G1 X125.672 Y118.307 E.28223
G1 X125.672 Y118.844 E.01694
G1 X119.349 Y112.52 E.28223
G1 X119.349 Y113.057 E.01694
G1 X125.672 Y119.381 E.28223
G1 X125.672 Y119.917 E.01694
M73 P2 R130
G1 X119.349 Y113.594 E.28223
G1 X119.349 Y114.131 E.01694
G1 X125.672 Y120.454 E.28223
G1 X125.672 Y120.991 E.01694
G1 X119.349 Y114.667 E.28223
G1 X119.349 Y115.204 E.01694
G1 X125.672 Y121.528 E.28223
G1 X125.672 Y122.064 E.01694
G1 X119.349 Y115.741 E.28223
G1 X119.349 Y116.278 E.01694
G1 X125.672 Y122.601 E.28223
G1 X125.672 Y123.138 E.01694
G1 X119.349 Y116.815 E.28223
G1 X119.349 Y117.351 E.01694
G1 X125.672 Y123.675 E.28223
G1 X125.672 Y124.212 E.01694
G1 X119.349 Y117.888 E.28223
G1 X119.349 Y118.425 E.01694
G1 X125.842 Y124.918 E.2898
M204 S1000
;WIPE_START
G1 F10560
G1 X122.997 Y122.073 E-.76
;WIPE_END
G1 E-.04 F2100
G1 Z.6 F900
G1 X133.583 Y126.755 F13200
G1 Z.2 F900
G1 E.8 F2100
M204 S800
G1 F960
G1 X133.066 Y126.238 E.02307
G1 X132.529 Y126.237 E.01697
G1 X133.413 Y127.122 E.03948
G1 X133.413 Y127.658 E.01692
G1 X131.991 Y126.236 E.06346
G1 X131.453 Y126.235 E.01697
G1 X133.412 Y128.194 E.08743
G1 X133.412 Y128.731 E.01692
G1 X130.916 Y126.235 E.11141
G1 X130.378 Y126.234 E.01697
G1 X133.411 Y129.267 E.13538
G1 X133.411 Y129.803 E.01692
G1 X129.84 Y126.233 E.15936
G1 X129.303 Y126.232 E.01697
G1 X133.41 Y130.34 E.18333
G1 X133.41 Y130.876 E.01692
G1 X128.765 Y126.231 E.20731
G1 X128.227 Y126.23 E.01697
G1 X133.409 Y131.412 E.23129
G1 X133.409 Y131.948 E.01692
G1 X127.69 Y126.229 E.25526
G1 X127.152 Y126.228 E.01697
G1 X133.408 Y132.485 E.27924
G1 X133.408 Y133.021 E.01692
G1 X119.349 Y118.962 E.62749
G1 X119.349 Y119.498 E.01694
G1 X133.407 Y133.557 E.62747
G1 X133.407 Y133.921 E.01147
G1 X133.234 Y133.921 E.00546
G1 X119.349 Y120.035 E.61974
G1 X119.349 Y120.572 E.01694
G1 X132.698 Y133.921 E.5958
G1 X132.161 Y133.921 E.01693
G1 X119.349 Y121.109 E.57186
G1 X119.349 Y121.645 E.01694
G1 X131.625 Y133.922 E.54792
G1 X131.088 Y133.922 E.01693
G1 X119.349 Y122.182 E.52398
G1 X119.349 Y122.719 E.01694
G1 X130.552 Y133.922 E.50003
G1 X130.016 Y133.923 E.01693
G1 X119.349 Y123.256 E.47609
G1 X119.349 Y123.792 E.01694
G1 X129.479 Y133.923 E.45215
G1 X128.943 Y133.923 E.01693
G1 X119.349 Y124.329 E.42821
G1 X119.349 Y124.866 E.01694
G1 X128.406 Y133.924 E.40427
G1 X127.87 Y133.924 E.01693
G1 X119.349 Y125.403 E.38033
G1 X119.349 Y125.94 E.01694
G1 X127.334 Y133.924 E.35639
G1 X126.797 Y133.925 E.01693
G1 X119.349 Y126.476 E.33244
G1 X119.349 Y127.013 E.01694
G1 X126.378 Y134.043 E.31374
G1 X126.138 Y134.187 E.00883
G1 X126.06 Y134.261 E.00341
G1 X119.349 Y127.55 E.29953
G1 X119.349 Y128.087 E.01694
G1 X125.828 Y134.566 E.28917
G1 X125.764 Y134.692 E.00447
G1 X125.693 Y134.968 E.009
G1 X119.349 Y128.623 E.28318
G1 X119.349 Y129.16 E.01694
G1 X125.677 Y135.488 E.28244
G1 X125.677 Y136.025 E.01695
G1 X119.349 Y129.697 E.28245
G1 X119.349 Y130.234 E.01694
G1 X125.677 Y136.562 E.28246
G1 X125.677 Y137.099 E.01695
G1 X119.349 Y130.77 E.28247
G1 X119.349 Y131.307 E.01694
G1 X125.678 Y137.636 E.28248
G1 X125.678 Y138.173 E.01695
G1 X119.349 Y131.844 E.28249
G1 X119.349 Y132.381 E.01694
G1 X125.678 Y138.71 E.2825
G1 X125.678 Y139.247 E.01695
G1 X119.349 Y132.917 E.28251
G1 X119.349 Y133.454 E.01694
G1 X125.679 Y139.784 E.28252
G1 X125.679 Y140.321 E.01695
G1 X119.349 Y133.991 E.28253
G1 X119.349 Y134.528 E.01694
G1 X125.679 Y140.858 E.28254
M73 Q2 S131
G1 X125.679 Y141.395 E.01695
G1 X119.349 Y135.064 E.28255
G1 X119.349 Y135.601 E.01694
G1 X125.144 Y141.397 E.25868
G1 X124.608 Y141.397 E.01694
G1 X119.349 Y136.138 E.23472
G1 X119.349 Y136.675 E.01694
G1 X124.071 Y141.397 E.21076
G1 X123.534 Y141.397 E.01694
G1 X119.349 Y137.212 E.1868
G1 X119.349 Y137.748 E.01694
G1 X122.997 Y141.397 E.16285
G1 X122.461 Y141.397 E.01694
G1 X119.349 Y138.285 E.13889
G1 X119.349 Y138.822 E.01694
G1 X121.924 Y141.397 E.11493
G1 X121.387 Y141.397 E.01694
G1 X119.349 Y139.359 E.09098
G1 X119.349 Y139.895 E.01694
G1 X120.85 Y141.397 E.06702
G1 X120.313 Y141.397 E.01694
G1 X119.349 Y140.432 E.04306
G1 X119.349 Y140.969 E.01694
G1 X119.946 Y141.567 E.02668
M204 S1000
; stop printing object Underwater Bracket.stl id:0 copy 0
M106 S84.15
;LAYER_CHANGE
;Z:0.35
;HEIGHT:0.15
;BEFORE_LAYER_CHANGE
G92 E0.0
;0.35


;WIPE_START
G1 F10560
G1 X119.349 Y140.969 E-.15971
