; generated by PrusaSlicer 2.4.2+win64 on 2022-05-10 at 00:00:48 UTC

; 

; external perimeters extrusion width = 0.45mm
; perimeters extrusion width = 0.45mm
; infill extrusion width = 0.45mm
; solid infill extrusion width = 0.45mm
; top infill extrusion width = 0.40mm
; support material extrusion width = 0.35mm
; first layer extrusion width = 0.42mm

M73 P0 R173
M73 Q0 S174
M201 X1000 Y1000 Z200 E5000 ; sets maximum accelerations, mm/sec^2
M203 X200 Y200 Z12 E120 ; sets maximum feedrates, mm / sec
M204 P1250 R1250 T1250 ; sets acceleration (P, T) and retract acceleration (R), mm/sec^2
M205 X8.00 Y8.00 Z0.40 E4.50 ; sets the jerk limits, mm/sec
M205 S0 T0 ; sets the minimum extruding and travel feed rate, mm/sec
M107
;TYPE:Custom
M862.3 P "MK3S" ; printer model check
M862.1 P0.4 ; nozzle diameter check
M115 U3.10.1 ; tell printer latest fw version
G90 ; use absolute coordinates
M83 ; extruder relative mode
M104 S215 ; set extruder temp
M140 S60 ; set bed temp
M190 S60 ; wait for bed temp
M109 S215 ; wait for extruder temp
G28 W ; home all without mesh bed level
G80 ; mesh bed leveling
G1 Z0.2 F720
G1 Y-3 F1000 ; go outside print area
G92 E0
G1 X60 E9 F1000 ; intro line
G1 X100 E12.5 F1000 ; intro line
G92 E0
M221 S95

; Don't change E values below. Excessive value can damage the printer.

G21 ; set units to millimeters
G90 ; use absolute coordinates
M83 ; use relative distances for extrusion
M900 K0.05 ; Filament gcode LA 1.5
M900 K30 ; Filament gcode LA 1.0
M107
;LAYER_CHANGE
;Z:0.2
;HEIGHT:0.2
;BEFORE_LAYER_CHANGE
G92 E0.0
;0.2


M73 P0 R172
G1 E-.8 F2100
G1 Z.4 F720
;AFTER_LAYER_CHANGE
;0.2
G1 X38.873 Y15.852 F10800
G1 Z.2 F720
G1 E.8 F2100
M204 S800
;TYPE:Skirt/Brim
;WIDTH:0.42
G1 F1200
G1 X39.855 Y13.884 E.06893
G1 X40.791 Y12.54 E.05137
G1 X41.758 Y11.457 E.04553
G1 X43.432 Y10.033 E.0689
G1 X44.862 Y9.141 E.05284
G1 X46.136 Y8.546 E.04409
G1 X48.234 Y7.894 E.06888
G1 X49.947 Y7.632 E.05431
M73 Q0 S173
G1 X51.066 Y7.581 E.03514
G1 X197.645 Y7.586 E4.59589
G1 X198.965 Y7.674 E.04147
G1 X200.269 Y7.894 E.04147
G1 X201.544 Y8.244 E.04147
G1 X202.778 Y8.72 E.04147
G1 X203.957 Y9.319 E.04147
G1 X205.071 Y10.033 E.04147
G1 X206.106 Y10.855 E.04147
G1 X207.054 Y11.778 E.04146
G1 X207.904 Y12.791 E.04147
G1 X208.648 Y13.884 E.04147
G1 X209.278 Y15.047 E.04146
G1 X210.057 Y17.103 E.06895
G1 X210.392 Y18.575 E.04733
G1 X210.552 Y20.109 E.04834
G1 X210.201 Y21.96 E.05907
G1 X139.394 Y181.909 E5.48452
G1 X133.697 Y193.312 E.39968
G1 X132.555 Y194.713 E.05665
G1 X130.925 Y195.492 E.05665
G1 X130.002 Y195.596 E.02912
G1 X118.501 Y195.596 E.36061
G1 X116.738 Y195.201 E.05665
G1 X115.312 Y194.091 E.05665
G1 X114.806 Y193.312 E.02912
G1 X109.109 Y181.909 E.39968
G1 X38.302 Y21.96 E5.48452
G1 X37.949 Y20.209 E.056
G1 X37.978 Y19.704 E.01586
G1 X38.33 Y17.533 E.06896
G1 X38.855 Y15.909 E.05351
M204 S1000
G1 X39.212 Y16.024 F10800
M204 S800
G1 F1200
G1 X40.184 Y14.07 E.06844
G1 X41.081 Y12.78 E.04928
G1 X42.017 Y11.731 E.04406
G1 X43.662 Y10.332 E.06771
G1 X45.032 Y9.478 E.05061
G1 X47.089 Y8.598 E.07016
G1 X48.683 Y8.185 E.05162
G1 X50.002 Y8.007 E.04175
G1 X197.626 Y7.963 E4.62865
G1 X198.908 Y8.046 E.04028
G1 X200.175 Y8.259 E.04028
G1 X201.414 Y8.598 E.04028
G1 X202.613 Y9.059 E.04028
G1 X203.759 Y9.639 E.04028
G1 X204.841 Y10.332 E.04028
G1 X205.848 Y11.13 E.04028
G1 X206.769 Y12.025 E.04028
G1 X207.596 Y13.008 E.04028
G1 X208.319 Y14.07 E.04028
G1 X208.933 Y15.198 E.04028
G1 X209.699 Y17.219 E.06776
G1 X210.021 Y18.64 E.04569
G1 X210.175 Y20.116 E.04653
G1 X209.856 Y21.807 E.05396
G1 X139.049 Y181.756 E5.48452
G1 X133.36 Y193.144 E.39913
G1 X132.257 Y194.466 E.05397
G1 X130.002 Y195.219 E.07456
G1 X118.501 Y195.219 E.36061
G1 X116.825 Y194.824 E.05397
G1 X115.143 Y193.144 E.07456
G1 X109.454 Y181.756 E.39913
G1 X38.647 Y21.807 E5.48452
G1 X38.326 Y20.216 E.05089
M73 P0 R171
G1 X38.352 Y19.745 E.01478
G1 X38.699 Y17.612 E.06777
G1 X39.193 Y16.081 E.05043
M204 S1000
G1 X39.55 Y16.196 F10800
M204 S800
G1 F1200
G1 X40.512 Y14.255 E.06794
G1 X41.372 Y13.02 E.04718
G1 X42.202 Y12.077 E.03939
G1 X42.914 Y11.404 E.03069
G1 X44.127 Y10.466 E.04808
G1 X46.055 Y9.398 E.06912
G1 X47.521 Y8.856 E.04898
G1 X48.786 Y8.551 E.04081
G1 X50.896 Y8.339 E.06649
G1 X197.607 Y8.339 E4.60003
G1 X198.851 Y8.419 E.03909
M73 Q0 S172
G1 X200.081 Y8.624 E.03909
G1 X201.284 Y8.951 E.03909
G1 X202.448 Y9.398 E.03909
G1 X203.561 Y9.96 E.03909
G1 X204.611 Y10.631 E.03909
G1 X205.589 Y11.404 E.03909
G1 X206.484 Y12.272 E.03909
G1 X207.288 Y13.225 E.03909
G1 X207.991 Y14.255 E.03909
G1 X208.483 Y15.134 E.03159
G1 X209.07 Y16.499 E.04659
G1 X209.62 Y18.55 E.06658
G1 X209.788 Y19.925 E.04345
G1 X209.8 Y20.223 E.00935
G1 X209.511 Y21.654 E.04578
G1 X138.704 Y181.603 E5.48452
G1 X133.023 Y192.975 E.39857
G1 X131.962 Y194.215 E.05115
G1 X130.002 Y194.842 E.06452
G1 X118.501 Y194.842 E.36061
G1 X116.918 Y194.448 E.05115
G1 X115.48 Y192.975 E.06452
G1 X109.799 Y181.603 E.39857
G1 X38.992 Y21.654 E5.48452
G1 X38.703 Y20.223 E.04578
G1 X38.727 Y19.787 E.0137
G1 X39.068 Y17.691 E.06658
G1 X39.532 Y16.253 E.04736
M204 S1000
; printing object BedCamMount.stl id:0 copy 0
;WIPE_START
G1 F8640
G1 X40.512 Y14.255 E-.51404
G1 X41.121 Y13.381 E-.24596
;WIPE_END
G1 E-.04 F2100
G1 Z.6 F720
G1 X107.545 Y73.295 F10800
G1 Z.2 F720
G1 E.8 F2100
M204 S800
;TYPE:Support material
G1 F1200
G1 X110.352 Y73.295 E.08801
G1 X110.352 Y76.102 E.08801
G1 X113.16 Y76.102 E.08801
G1 X113.16 Y78.909 E.08801
G1 X115.967 Y78.909 E.08801
G1 X115.967 Y81.716 E.08801
G1 X118.774 Y81.716 E.08801
G1 X118.774 Y84.523 E.08801
G1 X121.581 Y84.523 E.08801
G1 X121.581 Y87.33 E.08801
G1 X126.922 Y87.33 E.16748
G1 X126.922 Y84.523 E.08801
G1 X129.729 Y84.523 E.08801
G1 X129.729 Y81.716 E.08801
G1 X132.536 Y81.716 E.08801
G1 X132.536 Y78.909 E.08801
G1 X135.343 Y78.909 E.08801
G1 X135.343 Y76.102 E.08801
G1 X138.151 Y76.102 E.08801
G1 X138.151 Y73.295 E.08801
G1 X140.958 Y73.295 E.08801
G1 X140.958 Y70.488 E.08801
G1 X149.381 Y70.488 E.26411
G1 X146.493 Y73.377 E.12808
G1 X146.349 Y73.566 E.00747
G1 X144.665 Y76.492 E.10584
G1 X142.973 Y79.243 E.10126
G1 X141.199 Y81.942 E.10126
G1 X139.347 Y84.587 E.10126
G1 X137.417 Y87.176 E.10126
G1 X135.315 Y89.822 E.10595
G1 X133.331 Y92.177 E.09656
G1 X131.179 Y94.585 E.10125
G1 X128.955 Y96.93 E.10135
G1 X126.501 Y99.385 E.10881
G1 X122.002 Y99.385 E.14109
G1 X119.548 Y96.93 E.10881
G1 X117.324 Y94.585 E.10135
G1 X115.172 Y92.177 E.10125
G1 X113.092 Y89.707 E.10125
G1 X111.086 Y87.176 E.10125
G1 X109.156 Y84.587 E.10126
G1 X107.304 Y81.942 E.10126
G1 X105.53 Y79.243 E.10126
G1 X103.838 Y76.492 E.10126
G1 X102.154 Y73.566 E.10584
G1 X102.01 Y73.377 E.00747
G1 X99.122 Y70.488 E.12808
G1 X107.545 Y70.488 E.26411
G1 X107.545 Y73.238 E.08624
M204 S1000
;WIPE_START
G1 F8640
M73 P1 R171
G1 X107.545 Y70.488 E-.6351
G1 X107.004 Y70.488 E-.1249
;WIPE_END
G1 E-.04 F2100
G1 Z.6 F720
G1 X148.552 Y71.077 F10800
G1 Z.2 F720
M73 Q1 S172
G1 E.8 F2100
M204 S800
G1 F1200
G1 X148.552 Y70.827 E.00784
G1 X148.133 Y70.827 E.01314
G1 X148.133 Y71.256 E.01345
G1 X147.714 Y71.675 E.01858
G1 X147.714 Y70.827 E.0266
G1 X147.295 Y70.827 E.01314
G1 X147.295 Y72.094 E.03974
G1 X146.876 Y72.514 E.01858
G1 X146.876 Y70.827 E.05289
G1 X146.457 Y70.827 E.01314
G1 X146.457 Y72.933 E.06603
G1 X146.238 Y73.153 E.00974
G1 X146.038 Y73.425 E.01057
G1 X146.038 Y70.827 E.08145
G1 X145.619 Y70.827 E.01314
G1 X145.619 Y74.153 E.10429
G1 X145.2 Y74.881 E.02634
G1 X145.2 Y70.827 E.12713
G1 X144.781 Y70.827 E.01314
G1 X144.781 Y75.61 E.14996
G1 X144.362 Y76.337 E.02631
G1 X144.362 Y70.827 E.17276
G1 X143.943 Y70.827 E.01314
G1 X143.943 Y77.018 E.1941
G1 X143.524 Y77.698 E.02507
G1 X143.524 Y70.827 E.21545
G1 X143.105 Y70.827 E.01314
G1 X143.105 Y78.379 E.2368
G1 X142.686 Y79.06 E.02507
G1 X142.686 Y70.827 E.25815
G1 X142.267 Y70.827 E.01314
G1 X142.267 Y79.698 E.27814
G1 X141.849 Y80.336 E.02392
G1 X141.849 Y70.827 E.29814
G1 X141.43 Y70.827 E.01314
G1 X141.43 Y80.973 E.31813
G1 X141.011 Y81.611 E.02392
G1 X141.011 Y73.634 E.25011
G1 X140.592 Y73.634 E.01314
G1 X140.592 Y82.218 E.26914
G1 X140.173 Y82.816 E.0229
G1 X140.173 Y73.634 E.2879
G1 X139.754 Y73.634 E.01314
G1 X139.754 Y83.415 E.30666
G1 X139.335 Y84.013 E.0229
G1 X139.335 Y73.634 E.32542
G1 X138.916 Y73.634 E.01314
G1 X138.916 Y84.598 E.34376
G1 X138.497 Y85.16 E.02198
G1 X138.49 Y73.634 E.36138
G1 X138.49 Y76.441 E.08801
G1 X138.078 Y76.441 E.01292
G1 X138.078 Y85.722 E.29099
G1 X137.659 Y86.284 E.02198
G1 X137.659 Y76.441 E.30862
G1 X137.24 Y76.441 E.01314
G1 X137.24 Y86.846 E.32624
G1 X136.821 Y87.382 E.02133
G1 X136.821 Y76.441 E.34305
G1 X136.402 Y76.441 E.01314
G1 X136.402 Y87.911 E.35962
G1 X135.983 Y88.439 E.02115
G1 X135.983 Y76.441 E.3762
G1 X135.683 Y76.441 E.00941
G1 X135.683 Y79.248 E.08801
G1 X135.564 Y79.248 E.00373
G1 X135.564 Y88.968 E.30476
G1 X135.145 Y89.496 E.02114
G1 X135.145 Y79.248 E.32133
G1 X134.726 Y79.248 E.01314
G1 X134.726 Y89.994 E.33693
G1 X134.307 Y90.492 E.0204
G1 X134.307 Y79.248 E.35253
G1 X133.888 Y79.248 E.01314
G1 X133.888 Y90.989 E.36814
G1 X133.469 Y91.487 E.0204
G1 X133.469 Y79.248 E.38374
G1 X133.05 Y79.248 E.01314
G1 X133.05 Y91.983 E.39929
G1 X132.631 Y92.452 E.01971
G1 X132.631 Y82.055 E.32597
G1 X132.212 Y82.055 E.01314
M73 P1 R170
G1 X132.212 Y92.92 E.34067
G1 X131.793 Y93.389 E.01971
G1 X131.793 Y82.055 E.35536
G1 X131.374 Y82.055 E.01314
G1 X131.374 Y93.858 E.37006
G1 X130.955 Y94.326 E.01971
G1 X130.955 Y82.055 E.38476
G1 X130.536 Y82.055 E.01314
G1 X130.536 Y94.77 E.39866
G1 X130.117 Y95.211 E.01909
G1 X130.117 Y82.055 E.4125
G1 X130.069 Y82.055 E.00152
G1 X130.069 Y84.862 E.08801
G1 X129.698 Y84.862 E.01162
G1 X129.698 Y95.653 E.33834
G1 X129.279 Y96.095 E.01909
G1 X129.279 Y84.862 E.35219
G1 X128.86 Y84.862 E.01314
G1 X128.86 Y96.536 E.36603
G1 X128.441 Y96.964 E.01876
M73 Q1 S171
G1 X128.441 Y84.862 E.37943
G1 X128.022 Y84.862 E.01314
G1 X128.022 Y97.383 E.39257
G1 X127.603 Y97.802 E.01858
G1 X127.603 Y84.862 E.40572
G1 X127.262 Y84.862 E.01071
G1 X127.262 Y87.669 E.08801
G1 X127.184 Y87.669 E.00242
G1 X127.184 Y98.221 E.33085
G1 X126.765 Y98.641 E.01858
G1 X126.765 Y87.669 E.34399
G1 X126.346 Y87.669 E.01314
G1 X126.346 Y99.045 E.35668
G1 X125.927 Y99.045 E.01314
G1 X125.927 Y87.669 E.35668
G1 X125.508 Y87.669 E.01314
G1 X125.508 Y99.045 E.35668
G1 X125.089 Y99.045 E.01314
G1 X125.089 Y87.669 E.35668
G1 X124.67 Y87.669 E.01314
G1 X124.67 Y99.045 E.35668
G1 X124.251 Y99.045 E.01314
G1 X124.251 Y87.669 E.35668
G1 X123.833 Y87.669 E.01314
G1 X123.833 Y99.045 E.35668
G1 X123.414 Y99.045 E.01314
G1 X123.414 Y87.669 E.35668
G1 X122.995 Y87.669 E.01314
G1 X122.995 Y99.045 E.35668
G1 X122.576 Y99.045 E.01314
G1 X122.576 Y87.669 E.35668
G1 X122.157 Y87.669 E.01314
G1 X122.157 Y99.045 E.35668
G1 X122.142 Y99.045 E.00045
G1 X121.738 Y98.641 E.01794
G1 X121.738 Y87.669 E.34399
G1 X121.319 Y87.669 E.01314
G1 X121.319 Y98.221 E.33085
G1 X120.9 Y97.802 E.01858
G1 X120.9 Y84.862 E.40572
G1 X120.481 Y84.862 E.01314
G1 X120.481 Y97.383 E.39257
G1 X120.062 Y96.964 E.01858
G1 X120.062 Y84.862 E.37943
G1 X119.643 Y84.862 E.01314
G1 X119.643 Y96.536 E.36603
G1 X119.224 Y96.095 E.01909
G1 X119.224 Y84.862 E.35219
G1 X118.805 Y84.862 E.01314
G1 X118.805 Y95.653 E.33834
G1 X118.386 Y95.211 E.01909
G1 X118.386 Y82.055 E.4125
G1 X117.967 Y82.055 E.01314
G1 X117.967 Y94.77 E.39866
G1 X117.548 Y94.326 E.01913
G1 X117.548 Y82.055 E.38476
G1 X117.129 Y82.055 E.01314
G1 X117.129 Y93.858 E.37006
G1 X116.71 Y93.389 E.01971
G1 X116.71 Y82.055 E.35536
G1 X116.291 Y82.055 E.01314
G1 X116.291 Y92.92 E.34067
G1 X115.872 Y92.452 E.01971
G1 X115.872 Y82.055 E.32597
G1 X115.627 Y82.055 E.00767
G1 X115.627 Y79.248 E.08801
G1 X115.453 Y79.248 E.00546
G1 X115.453 Y91.983 E.39929
G1 X115.034 Y91.487 E.02036
G1 X115.034 Y79.248 E.38374
G1 X114.615 Y79.248 E.01314
G1 X114.615 Y90.989 E.36814
G1 X114.196 Y90.492 E.0204
G1 X114.196 Y79.248 E.35253
G1 X113.777 Y79.248 E.01314
G1 X113.777 Y89.994 E.33693
G1 X113.358 Y89.496 E.0204
G1 X113.358 Y79.248 E.32133
G1 X112.939 Y79.248 E.01314
G1 X112.939 Y88.968 E.30476
G1 X112.52 Y88.439 E.02115
G1 X112.52 Y76.441 E.3762
G1 X112.101 Y76.441 E.01314
G1 X112.101 Y87.911 E.35962
G1 X111.682 Y87.382 E.02115
G1 X111.682 Y76.441 E.34305
G1 X111.263 Y76.441 E.01314
G1 X111.263 Y86.846 E.32624
G1 X110.844 Y86.284 E.02198
G1 X110.844 Y76.441 E.30862
G1 X110.425 Y76.441 E.01314
G1 X110.425 Y85.722 E.29099
G1 X110.006 Y85.16 E.02198
G1 X110.006 Y73.634 E.36138
G1 X109.587 Y73.634 E.01314
G1 X109.587 Y84.598 E.34376
G1 X109.168 Y84.013 E.02256
G1 X109.168 Y73.634 E.32542
G1 X108.749 Y73.634 E.01314
G1 X108.749 Y83.415 E.30666
G1 X108.33 Y82.816 E.0229
G1 X108.33 Y73.634 E.2879
G1 X107.911 Y73.634 E.01314
G1 X107.911 Y82.218 E.26914
G1 X107.492 Y81.611 E.02312
G1 X107.492 Y73.634 E.25011
G1 X107.206 Y73.634 E.00898
G1 X107.206 Y70.827 E.08801
G1 X107.073 Y70.827 E.00416
G1 X107.073 Y80.973 E.31813
G1 X106.654 Y80.336 E.02392
G1 X106.654 Y70.827 E.29814
G1 X106.235 Y70.827 E.01314
G1 X106.235 Y79.698 E.27814
G1 X105.816 Y79.06 E.02392
G1 X105.816 Y70.827 E.25815
G1 X105.398 Y70.827 E.01314
G1 X105.398 Y78.379 E.2368
G1 X104.979 Y77.698 E.02507
G1 X104.979 Y70.827 E.21545
G1 X104.56 Y70.827 E.01314
G1 X104.56 Y77.018 E.19411
G1 X104.141 Y76.337 E.02507
G1 X104.141 Y70.827 E.17276
G1 X103.722 Y70.827 E.01314
G1 X103.722 Y75.61 E.14996
G1 X103.303 Y74.881 E.02634
G1 X103.303 Y70.827 E.12713
G1 X102.884 Y70.827 E.01314
G1 X102.884 Y74.153 E.10429
G1 X102.465 Y73.425 E.02635
G1 X102.465 Y70.827 E.08145
G1 X102.046 Y70.827 E.01314
G1 X102.046 Y72.933 E.06603
G1 X101.627 Y72.514 E.01858
G1 X101.627 Y70.827 E.05289
G1 X101.208 Y70.827 E.01314
G1 X101.208 Y72.094 E.03974
G1 X100.789 Y71.675 E.01858
G1 X100.789 Y70.827 E.0266
G1 X100.37 Y70.827 E.01314
G1 X100.37 Y71.256 E.01345
G1 X99.951 Y70.837 E.01858
G1 X99.951 Y70.657 E.00563
M204 S1000
;WIPE_START
G1 F8640
G1 X99.951 Y70.837 E-.04146
G1 X100.37 Y71.256 E-.13686
G1 X100.37 Y70.827 E-.09908
G1 X100.789 Y70.827 E-.09674
G1 X100.789 Y71.675 E-.19588
G1 X101.208 Y72.094 E-.13686
G1 X101.208 Y71.864 E-.05312
;WIPE_END
G1 E-.04 F2100
G1 Z.6 F720
G1 X123.591 Y114.602 F10800
G1 Z.2 F720
G1 E.8 F2100
M204 S800
;TYPE:Support material interface
;WIDTH:0.35
G1 F1200
G1 X123.505 Y114.602 E.00219
G1 X123.505 Y115.537 E.02389
G1 X123.744 Y115.537 E.00611
G1 X123.744 Y114.602 E.02389
G1 X124.251 Y114.602 E.01295
G1 X124.251 Y115.537 E.02389
G1 X124.759 Y115.537 E.01295
G1 X124.759 Y114.602 E.02389
G1 X124.998 Y114.602 E.00611
G1 X124.998 Y115.537 E.02389
G1 X124.912 Y115.537 E.00219
M204 S1000
G1 X124.941 Y116.449 F10800
M204 S800
;TYPE:Support material
;WIDTH:0.42
G1 F1200
G1 X123.561 Y116.449 E.04327
G1 X123.561 Y115.901 E.01719
G1 X124.941 Y115.901 E.04327
G1 X124.941 Y116.392 E.01542
M204 S1000
G1 X124.998 Y117.28 F10800
M204 S800
;TYPE:Support material interface
;WIDTH:0.35
G1 F1200
G1 X124.998 Y116.813 E.01192
G1 X124.759 Y116.813 E.00611
G1 X124.759 Y118.344 E.03911
G1 X124.251 Y118.344 E.01295
G1 X124.251 Y116.813 E.03911
G1 X123.744 Y116.813 E.01295
G1 X123.744 Y118.344 E.03911
G1 X123.505 Y118.344 E.00611
G1 X123.505 Y117.877 E.01192
M204 S1000
;WIPE_START
G1 F8640
G1 X123.505 Y118.344 E-.10781
G1 X123.744 Y118.344 E-.05528
G1 X123.744 Y116.813 E-.35366
G1 X124.251 Y116.813 E-.11709
G1 X124.251 Y117.359 E-.12617
;WIPE_END
G1 E-.04 F2100
G1 Z.6 F720
G1 X124.941 Y114.238 F10800
G1 Z.2 F720
G1 E.8 F2100
M204 S800
;TYPE:Support material
;WIDTH:0.42
G1 F1200
G1 X123.561 Y114.238 E.04327
G1 X123.561 Y112.901 E.04193
G1 X124.941 Y112.901 E.04327
G1 X124.941 Y114.182 E.04015
M204 S1000
G1 X124.251 Y114.068 F10800
M204 S800
G1 F1200
G1 X124.251 Y113.071 E.03129
M204 S1000
;WIPE_START
G1 F8640
G1 X124.251 Y114.068 E-.23041
;WIPE_END
G1 E-.56959 F2100
G1 Z.6 F720
G1 X124.941 Y154.973 F10800
G1 Z.2 F720
G1 E.8 F2100
M204 S800
G1 F1200
G1 X123.561 Y154.973 E.04327
G1 X123.561 Y118.708 E1.13706
G1 X124.941 Y118.708 E.04327
G1 X124.941 Y154.916 E1.13528
M204 S1000
G1 X124.251 Y154.803 F10800
M204 S800
G1 F1200
G1 X124.251 Y118.878 E1.12642
M204 S1000
;WIPE_START
