; generated by Slic3r Prusa Edition 1.42.0-alpha3+ on 2019-04-05 at 17:12:46

; 

; external perimeters extrusion width = 0.40mm
; perimeters extrusion width = 0.40mm
; infill extrusion width = 0.40mm
; solid infill extrusion width = 0.40mm
; top infill extrusion width = 0.40mm
; support material extrusion width = 0.35mm
; first layer extrusion width = 0.40mm

M201 X9000 Y9000 Z500 E10000 ; sets maximum accelerations, mm/sec^2
M203 X500 Y500 Z12 E120 ; sets maximum feedrates, mm/sec
M204 P2000 R1500 T2000 ; sets acceleration (P, T) and retract acceleration (R), mm/sec^2
M205 X10.00 Y10.00 Z0.20 E2.50 ; sets the jerk limits, mm/sec
M205 S0 T0 ; sets the minimum extruding and travel feed rate, mm/sec
M107
M115 U3.1.0 ; tell printer latest fw version
M83  ; extruder relative mode
M204 S2000 T1500 ; MK2 firmware only supports the old M204 format
M104 S230 ; set extruder temp
M140 S60 ; set bed temp
M190 S60 ; wait for bed temp
M109 S230 ; wait for extruder temp
G28 W ; home all without mesh bed level
G80 ; mesh bed leveling
G1 Y-3.0 F1000.0 ; go outside print area
G92 E0.0
G1 X60.0 E9.0  F1000.0 ; intro line
G1 X100.0 E12.5  F1000.0 ; intro line
G92 E0.0
M900 K30; Filament gcode
G21 ; set units to millimeters
G90 ; use absolute coordinates
M83 ; use relative distances for extrusion
;BEFORE_LAYER_CHANGE
G92 E0.0
;0.2


G1 E-0.80000 F2100.00000
G1 Z0.600 F10800.000
;AFTER_LAYER_CHANGE
;0.2
; PURGING FINISHED
G1 X102.124 Y114.029
G1 Z0.200
G1 E0.80000 F2100.00000
M204 S1000
G1 F1200
G1 X102.124 Y135.884 E0.64891
G1 X137.189 Y135.884 E1.04115
G1 X137.189 Y138.486 E0.07725
G1 X97.524 Y138.486 E1.17773
G1 X97.524 Y114.029 E0.72617
G1 X87.069 Y114.029 E0.31040
G1 X86.409 Y113.911 E0.01991
G1 X85.970 Y113.619 E0.01568
G1 X85.815 Y113.234 E0.01231
G1 X85.815 Y72.309 E1.21513
G1 X85.970 Y71.924 E0.01231
G1 X86.409 Y71.631 E0.01568
G1 X87.069 Y71.514 E0.01991
G1 X112.578 Y71.514 E0.75738
G1 X113.238 Y71.631 E0.01991
G1 X113.678 Y71.924 E0.01568
G1 X113.833 Y72.309 E0.01231
G1 X113.833 Y113.234 E1.21513
G1 X113.678 Y113.619 E0.01231
G1 X113.261 Y113.896 E0.01486
G1 X112.576 Y114.029 E0.02071
G1 X102.184 Y114.029 E0.30857
G1 X101.724 Y114.031 F10800.000
G1 X101.767 Y113.672
G1 F1200
G1 X101.767 Y136.241 E0.67012
G1 X136.832 Y136.241 E1.04115
G1 X136.832 Y138.129 E0.05605
G1 X97.881 Y138.129 E1.15652
G1 X97.881 Y113.672 E0.72617
G1 X87.101 Y113.672 E0.32006
G1 X86.545 Y113.573 E0.01676
G1 X86.260 Y113.383 E0.01019
G1 X86.172 Y113.165 E0.00697
G1 X86.172 Y72.378 E1.21102
G1 X86.260 Y72.160 E0.00697
G1 X86.545 Y71.970 E0.01019
G1 X87.101 Y71.871 E0.01676
G1 X112.546 Y71.871 E0.75550
G1 X113.102 Y71.970 E0.01676
G1 X113.388 Y72.160 E0.01019
G1 X113.476 Y72.378 E0.00697
G1 X113.476 Y113.165 E1.21102
G1 X113.388 Y113.383 E0.00697
G1 X113.123 Y113.559 E0.00946
G1 X112.542 Y113.672 E0.01756
G1 X101.827 Y113.672 E0.31815
G1 F8640
G1 X101.818 Y116.963 E-0.76000
G1 E-0.04000 F2100.00000
G1 Z0.800 F10800.000
G1 X105.533 Y111.790
G1 Z0.200
G1 E0.80000 F2100.00000
G1 F1200
G1 X105.278 Y111.313 E0.01604
G1 X105.121 Y110.796 E0.01604
G1 X105.068 Y110.259 E0.01604
G1 X105.121 Y109.721 E0.01604
G1 X105.278 Y109.204 E0.01604
G1 X105.533 Y108.728 E0.01604
G1 X105.875 Y108.310 E0.01604
G1 X106.293 Y107.968 E0.01604
G1 X106.770 Y107.713 E0.01607
G1 X107.312 Y107.554 E0.01676
G1 X107.824 Y107.503 E0.01528
G1 X108.361 Y107.556 E0.01604
G1 X108.878 Y107.713 E0.01604
G1 X109.355 Y107.968 E0.01604
G1 X109.772 Y108.310 E0.01604
G1 X110.115 Y108.728 E0.01604
G1 X110.369 Y109.204 E0.01604
G1 X110.526 Y109.721 E0.01604
G1 X110.579 Y110.259 E0.01604
G1 X110.526 Y110.796 E0.01604
G1 X110.369 Y111.313 E0.01604
G1 X110.115 Y111.790 E0.01604
G1 X109.772 Y112.207 E0.01604
G1 X109.355 Y112.550 E0.01604
G1 X108.878 Y112.805 E0.01604
G1 X108.361 Y112.961 E0.01604
G1 X107.824 Y113.014 E0.01604
G1 X107.286 Y112.961 E0.01604
G1 X106.769 Y112.805 E0.01604
G1 X106.293 Y112.550 E0.01604
G1 X105.875 Y112.207 E0.01604
G1 X105.571 Y111.836 E0.01426
G1 X105.133 Y111.816 F10800.000
G1 X105.218 Y111.958
G1 F1200
G1 X104.946 Y111.451 E0.01708
G1 X104.769 Y110.866 E0.01813
G1 X104.709 Y110.259 E0.01813
G1 X104.769 Y109.651 E0.01813
G1 X104.946 Y109.067 E0.01813
G1 X105.234 Y108.529 E0.01813
G1 X105.622 Y108.057 E0.01813
G1 X106.093 Y107.669 E0.01813
G1 X106.634 Y107.380 E0.01820
G1 X107.243 Y107.202 E0.01884
G1 X107.824 Y107.145 E0.01732
G1 X108.431 Y107.204 E0.01813
G1 X109.015 Y107.382 E0.01813
G1 X109.554 Y107.669 E0.01813
G1 X110.026 Y108.057 E0.01813
G1 X110.413 Y108.529 E0.01813
G1 X110.701 Y109.067 E0.01813
G1 X110.878 Y109.651 E0.01813
G1 X110.938 Y110.259 E0.01813
G1 X110.878 Y110.866 E0.01813
G1 X110.701 Y111.451 E0.01813
G1 X110.413 Y111.989 E0.01813
G1 X110.026 Y112.461 E0.01813
G1 X109.554 Y112.848 E0.01813
G1 X109.015 Y113.136 E0.01813
G1 X108.431 Y113.313 E0.01813
G1 X107.824 Y113.373 E0.01813
G1 X107.216 Y113.313 E0.01813
G1 X106.632 Y113.136 E0.01813
G1 X106.093 Y112.848 E0.01813
G1 X105.622 Y112.461 E0.01813
G1 X105.250 Y112.008 E0.01739
G1 F8640
G1 X104.946 Y111.451 E-0.14659
G1 X104.769 Y110.866 E-0.14097
G1 X104.709 Y110.259 E-0.14097
G1 X104.769 Y109.651 E-0.14097
G1 X104.946 Y109.067 E-0.14097
G1 X105.048 Y108.878 E-0.04954
G1 E-0.04000 F2100.00000
G1 Z0.800 F10800.000
G1 X107.286 Y104.446
G1 Z0.200
G1 E0.80000 F2100.00000
G1 F1200
G1 X106.769 Y104.290 E0.01604
G1 X106.293 Y104.035 E0.01604
G1 X105.875 Y103.692 E0.01604
G1 X105.533 Y103.275 E0.01604
G1 X105.278 Y102.798 E0.01604
G1 X105.121 Y102.281 E0.01604
G1 X105.068 Y101.744 E0.01604
G1 X105.121 Y101.206 E0.01604
G1 X105.278 Y100.689 E0.01604
G1 X105.533 Y100.213 E0.01604
G1 X105.875 Y99.795 E0.01604
G1 X106.293 Y99.453 E0.01604
G1 X106.770 Y99.198 E0.01607
G1 X107.312 Y99.039 E0.01676
G1 X107.824 Y98.988 E0.01528
G1 X108.361 Y99.041 E0.01604
G1 X108.878 Y99.198 E0.01604
G1 X109.355 Y99.453 E0.01604
G1 X109.772 Y99.795 E0.01604
G1 X110.115 Y100.213 E0.01604
G1 X110.369 Y100.689 E0.01604
G1 X110.526 Y101.206 E0.01604
G1 X110.579 Y101.744 E0.01604
G1 X110.526 Y102.281 E0.01604
G1 X110.369 Y102.798 E0.01604
G1 X110.115 Y103.275 E0.01604
G1 X109.772 Y103.692 E0.01604
G1 X109.355 Y104.035 E0.01604
G1 X108.878 Y104.290 E0.01604
G1 X108.361 Y104.446 E0.01604
G1 X107.824 Y104.499 E0.01604
G1 X107.346 Y104.452 E0.01426
G1 X107.022 Y104.747 F10800.000
G1 X107.182 Y104.788
G1 F1200
G1 X106.632 Y104.621 E0.01708
G1 X106.093 Y104.333 E0.01813
G1 X105.622 Y103.946 E0.01813
G1 X105.234 Y103.474 E0.01813
G1 X104.946 Y102.936 E0.01813
G1 X104.769 Y102.351 E0.01813
G1 X104.709 Y101.744 E0.01813
G1 X104.769 Y101.136 E0.01813
G1 X104.946 Y100.552 E0.01813
G1 X105.234 Y100.014 E0.01813
G1 X105.622 Y99.542 E0.01813
G1 X106.093 Y99.154 E0.01813
G1 X106.634 Y98.865 E0.01820
G1 X107.243 Y98.687 E0.01884
G1 X107.824 Y98.630 E0.01732
G1 X108.431 Y98.689 E0.01813
G1 X109.015 Y98.867 E0.01813
G1 X109.554 Y99.154 E0.01813
G1 X110.026 Y99.542 E0.01813
G1 X110.413 Y100.014 E0.01813
G1 X110.701 Y100.552 E0.01813
G1 X110.878 Y101.136 E0.01813
G1 X110.938 Y101.744 E0.01813
G1 X110.878 Y102.351 E0.01813
G1 X110.701 Y102.936 E0.01813
G1 X110.413 Y103.474 E0.01813
G1 X110.026 Y103.946 E0.01813
G1 X109.554 Y104.333 E0.01813
G1 X109.015 Y104.621 E0.01813
G1 X108.431 Y104.798 E0.01813
G1 X107.824 Y104.858 E0.01813
G1 X107.241 Y104.801 E0.01739
G1 F8640
G1 X106.632 Y104.621 E-0.14659
G1 X106.093 Y104.333 E-0.14097
G1 X105.622 Y103.946 E-0.14097
G1 X105.234 Y103.474 E-0.14097
G1 X104.946 Y102.936 E-0.14097
G1 X104.884 Y102.730 E-0.04954
G1 E-0.04000 F2100.00000
G1 Z0.800 F10800.000
G1 X107.824 Y95.984
G1 Z0.200
G1 E0.80000 F2100.00000
G1 F1200
G1 X107.286 Y95.931 E0.01604
G1 X106.769 Y95.775 E0.01604
G1 X106.293 Y95.520 E0.01604
G1 X105.875 Y95.177 E0.01604
G1 X105.533 Y94.760 E0.01604
G1 X105.278 Y94.283 E0.01604
G1 X105.121 Y93.766 E0.01604
G1 X105.068 Y93.229 E0.01604
G1 X105.121 Y92.691 E0.01604
G1 X105.278 Y92.174 E0.01604
G1 X105.533 Y91.698 E0.01604
G1 X105.875 Y91.281 E0.01604
G1 X106.293 Y90.938 E0.01604
G1 X106.770 Y90.683 E0.01607
G1 X107.312 Y90.524 E0.01676
G1 X107.824 Y90.473 E0.01528
G1 X108.361 Y90.526 E0.01604
G1 X108.878 Y90.683 E0.01604
G1 X109.355 Y90.938 E0.01604
G1 X109.772 Y91.281 E0.01604
G1 X110.115 Y91.698 E0.01604
G1 X110.369 Y92.174 E0.01604
G1 X110.526 Y92.691 E0.01604
G1 X110.579 Y93.229 E0.01604
G1 X110.526 Y93.766 E0.01604
G1 X110.369 Y94.283 E0.01604
G1 X110.115 Y94.760 E0.01604
G1 X109.772 Y95.177 E0.01604
G1 X109.355 Y95.520 E0.01604
G1 X108.878 Y95.775 E0.01604
G1 X108.361 Y95.931 E0.01604
G1 X107.883 Y95.978 E0.01426
G1 X107.624 Y96.331 F10800.000
G1 X107.789 Y96.340
G1 F1200
G1 X107.216 Y96.283 E0.01708
G1 X106.632 Y96.106 E0.01813
G1 X106.093 Y95.818 E0.01813
G1 X105.622 Y95.431 E0.01813
G1 X105.234 Y94.959 E0.01813
G1 X104.946 Y94.421 E0.01813
G1 X104.769 Y93.836 E0.01813
G1 X104.709 Y93.229 E0.01813
G1 X104.769 Y92.621 E0.01813
G1 X104.946 Y92.037 E0.01813
G1 X105.234 Y91.499 E0.01813
G1 X105.622 Y91.027 E0.01813
G1 X106.093 Y90.640 E0.01813
G1 X106.634 Y90.351 E0.01820
G1 X107.243 Y90.172 E0.01884
G1 X107.824 Y90.115 E0.01732
G1 X108.431 Y90.175 E0.01813
G1 X109.015 Y90.352 E0.01813
G1 X109.554 Y90.640 E0.01813
G1 X110.026 Y91.027 E0.01813
G1 X110.413 Y91.499 E0.01813
G1 X110.701 Y92.037 E0.01813
G1 X110.878 Y92.621 E0.01813
G1 X110.938 Y93.229 E0.01813
G1 X110.878 Y93.836 E0.01813
G1 X110.701 Y94.421 E0.01813
G1 X110.413 Y94.959 E0.01813
G1 X110.026 Y95.431 E0.01813
G1 X109.554 Y95.818 E0.01813
G1 X109.015 Y96.106 E0.01813
G1 X108.431 Y96.283 E0.01813
G1 X107.848 Y96.341 E0.01739
G1 F8640
G1 X107.216 Y96.283 E-0.14659
G1 X106.632 Y96.106 E-0.14097
G1 X106.093 Y95.818 E-0.14097
G1 X105.622 Y95.431 E-0.14097
G1 X105.234 Y94.959 E-0.14096
G1 X105.133 Y94.770 E-0.04954
G1 E-0.04000 F2100.00000
G1 Z0.800 F10800.000
G1 X107.824 Y87.469
G1 Z0.200
G1 E0.80000 F2100.00000
G1 F1200
G1 X107.286 Y87.416 E0.01604
G1 X106.769 Y87.260 E0.01604
G1 X106.293 Y87.005 E0.01604
G1 X105.875 Y86.662 E0.01604
G1 X105.533 Y86.245 E0.01604
G1 X105.278 Y85.768 E0.01604
G1 X105.121 Y85.252 E0.01604
G1 X105.068 Y84.714 E0.01604
G1 X105.121 Y84.176 E0.01604
G1 X105.278 Y83.659 E0.01604
G1 X105.533 Y83.183 E0.01604
G1 X105.875 Y82.766 E0.01604
G1 X106.293 Y82.423 E0.01604
G1 X106.770 Y82.168 E0.01607
G1 X107.312 Y82.009 E0.01676
G1 X107.824 Y81.959 E0.01528
G1 X108.361 Y82.011 E0.01604
G1 X108.878 Y82.168 E0.01604
G1 X109.355 Y82.423 E0.01604
G1 X109.772 Y82.766 E0.01604
G1 X110.115 Y83.183 E0.01604
G1 X110.369 Y83.660 E0.01604
G1 X110.526 Y84.176 E0.01604
G1 X110.579 Y84.714 E0.01604
G1 X110.526 Y85.252 E0.01604
G1 X110.369 Y85.768 E0.01604
G1 X110.115 Y86.245 E0.01604
G1 X109.772 Y86.662 E0.01604
G1 X109.355 Y87.005 E0.01604
G1 X108.878 Y87.260 E0.01604
G1 X108.361 Y87.416 E0.01604
G1 X107.883 Y87.464 E0.01426
G1 X107.624 Y87.816 F10800.000
G1 X107.789 Y87.825
G1 F1200
G1 X107.216 Y87.768 E0.01708
G1 X106.632 Y87.591 E0.01813
G1 X106.093 Y87.303 E0.01813
G1 X105.622 Y86.916 E0.01813
G1 X105.234 Y86.444 E0.01813
G1 X104.946 Y85.906 E0.01813
G1 X104.769 Y85.322 E0.01813
G1 X104.709 Y84.714 E0.01813
G1 X104.769 Y84.106 E0.01813
G1 X104.946 Y83.522 E0.01813
G1 X105.234 Y82.984 E0.01813
G1 X105.622 Y82.512 E0.01813
G1 X106.093 Y82.125 E0.01813
G1 X106.634 Y81.836 E0.01820
G1 X107.243 Y81.657 E0.01884
G1 X107.824 Y81.600 E0.01732
G1 X108.431 Y81.660 E0.01813
G1 X109.015 Y81.837 E0.01813
G1 X109.554 Y82.125 E0.01813
G1 X110.026 Y82.512 E0.01813
G1 X110.413 Y82.984 E0.01813
G1 X110.701 Y83.522 E0.01813
G1 X110.878 Y84.106 E0.01813
G1 X110.938 Y84.714 E0.01813
G1 X110.878 Y85.322 E0.01813
G1 X110.701 Y85.906 E0.01813
G1 X110.413 Y86.444 E0.01813
G1 X110.026 Y86.916 E0.01813
G1 X109.554 Y87.303 E0.01813
G1 X109.015 Y87.591 E0.01813
G1 X108.431 Y87.768 E0.01813
G1 X107.848 Y87.826 E0.01739
G1 F8640
G1 X107.216 Y87.768 E-0.14659
G1 X106.632 Y87.591 E-0.14097
G1 X106.093 Y87.303 E-0.14097
G1 X105.622 Y86.916 E-0.14097
G1 X105.234 Y86.444 E-0.14097
G1 X105.133 Y86.255 E-0.04954
G1 E-0.04000 F2100.00000
G1 Z0.800 F10800.000
G1 X107.824 Y78.954
G1 Z0.200
G1 E0.80000 F2100.00000
G1 F1200
G1 X107.286 Y78.902 E0.01604
G1 X106.769 Y78.745 E0.01604
G1 X106.293 Y78.490 E0.01604
G1 X105.875 Y78.147 E0.01604
G1 X105.533 Y77.730 E0.01604
G1 X105.278 Y77.253 E0.01604
G1 X105.121 Y76.737 E0.01604
G1 X105.068 Y76.199 E0.01604
G1 X105.121 Y75.661 E0.01604
G1 X105.278 Y75.145 E0.01604
G1 X105.533 Y74.668 E0.01604
G1 X105.875 Y74.251 E0.01604
G1 X106.293 Y73.908 E0.01604
G1 X106.770 Y73.653 E0.01607
G1 X107.312 Y73.494 E0.01676
G1 X107.824 Y73.444 E0.01528
G1 X108.361 Y73.497 E0.01604
G1 X108.878 Y73.653 E0.01604
G1 X109.355 Y73.908 E0.01604
G1 X109.772 Y74.251 E0.01604
G1 X110.115 Y74.668 E0.01604
G1 X110.369 Y75.145 E0.01604
G1 X110.526 Y75.661 E0.01604
G1 X110.579 Y76.199 E0.01604
G1 X110.526 Y76.737 E0.01604
G1 X110.369 Y77.253 E0.01604
G1 X110.115 Y77.730 E0.01604
G1 X109.772 Y78.147 E0.01604
G1 X109.355 Y78.490 E0.01604
G1 X108.878 Y78.745 E0.01604
G1 X108.361 Y78.902 E0.01604
G1 X107.883 Y78.949 E0.01426
G1 X107.624 Y79.301 F10800.000
G1 X107.789 Y79.310
G1 F1200
G1 X107.216 Y79.253 E0.01708
G1 X106.632 Y79.076 E0.01813
G1 X106.093 Y78.788 E0.01813
G1 X105.622 Y78.401 E0.01813
G1 X105.234 Y77.929 E0.01813
G1 X104.946 Y77.391 E0.01813
G1 X104.769 Y76.807 E0.01813
G1 X104.709 Y76.199 E0.01813
G1 X104.769 Y75.591 E0.01813
G1 X104.946 Y75.007 E0.01813
G1 X105.234 Y74.469 E0.01813
G1 X105.622 Y73.997 E0.01813
G1 X106.093 Y73.610 E0.01813
G1 X106.634 Y73.321 E0.01820
G1 X107.243 Y73.142 E0.01884
G1 X107.824 Y73.085 E0.01732
G1 X108.431 Y73.145 E0.01813
G1 X109.015 Y73.322 E0.01813
G1 X109.554 Y73.610 E0.01813
G1 X110.026 Y73.997 E0.01813
G1 X110.413 Y74.469 E0.01813
G1 X110.701 Y75.007 E0.01813
G1 X110.878 Y75.591 E0.01813
G1 X110.938 Y76.199 E0.01813
G1 X110.878 Y76.807 E0.01813
G1 X110.701 Y77.391 E0.01813
G1 X110.413 Y77.929 E0.01813
G1 X110.026 Y78.401 E0.01813
G1 X109.554 Y78.788 E0.01813
G1 X109.015 Y79.076 E0.01813
G1 X108.431 Y79.253 E0.01813
G1 X107.848 Y79.311 E0.01739
G1 F8640
G1 X107.216 Y79.253 E-0.14659
G1 X106.632 Y79.076 E-0.14097
G1 X106.093 Y78.788 E-0.14097
G1 X105.622 Y78.401 E-0.14097
G1 X105.234 Y77.929 E-0.14097
G1 X105.133 Y77.740 E-0.04954
G1 E-0.04000 F2100.00000
G1 Z0.800 F10800.000
G1 X94.526 Y76.737
G1 Z0.200
G1 E0.80000 F2100.00000
G1 F1200
G1 X94.369 Y77.253 E0.01604
G1 X94.115 Y77.730 E0.01604
G1 X93.772 Y78.147 E0.01604
G1 X93.355 Y78.490 E0.01604
G1 X92.878 Y78.745 E0.01604
G1 X92.361 Y78.902 E0.01604
G1 X91.824 Y78.954 E0.01604
G1 X91.286 Y78.902 E0.01604
G1 X90.769 Y78.745 E0.01604
G1 X90.293 Y78.490 E0.01604
G1 X89.875 Y78.147 E0.01604
G1 X89.533 Y77.730 E0.01604
G1 X89.278 Y77.253 E0.01604
G1 X89.121 Y76.737 E0.01604
G1 X89.068 Y76.199 E0.01604
G1 X89.121 Y75.661 E0.01604
G1 X89.278 Y75.145 E0.01604
G1 X89.533 Y74.668 E0.01604
G1 X89.875 Y74.251 E0.01604
G1 X90.293 Y73.908 E0.01604
G1 X90.770 Y73.653 E0.01607
G1 X91.312 Y73.494 E0.01676
G1 X91.824 Y73.444 E0.01528
G1 X92.361 Y73.497 E0.01604
G1 X92.878 Y73.653 E0.01604
G1 X93.355 Y73.908 E0.01604
G1 X93.772 Y74.251 E0.01604
G1 X94.115 Y74.668 E0.01604
G1 X94.369 Y75.145 E0.01604
G1 X94.526 Y75.661 E0.01604
G1 X94.579 Y76.199 E0.01604
G1 X94.532 Y76.677 E0.01426
G1 X94.827 Y77.000 F10800.000
G1 X94.882 Y76.772
G1 F1200
G1 X94.701 Y77.391 E0.01915
G1 X94.413 Y77.929 E0.01813
G1 X94.026 Y78.401 E0.01813
G1 X93.554 Y78.788 E0.01813
G1 X93.015 Y79.076 E0.01813
G1 X92.431 Y79.253 E0.01813
G1 X91.824 Y79.313 E0.01813
G1 X91.216 Y79.253 E0.01813
G1 X90.632 Y79.076 E0.01813
G1 X90.093 Y78.788 E0.01813
G1 X89.622 Y78.401 E0.01813
G1 X89.234 Y77.929 E0.01813
G1 X88.946 Y77.391 E0.01813
G1 X88.769 Y76.807 E0.01813
G1 X88.709 Y76.199 E0.01813
G1 X88.769 Y75.591 E0.01813
G1 X88.946 Y75.007 E0.01813
G1 X89.234 Y74.469 E0.01813
G1 X89.622 Y73.997 E0.01813
G1 X90.093 Y73.610 E0.01813
G1 X90.634 Y73.321 E0.01820
G1 X91.243 Y73.142 E0.01884
G1 X91.824 Y73.085 E0.01732
G1 X92.431 Y73.145 E0.01813
G1 X93.015 Y73.322 E0.01813
G1 X93.554 Y73.610 E0.01813
G1 X94.026 Y73.997 E0.01813
G1 X94.413 Y74.469 E0.01813
G1 X94.701 Y75.007 E0.01813
G1 X94.878 Y75.591 E0.01813
