; generated by PrusaSlicer 2.4.1+win64 on 2022-05-09 at 23:05:01 UTC

; 

; external perimeters extrusion width = 0.45mm
; perimeters extrusion width = 0.45mm
; infill extrusion width = 0.45mm
; solid infill extrusion width = 0.45mm
; top infill extrusion width = 0.40mm
; first layer extrusion width = 0.42mm

; external perimeters extrusion width = 0.45mm
; perimeters extrusion width = 0.45mm
; infill extrusion width = 0.45mm
; solid infill extrusion width = 0.45mm
; top infill extrusion width = 0.40mm
; first layer extrusion width = 0.42mm

M73 P0 R13
M73 Q0 S13
M201 X1000 Y1000 Z200 E5000 ; sets maximum accelerations, mm/sec^2
M203 X200 Y200 Z12 E120 ; sets maximum feedrates, mm / sec
M204 P1250 R1250 T1250 ; sets acceleration (P, T) and retract acceleration (R), mm/sec^2
M205 X8.00 Y8.00 Z0.40 E4.50 ; sets the jerk limits, mm/sec
M205 S0 T0 ; sets the minimum extruding and travel feed rate, mm/sec
M107
;TYPE:Custom
M862.3 P "MK3S" ; printer model check
M862.1 P0.4 ; nozzle diameter check
M115 U3.10.1 ; tell printer latest fw version
G90 ; use absolute coordinates
M83 ; extruder relative mode
M104 S215 ; set extruder temp
M140 S65 ; set bed temp
M190 S65 ; wait for bed temp
M109 S215 ; wait for extruder temp
G28 W ; home all without mesh bed level
G80 ; mesh bed leveling
G1 Z0.2 F720
G1 Y-3 F1000 ; go outside print area
G92 E0
G1 X60 E9 F1000 ; intro line
G1 X100 E12.5 F1000 ; intro line
G92 E0
M221 S95

; Don't change E values below. Excessive value can damage the printer.
M907 E430 ; set extruder motor current
G21 ; set units to millimeters
G90 ; use absolute coordinates
M83 ; use relative distances for extrusion
M900 K0.05 ; Filament gcode LA 1.5
M900 K30 ; Filament gcode LA 1.0
M107
;LAYER_CHANGE
;Z:0.2
;HEIGHT:0.2
;BEFORE_LAYER_CHANGE
G92 E0.0
;0.2


G1 E-.8 F2100
G1 Z.4 F720
;AFTER_LAYER_CHANGE
;0.2
G1 X117.376 Y94.154 F10800
G1 Z.2 F720
G1 E.8 F2100
M204 S800
;TYPE:Skirt/Brim
;WIDTH:0.42
G1 F1200
G1 X118.57 Y92.725 E.05837
G1 X119.201 Y92.267 E.02446
G1 X121.971 Y91.223 E.09284
G1 X123.988 Y90.711 E.06522
G1 X124.737 Y90.707 E.02351
G1 X127.292 Y91.378 E.08282
G1 X129.582 Y92.281 E.07717
M73 Q1 S13
G1 X130.186 Y92.725 E.0235
G1 X131.509 Y94.316 E.06487
G1 X133.144 Y96.797 E.09319
G1 X133.396 Y97.602 E.02644
M73 P1 R13
G1 X135.915 Y113.475 E.50391
G1 X135.752 Y114.766 E.04079
G1 X135.309 Y115.789 E.03497
G1 X134.756 Y116.501 E.02826
G1 X133.355 Y117.8 E.05991
G1 X132.308 Y118.404 E.03791
G1 X128.488 Y119.589 E.12538
G1 X126.928 Y119.918 E.05
G1 X125.057 Y120.061 E.05884
G1 X123.343 Y119.954 E.05385
G1 X121.619 Y119.617 E.05507
G1 X117.693 Y118.405 E.12882
G1 X116.645 Y117.8 E.03794
G1 X115.231 Y116.488 E.06048
G1 X114.681 Y115.773 E.02828
G1 X114.234 Y114.719 E.03588
G1 X114.085 Y113.643 E.03407
G1 X114.125 Y112.96 E.02145
G1 X116.789 Y95.479 E.55443
G1 X117.352 Y94.209 E.04355
M204 S1000
G1 X117.669 Y94.392 F10800
M204 S800
G1 F1200
G1 X118.829 Y92.999 E.05686
G1 X119.38 Y92.598 E.02137
G1 X122.068 Y91.588 E.09003
G1 X124.037 Y91.085 E.06371
G1 X124.688 Y91.081 E.02042
G1 X127.178 Y91.738 E.08074
G1 X129.402 Y92.613 E.07493
G1 X129.926 Y92.999 E.02042
G1 X131.266 Y94.617 E.06588
G1 X132.804 Y96.96 E.08785
G1 X133.024 Y97.662 E.02308
G1 X135.538 Y113.489 E.50246
G1 X135.387 Y114.671 E.03735
G1 X134.99 Y115.588 E.03136
G1 X134.482 Y116.242 E.02594
G1 X133.099 Y117.523 E.0591
G1 X132.195 Y118.044 E.03272
G1 X128.223 Y119.27 E.13034
G1 X126.532 Y119.591 E.05397
G1 X125.049 Y119.684 E.04659
G1 X123.613 Y119.607 E.04509
G1 X122.19 Y119.369 E.04523
G1 X117.805 Y118.045 E.14362
G1 X116.901 Y117.523 E.03275
G1 X115.212 Y115.885 E.07376
G1 X114.681 Y114.892 E.03531
G1 X114.527 Y114.306 E.01899
G1 X114.462 Y113.63 E.0213
G1 X114.497 Y113.017 E.01925
G1 X117.162 Y95.536 E.55443
G1 X117.644 Y94.447 E.03733
M204 S1000
; printing object Sign.stl id:1 copy 0
;WIPE_START
G1 F8640
G1 X118.829 Y92.999 E-.43209
G1 X119.38 Y92.598 E-.15737
G1 X120.072 Y92.338 E-.17053
;WIPE_END
G1 E-.04 F2100
G1 Z.6 F720
G1 X130.701 Y112.128 F10800
G1 Z.2 F720
M73 Q2 S13
G1 E.8 F2100
M204 S800
;TYPE:Perimeter
M73 P2 R13
G1 F1200
G1 X130.701 Y114.988 E.08968
G1 X129.949 Y114.988 E.02357
G1 X129.249 Y115.466 E.02658
G1 X128.694 Y115.758 E.01965
G1 X128.067 Y116.011 E.02121
G1 X127.201 Y116.264 E.02829
G1 X126.854 Y116.339 E.01112
G1 X126.114 Y116.454 E.02351
G1 X125.364 Y116.513 E.02356
G1 X124.619 Y116.512 E.02338
G1 X123.952 Y116.461 E.02097
G1 X123.251 Y116.357 E.02221
G1 X122.886 Y116.282 E.0117
G1 X122.076 Y116.058 E.02633
G1 X121.383 Y115.792 E.0233
G1 X120.78 Y115.484 E.02123
G1 X120.05 Y114.988 E.02767
G1 X119.299 Y114.988 E.02354
G1 X119.299 Y112.128 E.08968
G1 X120.049 Y112.128 E.0235
G1 X120.737 Y111.661 E.02608
G1 X121.254 Y111.386 E.01838
G1 X121.958 Y111.098 E.02385
G1 X122.721 Y110.87 E.02496
G1 X123.304 Y110.744 E.01869
G1 X123.766 Y110.674 E.01465
G1 X124.402 Y110.614 E.02004
G1 X125.062 Y110.595 E.02071
G1 X125.654 Y110.616 E.01855
G1 X126.133 Y110.66 E.0151
G1 X126.741 Y110.752 E.01926
G1 X127.198 Y110.849 E.01465
G1 X127.861 Y111.035 E.02161
G1 X128.558 Y111.299 E.02335
G1 X129.218 Y111.634 E.02322
G1 X129.953 Y112.128 E.02775
G1 X130.641 Y112.128 E.02158
M204 S1000
;WIPE_START
G1 F8640
G1 X130.701 Y114.988 E-.66056
G1 X130.27 Y114.988 E-.09944
;WIPE_END
G1 E-.04 F2100
G1 Z.6 F720
G1 X130.791 Y113.567 F10800
G1 Z.2 F720
G1 E.8 F2100
M204 S800
G1 F1200
G1 X132.145 Y113.027 E.04572
G1 X132.268 Y113.148 E.00541
G1 X132.341 Y113.329 E.00612
G1 X132.372 Y113.581 E.00799
G1 X132.353 Y113.765 E.00579
G1 X132.292 Y113.929 E.00547
G1 X132.228 Y114.016 E.00339
G1 X132.142 Y114.087 E.00348
G1 X130.847 Y113.588 E.04353
M204 S1000
;WIPE_START
G1 F8640
G1 X132.145 Y113.027 E-.3267
G1 X132.268 Y113.148 E-.03981
G1 X132.341 Y113.329 E-.04504
G1 X132.372 Y113.581 E-.0588
G1 X132.353 Y113.765 E-.04264
G1 X132.292 Y113.929 E-.04031
G1 X132.228 Y114.016 E-.02497
G1 X132.142 Y114.087 E-.02562
G1 X131.512 Y113.844 E-.15611
;WIPE_END
G1 E-.04 F2100
G1 Z.6 F720
G1 X119.213 Y113.563 F10800
G1 Z.2 F720
G1 E.8 F2100
M204 S800
G1 F1200
G1 X117.871 Y114.084 E.04513
G1 X117.796 Y114.039 E.00275
G1 X117.715 Y113.94 E.00398
G1 X117.653 Y113.778 E.00545
G1 X117.628 Y113.547 E.00728
G1 X117.649 Y113.353 E.00613
G1 X117.712 Y113.179 E.00579
G1 X117.855 Y113.029 E.00651
G1 X119.157 Y113.541 E.04386
M204 S1000
G1 X118.922 Y113.043 F10800
M204 S800
;TYPE:External perimeter
G1 F1200
G1 X118.922 Y111.751 E.04053
G1 X119.933 Y111.751 E.03169
G1 X120.542 Y111.337 E.02308
G1 X121.094 Y111.044 E.01961
G1 X121.833 Y110.742 E.02502
M73 P2 R12
G1 X122.627 Y110.504 E.026
G1 X123.236 Y110.373 E.01951
G1 X123.719 Y110.299 E.01535
G1 X124.379 Y110.237 E.02078
G1 X125.064 Y110.218 E.02147
G1 X125.678 Y110.239 E.01926
G1 X126.179 Y110.286 E.01578
G1 X126.808 Y110.381 E.01995
G1 X127.288 Y110.483 E.01538
G1 X127.979 Y110.677 E.02252
G1 X128.71 Y110.953 E.0245
G1 X129.41 Y111.308 E.02458
G1 X130.068 Y111.751 E.02488
G1 X131.078 Y111.751 E.03167
G1 X131.078 Y113.046 E.04062
G1 X132.017 Y112.672 E.03168
G1 X132.179 Y112.659 E.00511
G1 X132.294 Y112.688 E.00373
G1 X132.388 Y112.738 E.00334
G1 X132.522 Y112.856 E.00557
G1 X132.6 Y112.963 E.00416
G1 X132.71 Y113.233 E.00916
G1 X132.751 Y113.578 E.01088
G1 X132.726 Y113.832 E.00801
G1 X132.621 Y114.118 E.00956
G1 X132.504 Y114.276 E.00615
G1 X132.376 Y114.383 E.00525
G1 X132.288 Y114.428 E.00309
G1 X132.16 Y114.458 E.0041
G1 X131.997 Y114.435 E.00517
G1 X131.078 Y114.081 E.03089
G1 X131.078 Y115.365 E.04025
G1 X130.066 Y115.365 E.03174
G1 X129.444 Y115.79 E.02361
G1 X128.853 Y116.1 E.02093
G1 X128.191 Y116.368 E.02239
G1 X127.294 Y116.63 E.02931
M73 Q2 S12
G1 X126.923 Y116.71 E.01188
G1 X126.158 Y116.829 E.0243
G1 X125.383 Y116.89 E.02436
G1 X124.6 Y116.889 E.02455
G1 X123.91 Y116.836 E.0217
G1 X123.186 Y116.729 E.02296
G1 X122.797 Y116.649 E.01243
G1 X121.958 Y116.417 E.0273
G1 X121.229 Y116.137 E.0245
G1 X120.587 Y115.809 E.02259
G1 X119.934 Y115.365 E.02477
G1 X118.922 Y115.365 E.03173
G1 X118.922 Y114.08 E.04028
G1 X117.98 Y114.446 E.03168
G1 X117.836 Y114.46 E.00456
G1 X117.711 Y114.428 E.00402
G1 X117.564 Y114.34 E.00539
G1 X117.468 Y114.246 E.00419
G1 X117.379 Y114.118 E.0049
G1 X117.283 Y113.867 E.0084
G1 X117.249 Y113.547 E.01009
G1 X117.277 Y113.285 E.00828
G1 X117.38 Y112.997 E.00958
G1 X117.469 Y112.868 E.00491
G1 X117.621 Y112.732 E.00641
G1 X117.705 Y112.689 E.00295
G1 X117.834 Y112.658 E.00417
G1 X117.996 Y112.679 E.00511
G1 X118.866 Y113.021 E.02933
M204 S1000
G1 X119.319 Y113.088 F10800
;WIPE_START
G1 F8640
G1 X118.922 Y111.751 E-.29366
G1 X119.933 Y111.751 E-.23337
G1 X120.542 Y111.337 E-.16999
G1 X120.783 Y111.209 E-.06298
;WIPE_END
G1 E-.04 F2100
G1 Z.6 F720
G1 X117.773 Y113.342 F10800
G1 Z.2 F720
G1 E.8 F2100
M204 S800
;TYPE:Solid infill
;WIDTH:0.495415
G1 F1200
G1 X118.248 Y113.816 E.02525
M204 S1000
;WIPE_START
G1 F8640
G1 X117.773 Y113.342 E-.15495
;WIPE_END
G1 E-.64505 F2100
G1 Z.6 F720
G1 X130.588 Y113.004 F10800
G1 Z.2 F720
G1 E.8 F2100
M204 S800
;WIDTH:0.420541
G1 F1200
G1 X129.994 Y112.411 E.02636
G1 X129.866 Y112.411 E.00401
G1 X129.075 Y111.878 E.02995
G1 X128.776 Y111.726 E.01052
G1 X130.418 Y113.369 E.07292
G1 X130.418 Y113.903 E.01677
G1 X127.848 Y111.333 E.11412
G1 X127.098 Y111.117 E.02449
G1 X130.418 Y114.437 E.14741
G1 X130.418 Y114.705 E.00843
G1 X130.152 Y114.705 E.00834
G1 X126.44 Y110.993 E.16485
G1 X125.83 Y110.916 E.01932
G1 X129.717 Y114.804 E.17263
G1 X129.4 Y115.021 E.01206
G1 X125.265 Y110.885 E.18363
G1 X124.733 Y110.887 E.0167
M73 Q3 S12
G1 X129.081 Y115.235 E.19307
G1 X128.731 Y115.419 E.01242
M73 P3 R12
G1 X124.226 Y110.914 E.20004
G1 X123.741 Y110.964 E.0153
G1 X128.364 Y115.586 E.20528
G1 X127.983 Y115.74 E.01288
G1 X123.282 Y111.038 E.20878
G1 X122.842 Y111.133 E.01412
G1 X127.571 Y115.861 E.20997
G1 X127.157 Y115.982 E.01352
G1 X122.428 Y111.253 E.21002
G1 X122.019 Y111.378 E.01341
G1 X126.715 Y116.074 E.20853
G1 X126.253 Y116.146 E.01468
G1 X121.64 Y111.533 E.20484
G1 X121.27 Y111.697 E.01271
G1 X125.771 Y116.198 E.19983
G1 X125.271 Y116.232 E.01572
G1 X120.922 Y111.883 E.19314
G1 X120.6 Y112.095 E.0121
G1 X124.737 Y116.232 E.18368
G1 X124.165 Y116.194 E.018
G1 X120.282 Y112.311 E.17241
G1 X120.135 Y112.411 E.00556
G1 X119.847 Y112.411 E.00905
G1 X123.553 Y116.116 E.16456
G1 X122.894 Y115.991 E.02107
G1 X119.582 Y112.679 E.14707
G1 X119.582 Y113.213 E.01677
G1 X122.154 Y115.785 E.11422
G1 X121.498 Y115.534 E.02206
G1 X121.232 Y115.397 E.00938
G1 X119.582 Y113.747 E.07328
G1 X119.582 Y114.281 E.01677
G1 X120.368 Y115.067 E.0349
M204 S1000
;WIPE_START
G1 F8640
G1 X119.582 Y114.281 E-.25663
G1 X119.582 Y113.747 E-.12331
G1 X120.746 Y114.911 E-.38006
;WIPE_END
G1 E-.04 F2100
G1 Z.6 F720
G1 X131.474 Y113.416 F10800
G1 Z.2 F720
G1 E.8 F2100
M204 S800
;WIDTH:0.495415
G1 F1200
G1 X131.948 Y113.891 E.02524
M204 S1000
; stop printing object Sign.stl id:1 copy 0
; printing object Rain Barrel.stl id:0 copy 0
;WIPE_START
G1 F8640
G1 X131.474 Y113.416 E-.15492
;WIPE_END
G1 E-.64508 F2100
G1 Z.6 F720
G1 X128.485 Y96.599 F10800
G1 Z.2 F720
G1 E.8 F2100
M204 S800
;TYPE:Perimeter
;WIDTH:0.42
G1 F1200
G1 X128.64 Y96.539 E.0052
G1 X128.967 Y96.984 E.01733
G1 X129.16 Y97.293 E.01142
G1 X129.347 Y97.647 E.01257
G1 X129.52 Y98.04 E.01345
G1 X129.649 Y98.407 E.01221
G1 X129.751 Y98.781 E.01214
G1 X129.835 Y99.205 E.01356
G1 X129.882 Y99.602 E.01253
G1 X129.9 Y100.002 E.01255
G1 X129.89 Y100.402 E.01255
G1 X129.85 Y100.8 E.01255
G1 X129.782 Y101.197 E.01261
G1 X129.681 Y101.6 E.01305
G1 X129.559 Y101.971 E.01223
G1 X129.409 Y102.333 E.01229
G1 X129.23 Y102.693 E.01261
G1 X129.029 Y103.034 E.01241
G1 X128.649 Y103.563 E.0204
G1 X128.491 Y103.509 E.00525
G1 X128.505 Y103.039 E.01475
G1 X128.489 Y96.658 E.20006
M204 S1000
;WIPE_START
G1 F8640
G1 X128.64 Y96.539 E-.04449
G1 X128.967 Y96.984 E-.12763
G1 X129.16 Y97.293 E-.08411
G1 X129.347 Y97.647 E-.09254
G1 X129.52 Y98.04 E-.09902
G1 X129.649 Y98.407 E-.08991
G1 X129.751 Y98.781 E-.08938
G1 X129.835 Y99.205 E-.09984
G1 X129.851 Y99.347 E-.03309
;WIPE_END
G1 E-.04 F2100
G1 Z.6 F720
G1 X126.384 Y95.112 F10800
G1 Z.2 F720
G1 E.8 F2100
M204 S800
G1 F1200
G1 X122.388 Y95.107 E.12527
G1 X122.354 Y94.922 E.00589
G1 X122.933 Y94.725 E.01917
M73 Q4 S12
G1 X123.322 Y94.635 E.01251
G1 X123.767 Y94.568 E.01413
G1 X124.133 Y94.538 E.01152
G1 X124.534 Y94.535 E.01255
G1 X124.953 Y94.563 E.01316
G1 X125.349 Y94.619 E.01256
G1 X125.74 Y94.704 E.01255
G1 X126.125 Y94.817 E.01256
G1 X126.417 Y94.926 E.00979
G1 X126.394 Y95.053 E.00405
M204 S1000
;WIPE_START
G1 F8640
G1 X123.103 Y95.097 E-.76
;WIPE_END
G1 E-.04 F2100
G1 Z.6 F720
G1 X127.994 Y95.619 F10800
M73 P4 R12
G1 Z.2 F720
G1 E.8 F2100
M204 S800
;TYPE:External perimeter
G1 F1200
G1 X127.264 Y95.522 E.02307
G1 X126.775 Y95.49 E.01538
G1 X122.484 Y95.484 E.13455
G1 X121.514 Y95.52 E.03042
G1 X120.567 Y95.684 E.03015
G1 X120.127 Y95.684 E.01379
G1 X120.466 Y95.376 E.01434
G1 X120.766 Y95.212 E.01074
G1 X121.221 Y95.026 E.0154
G1 X122.025 Y94.645 E.02792
G1 X122.462 Y94.476 E.01468
G1 X122.835 Y94.361 E.01222
G1 X123.251 Y94.264 E.0134
G1 X123.724 Y94.193 E.015
G1 X124.117 Y94.161 E.01236
G1 X124.545 Y94.158 E.01343
G1 X124.992 Y94.188 E.01404
G1 X125.415 Y94.248 E.01341
G1 X125.834 Y94.338 E.01341
G1 X126.244 Y94.459 E.01341
G1 X126.646 Y94.609 E.01346
G1 X127.865 Y95.192 E.04237
G1 X128.145 Y95.372 E.01042
G1 X128.428 Y95.671 E.0129
G1 X129.003 Y96.389 E.02885
G1 X129.28 Y96.774 E.01489
G1 X129.487 Y97.105 E.01223
G1 X129.687 Y97.483 E.01342
G1 X129.871 Y97.901 E.01432
G1 X130.01 Y98.295 E.01308
G1 X130.119 Y98.695 E.013
G1 X130.207 Y99.146 E.01443
G1 X130.258 Y99.571 E.0134
G1 X130.278 Y99.998 E.01341
G1 X130.266 Y100.426 E.01341
G1 X130.224 Y100.851 E.01341
G1 X130.151 Y101.275 E.01347
G1 X130.043 Y101.705 E.01392
G1 X129.912 Y102.102 E.0131
G1 X129.753 Y102.489 E.01313
G1 X129.562 Y102.874 E.01345
G1 X129.345 Y103.24 E.01336
G1 X128.567 Y104.325 E.04187
G1 X128.336 Y104.696 E.01367
G1 X128.138 Y104.854 E.00795
G1 X128.059 Y104.78 E.00341
G1 X127.929 Y104.863 E.00483
G1 X127.929 Y104.485 E.01184
G1 X128.051 Y104.022 E.01502
G1 X128.113 Y103.523 E.01578
G1 X128.127 Y103.034 E.01533
G1 X128.123 Y96.838 E.19425
G1 X128.091 Y96.349 E.01538
G1 X128.002 Y95.679 E.0212
M204 S1000
G1 X128.015 Y95.22 F10800
G1 X127.769 Y95.378
M204 S800
;TYPE:Gap fill
;WIDTH:0.131061
G1 F1200
G1 X127.651 Y95.342 E.0009
M204 S1000
M204 S800
;WIDTH:0.168801
G1 X127.533 Y95.306 E.00129
M204 S1000
M204 S800
;WIDTH:0.206541
G1 X127.414 Y95.27 E.00168
M204 S1000
M204 S800
;WIDTH:0.244282
G1 X127.296 Y95.234 E.00207
M204 S1000
M204 S800
;WIDTH:0.246732
G1 X127.29 Y95.233 E.00012
M204 S1000
M204 S800
;WIDTH:0.287186
G1 X127.189 Y95.206 E.00212
M204 S1000
M204 S800
;WIDTH:0.327639
G1 X127.088 Y95.179 E.00247
M204 S1000
M204 S800
;WIDTH:0.368092
G1 X126.988 Y95.152 E.00282
M204 S1000
M204 S800
;WIDTH:0.408545
G1 X126.783 Y95.099 E.00643
G1 X126.541 Y95.3 E.00956
M204 S1000
G1 X125.649 Y94.9 F10800
M204 S800
;WIDTH:0.12712
G1 F1200
G1 X125.477 Y94.882 E.00121
M204 S1000
M204 S800
;WIDTH:0.16092
G1 X125.306 Y94.863 E.00169
M204 S1000
M204 S800
;WIDTH:0.187493
G1 X125.115 Y94.85 E.0023
M204 S1000
M204 S800
;WIDTH:0.214067
G1 X124.924 Y94.836 E.00272
M204 S1000
M204 S800
;WIDTH:0.240798
G1 X124.525 Y94.822 E.00657
M204 S1000
M204 S800
;WIDTH:0.240799
G1 X124.146 Y94.824 E.00623
M204 S1000
M204 S800
;WIDTH:0.237236
G1 X123.799 Y94.837 E.00562
M204 S1000
M204 S800
;WIDTH:0.208562
G1 X123.583 Y94.854 E.00298
M204 S1000
M204 S800
;WIDTH:0.175788
G1 X123.367 Y94.87 E.00239
M204 S1000
M204 S800
;WIDTH:0.143015
G1 X123.126 Y94.897 E.00201
M204 S1000
G1 X122.183 Y95.031 F10800
M204 S800
;WIDTH:0.256966
G1 F1200
G1 X121.477 Y95.229 E.01304
M204 S1000
M204 S800
;WIDTH:0.252092
G1 X121.333 Y95.274 E.00263
M204 S1000
M204 S800
;WIDTH:0.211263
G1 X121.328 Y95.276 E.00006
M204 S1000
M204 S800
;WIDTH:0.210159
G1 X121.173 Y95.32 E.00226
M204 S1000
M204 S800
;WIDTH:0.175023
G1 X121.017 Y95.365 E.00178
M204 S1000
M204 S800
;WIDTH:0.139888
G1 X120.861 Y95.41 E.00131
M204 S1000
M204 S800
;WIDTH:0.104752
G1 X120.804 Y95.43 E.00031
M204 S1000
;WIPE_START
