; generated by PrusaSlicer 2.3.1+win64 on 2022-05-18 at 23:16:26 UTC

; 

; external perimeters extrusion width = 0.45mm
; perimeters extrusion width = 0.45mm
; infill extrusion width = 0.45mm
; solid infill extrusion width = 0.45mm
; top infill extrusion width = 0.40mm
; first layer extrusion width = 0.42mm

M73 P0 R52
M73 Q0 S52
M201 X1000 Y1000 Z1000 E5000 ; sets maximum accelerations, mm/sec^2
M203 X200 Y200 Z12 E120 ; sets maximum feedrates, mm/sec
M204 P1250 R1250 T1250 ; sets acceleration (P, T) and retract acceleration (R), mm/sec^2
M205 X8.00 Y8.00 Z0.40 E1.50 ; sets the jerk limits, mm/sec
M205 S0 T0 ; sets the minimum extruding and travel feed rate, mm/sec
M107
;TYPE:Custom
M862.3 P "MK3S" ; printer model check
M862.1 P0.4 ; nozzle diameter check
M115 U3.8.0 ; tell printer latest fw version
G90 ; use absolute coordinates
M83 ; extruder relative mode
M104 S215 ; set extruder temp
M140 S60 ; set bed temp
M190 S60 ; wait for bed temp
M109 S215 ; wait for extruder temp
G28 W ; home all without mesh bed level
G80 ; mesh bed leveling
G1 Y-3.0 F1000.0 ; go outside print area
G92 E0.0
G1 X60.0 E9.0 F1000.0 ; intro line
G1 X100.0 E12.5 F1000.0 ; intro line
G92 E0.0
M221 S95
G21 ; set units to millimeters
G90 ; use absolute coordinates
M83 ; use relative distances for extrusion
M900 K0.05 ; Filament gcode LA 1.5
M900 K30 ; Filament gcode LA 1.0
;LAYER_CHANGE
;Z:0.2
;HEIGHT:0.2
;BEFORE_LAYER_CHANGE
G92 E0.0
;0.2


G1 E-0.80000 F2100.000
G1 Z0.600 F10800.000
;AFTER_LAYER_CHANGE
;0.2
G1 X88.851 Y101.195
G1 Z0.200
G1 E0.80000 F2100.000
M204 S1000
;TYPE:Skirt
;WIDTH:0.42
G1 F1200.000
G1 X89.425 Y100.666 E0.02449
G1 X124.840 Y77.685 E1.32369
G1 X131.422 Y75.441 E0.21804
G1 X131.909 Y75.382 E0.01538
G1 X135.004 Y75.382 E0.09704
G1 X135.525 Y75.441 E0.01645
G1 X136.024 Y75.614 E0.01657
G1 X136.470 Y75.891 E0.01645
G1 X136.846 Y76.262 E0.01657
G1 X161.398 Y107.907 E1.25582
G1 X161.583 Y108.410 E0.01680
G1 X161.651 Y108.941 E0.01680
G1 X161.651 Y125.949 E0.53325
G1 X161.518 Y126.703 E0.02402
G1 X161.149 Y127.379 E0.02414
G1 X160.507 Y127.950 E0.02696
G1 X159.707 Y128.255 E0.02684
G1 X122.223 Y134.598 E1.19197
G1 X90.692 Y134.613 E0.98866
G1 X89.937 Y134.479 E0.02402
G1 X89.265 Y134.111 E0.02402
G1 X88.885 Y133.739 E0.01669
G1 X88.598 Y133.295 E0.01657
G1 X88.416 Y132.795 E0.01668
G1 X88.349 Y132.267 E0.01668
G1 X88.349 Y102.618 E0.92965
M73 P0 R51
G1 X88.485 Y101.864 E0.02402
G1 X88.822 Y101.247 E0.02202
; printing object MaserCannon - Sides-1.STL id:4 copy 0
G1 E-0.80000 F2100.000
G1 Z0.800 F10800.000
G1 X126.787 Y89.009
G1 Z0.200
G1 E0.80000 F2100.000
;TYPE:Perimeter
G1 F1200.000
G1 X126.787 Y80.546 E0.26534
G1 X132.736 Y80.546 E0.18651
G1 X132.736 Y78.546 E0.06271
G1 X134.213 Y78.546 E0.04632
G1 X134.213 Y91.009 E0.39076
G1 X132.736 Y91.009 E0.04632
G1 X132.736 Y89.009 E0.06271
G1 X126.847 Y89.009 E0.18463
G1 E-0.80000 F2100.000
G1 Z0.800 F10800.000
G1 X132.358 Y89.386
G1 Z0.200
G1 E0.80000 F2100.000
;TYPE:External perimeter
G1 F1200.000
G1 X126.410 Y89.386 E0.18651
G1 X126.410 Y80.169 E0.28899
G1 X132.358 Y80.169 E0.18651
G1 X132.358 Y78.169 E0.06271
G1 X134.590 Y78.169 E0.06997
G1 X134.590 Y91.386 E0.41441
G1 X132.358 Y91.386 E0.06997
G1 X132.358 Y89.446 E0.06083
G1 X132.248 Y89.002 F10800.000
G1 E-0.80000 F2100.000
G1 Z0.800 F10800.000
G1 X134.100 Y79.443
G1 Z0.200
G1 E0.80000 F2100.000
;TYPE:Solid infill
;WIDTH:0.429873
G1 F1200.000
G1 X133.486 Y78.829 E0.02792
G1 X133.018 Y78.829 E0.01506
G1 X133.018 Y78.908 E0.00255
G1 X133.930 Y79.820 E0.04149
G1 X133.930 Y80.367 E0.01761
G1 X133.018 Y79.456 E0.04149
G1 X133.018 Y80.003 E0.01761
G1 X133.930 Y80.915 E0.04149
G1 X133.930 Y81.462 E0.01761
G1 X133.018 Y80.550 E0.04149
G1 X133.018 Y80.829 E0.00898
G1 X132.750 Y80.829 E0.00863
G1 X133.930 Y82.009 E0.05369
G1 X133.930 Y82.556 E0.01761
G1 X132.203 Y80.829 E0.07860
G1 X131.656 Y80.829 E0.01761
G1 X133.930 Y83.104 E0.10350
G1 X133.930 Y83.651 E0.01761
G1 X131.108 Y80.829 E0.12840
G1 X130.561 Y80.829 E0.01761
G1 X133.930 Y84.198 E0.15330
G1 X133.930 Y84.745 E0.01761
G1 X130.014 Y80.829 E0.17820
G1 X129.467 Y80.829 E0.01761
G1 X133.930 Y85.292 E0.20310
G1 X133.930 Y85.840 E0.01761
G1 X128.919 Y80.829 E0.22800
G1 X128.372 Y80.829 E0.01761
G1 X133.930 Y86.387 E0.25290
G1 X133.930 Y86.934 E0.01761
G1 X127.825 Y80.829 E0.27780
G1 X127.278 Y80.829 E0.01761
G1 X133.930 Y87.481 E0.30270
G1 X133.930 Y88.029 E0.01761
G1 X127.070 Y81.168 E0.31216
G1 X127.070 Y81.716 E0.01761
G1 X133.930 Y88.576 E0.31216
G1 X133.930 Y89.123 E0.01761
G1 X127.070 Y82.263 E0.31216
G1 X127.070 Y82.810 E0.01761
G1 X133.930 Y89.670 E0.31216
G1 X133.930 Y90.218 E0.01761
G1 X133.018 Y89.306 E0.04149
G1 X133.018 Y89.853 E0.01761
G1 X133.891 Y90.726 E0.03973
G1 X133.344 Y90.726 E0.01761
G1 X132.849 Y90.231 E0.02255
G1 E-0.80000 F2100.000
G1 Z0.800 F10800.000
G1 X132.608 Y88.896
M73 Q0 S51
G1 Z0.200
G1 E0.80000 F2100.000
G1 F1200.000
G1 X127.070 Y83.357 E0.25202
M73 Q1 S51
G1 X127.070 Y83.905 E0.01761
G1 X131.892 Y88.726 E0.21940
M73 P1 R51
G1 X131.344 Y88.726 E0.01761
G1 X127.070 Y84.452 E0.19450
G1 X127.070 Y84.999 E0.01761
G1 X130.797 Y88.726 E0.16959
G1 X130.250 Y88.726 E0.01761
G1 X127.070 Y85.546 E0.14469
G1 X127.070 Y86.093 E0.01761
G1 X129.703 Y88.726 E0.11979
G1 X129.155 Y88.726 E0.01761
G1 X127.070 Y86.641 E0.09489
G1 X127.070 Y87.188 E0.01761
G1 X128.608 Y88.726 E0.06999
G1 X128.061 Y88.726 E0.01761
G1 X127.070 Y87.735 E0.04509
G1 X127.070 Y88.282 E0.01761
G1 X127.683 Y88.896 E0.02791
; stop printing object MaserCannon - Sides-1.STL id:4 copy 0
; printing object tanks.STL id:0 copy 1
G1 E-0.80000 F2100.000
G1 Z0.800 F10800.000
G1 X158.487 Y122.397
G1 Z0.200
G1 E0.80000 F2100.000
;TYPE:Perimeter
;WIDTH:0.42
G1 F1200.000
G1 X158.487 Y125.131 E0.08573
G1 X128.078 Y125.129 E0.95344
G1 X127.883 Y125.102 E0.00617
G1 X127.635 Y125.026 E0.00814
G1 X127.389 Y124.893 E0.00877
G1 X127.136 Y124.672 E0.01054
G1 X126.972 Y124.442 E0.00885
G1 X126.876 Y124.233 E0.00721
G1 X126.817 Y124.027 E0.00672
G1 X126.793 Y123.767 E0.00819
G1 X126.817 Y123.505 E0.00823
G1 X126.895 Y123.244 E0.00853
G1 X127.022 Y123.007 E0.00844
G1 X127.192 Y122.798 E0.00844
G1 X127.400 Y122.628 E0.00843
G1 X127.637 Y122.502 E0.00842
G1 X127.893 Y122.424 E0.00839
G1 X128.191 Y122.395 E0.00938
G1 X158.427 Y122.397 E0.94803
G1 X158.864 Y122.020 F10800.000
;TYPE:External perimeter
G1 F1200.000
G1 X158.864 Y125.508 E0.10938
G1 X128.053 Y125.506 E0.96607
G1 X127.802 Y125.472 E0.00794
G1 X127.489 Y125.375 E0.01025
G1 X127.183 Y125.211 E0.01088
G1 X127.007 Y125.076 E0.00698
G1 X126.847 Y124.916 E0.00708
G1 X126.645 Y124.632 E0.01092
G1 X126.521 Y124.364 E0.00926
G1 X126.445 Y124.096 E0.00874
G1 X126.414 Y123.767 E0.01037
G1 X126.445 Y123.433 E0.01051
G1 X126.545 Y123.100 E0.01089
G1 X126.706 Y122.797 E0.01079
G1 X126.924 Y122.531 E0.01078
G1 X127.190 Y122.313 E0.01078
G1 X127.492 Y122.151 E0.01075
G1 X127.819 Y122.053 E0.01071
G1 X128.172 Y122.018 E0.01112
G1 X158.804 Y122.020 E0.96043
G1 X158.664 Y122.366 F10800.000
G1 E-0.80000 F2100.000
G1 Z0.800 F10800.000
G1 X158.374 Y123.278
G1 Z0.200
G1 E0.80000 F2100.000
;TYPE:Solid infill
;WIDTH:0.422749
G1 F1200.000
G1 X157.775 Y122.679 E0.02673
G1 X157.238 Y122.679 E0.01697
G1 X158.204 Y123.645 E0.04314
G1 X158.204 Y124.183 E0.01697
G1 X156.701 Y122.679 E0.06714
G1 X156.164 Y122.679 E0.01697
G1 X158.204 Y124.720 E0.09113
G1 X158.204 Y124.848 E0.00406
G1 X157.795 Y124.848 E0.01291
G1 X155.627 Y122.679 E0.09687
G1 X155.089 Y122.679 E0.01697
G1 X157.258 Y124.848 E0.09687
G1 X156.721 Y124.848 E0.01697
G1 X154.552 Y122.679 E0.09687
G1 X154.015 Y122.679 E0.01697
G1 X156.184 Y124.848 E0.09687
G1 X155.647 Y124.848 E0.01697
G1 X153.478 Y122.679 E0.09687
G1 X152.941 Y122.679 E0.01697
G1 X155.109 Y124.848 E0.09687
G1 X154.572 Y124.848 E0.01697
G1 X152.403 Y122.679 E0.09687
G1 X151.866 Y122.679 E0.01697
G1 X154.035 Y124.848 E0.09687
G1 X153.498 Y124.848 E0.01697
G1 X151.329 Y122.679 E0.09687
G1 X150.792 Y122.679 E0.01697
G1 X152.961 Y124.848 E0.09687
G1 X152.423 Y124.848 E0.01697
G1 X150.255 Y122.679 E0.09687
G1 X149.717 Y122.679 E0.01697
G1 X151.886 Y124.848 E0.09687
G1 X151.349 Y124.848 E0.01697
G1 X149.180 Y122.679 E0.09687
G1 X148.643 Y122.679 E0.01697
G1 X150.812 Y124.848 E0.09687
G1 X150.275 Y124.848 E0.01697
G1 X148.106 Y122.679 E0.09687
G1 X147.569 Y122.679 E0.01697
G1 X149.737 Y124.848 E0.09687
G1 X149.200 Y124.847 E0.01697
G1 X147.032 Y122.679 E0.09687
G1 X146.494 Y122.679 E0.01697
G1 X148.663 Y124.847 E0.09687
G1 X148.126 Y124.847 E0.01697
G1 X145.957 Y122.679 E0.09687
G1 X145.420 Y122.679 E0.01697
G1 X147.589 Y124.847 E0.09687
G1 X147.051 Y124.847 E0.01697
G1 X144.883 Y122.679 E0.09687
G1 X144.346 Y122.679 E0.01697
G1 X146.514 Y124.847 E0.09686
G1 X145.977 Y124.847 E0.01697
G1 X143.808 Y122.679 E0.09686
G1 X143.271 Y122.679 E0.01697
G1 X145.440 Y124.847 E0.09686
G1 X144.903 Y124.847 E0.01697
G1 X142.734 Y122.678 E0.09686
G1 X142.197 Y122.678 E0.01697
G1 X144.365 Y124.847 E0.09686
G1 X143.828 Y124.847 E0.01697
G1 X141.660 Y122.678 E0.09686
G1 X141.122 Y122.678 E0.01697
G1 X143.291 Y124.847 E0.09686
G1 X142.754 Y124.847 E0.01697
G1 X140.585 Y122.678 E0.09686
G1 X140.048 Y122.678 E0.01697
G1 X142.217 Y124.847 E0.09686
G1 X141.679 Y124.847 E0.01697
G1 X139.511 Y122.678 E0.09686
G1 X138.974 Y122.678 E0.01697
G1 X141.142 Y124.847 E0.09686
G1 X140.605 Y124.847 E0.01697
G1 X138.436 Y122.678 E0.09686
G1 X137.899 Y122.678 E0.01697
G1 X140.068 Y124.847 E0.09686
G1 X139.531 Y124.847 E0.01697
G1 X137.362 Y122.678 E0.09686
G1 X136.825 Y122.678 E0.01697
G1 X138.993 Y124.847 E0.09686
G1 X138.456 Y124.847 E0.01697
G1 X136.288 Y122.678 E0.09686
G1 X135.751 Y122.678 E0.01697
G1 X137.919 Y124.847 E0.09685
G1 X137.382 Y124.847 E0.01697
G1 X135.213 Y122.678 E0.09685
G1 X134.676 Y122.678 E0.01697
G1 X136.845 Y124.847 E0.09685
G1 X136.307 Y124.846 E0.01697
G1 X134.139 Y122.678 E0.09685
G1 X133.602 Y122.678 E0.01697
G1 X135.770 Y124.846 E0.09685
G1 X135.233 Y124.846 E0.01697
G1 X133.065 Y122.678 E0.09685
G1 X132.528 Y122.678 E0.01697
G1 X134.696 Y124.846 E0.09684
G1 X134.159 Y124.846 E0.01697
G1 X131.990 Y122.678 E0.09684
G1 X131.453 Y122.678 E0.01697
G1 X133.621 Y124.846 E0.09684
G1 X133.084 Y124.846 E0.01697
G1 X130.916 Y122.678 E0.09684
G1 X130.379 Y122.678 E0.01697
G1 X132.547 Y124.846 E0.09684
G1 X132.010 Y124.846 E0.01697
G1 X129.842 Y122.678 E0.09684
G1 X129.305 Y122.678 E0.01697
G1 X131.473 Y124.846 E0.09684
G1 X130.935 Y124.846 E0.01697
G1 X128.767 Y122.678 E0.09683
G1 X128.230 Y122.678 E0.01697
G1 X130.398 Y124.846 E0.09683
G1 X129.861 Y124.846 E0.01697
G1 X127.771 Y122.756 E0.09333
G1 X127.558 Y122.864 E0.00757
G1 X127.439 Y122.961 E0.00483
G1 X129.324 Y124.846 E0.08418
G1 X128.787 Y124.846 E0.01697
G1 X127.205 Y123.264 E0.07065
G1 X127.158 Y123.352 E0.00316
G1 X127.096 Y123.559 E0.00682
G1 X127.085 Y123.681 E0.00387
G1 X128.249 Y124.846 E0.05202
G1 X127.945 Y124.825 E0.00965
G1 X127.745 Y124.763 E0.00661
G1 X127.543 Y124.655 E0.00724
G1 X127.452 Y124.585 E0.00363
G1 X126.951 Y124.085 E0.02234
; stop printing object tanks.STL id:0 copy 1
; printing object tanks.STL id:0 copy 0
G1 E-0.80000 F2100.000
G1 Z0.800 F10800.000
G1 X158.487 Y116.079
G1 Z0.200
G1 E0.80000 F2100.000
;TYPE:Perimeter
;WIDTH:0.42
G1 F1200.000
G1 X158.487 Y118.813 E0.08573
G1 X128.078 Y118.811 E0.95344
G1 X127.883 Y118.784 E0.00617
G1 X127.635 Y118.708 E0.00814
G1 X127.389 Y118.575 E0.00877
G1 X127.136 Y118.354 E0.01054
G1 X126.972 Y118.124 E0.00885
G1 X126.876 Y117.915 E0.00721
G1 X126.817 Y117.709 E0.00672
G1 X126.793 Y117.449 E0.00819
G1 X126.817 Y117.187 E0.00823
G1 X126.895 Y116.926 E0.00853
G1 X127.022 Y116.689 E0.00844
G1 X127.192 Y116.480 E0.00844
G1 X127.400 Y116.310 E0.00843
G1 X127.637 Y116.184 E0.00842
G1 X127.893 Y116.106 E0.00839
G1 X128.191 Y116.077 E0.00938
G1 X158.427 Y116.079 E0.94803
G1 X158.864 Y115.702 F10800.000
;TYPE:External perimeter
G1 F1200.000
G1 X158.864 Y119.190 E0.10938
G1 X128.053 Y119.188 E0.96607
G1 X127.802 Y119.154 E0.00794
G1 X127.489 Y119.057 E0.01025
G1 X127.183 Y118.893 E0.01088
G1 X127.007 Y118.758 E0.00698
G1 X126.847 Y118.598 E0.00708
G1 X126.645 Y118.314 E0.01092
G1 X126.521 Y118.046 E0.00926
G1 X126.445 Y117.778 E0.00874
G1 X126.414 Y117.449 E0.01037
G1 X126.445 Y117.115 E0.01051
G1 X126.545 Y116.782 E0.01089
G1 X126.706 Y116.479 E0.01079
G1 X126.924 Y116.213 E0.01078
G1 X127.190 Y115.995 E0.01078
G1 X127.492 Y115.833 E0.01075
G1 X127.819 Y115.735 E0.01071
G1 X128.172 Y115.700 E0.01112
G1 X158.804 Y115.702 E0.96043
G1 X158.664 Y116.048 F10800.000
G1 E-0.80000 F2100.000
G1 Z0.800 F10800.000
G1 X158.374 Y116.960
G1 Z0.200
G1 E0.80000 F2100.000
;TYPE:Solid infill
;WIDTH:0.422749
G1 F1200.000
G1 X157.775 Y116.361 E0.02673
G1 X157.238 Y116.361 E0.01697
G1 X158.204 Y117.327 E0.04314
G1 X158.204 Y117.865 E0.01697
G1 X156.701 Y116.361 E0.06714
G1 X156.164 Y116.361 E0.01697
G1 X158.204 Y118.402 E0.09113
G1 X158.204 Y118.530 E0.00406
G1 X157.795 Y118.530 E0.01291
G1 X155.627 Y116.361 E0.09687
G1 X155.089 Y116.361 E0.01697
G1 X157.258 Y118.530 E0.09687
G1 X156.721 Y118.530 E0.01697
G1 X154.552 Y116.361 E0.09687
G1 X154.015 Y116.361 E0.01697
G1 X156.184 Y118.530 E0.09687
G1 X155.647 Y118.530 E0.01697
G1 X153.478 Y116.361 E0.09687
G1 X152.941 Y116.361 E0.01697
G1 X155.109 Y118.530 E0.09687
G1 X154.572 Y118.530 E0.01697
G1 X152.403 Y116.361 E0.09687
G1 X151.866 Y116.361 E0.01697
G1 X154.035 Y118.530 E0.09687
M73 Q2 S51
G1 X153.498 Y118.530 E0.01697
G1 X151.329 Y116.361 E0.09687
G1 X150.792 Y116.361 E0.01697
G1 X152.961 Y118.530 E0.09687
M73 P2 R51
G1 X152.423 Y118.530 E0.01697
G1 X150.255 Y116.361 E0.09687
G1 X149.717 Y116.361 E0.01697
G1 X151.886 Y118.530 E0.09687
G1 X151.349 Y118.530 E0.01697
G1 X149.180 Y116.361 E0.09687
G1 X148.643 Y116.361 E0.01697
G1 X150.812 Y118.530 E0.09687
G1 X150.275 Y118.530 E0.01697
G1 X148.106 Y116.361 E0.09687
G1 X147.569 Y116.361 E0.01697
G1 X149.737 Y118.530 E0.09687
G1 X149.200 Y118.529 E0.01697
G1 X147.032 Y116.361 E0.09687
G1 X146.494 Y116.361 E0.01697
G1 X148.663 Y118.529 E0.09687
G1 X148.126 Y118.529 E0.01697
G1 X145.957 Y116.361 E0.09687
G1 X145.420 Y116.361 E0.01697
G1 X147.589 Y118.529 E0.09687
G1 X147.051 Y118.529 E0.01697
G1 X144.883 Y116.361 E0.09687
G1 X144.346 Y116.361 E0.01697
G1 X146.514 Y118.529 E0.09686
G1 X145.977 Y118.529 E0.01697
G1 X143.808 Y116.361 E0.09686
G1 X143.271 Y116.361 E0.01697
G1 X145.440 Y118.529 E0.09686
G1 X144.903 Y118.529 E0.01697
G1 X142.734 Y116.360 E0.09686
G1 X142.197 Y116.360 E0.01697
G1 X144.365 Y118.529 E0.09686
G1 X143.828 Y118.529 E0.01697
G1 X141.660 Y116.360 E0.09686
G1 X141.122 Y116.360 E0.01697
G1 X143.291 Y118.529 E0.09686
G1 X142.754 Y118.529 E0.01697
G1 X140.585 Y116.360 E0.09686
G1 X140.048 Y116.360 E0.01697
G1 X142.217 Y118.529 E0.09686
G1 X141.679 Y118.529 E0.01697
G1 X139.511 Y116.360 E0.09686
G1 X138.974 Y116.360 E0.01697
G1 X141.142 Y118.529 E0.09686
G1 X140.605 Y118.529 E0.01697
G1 X138.436 Y116.360 E0.09686
G1 X137.899 Y116.360 E0.01697
G1 X140.068 Y118.529 E0.09686
G1 X139.531 Y118.529 E0.01697
G1 X137.362 Y116.360 E0.09686
G1 X136.825 Y116.360 E0.01697
G1 X138.993 Y118.529 E0.09686
G1 X138.456 Y118.529 E0.01697
G1 X136.288 Y116.360 E0.09686
G1 X135.751 Y116.360 E0.01697
G1 X137.919 Y118.529 E0.09685
G1 X137.382 Y118.529 E0.01697
G1 X135.213 Y116.360 E0.09685
G1 X134.676 Y116.360 E0.01697
G1 X136.845 Y118.529 E0.09685
G1 X136.307 Y118.528 E0.01697
G1 X134.139 Y116.360 E0.09685
G1 X133.602 Y116.360 E0.01697
G1 X135.770 Y118.528 E0.09685
G1 X135.233 Y118.528 E0.01697
G1 X133.065 Y116.360 E0.09685
G1 X132.528 Y116.360 E0.01697
G1 X134.696 Y118.528 E0.09684
G1 X134.159 Y118.528 E0.01697
G1 X131.990 Y116.360 E0.09684
G1 X131.453 Y116.360 E0.01697
G1 X133.621 Y118.528 E0.09684
G1 X133.084 Y118.528 E0.01697
G1 X130.916 Y116.360 E0.09684
G1 X130.379 Y116.360 E0.01697
G1 X132.547 Y118.528 E0.09684
G1 X132.010 Y118.528 E0.01697
G1 X129.842 Y116.360 E0.09684
G1 X129.305 Y116.360 E0.01697
G1 X131.473 Y118.528 E0.09684
G1 X130.935 Y118.528 E0.01697
G1 X128.767 Y116.360 E0.09683
G1 X128.230 Y116.360 E0.01697
G1 X130.398 Y118.528 E0.09683
G1 X129.861 Y118.528 E0.01697
