; generated by PrusaSlicer 2.5.0+win64 on 2023-04-17 at 22:03:39 UTC


;
;
; 

; external perimeters extrusion width = 0.45mm
; perimeters extrusion width = 0.45mm
; infill extrusion width = 0.45mm
; solid infill extrusion width = 0.45mm
; top infill extrusion width = 0.40mm
; support material extrusion width = 0.35mm
; first layer extrusion width = 0.42mm

; external perimeters extrusion width = 0.45mm
; perimeters extrusion width = 0.45mm
; infill extrusion width = 0.45mm
; solid infill extrusion width = 0.45mm
; top infill extrusion width = 0.40mm
; support material extrusion width = 0.35mm
; first layer extrusion width = 0.42mm

M73 P0 R59
M201 X1250 Y1250 Z400 E5000 ; sets maximum accelerations, mm/sec^2
M203 X180 Y180 Z12 E80 ; sets maximum feedrates, mm / sec
M204 P1250 R1250 T1250 ; sets acceleration (P, T) and retract acceleration (R), mm/sec^2
M205 X8.00 Y8.00 Z2.00 E10.00 ; sets the jerk limits, mm/sec
M205 S0 T0 ; sets the minimum extruding and travel feed rate, mm/sec
M107
;TYPE:Custom
M862.3 P "MINI" ; printer model check
M862.1 P0.4 ; nozzle diameter check
M115 U3.11.0 ; tell printer latest fw version
G90 ; use absolute coordinates
M83 ; extruder relative mode
M104 S215 ; set extruder temp
M140 S60 ; set bed temp
M190 S60 ; wait for bed temp
M109 S215 ; wait for extruder temp
G28 W ; home all without mesh bed level
G80 ; mesh bed leveling

G1 Z0.2 F720
G1 Y-3 F1000 ; go outside print area
G92 E0
G1 X60 E9 F1000 ; intro line
G1 X100 E12.5 F1000 ; intro line

G92 E0
M221 S95

; Don't change E values below. Excessive value can damage the printer.

G21 ; set units to millimeters
G90 ; use absolute coordinates
M83 ; use relative distances for extrusion
M900 K0.2 ; Filament gcode LA 1.5
; ; Filament gcode LA 1.0
M107
;LAYER_CHANGE
;Z:0.2
;HEIGHT:0.2
;BEFORE_LAYER_CHANGE
G92 E0.0
;0.2


G1 E-3.2 F4200
G1 Z.2 F720
;AFTER_LAYER_CHANGE
;0.2
G1 Z.4
G1 X71.551 Y71.234 F9000
G1 Z.2 F720
G1 E3.2 F2400
M204 S800
;TYPE:Skirt/Brim
;WIDTH:0.42
G1 F1200
G1 X73.778 Y69.279 E.09293
G1 X75.686 Y67.918 E.07347
G1 X77.781 Y66.695 E.07606
G1 X80.337 Y65.523 E.08818
G1 X82.553 Y64.76 E.07347
G1 X85.438 Y64.083 E.09293
G1 X87.762 Y63.78 E.07347
G1 X90.186 Y63.687 E.07606
G1 X92.993 Y63.855 E.08818
G1 X95.307 Y64.225 E.07347
G1 X98.172 Y64.985 E.09293
G1 X100.364 Y65.811 E.07347
G1 X103.018 Y67.13 E.09293
G1 X105.001 Y68.379 E.07347
G1 X106.812 Y69.755 E.07132
G1 X108.982 Y71.774 E.09293
G1 X110.528 Y73.535 E.07347
G1 X112.187 Y75.851 E.08932
G1 X113.38 Y77.921 E.07492
G1 X114.362 Y80.049 E.07347
G1 X115.326 Y82.851 E.09293
G1 X115.862 Y85.132 E.07347
G1 X116.185 Y87.384 E.07132
G1 X116.313 Y90.345 E.09293
G1 X116.178 Y92.684 E.07347
G1 X115.71 Y95.611 E.09293
G1 X115.109 Y97.876 E.07347
G1 X114.11 Y100.543 E.08932
G1 X113.055 Y102.688 E.07492
G1 X111.835 Y104.688 E.07347
G1 X110.045 Y107.05 E.09293
G1 X108.449 Y108.766 E.07347
G1 X106.222 Y110.721 E.09293
G1 X104.314 Y112.082 E.07347
G1 X102.219 Y113.305 E.07606
G1 X99.663 Y114.477 E.08818
G1 X97.447 Y115.24 E.07347
G1 X95.24 Y115.789 E.07132
G1 X92.307 Y116.214 E.09293
G1 X89.966 Y116.316 E.07347
G1 X87.007 Y116.145 E.09293
G1 X84.693 Y115.775 E.07347
G1 X81.828 Y115.015 E.09293
G1 X79.699 Y114.216 E.07132
G1 X77.586 Y113.203 E.07347
G1 X75.628 Y112.045 E.07132
G1 X73.241 Y110.289 E.09293
G1 X71.502 Y108.717 E.07347
G1 X69.515 Y106.519 E.09293
G1 X68.165 Y104.688 E.07132
G1 X66.945 Y102.688 E.07347
G1 X65.664 Y100.015 E.09293
G1 X64.87 Y97.81 E.07347
G1 X64.151 Y94.935 E.09293
G1 X63.815 Y92.616 E.07347
G1 X63.687 Y89.655 E.09293
G1 X63.822 Y87.316 E.07347
G1 X64.29 Y84.389 E.09293
G1 X64.891 Y82.124 E.07347
G1 X65.89 Y79.457 E.08932
G1 X66.945 Y77.312 E.07492
G1 X68.165 Y75.312 E.07347
G1 X69.955 Y72.95 E.09293
G1 X71.51 Y71.278 E.07159
M204 S1250
; printing object 545-7292-10 Push Button Mounting Spacer - BLK id:0 copy 0
G1 E-2.24 F4200
;WIPE_START
G1 F7200
G1 X72.745 Y70.19 E-.912
;WIPE_END
G1 E-.048 F4200
G1 Z.4 F720
G1 X106.517 Y106.757 F9000
G1 Z.2 F720
G1 E3.2 F2400
M204 S800
;TYPE:External perimeter
;WIDTH:0.419999
G1 F1200
G1 X105.524 Y107.68 E.04252
G1 X104.513 Y108.519 E.04117
G1 X103.94 Y108.954 E.02257
G1 X102.823 Y109.727 E.04261
G1 X102.252 Y110.087 E.02117
G1 X101.073 Y110.76 E.04257
G1 X99.858 Y111.364 E.04252
G1 X98.611 Y111.896 E.04252
G1 X97.334 Y112.357 E.04257
G1 X96.688 Y112.558 E.02121
G1 X96.036 Y112.741 E.02122
G1 X94.715 Y113.051 E.04256
G1 X93.379 Y113.285 E.04252
G1 X92.03 Y113.441 E.04257
G1 X91.357 Y113.49 E.02117
G1 X90 Y113.529 E.04257
G1 X88.644 Y113.49 E.04252
G1 X87.292 Y113.372 E.04257
G1 X86.623 Y113.285 E.02117
G1 X85.285 Y113.051 E.04257
G1 X83.964 Y112.741 E.04256
G1 X83.313 Y112.559 E.02117
G1 X82.024 Y112.135 E.04257
G1 X80.762 Y111.639 E.04252
G1 X79.529 Y111.07 E.04257
G1 X78.929 Y110.761 E.02117
G1 X77.75 Y110.088 E.04256
G1 X76.613 Y109.349 E.04252
G1 X75.519 Y108.545 E.04256
G1 X74.959 Y108.093 E.02257
G1 X73.973 Y107.226 E.04117
G1 X73.006 Y106.273 E.04257
G1 X72.546 Y105.778 E.02117
G1 X71.665 Y104.745 E.04257
G1 X70.846 Y103.665 E.04252
G1 X70.09 Y102.537 E.04256
G1 X69.716 Y101.922 E.02257
G1 X69.082 Y100.772 E.04117
G1 X68.496 Y99.548 E.04256
G1 X68.214 Y98.886 E.02257
G1 X67.752 Y97.657 E.04117
G1 X67.347 Y96.361 E.04257
G1 X67.174 Y95.708 E.02117
G1 X66.883 Y94.381 E.04261
G1 X66.767 Y93.716 E.02117
G1 X66.591 Y92.369 E.04257
G1 X66.493 Y91.017 E.04252
G1 X66.474 Y89.66 E.04256
G1 X66.496 Y88.94 E.02257
G1 X66.591 Y87.631 E.04117
G1 X66.766 Y86.286 E.04252
G1 X67.019 Y84.952 E.04257
G1 X67.173 Y84.295 E.02117
G1 X67.541 Y82.988 E.04257
G1 X67.982 Y81.705 E.04252
G1 X68.497 Y80.449 E.04257
G1 X68.78 Y79.836 E.02117
G1 X69.401 Y78.629 E.04257
G1 X70.091 Y77.462 E.04252
G1 X70.846 Y76.335 E.04254
G1 X71.456 Y75.522 E.03187
G1 X72.097 Y74.733 E.03188
G1 X72.978 Y73.758 E.04119
G1 X73.483 Y73.243 E.02261
G1 X73.972 Y72.775 E.02121
G1 X74.992 Y71.88 E.04257
G1 X76.061 Y71.045 E.04252
G1 X77.177 Y70.273 E.04257
G1 X77.748 Y69.913 E.02117
G1 X78.927 Y69.24 E.04257
G1 X80.142 Y68.636 E.04252
G1 X81.39 Y68.103 E.04257
G1 X82.022 Y67.865 E.02117
G1 X83.312 Y67.442 E.04256
G1 X84.623 Y67.094 E.04252
G1 X85.953 Y66.822 E.04257
G1 X86.619 Y66.715 E.02117
G1 X87.968 Y66.559 E.04257
G1 X89.323 Y66.481 E.04256
G1 X90.043 Y66.472 E.02257
G1 X91.355 Y66.51 E.04117
G1 X92.708 Y66.628 E.04256
G1 X93.421 Y66.722 E.02257
G1 X94.715 Y66.949 E.04117
G1 X96.035 Y67.259 E.04252
G1 X97.335 Y67.644 E.04252
G1 X98.612 Y68.104 E.04257
G1 X99.237 Y68.36 E.02117
G1 X100.47 Y68.929 E.04257
G1 X101.668 Y69.568 E.04257
G1 X102.249 Y69.911 E.02117
G1 X103.387 Y70.651 E.04257
G1 X104.48 Y71.455 E.04252
G1 X105.525 Y72.32 E.04256
G1 X106.058 Y72.804 E.02257
G1 X106.993 Y73.726 E.04117
G1 X107.903 Y74.733 E.04256
G1 X108.361 Y75.288 E.02257
G1 X109.154 Y76.335 E.04117
G1 X109.91 Y77.463 E.04257
G1 X110.262 Y78.039 E.02117
G1 X110.918 Y79.228 E.04257
G1 X111.504 Y80.452 E.04256
G1 X111.786 Y81.114 E.02257
G1 X112.248 Y82.343 E.04117
G1 X112.653 Y83.639 E.04257
G1 X112.826 Y84.292 E.02117
G1 X113.117 Y85.619 E.04261
G1 X113.233 Y86.284 E.02117
G1 X113.409 Y87.631 E.04257
G1 X113.508 Y89.099 E.04615
G1 X113.526 Y90.34 E.03893
G1 X113.504 Y91.06 E.02257
G1 X113.409 Y92.369 E.04117
G1 X113.234 Y93.714 E.04252
G1 X112.981 Y95.046 E.04252
G1 X112.652 Y96.364 E.04257
G1 X112.459 Y97.012 E.02122
G1 X112.249 Y97.655 E.02121
G1 X111.77 Y98.926 E.04257
G1 X111.219 Y100.166 E.04256
G1 X110.898 Y100.81 E.02257
G1 X110.262 Y101.96 E.04117
G1 X109.539 Y103.108 E.04257
G1 X109.155 Y103.663 E.02117
G1 X108.335 Y104.745 E.04257
G1 X107.455 Y105.777 E.04252
G1 X106.558 Y106.713 E.04064
M204 S1250
G1 E-2.24 F4200
;WIPE_START
G1 F7200
G1 X105.524 Y107.68 E-.78474
G1 X105.347 Y107.827 E-.12726
;WIPE_END
G1 E-.048 F4200
G1 Z.4 F720
G1 X81.314 Y109.265 F9000
G1 Z.2 F720
G1 E3.2 F2400
M204 S800
G1 F1200
G1 X81.749 Y109.242 E.01365
G1 X98.595 Y109.242 E.52819
G1 X98.729 Y109.298 E.00456
G1 X98.882 Y109.851 E.01799
G1 X98.801 Y110.05 E.00674
G1 X97.443 Y110.646 E.04649
G1 X96.247 Y111.072 E.03981
G1 X95.157 Y111.396 E.03563
G1 X94.488 Y111.561 E.02161
G1 X93.338 Y111.789 E.03677
G1 X92.186 Y111.948 E.03646
G1 X91.026 Y112.041 E.0365
G1 X89.812 Y112.066 E.03806
G1 X88.545 Y112.014 E.03977
G1 X87.861 Y111.953 E.02151
G1 X86.592 Y111.776 E.04019
G1 X85.454 Y111.547 E.03639
G1 X84.355 Y111.261 E.03561
G1 X83.266 Y110.911 E.03585
G1 X82.579 Y110.646 E.02311
G1 X81.222 Y110.063 E.04629
G1 X81.115 Y109.918 E.00566
G1 X81.221 Y109.389 E.01691
G1 X81.278 Y109.313 E.00299
M204 S1250
G1 E-2.24 F4200
;WIPE_START
G1 F7200
G1 X81.749 Y109.242 E-.26379
G1 X82.919 Y109.242 E-.64821
;WIPE_END
G1 E-.048 F4200
G1 Z.4 F720
G1 X86.098 Y75.014 F9000
G1 Z.2 F720
G1 E3.2 F2400
M204 S800
G1 F1200
G1 X86.098 Y73.677 E.04194
G1 X86.192 Y72.833 E.02661
G1 X86.503 Y71.952 E.02929
G1 X86.768 Y71.494 E.01659
G1 X87.331 Y70.835 E.02718
G1 X87.79 Y70.465 E.01848
G1 X88.319 Y70.161 E.01914
G1 X88.837 Y69.956 E.01745
G1 X89.685 Y69.796 E.02708
G1 X90.278 Y69.789 E.01858
G1 X91.189 Y69.965 E.02908
G1 X91.681 Y70.16 E.01659
G1 X92.124 Y70.413 E.01601
G1 X92.644 Y70.811 E.02054
G1 X93.212 Y71.466 E.02718
G1 X93.561 Y72.117 E.02317
G1 X93.753 Y72.643 E.01755
G1 X93.89 Y73.376 E.02336
G1 X93.902 Y75.014 E.05138
G1 X94.666 Y75.228 E.0249
G1 X95.203 Y75.409 E.01776
G1 X96.157 Y75.788 E.03219
G1 X96.923 Y76.152 E.02658
G1 X97.751 Y76.587 E.02933
G1 X98.705 Y77.186 E.03533
G1 X99.614 Y77.853 E.03532
G1 X100.48 Y78.592 E.03571
G1 X101.271 Y79.373 E.03487
G1 X101.653 Y79.793 E.01778
G1 X102.629 Y81.031 E.04946
G1 X103.157 Y81.827 E.02992
G1 X103.584 Y82.553 E.02644
G1 X103.847 Y83.054 E.01774
G1 X104.319 Y84.088 E.03562
G1 X104.706 Y85.13 E.03487
G1 X105.024 Y86.225 E.03573
G1 X105.256 Y87.312 E.03487
G1 X105.406 Y88.386 E.03399
G1 X105.458 Y88.992 E.01906
G1 X105.491 Y90.114 E.03521
G1 X105.442 Y91.239 E.0353
G1 X105.386 Y91.803 E.01777
G1 X105.13 Y93.282 E.04708
G1 X104.963 Y94.009 E.02338
G1 X104.807 Y94.554 E.01777
G1 X104.422 Y95.653 E.0365
G1 X103.992 Y96.648 E.03399
G1 X103.743 Y97.149 E.01754
G1 X103.302 Y97.927 E.02806
G1 X102.879 Y98.608 E.02512
G1 X102.222 Y99.518 E.03519
G1 X101.499 Y100.38 E.0353
G1 X101.111 Y100.794 E.01777
G1 X100.492 Y101.394 E.02703
G1 X99.872 Y101.938 E.02585
G1 X99.13 Y102.508 E.02934
G1 X98.477 Y102.965 E.025
G1 X97.553 Y103.525 E.03387
G1 X96.802 Y103.915 E.02655
G1 X96.035 Y104.267 E.02644
G1 X94.985 Y104.667 E.03526
G1 X94.435 Y104.843 E.0181
G1 X93.359 Y105.123 E.03486
G1 X92.803 Y105.236 E.01777
G1 X91.693 Y105.398 E.03518
G1 X91.128 Y105.45 E.01778
G1 X89.993 Y105.491 E.03562
G1 X88.882 Y105.451 E.03487
G1 X88.317 Y105.4 E.01777
G1 X87.708 Y105.32 E.01929
G1 X86.655 Y105.126 E.03357
G1 X85.565 Y104.843 E.03529
G1 X85.025 Y104.671 E.01777
G1 X83.963 Y104.267 E.03562
G1 X82.956 Y103.797 E.03487
G1 X82.455 Y103.53 E.01777
G1 X81.461 Y102.925 E.0365
G1 X80.578 Y102.296 E.03399
G1 X80.134 Y101.944 E.01776
G1 X79.707 Y101.577 E.01766
G1 X78.896 Y100.802 E.03518
G1 X78.508 Y100.388 E.01777
G1 X77.877 Y99.638 E.03075
G1 X77.379 Y98.965 E.02625
G1 X76.905 Y98.258 E.02667
G1 X76.535 Y97.659 E.02209
G1 X76.263 Y97.161 E.01777
G1 X76.012 Y96.657 E.01766
G1 X75.64 Y95.797 E.02939
G1 X75.371 Y95.095 E.02356
G1 X75.04 Y94.023 E.03519
G1 X74.788 Y92.925 E.0353
G1 X74.615 Y91.813 E.0353
G1 X74.542 Y90.969 E.02655
G1 X74.509 Y90.127 E.02644
G1 X74.534 Y89.262 E.02711
G1 X74.661 Y87.841 E.04475
G1 X74.849 Y86.773 E.03399
G1 X74.977 Y86.221 E.01777
G1 X75.242 Y85.309 E.02977
G1 X75.519 Y84.525 E.02609
G1 X75.846 Y83.727 E.02704
G1 X76.149 Y83.063 E.02288
G1 X76.711 Y82.04 E.03661
G1 X77.3 Y81.13 E.03399
G1 X77.633 Y80.671 E.01777
G1 X78.271 Y79.886 E.03173
G1 X78.721 Y79.381 E.02123
G1 X79.52 Y78.592 E.03519
G1 X80.168 Y78.038 E.02674
G1 X80.827 Y77.529 E.02608
G1 X81.283 Y77.194 E.01776
G1 X81.758 Y76.884 E.01777
G1 X82.73 Y76.321 E.03522
G1 X83.583 Y75.906 E.02973
G1 X84.744 Y75.429 E.03936
G1 X85.324 Y75.231 E.01922
G1 X86.04 Y75.031 E.0233
M204 S1250
G1 E-2.24 F4200
;WIPE_START
G1 F7200
G1 X86.098 Y73.677 E-.75095
G1 X86.13 Y73.388 E-.16105
;WIPE_END
G1 E-.048 F4200
G1 Z.4 F720
G1 X108.422 Y75.556 F9000
G1 Z.2 F720
G1 E3.2 F2400
M204 S800
;TYPE:Solid infill
;WIDTH:0.420805
G1 F1200
G1 X105.864 Y73.01 E.11341
G1 X105.34 Y72.534 E.02223
G1 X104.306 Y71.678 E.0422
G1 X103.196 Y70.864 E.04325
G1 X109.112 Y76.78 E.26289
G1 X109.672 Y77.615 E.03161
G1 X110.065 Y78.267 E.02392
G1 X101.731 Y69.934 E.3703
G1 X100.562 Y69.299 E.04183
G1 X110.709 Y79.446 E.4509
G1 X111.2 Y80.472 E.03574
G1 X99.54 Y68.812 E.51813
G1 X98.598 Y68.404 E.03225
G1 X111.589 Y81.395 E.57727
G1 X111.911 Y82.252 E.02876
M73 P1 R59
G1 X97.756 Y68.096 E.62902
G1 X96.95 Y67.825 E.02672
G1 X112.171 Y83.046 E.67637
G1 X112.407 Y83.816 E.02531
G1 X96.19 Y67.6 E.7206
G1 X95.474 Y67.417 E.02324
G1 X112.589 Y84.533 E.76055
G1 X112.739 Y85.217 E.02203
G1 X94.775 Y67.253 E.79826
G1 X94.119 Y67.131 E.02098
G1 X112.877 Y85.89 E.83356
G1 X112.98 Y86.527 E.02027
G1 X93.471 Y67.018 E.8669
G1 X92.851 Y66.932 E.01968
G1 X113.06 Y87.141 E.89803
G1 X113.134 Y87.75 E.01926
G1 X92.257 Y66.872 E.92771
G1 X91.672 Y66.822 E.01845
G1 X113.176 Y88.326 E.95556
G1 X113.217 Y88.902 E.01815
G1 X91.102 Y66.786 E.98274
G1 X90.551 Y66.77 E.01731
G1 X113.231 Y89.449 E1.0078
G1 X113.238 Y89.992 E.01704
G1 X90.003 Y66.756 E1.03249
G1 X89.475 Y66.762 E.01661
G1 X113.238 Y90.525 E1.05594
G1 X113.222 Y91.044 E.0163
G1 X88.963 Y66.785 E1.07797
G1 X88.458 Y66.814 E.0159
M73 P1 R58
G1 X91.389 Y69.746 E.13027
G1 X91.217 Y69.68 E.0058
G1 X90.686 Y69.576 E.01701
G1 X87.955 Y66.846 E.12135
G1 X87.476 Y66.901 E.01515
G1 X90.084 Y69.51 E.11592
G1 X89.736 Y69.505 E.01095
G1 X89.574 Y69.534 E.00516
G1 X86.997 Y66.956 E.11454
G1 X86.523 Y67.017 E.015
G1 X89.121 Y69.615 E.11544
G1 X88.793 Y69.674 E.01047
G1 X88.687 Y69.715 E.00358
G1 X86.062 Y67.091 E.11662
G1 X85.617 Y67.179 E.01428
G1 X88.303 Y69.866 E.11936
G1 X88.185 Y69.912 E.00398
G1 X87.949 Y70.046 E.00853
G1 X85.173 Y67.27 E.12336
G1 X84.729 Y67.361 E.01423
G1 X87.616 Y70.248 E.12827
G1 X87.317 Y70.483 E.01196
G1 X84.305 Y67.471 E.13383
G1 X83.883 Y67.583 E.01373
G1 X87.043 Y70.744 E.14046
G1 X86.794 Y71.029 E.0119
G1 X83.46 Y67.695 E.14816
G1 X83.055 Y67.824 E.01337
G1 X86.55 Y71.319 E.15533
G1 X86.354 Y71.658 E.01229
G1 X82.652 Y67.956 E.16449
G1 X82.25 Y68.088 E.01331
G1 X86.177 Y72.016 E.17453
G1 X86.039 Y72.412 E.01318
G1 X81.857 Y68.23 E.18584
G1 X81.47 Y68.377 E.01302
G1 X85.91 Y72.817 E.1973
G1 X85.856 Y73.297 E.01518
G1 X81.095 Y68.537 E.21154
G1 X80.721 Y68.697 E.0128
G1 X85.815 Y73.791 E.22637
G1 X85.815 Y74.325 E.01679
G1 X80.346 Y68.856 E.24301
G1 X79.985 Y69.03 E.01258
G1 X85.768 Y74.813 E.25698
G1 X85.351 Y74.93 E.01362
G1 X79.628 Y69.207 E.25429
G1 X79.271 Y69.385 E.01253
G1 X84.947 Y75.06 E.2522
G1 X84.554 Y75.202 E.01312
G1 X78.921 Y69.569 E.25029
G1 X78.581 Y69.763 E.01231
G1 X84.172 Y75.354 E.24843
G1 X83.79 Y75.506 E.01292
G1 X78.241 Y69.957 E.24657
G1 X77.9 Y70.152 E.01231
G1 X83.42 Y75.671 E.24527
G1 X83.06 Y75.846 E.01256
G1 X77.572 Y70.358 E.24386
G1 X77.248 Y70.568 E.01214
G1 X82.701 Y76.021 E.24231
G1 X82.356 Y76.21 E.01236
G1 X76.932 Y70.786 E.24103
G1 X76.616 Y71.005 E.01207
G1 X82.017 Y76.406 E.24002
G1 X81.679 Y76.602 E.01229
G1 X76.3 Y71.223 E.23901
G1 X75.996 Y71.454 E.01198
G1 X81.353 Y76.811 E.23803
G1 X81.034 Y77.026 E.01209
G1 X75.696 Y71.688 E.2372
G1 X75.396 Y71.923 E.01196
G1 X80.726 Y77.253 E.23684
G1 X80.418 Y77.479 E.01201
G1 X75.1 Y72.161 E.23631
G1 X74.815 Y72.411 E.0119
G1 X80.116 Y77.711 E.23555
G1 X79.828 Y77.958 E.01191
G1 X74.531 Y72.661 E.23538
G1 X74.246 Y72.91 E.0119
G1 X79.54 Y78.204 E.23522
G1 X79.256 Y78.455 E.0119
G1 X73.97 Y73.168 E.2349
G1 X73.697 Y73.43 E.01188
M73 P2 R58
G1 X78.987 Y78.72 E.23508
G1 X78.718 Y78.986 E.01187
G1 X73.432 Y73.699 E.23492
G1 X73.168 Y73.969 E.01187
G1 X78.454 Y79.255 E.23489
G1 X78.199 Y79.535 E.01189
G1 X72.914 Y74.25 E.23485
G1 X72.66 Y74.531 E.01189
G1 X77.956 Y79.826 E.2353
G1 X77.716 Y80.121 E.01194
G1 X72.407 Y74.812 E.23591
G1 X72.312 Y74.917 E.00444
G1 X72.162 Y75.101 E.00748
G1 X77.476 Y80.415 E.23613
