; generated by PrusaSlicer 2.3.1+win64 on 2022-05-18 at 22:36:29 UTC

; 

; external perimeters extrusion width = 0.45mm
; perimeters extrusion width = 0.45mm
; infill extrusion width = 0.45mm
; solid infill extrusion width = 0.45mm
; top infill extrusion width = 0.40mm
; support material extrusion width = 0.35mm
; first layer extrusion width = 0.42mm

M73 P0 R6
M73 Q0 S6
M201 X1000 Y1000 Z1000 E5000 ; sets maximum accelerations, mm/sec^2
M203 X200 Y200 Z12 E120 ; sets maximum feedrates, mm/sec
M204 P1250 R1250 T1250 ; sets acceleration (P, T) and retract acceleration (R), mm/sec^2
M205 X8.00 Y8.00 Z0.40 E1.50 ; sets the jerk limits, mm/sec
M205 S0 T0 ; sets the minimum extruding and travel feed rate, mm/sec
M107
;TYPE:Custom
M862.3 P "MK3S" ; printer model check
M862.1 P0.4 ; nozzle diameter check
M115 U3.8.0 ; tell printer latest fw version
G90 ; use absolute coordinates
M83 ; extruder relative mode
M104 S215 ; set extruder temp
M140 S60 ; set bed temp
M190 S60 ; wait for bed temp
M109 S215 ; wait for extruder temp
G28 W ; home all without mesh bed level
G80 ; mesh bed leveling
G1 Y-3.0 F1000.0 ; go outside print area
G92 E0.0
G1 X60.0 E9.0 F1000.0 ; intro line
M73 P1 R6
M73 Q1 S6
G1 X100.0 E12.5 F1000.0 ; intro line
G92 E0.0
M221 S95
G21 ; set units to millimeters
G90 ; use absolute coordinates
M83 ; use relative distances for extrusion
M900 K0.05 ; Filament gcode LA 1.5
M900 K30 ; Filament gcode LA 1.0
;LAYER_CHANGE
;Z:0.2
;HEIGHT:0.2
;BEFORE_LAYER_CHANGE
G92 E0.0
;0.2


G1 E-0.80000 F2100.000
G1 Z0.600 F10800.000
;AFTER_LAYER_CHANGE
;0.2
G1 X134.894 Y97.092
M73 P2 R5
M73 Q2 S5
G1 Z0.200
G1 E0.80000 F2100.000
M204 S1000
;TYPE:Perimeter
;WIDTH:0.42
G1 F1200.000
G1 X111.300 Y97.091 E0.73974
G1 X111.300 Y93.955 E0.09830
G1 X137.104 Y93.957 E0.80905
M73 Q3 S5
G1 X137.447 Y94.007 E0.01087
G1 X137.731 Y94.107 E0.00945
G1 X137.995 Y94.258 E0.00953
G1 X138.226 Y94.455 E0.00953
G1 X138.418 Y94.692 E0.00956
G1 X138.563 Y94.960 E0.00955
G1 X138.659 Y95.259 E0.00987
G1 X138.688 Y95.457 E0.00625
G1 X138.676 Y95.690 E0.00733
G1 X138.600 Y95.991 E0.00973
G1 X138.472 Y96.268 E0.00956
G1 X138.293 Y96.519 E0.00967
G1 X138.114 Y96.696 E0.00790
G1 X137.914 Y96.842 E0.00776
G1 X137.638 Y96.979 E0.00965
G1 X137.345 Y97.061 E0.00953
G1 X137.015 Y97.092 E0.01038
G1 X134.954 Y97.092 E0.06465
M73 P3 R5
G1 X134.954 Y97.469 F10800.000
;TYPE:External perimeter
G1 F1200.000
G1 X110.923 Y97.468 E0.75345
G1 X110.923 Y93.578 E0.12195
G1 X137.131 Y93.580 E0.82172
G1 X137.537 Y93.639 E0.01287
G1 X137.889 Y93.762 E0.01168
G1 X138.213 Y93.948 E0.01171
G1 X138.497 Y94.191 E0.01172
G1 X138.733 Y94.482 E0.01174
G1 X138.911 Y94.811 E0.01175
G1 X139.028 Y95.174 E0.01195
G1 X139.066 Y95.439 E0.00839
G1 X139.051 Y95.746 E0.00966
G1 X138.957 Y96.118 E0.01200
G1 X138.799 Y96.458 E0.01177
G1 X138.581 Y96.764 E0.01178
G1 X138.359 Y96.984 E0.00980
M73 Q4 S5
G1 X138.110 Y97.166 E0.00966
G1 X137.774 Y97.332 E0.01176
G1 X137.414 Y97.434 E0.01171
G1 X137.033 Y97.469 E0.01202
G1 X135.014 Y97.469 E0.06331
G1 X134.752 Y97.123 F10800.000
G1 E-0.80000 F2100.000
G1 Z0.800 F10800.000
G1 X111.414 Y96.203
M73 P4 R5
G1 Z0.200
G1 E0.80000 F2100.000
;TYPE:Solid infill
;WIDTH:0.425791
G1 F1200.000
G1 X112.018 Y96.808 E0.02723
G1 X112.560 Y96.808 E0.01724
G1 X111.583 Y95.831 E0.04397
G1 X111.583 Y95.290 E0.01724
G1 X113.101 Y96.808 E0.06835
G1 X113.643 Y96.808 E0.01724
G1 X111.583 Y94.748 E0.09273
G1 X111.583 Y94.238 E0.01624
G1 X111.615 Y94.238 E0.00100
G1 X114.184 Y96.808 E0.11569
G1 X114.726 Y96.808 E0.01724
G1 X112.156 Y94.238 E0.11569
G1 X112.698 Y94.238 E0.01724
G1 X115.267 Y96.808 E0.11569
G1 X115.809 Y96.808 E0.01724
G1 X113.239 Y94.238 E0.11569
G1 X113.781 Y94.238 E0.01724
G1 X116.350 Y96.808 E0.11569
G1 X116.892 Y96.808 E0.01724
G1 X114.322 Y94.239 E0.11569
G1 X114.864 Y94.239 E0.01724
G1 X117.433 Y96.808 E0.11569
G1 X117.975 Y96.808 E0.01724
G1 X115.405 Y94.239 E0.11569
G1 X115.947 Y94.239 E0.01724
G1 X118.516 Y96.808 E0.11569
G1 X119.058 Y96.808 E0.01724
G1 X116.488 Y94.239 E0.11569
M73 Q5 S5
G1 X117.030 Y94.239 E0.01724
G1 X119.599 Y96.808 E0.11569
G1 X120.141 Y96.808 E0.01724
G1 X117.571 Y94.239 E0.11569
M73 P5 R5
G1 X118.113 Y94.239 E0.01724
G1 X120.682 Y96.808 E0.11568
G1 X121.224 Y96.808 E0.01724
G1 X118.654 Y94.239 E0.11568
G1 X119.196 Y94.239 E0.01724
G1 X121.765 Y96.808 E0.11568
G1 X122.307 Y96.808 E0.01724
G1 X119.737 Y94.239 E0.11568
G1 X120.279 Y94.239 E0.01724
G1 X122.848 Y96.808 E0.11568
G1 X123.390 Y96.808 E0.01724
G1 X120.820 Y94.239 E0.11568
G1 X121.362 Y94.239 E0.01724
G1 X123.931 Y96.808 E0.11568
G1 X124.473 Y96.808 E0.01724
G1 X121.903 Y94.239 E0.11568
G1 X122.445 Y94.239 E0.01724
G1 X125.014 Y96.808 E0.11568
G1 X125.555 Y96.808 E0.01724
G1 X122.986 Y94.239 E0.11568
G1 X123.528 Y94.239 E0.01724
G1 X126.097 Y96.809 E0.11568
G1 X126.638 Y96.809 E0.01724
G1 X124.069 Y94.239 E0.11568
G1 X124.611 Y94.239 E0.01724
G1 X127.180 Y96.809 E0.11568
M73 Q6 S5
G1 X127.721 Y96.809 E0.01724
G1 X125.152 Y94.239 E0.11568
G1 X125.694 Y94.239 E0.01724
G1 X128.263 Y96.809 E0.11568
M73 P6 R5
G1 X128.804 Y96.809 E0.01724
G1 X126.235 Y94.239 E0.11568
G1 X126.777 Y94.239 E0.01724
G1 X129.346 Y96.809 E0.11568
G1 X129.887 Y96.809 E0.01724
G1 X127.318 Y94.239 E0.11568
G1 X127.860 Y94.239 E0.01724
G1 X130.429 Y96.809 E0.11567
G1 X130.970 Y96.809 E0.01724
G1 X128.401 Y94.240 E0.11567
G1 X128.943 Y94.240 E0.01724
G1 X131.512 Y96.809 E0.11567
G1 X132.053 Y96.809 E0.01724
G1 X129.484 Y94.240 E0.11567
G1 X130.026 Y94.240 E0.01724
G1 X132.595 Y96.809 E0.11567
G1 X133.136 Y96.809 E0.01724
G1 X130.567 Y94.240 E0.11567
G1 X131.109 Y94.240 E0.01724
G1 X133.678 Y96.809 E0.11567
G1 X134.219 Y96.809 E0.01724
G1 X131.650 Y94.240 E0.11567
G1 X132.192 Y94.240 E0.01724
G1 X134.761 Y96.809 E0.11567
G1 X135.302 Y96.809 E0.01724
G1 X132.733 Y94.240 E0.11567
G1 X133.275 Y94.240 E0.01724
G1 X135.844 Y96.809 E0.11567
M73 Q7 S5
G1 X136.385 Y96.809 E0.01724
G1 X133.816 Y94.240 E0.11567
M73 P7 R5
G1 X134.358 Y94.240 E0.01724
G1 X136.927 Y96.809 E0.11567
G1 X137.293 Y96.782 E0.01170
G1 X137.409 Y96.750 E0.00382
G1 X134.899 Y94.240 E0.11299
G1 X135.441 Y94.240 E0.01724
G1 X137.786 Y96.585 E0.10559
G1 X137.930 Y96.480 E0.00567
G1 X138.077 Y96.335 E0.00658
G1 X135.982 Y94.240 E0.09431
G1 X136.524 Y94.240 E0.01724
G1 X138.284 Y96.000 E0.07926
G1 X138.332 Y95.896 E0.00366
G1 X138.399 Y95.574 E0.01049
G1 X137.065 Y94.240 E0.06004
G1 X137.379 Y94.283 E0.01009
G1 X137.613 Y94.365 E0.00789
G1 X137.831 Y94.490 E0.00801
G1 X138.002 Y94.636 E0.00714
G1 X138.500 Y95.133 E0.02241
G1 E-0.80000 F2100.000
G1 Z0.800 F10800.000
G1 X137.379 Y100.315
G1 Z0.200
G1 E0.80000 F2100.000
;TYPE:Perimeter
;WIDTH:0.42
G1 F1200.000
G1 X137.731 Y100.425 E0.01156
G1 X137.995 Y100.576 E0.00953
G1 X138.226 Y100.773 E0.00953
G1 X138.418 Y101.010 E0.00956
G1 X138.563 Y101.278 E0.00955
G1 X138.659 Y101.577 E0.00987
G1 X138.688 Y101.775 E0.00625
G1 X138.676 Y102.008 E0.00733
G1 X138.600 Y102.309 E0.00973
G1 X138.472 Y102.586 E0.00956
G1 X138.293 Y102.837 E0.00967
G1 X138.114 Y103.014 E0.00790
G1 X137.914 Y103.160 E0.00776
G1 X137.638 Y103.297 E0.00965
G1 X137.345 Y103.379 E0.00953
G1 X137.015 Y103.410 E0.01038
G1 X111.300 Y103.409 E0.80628
M73 Q8 S5
G1 X111.300 Y100.273 E0.09830
G1 X137.104 Y100.275 E0.80905
M73 P8 R5
G1 X137.320 Y100.307 E0.00685
G1 X137.374 Y99.933 F10800.000
;TYPE:External perimeter
G1 F1200.000
G1 X137.537 Y99.957 E0.00517
G1 X137.889 Y100.080 E0.01168
G1 X138.213 Y100.266 E0.01171
G1 X138.497 Y100.509 E0.01172
G1 X138.733 Y100.800 E0.01174
G1 X138.911 Y101.129 E0.01175
G1 X139.028 Y101.492 E0.01195
G1 X139.066 Y101.757 E0.00839
G1 X139.051 Y102.064 E0.00966
G1 X138.957 Y102.436 E0.01200
G1 X138.799 Y102.776 E0.01177
G1 X138.581 Y103.082 E0.01178
G1 X138.359 Y103.302 E0.00980
G1 X138.110 Y103.484 E0.00966
G1 X137.774 Y103.650 E0.01176
G1 X137.414 Y103.752 E0.01171
G1 X137.033 Y103.787 E0.01202
G1 X110.923 Y103.786 E0.81864
G1 X110.923 Y99.896 E0.12195
M73 Q9 S5
G1 X137.131 Y99.898 E0.82172
M73 P9 R5
G1 X137.315 Y99.925 E0.00582
G1 X137.442 Y100.084 F10800.000
G1 E-0.80000 F2100.000
G1 Z0.800 F10800.000
G1 X111.414 Y102.521
G1 Z0.200
G1 E0.80000 F2100.000
;TYPE:Solid infill
;WIDTH:0.425791
G1 F1200.000
G1 X112.018 Y103.126 E0.02723
G1 X112.560 Y103.126 E0.01724
G1 X111.583 Y102.149 E0.04397
G1 X111.583 Y101.608 E0.01724
G1 X113.101 Y103.126 E0.06835
G1 X113.643 Y103.126 E0.01724
G1 X111.583 Y101.066 E0.09273
G1 X111.583 Y100.556 E0.01624
G1 X111.615 Y100.556 E0.00100
G1 X114.184 Y103.126 E0.11569
G1 X114.726 Y103.126 E0.01724
G1 X112.156 Y100.556 E0.11569
G1 X112.698 Y100.556 E0.01724
G1 X115.267 Y103.126 E0.11569
G1 X115.809 Y103.126 E0.01724
G1 X113.239 Y100.556 E0.11569
G1 X113.781 Y100.556 E0.01724
G1 X116.350 Y103.126 E0.11569
M73 Q10 S5
G1 X116.892 Y103.126 E0.01724
G1 X114.322 Y100.557 E0.11569
G1 X114.864 Y100.557 E0.01724
M73 P10 R5
G1 X117.433 Y103.126 E0.11569
G1 X117.975 Y103.126 E0.01724
G1 X115.405 Y100.557 E0.11569
G1 X115.947 Y100.557 E0.01724
G1 X118.516 Y103.126 E0.11569
G1 X119.058 Y103.126 E0.01724
G1 X116.488 Y100.557 E0.11569
G1 X117.030 Y100.557 E0.01724
G1 X119.599 Y103.126 E0.11569
G1 X120.141 Y103.126 E0.01724
G1 X117.571 Y100.557 E0.11569
G1 X118.113 Y100.557 E0.01724
G1 X120.682 Y103.126 E0.11568
G1 X121.224 Y103.126 E0.01724
G1 X118.654 Y100.557 E0.11568
G1 X119.196 Y100.557 E0.01724
G1 X121.765 Y103.126 E0.11568
G1 X122.307 Y103.126 E0.01724
G1 X119.737 Y100.557 E0.11568
G1 X120.279 Y100.557 E0.01724
G1 X122.848 Y103.126 E0.11568
G1 X123.390 Y103.126 E0.01724
G1 X120.820 Y100.557 E0.11568
G1 X121.362 Y100.557 E0.01724
G1 X123.931 Y103.126 E0.11568
G1 X124.473 Y103.126 E0.01724
G1 X121.903 Y100.557 E0.11568
M73 Q11 S5
G1 X122.445 Y100.557 E0.01724
G1 X125.014 Y103.126 E0.11568
G1 X125.555 Y103.126 E0.01724
G1 X122.986 Y100.557 E0.11568
M73 P11 R5
G1 X123.528 Y100.557 E0.01724
G1 X126.097 Y103.127 E0.11568
G1 X126.638 Y103.127 E0.01724
G1 X124.069 Y100.557 E0.11568
G1 X124.611 Y100.557 E0.01724
G1 X127.180 Y103.127 E0.11568
G1 X127.721 Y103.127 E0.01724
G1 X125.152 Y100.557 E0.11568
G1 X125.694 Y100.557 E0.01724
G1 X128.263 Y103.127 E0.11568
G1 X128.804 Y103.127 E0.01724
G1 X126.235 Y100.557 E0.11568
G1 X126.777 Y100.557 E0.01724
G1 X129.346 Y103.127 E0.11568
G1 X129.887 Y103.127 E0.01724
G1 X127.318 Y100.557 E0.11568
G1 X127.860 Y100.557 E0.01724
G1 X130.429 Y103.127 E0.11567
G1 X130.970 Y103.127 E0.01724
G1 X128.401 Y100.558 E0.11567
G1 X128.943 Y100.558 E0.01724
G1 X131.512 Y103.127 E0.11567
G1 X132.053 Y103.127 E0.01724
G1 X129.484 Y100.558 E0.11567
G1 X130.026 Y100.558 E0.01724
G1 X132.595 Y103.127 E0.11567
M73 Q12 S5
G1 X133.136 Y103.127 E0.01724
G1 X130.567 Y100.558 E0.11567
G1 X131.109 Y100.558 E0.01724
G1 X133.678 Y103.127 E0.11567
M73 P12 R5
G1 X134.219 Y103.127 E0.01724
G1 X131.650 Y100.558 E0.11567
G1 X132.192 Y100.558 E0.01724
G1 X134.761 Y103.127 E0.11567
G1 X135.302 Y103.127 E0.01724
G1 X132.733 Y100.558 E0.11567
G1 X133.275 Y100.558 E0.01724
G1 X135.844 Y103.127 E0.11567
G1 X136.385 Y103.127 E0.01724
G1 X133.816 Y100.558 E0.11567
G1 X134.358 Y100.558 E0.01724
G1 X136.927 Y103.127 E0.11567
G1 X137.293 Y103.100 E0.01170
G1 X137.409 Y103.068 E0.00382
G1 X134.899 Y100.558 E0.11299
G1 X135.441 Y100.558 E0.01724
G1 X137.786 Y102.903 E0.10559
G1 X137.930 Y102.798 E0.00567
G1 X138.077 Y102.653 E0.00658
G1 X135.982 Y100.558 E0.09431
G1 X136.524 Y100.558 E0.01724
G1 X138.284 Y102.318 E0.07926
G1 X138.332 Y102.214 E0.00366
G1 X138.399 Y101.892 E0.01049
G1 X137.065 Y100.558 E0.06004
G1 X137.379 Y100.601 E0.01009
G1 X137.613 Y100.683 E0.00789
G1 X137.831 Y100.808 E0.00801
G1 X138.002 Y100.954 E0.00714
G1 X138.500 Y101.451 E0.02241
G1 E-0.80000 F2100.000
G1 Z0.800 F10800.000
G1 X137.621 Y106.704
G1 Z0.200
G1 E0.80000 F2100.000
;TYPE:Perimeter
;WIDTH:0.42
G1 F1200.000
G1 X137.731 Y106.743 E0.00366
G1 X137.995 Y106.894 E0.00953
G1 X138.226 Y107.091 E0.00953
G1 X138.418 Y107.328 E0.00956
G1 X138.563 Y107.596 E0.00955
G1 X138.659 Y107.895 E0.00987
G1 X138.688 Y108.093 E0.00625
G1 X138.676 Y108.326 E0.00733
G1 X138.600 Y108.627 E0.00973
G1 X138.472 Y108.904 E0.00956
G1 X138.293 Y109.155 E0.00967
G1 X138.114 Y109.332 E0.00790
G1 X137.914 Y109.478 E0.00776
G1 X137.638 Y109.615 E0.00965
G1 X137.345 Y109.697 E0.00953
G1 X137.015 Y109.728 E0.01038
G1 X111.300 Y109.727 E0.80628
M73 P13 R5
M73 Q13 S5
G1 X111.300 Y106.591 E0.09830
G1 X137.104 Y106.593 E0.80905
G1 X137.447 Y106.643 E0.01087
G1 X137.565 Y106.684 E0.00391
G1 X137.689 Y106.328 F10800.000
;TYPE:External perimeter
G1 F1200.000
G1 X137.889 Y106.398 E0.00663
G1 X138.213 Y106.584 E0.01171
G1 X138.497 Y106.827 E0.01172
G1 X138.733 Y107.118 E0.01174
G1 X138.911 Y107.447 E0.01175
G1 X139.028 Y107.810 E0.01195
G1 X139.066 Y108.075 E0.00839
G1 X139.051 Y108.382 E0.00966
G1 X138.957 Y108.754 E0.01200
G1 X138.799 Y109.094 E0.01177
G1 X138.581 Y109.400 E0.01178
G1 X138.359 Y109.620 E0.00980
G1 X138.110 Y109.802 E0.00966
G1 X137.774 Y109.968 E0.01176
G1 X137.414 Y110.070 E0.01171
G1 X137.033 Y110.105 E0.01202
G1 X110.923 Y110.104 E0.81864
M73 P14 R5
M73 Q14 S5
G1 X110.923 Y106.214 E0.12195
G1 X137.131 Y106.216 E0.82172
G1 X137.537 Y106.275 E0.01287
G1 X137.633 Y106.309 E0.00317
G1 X137.738 Y106.534 F10800.000
G1 E-0.80000 F2100.000
G1 Z0.800 F10800.000
G1 X111.414 Y108.839
G1 Z0.200
G1 E0.80000 F2100.000
;TYPE:Solid infill
;WIDTH:0.425791
G1 F1200.000
G1 X112.018 Y109.444 E0.02723
G1 X112.560 Y109.444 E0.01724
G1 X111.583 Y108.467 E0.04397
G1 X111.583 Y107.926 E0.01724
G1 X113.101 Y109.444 E0.06835
M73 Q15 S5
G1 X113.643 Y109.444 E0.01724
G1 X111.583 Y107.384 E0.09273
G1 X111.583 Y106.874 E0.01624
G1 X111.615 Y106.874 E0.00100
G1 X114.184 Y109.444 E0.11569
M73 P15 R5
G1 X114.726 Y109.444 E0.01724
G1 X112.156 Y106.874 E0.11569
G1 X112.698 Y106.874 E0.01724
G1 X115.267 Y109.444 E0.11569
G1 X115.809 Y109.444 E0.01724
G1 X113.239 Y106.874 E0.11569
G1 X113.781 Y106.874 E0.01724
G1 X116.350 Y109.444 E0.11569
G1 X116.892 Y109.444 E0.01724
G1 X114.322 Y106.875 E0.11569
G1 X114.864 Y106.875 E0.01724
G1 X117.433 Y109.444 E0.11569
G1 X117.975 Y109.444 E0.01724
G1 X115.405 Y106.875 E0.11569
G1 X115.947 Y106.875 E0.01724
G1 X118.516 Y109.444 E0.11569
G1 X119.058 Y109.444 E0.01724
G1 X116.488 Y106.875 E0.11569
G1 X117.030 Y106.875 E0.01724
G1 X119.599 Y109.444 E0.11569
G1 X120.141 Y109.444 E0.01724
G1 X117.571 Y106.875 E0.11569
G1 X118.113 Y106.875 E0.01724
G1 X120.682 Y109.444 E0.11568
G1 X121.224 Y109.444 E0.01724
G1 X118.654 Y106.875 E0.11568
G1 X119.196 Y106.875 E0.01724
M73 Q16 S5
G1 X121.765 Y109.444 E0.11568
G1 X122.307 Y109.444 E0.01724
G1 X119.737 Y106.875 E0.11568
G1 X120.279 Y106.875 E0.01724
G1 X122.848 Y109.444 E0.11568
M73 P16 R5
G1 X123.390 Y109.444 E0.01724
G1 X120.820 Y106.875 E0.11568
G1 X121.362 Y106.875 E0.01724
G1 X123.931 Y109.444 E0.11568
G1 X124.473 Y109.444 E0.01724
G1 X121.903 Y106.875 E0.11568
G1 X122.445 Y106.875 E0.01724
G1 X125.014 Y109.444 E0.11568
G1 X125.555 Y109.444 E0.01724
G1 X122.986 Y106.875 E0.11568
G1 X123.528 Y106.875 E0.01724
G1 X126.097 Y109.445 E0.11568
G1 X126.638 Y109.445 E0.01724
G1 X124.069 Y106.875 E0.11568
G1 X124.611 Y106.875 E0.01724
G1 X127.180 Y109.445 E0.11568
G1 X127.721 Y109.445 E0.01724
G1 X125.152 Y106.875 E0.11568
G1 X125.694 Y106.875 E0.01724
G1 X128.263 Y109.445 E0.11568
G1 X128.804 Y109.445 E0.01724
G1 X126.235 Y106.875 E0.11568
G1 X126.777 Y106.875 E0.01724
G1 X129.346 Y109.445 E0.11568
G1 X129.887 Y109.445 E0.01724
G1 X127.318 Y106.875 E0.11568
M73 Q17 S5
G1 X127.860 Y106.875 E0.01724
G1 X130.429 Y109.445 E0.11567
G1 X130.970 Y109.445 E0.01724
G1 X128.401 Y106.876 E0.11567
M73 P17 R5
G1 X128.943 Y106.876 E0.01724
G1 X131.512 Y109.445 E0.11567
G1 X132.053 Y109.445 E0.01724
G1 X129.484 Y106.876 E0.11567
G1 X130.026 Y106.876 E0.01724
G1 X132.595 Y109.445 E0.11567
G1 X133.136 Y109.445 E0.01724
G1 X130.567 Y106.876 E0.11567
G1 X131.109 Y106.876 E0.01724
G1 X133.678 Y109.445 E0.11567
G1 X134.219 Y109.445 E0.01724
G1 X131.650 Y106.876 E0.11567
G1 X132.192 Y106.876 E0.01724
G1 X134.761 Y109.445 E0.11567
G1 X135.302 Y109.445 E0.01724
G1 X132.733 Y106.876 E0.11567
