; generated by PrusaSlicer 2.2.0+win64 on 2020-08-13 at 16:38:27 UTC

; 

; external perimeters extrusion width = 0.60mm
; perimeters extrusion width = 0.50mm
; infill extrusion width = 0.50mm
; solid infill extrusion width = 0.50mm
; top infill extrusion width = 0.45mm
; first layer extrusion width = 0.42mm

M73 P0 R168
M73 Q0 S171
M201 X1000 Y1000 Z1000 E5000 ; sets maximum accelerations, mm/sec^2
M203 X200 Y200 Z12 E120 ; sets maximum feedrates, mm/sec
M204 P1250 R1250 T1250 ; sets acceleration (P, T) and retract acceleration (R), mm/sec^2
M205 X8.00 Y8.00 Z0.40 E1.50 ; sets the jerk limits, mm/sec
M205 S0 T0 ; sets the minimum extruding and travel feed rate, mm/sec
M107
M862.3 P "MK3S" ; printer model check
M862.1 P0.4 ; nozzle diameter check
M115 U3.8.0 ; tell printer latest fw version
G90 ; use absolute coordinates
M83 ; extruder relative mode
M104 S215 ; set extruder temp
M140 S60 ; set bed temp
M190 S60 ; wait for bed temp
M109 S215 ; wait for extruder temp
G28 W ; home all without mesh bed level
G80 ; mesh bed leveling
G1 Y-3.0 F1000.0 ; go outside print area
G92 E0.0
G1 X60.0 E9.0 F1000.0 ; intro line
M73 Q0 S171
M73 P0 R168
G1 X100.0 E12.5 F1000.0 ; intro line
G92 E0.0
M221 S95
G21 ; set units to millimeters
G90 ; use absolute coordinates
M83 ; use relative distances for extrusion
M900 K0.06 ; Filament gcode LA 1.5
M900 K30 ; Filament gcode LA 1.0
;BEFORE_LAYER_CHANGE
G92 E0.0
;0.2


G1 E-0.80000 F2100.00000
G1 Z0.600 F10800.000
;AFTER_LAYER_CHANGE
;0.2
G1 X35.838 Y59.177
G1 Z0.200
G1 E0.80000 F2100.00000
M204 S1000
G1 F1200.000
G1 X36.235 Y58.491 E0.02484
G1 X36.806 Y57.992 E0.02378
G1 X81.776 Y30.007 E1.66075
G1 X82.521 Y29.704 E0.02520
G1 X83.032 Y29.648 E0.01614
G1 X166.972 Y29.648 E2.63185
G1 X167.615 Y29.738 E0.02036
G1 X168.209 Y29.998 E0.02036
G1 X213.201 Y57.996 E1.66152
G1 X213.820 Y58.560 E0.02626
G1 X214.207 Y59.307 E0.02637
G1 X214.312 Y60.005 E0.02213
G1 X214.308 Y110.120 E1.57131
G1 X208.438 Y161.265 E1.61416
G1 X208.261 Y161.917 E0.02119
G1 X207.907 Y162.493 E0.02119
G1 X207.303 Y163.012 E0.02496
G1 X206.562 Y163.302 E0.02496
G1 X122.249 Y180.339 E2.69701
G1 X43.907 Y180.352 E2.45637
G1 X43.108 Y180.208 E0.02543
G1 X42.405 Y179.805 E0.02543
G1 X41.806 Y179.058 E0.03001
G1 X41.550 Y178.140 E0.02989
G1 X35.691 Y82.114 E3.01643
G1 X35.688 Y59.955 E0.69477
G1 X35.826 Y59.236 E0.02296
G1 E-0.80000 F2100.00000
G1 Z0.800 F10800.000
G1 X55.782 Y70.218
G1 Z0.200
G1 E0.80000 F2100.00000
G1 F1200.000
G1 X55.702 Y70.274 E0.00307
G1 X55.489 Y70.507 E0.00990
G1 X54.864 Y71.424 E0.03479
G1 X54.521 Y71.865 E0.01753
G1 X54.176 Y72.261 E0.01645
G1 X53.827 Y72.619 E0.01569
G1 X53.470 Y72.942 E0.01509
G1 X53.105 Y73.233 E0.01462
G1 X52.726 Y73.499 E0.01453
G1 X51.961 Y73.944 E0.02774
G1 X51.147 Y74.327 E0.02820
G1 X50.264 Y74.686 E0.02991
G1 X49.699 Y74.877 E0.01868
G1 X49.105 Y75.028 E0.01922
G1 X48.503 Y75.140 E0.01921
G1 X47.895 Y75.220 E0.01922
G1 X46.728 Y75.305 E0.03669
G1 X45.650 Y75.321 E0.03380
G1 X43.784 Y75.286 E0.05852
G1 X43.471 Y75.260 E0.00986
G1 X42.881 Y75.169 E0.01871
G1 X42.049 Y74.948 E0.02698
G1 X41.285 Y74.654 E0.02569
G1 X40.798 Y74.421 E0.01691
G1 X40.429 Y74.199 E0.01350
G1 X40.094 Y73.931 E0.01347
G1 X39.806 Y73.634 E0.01296
G1 X39.565 Y73.317 E0.01248
G1 X39.368 Y72.988 E0.01203
G1 X39.212 Y72.653 E0.01160
G1 X39.092 Y72.318 E0.01116
G1 X39.002 Y71.976 E0.01107
G1 X38.915 Y71.355 E0.01965
G1 X38.926 Y70.785 E0.01789
G1 X39.006 Y70.332 E0.01442
G1 X39.136 Y69.900 E0.01415
G1 X39.305 Y69.488 E0.01395
G1 X39.506 Y69.090 E0.01400
G1 X39.948 Y68.382 E0.02615
G1 X40.194 Y68.046 E0.01306
G1 X40.658 Y67.478 E0.02300
G1 X41.075 Y67.023 E0.01936
G1 X41.461 Y66.657 E0.01667
G1 X41.727 Y66.475 E0.01012
G1 X42.005 Y66.328 E0.00984
G1 X42.309 Y66.203 E0.01032
G1 X42.935 Y66.030 E0.02035
G1 X43.650 Y65.923 E0.02266
G1 X44.830 Y65.863 E0.03705
G1 X45.352 Y65.864 E0.01636
G1 X45.899 Y65.917 E0.01724
G1 X46.470 Y66.048 E0.01838
G1 X48.344 Y66.665 E0.06185
G1 X49.132 Y66.905 E0.02583
G1 X50.044 Y67.143 E0.02956
G1 X51.106 Y67.368 E0.03405
G1 X52.342 Y67.567 E0.03926
G1 X53.775 Y67.726 E0.04520
G1 X55.427 Y67.832 E0.05189
G1 X57.319 Y67.870 E0.05934
G1 X59.133 Y67.837 E0.05688
G1 X60.851 Y67.746 E0.05394
G1 X62.464 Y67.609 E0.05077
G1 X63.964 Y67.437 E0.04735
G1 X65.343 Y67.243 E0.04367
G1 X66.590 Y67.038 E0.03962
G1 X70.673 Y66.248 E0.13039
G1 X71.087 Y66.218 E0.01302
G1 X71.848 Y66.310 E0.02403
G1 X72.509 Y66.468 E0.02132
G1 X73.104 Y66.688 E0.01988
G1 X73.632 Y66.959 E0.01860
G1 X74.093 Y67.271 E0.01744
G1 X74.487 Y67.612 E0.01636
G1 X74.816 Y67.973 E0.01532
G1 X75.084 Y68.342 E0.01431
G1 X75.293 Y68.712 E0.01332
G1 X75.446 Y69.076 E0.01238
G1 X75.546 Y69.431 E0.01158
G1 X75.587 Y69.750 E0.01006
G1 X75.604 Y70.554 E0.02523
G1 X75.592 Y71.237 E0.02140
G1 X75.553 Y71.836 E0.01885
G1 X75.486 Y72.363 E0.01666
G1 X75.393 Y72.827 E0.01484
G1 X75.270 Y73.237 E0.01341
G1 X75.118 Y73.599 E0.01231
G1 X74.934 Y73.915 E0.01146
G1 X74.724 Y74.184 E0.01070
G1 X74.488 Y74.413 E0.01030
G1 X74.049 Y74.720 E0.01681
G1 X73.465 Y75.010 E0.02043
G1 X72.836 Y75.238 E0.02097
G1 X72.180 Y75.413 E0.02129
G1 X71.510 Y75.545 E0.02142
G1 X70.839 Y75.641 E0.02127
G1 X69.547 Y75.749 E0.04065
G1 X68.435 Y75.779 E0.03488
G1 X67.355 Y75.758 E0.03386
G1 X66.777 Y75.710 E0.01821
G1 X66.215 Y75.617 E0.01786
G1 X65.683 Y75.489 E0.01716
G1 X65.184 Y75.332 E0.01641
G1 X64.719 Y75.156 E0.01559
G1 X64.285 Y74.964 E0.01487
G1 X63.552 Y74.575 E0.02603
G1 X62.781 Y74.068 E0.02894
G1 X62.199 Y73.597 E0.02345
G1 X61.819 Y73.259 E0.01597
G1 X61.197 Y72.638 E0.02756
G1 X60.928 Y72.335 E0.01270
G1 X60.503 Y71.798 E0.02147
G1 X60.186 Y71.328 E0.01777
G1 X59.723 Y70.562 E0.02807
G1 X59.594 Y70.407 E0.00633
G1 X59.465 Y70.291 E0.00542
G1 X59.334 Y70.206 E0.00491
G1 X59.024 Y70.089 E0.01040
G1 X58.538 Y70.020 E0.01537
G1 X57.913 Y70.001 E0.01962
G1 X56.686 Y70.017 E0.03847
G1 X56.344 Y70.050 E0.01077
G1 X56.086 Y70.099 E0.00822
G1 X55.836 Y70.191 E0.00837
G1 X55.589 Y69.893 F10800.000
G1 F1200.000
G1 X55.452 Y69.990 E0.00527
G1 X55.192 Y70.272 E0.01201
G1 X54.559 Y71.202 E0.03527
G1 X54.229 Y71.625 E0.01684
G1 X53.899 Y72.006 E0.01579
G1 X53.565 Y72.348 E0.01499
G1 X53.226 Y72.655 E0.01435
G1 X52.879 Y72.931 E0.01389
G1 X52.522 Y73.181 E0.01367
G1 X51.786 Y73.610 E0.02673
G1 X50.996 Y73.981 E0.02736
G1 X50.132 Y74.333 E0.02924
G1 X49.592 Y74.515 E0.01786
G1 X49.024 Y74.659 E0.01838
G1 X48.444 Y74.767 E0.01852
G1 X47.857 Y74.845 E0.01855
G1 X46.712 Y74.928 E0.03601
G1 X45.651 Y74.944 E0.03326
G1 X43.803 Y74.909 E0.05795
G1 X43.515 Y74.886 E0.00907
G1 X42.958 Y74.800 E0.01765
G1 X42.166 Y74.589 E0.02571
G1 X41.434 Y74.307 E0.02459
G1 X40.977 Y74.088 E0.01588
G1 X40.645 Y73.889 E0.01215
G1 X40.348 Y73.651 E0.01193
G1 X40.093 Y73.388 E0.01149
G1 X39.878 Y73.106 E0.01112
G1 X39.702 Y72.811 E0.01078
G1 X39.561 Y72.509 E0.01045
G1 X39.452 Y72.206 E0.01010
G1 X39.372 Y71.902 E0.00985
G1 X39.292 Y71.333 E0.01801
G1 X39.302 Y70.822 E0.01603
G1 X39.373 Y70.419 E0.01281
G1 X39.492 Y70.026 E0.01288
G1 X39.648 Y69.645 E0.01292
G1 X39.835 Y69.275 E0.01299
G1 X40.261 Y68.594 E0.02518
G1 X40.492 Y68.277 E0.01231
G1 X40.944 Y67.725 E0.02235
G1 X41.344 Y67.287 E0.01862
G1 X41.698 Y66.951 E0.01530
G1 X41.923 Y66.798 E0.00851
G1 X42.165 Y66.669 E0.00860
G1 X42.431 Y66.560 E0.00903
G1 X43.013 Y66.400 E0.01893
G1 X43.687 Y66.298 E0.02137
G1 X44.839 Y66.240 E0.03616
G1 X45.333 Y66.241 E0.01549
G1 X45.838 Y66.289 E0.01590
G1 X46.369 Y66.412 E0.01707
G1 X48.230 Y67.025 E0.06144
G1 X49.029 Y67.268 E0.02620
G1 X49.957 Y67.510 E0.03007
G1 X51.037 Y67.739 E0.03462
G1 X52.292 Y67.940 E0.03984
G1 X53.742 Y68.102 E0.04577
G1 X55.411 Y68.208 E0.05242
G1 X57.319 Y68.247 E0.05983
G1 X59.146 Y68.214 E0.05731
G1 X60.877 Y68.122 E0.05433
G1 X62.501 Y67.984 E0.05113
G1 X64.012 Y67.811 E0.04768
G1 X65.400 Y67.615 E0.04396
G1 X66.657 Y67.409 E0.03992
G1 X70.723 Y66.622 E0.12985
G1 X71.078 Y66.597 E0.01117
G1 X71.781 Y66.682 E0.02221
G1 X72.400 Y66.830 E0.01994
G1 X72.952 Y67.034 E0.01846
G1 X73.440 Y67.284 E0.01717
G1 X73.863 Y67.570 E0.01602
G1 X74.223 Y67.883 E0.01496
G1 X74.524 Y68.211 E0.01396
G1 X74.766 Y68.546 E0.01297
G1 X74.954 Y68.879 E0.01197
G1 X75.090 Y69.201 E0.01096
G1 X75.176 Y69.507 E0.00997
G1 X75.211 Y69.778 E0.00856
G1 X75.227 Y70.555 E0.02437
G1 X75.215 Y71.221 E0.02089
G1 X75.177 Y71.800 E0.01821
G1 X75.114 Y72.303 E0.01587
G1 X75.026 Y72.736 E0.01387
G1 X74.915 Y73.110 E0.01222
G1 X74.780 Y73.430 E0.01091
G1 X74.621 Y73.703 E0.00989
G1 X74.443 Y73.931 E0.00908
G1 X74.248 Y74.121 E0.00854
G1 X73.856 Y74.394 E0.01497
G1 X73.317 Y74.663 E0.01888
G1 X72.723 Y74.878 E0.01979
G1 X72.095 Y75.045 E0.02038
G1 X71.447 Y75.173 E0.02072
G1 X70.793 Y75.267 E0.02071
G1 X69.529 Y75.373 E0.03976
G1 X68.434 Y75.402 E0.03437
G1 X67.375 Y75.382 E0.03321
G1 X66.823 Y75.335 E0.01735
G1 X66.290 Y75.247 E0.01695
G1 X65.784 Y75.125 E0.01633
G1 X65.307 Y74.976 E0.01566
G1 X64.862 Y74.807 E0.01491
G1 X64.450 Y74.624 E0.01413
G1 X63.744 Y74.251 E0.02505
G1 X63.004 Y73.763 E0.02779
G1 X62.443 Y73.310 E0.02260
G1 X62.077 Y72.984 E0.01535
G1 X61.471 Y72.379 E0.02686
G1 X61.217 Y72.093 E0.01200
G1 X60.808 Y71.575 E0.02069
G1 X60.504 Y71.125 E0.01704
G1 X60.031 Y70.343 E0.02866
G1 X59.866 Y70.145 E0.00808
G1 X59.696 Y69.991 E0.00719
G1 X59.516 Y69.874 E0.00671
G1 X59.321 Y69.785 E0.00674
G1 X59.106 Y69.720 E0.00705
G1 X58.571 Y69.643 E0.01694
G1 X57.916 Y69.624 E0.02054
G1 X56.665 Y69.640 E0.03921
G1 X56.290 Y69.676 E0.01182
G1 X55.993 Y69.733 E0.00948
G1 X55.765 Y69.806 E0.00753
G1 X55.643 Y69.866 E0.00426
G1 X55.591 Y70.061 F10800.000
G1 E-0.80000 F2100.00000
G1 Z0.800 F10800.000
G1 X38.852 Y60.795
G1 Z0.200
G1 E0.80000 F2100.00000
G1 F1200.000
G1 X76.245 Y60.795 E1.17245
G1 X76.245 Y81.205 E0.63991
G1 X38.852 Y81.205 E1.17245
G1 X38.852 Y60.855 E0.63803
G1 X38.475 Y60.418 F10800.000
G1 F1200.000
G1 X76.622 Y60.418 E1.19609
G1 X76.622 Y81.582 E0.66356
G1 X38.475 Y81.582 E1.19609
G1 X38.475 Y60.478 E0.66168
G1 X38.869 Y60.486 F10800.000
G1 E-0.80000 F2100.00000
G1 Z0.800 F10800.000
G1 X39.609 Y68.712
G1 Z0.200
G1 E0.80000 F2100.00000
G1 F1200.000
G1 X39.134 Y68.238 E0.02120
G1 X39.134 Y67.700 E0.01700
G1 X39.692 Y68.258 E0.02495
G1 X39.918 Y67.945 E0.01218
G1 X39.134 Y67.162 E0.03501
G1 X39.134 Y66.624 E0.01700
G1 X40.156 Y67.646 E0.04567
G1 X40.398 Y67.350 E0.01208
G1 X39.134 Y66.087 E0.05649
G1 X39.134 Y65.549 E0.01700
G1 X40.652 Y67.066 E0.06785
G1 X40.912 Y66.788 E0.01203
G1 X39.134 Y65.011 E0.07946
G1 X39.134 Y64.473 E0.01700
G1 X41.187 Y66.526 E0.09179
G1 X41.282 Y66.436 E0.00415
G1 X41.492 Y66.293 E0.00802
G1 X39.134 Y63.936 E0.10541
G1 X39.134 Y63.398 E0.01700
G1 X41.834 Y66.098 E0.12072
G1 X42.211 Y65.937 E0.01296
G1 X39.134 Y62.860 E0.13758
G1 X39.134 Y62.322 E0.01700
G1 X42.632 Y65.820 E0.15640
G1 X42.876 Y65.753 E0.00800
G1 X43.073 Y65.723 E0.00630
G1 X39.134 Y61.785 E0.17611
G1 X39.134 Y61.247 E0.01700
G1 X43.541 Y65.653 E0.19702
G1 X44.045 Y65.620 E0.01598
G1 X39.504 Y61.078 E0.20306
G1 X40.041 Y61.078 E0.01700
G1 X44.557 Y65.594 E0.20190
G1 X45.081 Y65.580 E0.01659
G1 X40.579 Y61.078 E0.20131
G1 X41.117 Y61.078 E0.01700
G1 X45.647 Y65.608 E0.20254
G1 X45.944 Y65.637 E0.00946
G1 X46.293 Y65.717 E0.01133
G1 X41.655 Y61.078 E0.20743
G1 X42.192 Y61.078 E0.01700
G1 X47.058 Y65.944 E0.21756
G1 X47.860 Y66.208 E0.02669
G1 X42.730 Y61.078 E0.22937
G1 X43.268 Y61.078 E0.01700
G1 X48.653 Y66.464 E0.24081
M73 Q0 S170
M73 P0 R167
G1 X49.414 Y66.686 E0.02505
G1 X43.806 Y61.078 E0.25077
G1 X44.343 Y61.078 E0.01700
G1 X50.139 Y66.874 E0.25917
G1 X50.822 Y67.019 E0.02204
G1 X44.881 Y61.078 E0.26563
G1 X45.419 Y61.078 E0.01700
G1 X51.483 Y67.142 E0.27114
G1 X52.123 Y67.245 E0.02052
G1 X45.957 Y61.078 E0.27575
G1 X46.494 Y61.078 E0.01700
G1 X52.743 Y67.327 E0.27939
G1 X53.348 Y67.394 E0.01924
G1 X47.032 Y61.078 E0.28239
G1 X47.570 Y61.078 E0.01700
G1 X53.945 Y67.453 E0.28505
G1 X54.519 Y67.490 E0.01820
G1 X48.108 Y61.078 E0.28670
G1 X48.645 Y61.078 E0.01700
G1 X55.094 Y67.527 E0.28834
G1 X55.658 Y67.553 E0.01786
G1 X49.183 Y61.078 E0.28953
G1 X49.721 Y61.078 E0.01700
G1 X56.207 Y67.564 E0.29003
G1 X56.756 Y67.576 E0.01736
G1 X50.259 Y61.078 E0.29052
G1 X50.796 Y61.078 E0.01700
G1 X57.305 Y67.587 E0.29102
G1 X57.834 Y67.578 E0.01672
G1 X51.334 Y61.078 E0.29062
G1 X51.872 Y61.078 E0.01700
G1 X58.362 Y67.568 E0.29019
G1 X58.890 Y67.559 E0.01670
G1 X52.410 Y61.078 E0.28976
G1 X52.947 Y61.078 E0.01700
G1 X59.408 Y67.539 E0.28890
G1 X59.919 Y67.512 E0.01617
G1 X53.485 Y61.078 E0.28769
G1 X54.023 Y61.078 E0.01700
G1 X60.430 Y67.485 E0.28648
G1 X60.937 Y67.455 E0.01607
G1 X54.561 Y61.078 E0.28512
G1 X55.098 Y61.078 E0.01700
G1 X61.433 Y67.413 E0.28324
G1 X61.928 Y67.371 E0.01573
G1 X55.636 Y61.078 E0.28135
G1 X56.174 Y61.078 E0.01700
G1 X62.424 Y67.328 E0.27947
G1 X62.907 Y67.273 E0.01536
G1 X56.712 Y61.078 E0.27701
G1 X57.249 Y61.078 E0.01700
G1 X63.389 Y67.218 E0.27454
G1 X63.872 Y67.163 E0.01536
G1 X57.787 Y61.078 E0.27208
G1 X58.325 Y61.078 E0.01700
G1 X64.344 Y67.098 E0.26916
G1 X64.816 Y67.031 E0.01505
G1 X58.863 Y61.078 E0.26619
G1 X59.400 Y61.078 E0.01700
G1 X65.287 Y66.965 E0.26322
G1 X65.749 Y66.889 E0.01481
G1 X59.938 Y61.078 E0.25984
G1 X60.476 Y61.078 E0.01700
G1 X66.211 Y66.814 E0.25645
G1 X66.670 Y66.734 E0.01472
G1 X61.014 Y61.078 E0.25291
G1 X61.551 Y61.078 E0.01700
G1 X67.120 Y66.647 E0.24901
G1 X67.571 Y66.560 E0.01451
G1 X62.089 Y61.078 E0.24512
G1 X62.627 Y61.078 E0.01700
G1 X68.021 Y66.473 E0.24122
G1 X68.472 Y66.386 E0.01451
G1 X63.165 Y61.078 E0.23732
G1 X63.702 Y61.078 E0.01700
G1 X68.923 Y66.299 E0.23342
G1 X69.373 Y66.211 E0.01451
G1 X64.240 Y61.078 E0.22952
G1 X64.778 Y61.078 E0.01700
G1 X69.824 Y66.124 E0.22563
G1 X70.274 Y66.037 E0.01451
G1 X65.316 Y61.078 E0.22173
G1 X65.853 Y61.078 E0.01700
G1 X70.735 Y65.960 E0.21828
G1 X71.094 Y65.934 E0.01139
G1 X71.268 Y65.955 E0.00553
G1 X66.391 Y61.078 E0.21805
G1 X66.929 Y61.078 E0.01700
G1 X71.880 Y66.029 E0.22137
G1 X72.584 Y66.195 E0.02287
G1 X67.467 Y61.078 E0.22881
G1 X68.004 Y61.078 E0.01700
G1 X73.498 Y66.572 E0.24565
G1 X73.776 Y66.715 E0.00989
G1 X74.265 Y67.046 E0.01866
G1 X74.685 Y67.409 E0.01755
G1 X75.036 Y67.794 E0.01648
G1 X75.322 Y68.190 E0.01544
G1 X75.572 Y68.646 E0.01644
G1 X75.962 Y69.036 E0.01747
G1 X75.962 Y68.499 E0.01700
G1 X68.542 Y61.078 E0.33180
G1 X69.080 Y61.078 E0.01700
G1 X75.962 Y67.961 E0.30775
G1 X75.962 Y67.423 E0.01700
G1 X69.618 Y61.078 E0.28371
G1 X70.155 Y61.078 E0.01700
G1 X75.962 Y66.885 E0.25966
G1 X75.962 Y66.348 E0.01700
G1 X70.693 Y61.078 E0.23562
G1 X71.231 Y61.078 E0.01700
G1 X75.962 Y65.810 E0.21157
G1 X75.962 Y65.272 E0.01700
G1 X71.769 Y61.078 E0.18753
G1 X72.306 Y61.078 E0.01700
G1 X75.962 Y64.734 E0.16348
G1 X75.962 Y64.197 E0.01700
G1 X72.844 Y61.078 E0.13944
G1 X73.382 Y61.078 E0.01700
G1 X75.962 Y63.659 E0.11539
G1 X75.962 Y63.121 E0.01700
G1 X73.920 Y61.078 E0.09135
G1 X74.457 Y61.078 E0.01700
G1 X75.962 Y62.583 E0.06730
G1 X75.962 Y62.046 E0.01700
G1 X74.995 Y61.078 E0.04326
G1 X75.533 Y61.078 E0.01700
G1 X76.132 Y61.678 E0.02680
G1 E-0.80000 F2100.00000
G1 Z0.800 F10800.000
G1 X75.893 Y69.370
G1 Z0.200
G1 E0.80000 F2100.00000
G1 F1200.000
G1 X75.916 Y69.733 E0.00798
G1 X75.925 Y70.556 E0.01808
G1 X75.918 Y71.254 E0.01604
G1 X75.898 Y71.874 E0.01640
G1 X75.880 Y72.161 E0.00794
G1 X76.132 Y73.056 F10800.000
G1 F1200.000
G1 X75.718 Y72.643 E0.01842
G1 X75.614 Y73.074 E0.01396
G1 X75.962 Y73.422 E0.01550
G1 X75.962 Y73.958 E0.01685
G1 X75.478 Y73.473 E0.02157
G1 X75.307 Y73.837 E0.01267
G1 X75.962 Y74.493 E0.02920
G1 X75.962 Y75.028 E0.01685
G1 X75.098 Y74.164 E0.03847
G1 X74.852 Y74.454 E0.01196
G1 X75.962 Y75.564 E0.04942
G1 X75.962 Y76.099 E0.01685
G1 X74.567 Y74.703 E0.06214
G1 X74.251 Y74.923 E0.01210
G1 X75.962 Y76.634 E0.07618
G1 X75.962 Y77.170 E0.01685
G1 X73.901 Y75.109 E0.09175
G1 X73.541 Y75.283 E0.01262
G1 X75.962 Y77.705 E0.10781
G1 X75.962 Y78.241 E0.01685
G1 X73.147 Y75.426 E0.12531
G1 X72.742 Y75.556 E0.01340
G1 X75.962 Y78.776 E0.14337
G1 X75.962 Y79.311 E0.01685
G1 X72.319 Y75.668 E0.16218
G1 X71.877 Y75.761 E0.01424
