; G-Code generated by Simplify3D(R) Version 4.1.2
; Nov 9, 2019 at 2:51:33 PM
; Settings Summary
;   processName,Process1
;   applyToModels,Torch Flame A,Torch Flame A(2),Torch Flame A(3),Torch Flame A(2)(2),Torch Flame A(4),Torch Flame A(2)(3),Torch Flame A(5),Torch Flame A(2)(4)
;   profileName,Prusa Research Original Prusa i3 MK3
;   profileVersion,2019-11-09 13:51:17
;   baseProfile,
;   printMaterial,PLA
;   printQuality,Medium
;   printExtruders,
;   extruderName,Primary Extruder
;   extruderToolheadNumber,0
;   extruderDiameter,0.4
;   extruderAutoWidth,0
;   extruderWidth,0.4
;   extrusionMultiplier,1
;   extruderUseRetract,1
;   extruderRetractionDistance,1
;   extruderExtraRestartDistance,0
;   extruderRetractionZLift,0
;   extruderRetractionSpeed,2400
;   extruderUseCoasting,1
;   extruderCoastingDistance,0.2
;   extruderUseWipe,1
;   extruderWipeDistance,2
;   primaryExtruder,0
;   layerHeight,0.2
;   topSolidLayers,3
;   bottomSolidLayers,3
;   perimeterOutlines,2
;   printPerimetersInsideOut,0
;   startPointOption,2
;   startPointOriginX,0
;   startPointOriginY,0
;   sequentialIslands,0
;   spiralVaseMode,0
;   firstLayerHeightPercentage,150
;   firstLayerWidthPercentage,100
;   firstLayerUnderspeed,0.5
;   useRaft,0
;   raftExtruder,0
;   raftTopLayers,2
;   raftBaseLayers,1
;   raftOffset,3
;   raftSeparationDistance,0.14
;   raftTopInfill,100
;   aboveRaftSpeedMultiplier,0.3
;   useSkirt,0
;   skirtExtruder,0
;   skirtLayers,1
;   skirtOutlines,3
;   skirtOffset,0
;   usePrimePillar,0
;   primePillarExtruder,999
;   primePillarWidth,12
;   primePillarLocation,7
;   primePillarSpeedMultiplier,1
;   useOozeShield,0
;   oozeShieldExtruder,999
;   oozeShieldOffset,2
;   oozeShieldOutlines,1
;   oozeShieldSidewallShape,1
;   oozeShieldSidewallAngle,30
;   oozeShieldSpeedMultiplier,1
;   infillExtruder,0
;   internalInfillPattern,Rectilinear
;   externalInfillPattern,Rectilinear
;   infillPercentage,15
;   outlineOverlapPercentage,20
;   infillExtrusionWidthPercentage,100
;   minInfillLength,5
;   infillLayerInterval,1
;   internalInfillAngles,45,-45
;   overlapInternalInfillAngles,0
;   externalInfillAngles,45,-45
;   generateSupport,0
;   supportExtruder,0
;   supportInfillPercentage,10
;   supportExtraInflation,0
;   supportBaseLayers,0
;   denseSupportExtruder,0
;   denseSupportLayers,0
;   denseSupportInfillPercentage,70
;   supportLayerInterval,1
;   supportHorizontalPartOffset,0.3
;   supportUpperSeparationLayers,1
;   supportLowerSeparationLayers,1
;   supportType,0
;   supportGridSpacing,4
;   maxOverhangAngle,45
;   supportAngles,0
;   temperatureName,Primary Extruder,Heated Bed
;   temperatureNumber,0,0
;   temperatureSetpointCount,1,1
;   temperatureSetpointLayers,1,1
;   temperatureSetpointTemperatures,200,60
;   temperatureStabilizeAtStartup,1,1
;   temperatureHeatedBed,0,1
;   fanLayers,1,2
;   fanSpeeds,0,100
;   blipFanToFullPower,0
;   adjustSpeedForCooling,1
;   minSpeedLayerTime,15
;   minCoolingSpeedSlowdown,20
;   increaseFanForCooling,0
;   minFanLayerTime,45
;   maxCoolingFanSpeed,100
;   increaseFanForBridging,0
;   bridgingFanSpeed,100
;   use5D,1
;   relativeEdistances,0
;   allowEaxisZeroing,1
;   independentExtruderAxes,0
;   includeM10123,0
;   stickySupport,1
;   applyToolheadOffsets,0
;   gcodeXoffset,0
;   gcodeYoffset,0
;   gcodeZoffset,0
;   overrideMachineDefinition,1
;   machineTypeOverride,0
;   strokeXoverride,250
;   strokeYoverride,210
;   strokeZoverride,210
;   originOffsetXoverride,0
;   originOffsetYoverride,0
;   originOffsetZoverride,0
;   homeXdirOverride,-1
;   homeYdirOverride,-1
;   homeZdirOverride,-1
;   flipXoverride,1
;   flipYoverride,-1
;   flipZoverride,1
;   toolheadOffsets,0,0|0,0|0,0|0,0|0,0|0,0
;   overrideFirmwareConfiguration,1
;   firmwareTypeOverride,RepRap (Marlin/Repetier/Sprinter)
;   GPXconfigOverride,r2
;   baudRateOverride,115200
;   overridePrinterModels,1
;   printerModelsOverride
;   startingGcode,M115 U3.0.7 ; use the latest firmware version,G28 W ; home all axes without mesh bed leveling,G80 ; run mesh bed leveling routine,G1 Y-3.0 F1000.0 ; prepare to prime,G92 E0 ; reset extrusion distance,G1 X60.0 E9.0  F1000.0 ; priming,G1 X100.0 E12.5  F1000.0 ; priming
;   layerChangeGcode,
;   retractionGcode,
;   toolChangeGcode,
;   endingGcode,G4 ; wait,M106 S0 ; turn off cooling fan,M104 S0 ; turn off extruder,M140 S0 ; turn off bed,G1 X0 Y200 ; part removal,M84 ; disable motors
;   exportFileFormat,gcode
;   celebration,0
;   celebrationSong,Random Song
;   postProcessing,
;   defaultSpeed,4800
;   outlineUnderspeed,0.5
;   solidInfillUnderspeed,0.8
;   supportUnderspeed,0.8
;   rapidXYspeed,12000
;   rapidZspeed,1002
;   minBridgingArea,50
;   bridgingExtraInflation,0
;   bridgingExtrusionMultiplier,1
;   bridgingSpeedMultiplier,1
;   useFixedBridgingAngle,0
;   fixedBridgingAngle,0
;   applyBridgingToPerimeters,0
;   filamentDiameters,1.75|1.75|1.75|1.75|1.75|1.75
;   filamentPricesPerKg,46|46|46|46|46|46
;   filamentDensities,1.25|1.25|1.25|1.25|1.25|1.25
;   useMinPrintHeight,0
;   minPrintHeight,0
;   useMaxPrintHeight,0
;   maxPrintHeight,0
;   useDiaphragm,0
;   diaphragmLayerInterval,20
;   robustSlicing,1
;   mergeAllIntoSolid,0
;   onlyRetractWhenCrossingOutline,1
;   retractBetweenLayers,1
;   useRetractionMinTravel,0
;   retractionMinTravel,3
;   retractWhileWiping,1
;   onlyWipeOutlines,1
;   avoidCrossingOutline,0
;   maxMovementDetourFactor,3
;   toolChangeRetractionDistance,12
;   toolChangeExtraRestartDistance,-0.5
;   toolChangeRetractionSpeed,600
;   externalThinWallType,1
;   internalThinWallType,2
;   thinWallAllowedOverlapPercentage,25
;   singleExtrusionMinLength,1
;   singleExtrusionMinPrintingWidthPercentage,50
;   singleExtrusionMaxPrintingWidthPercentage,200
;   singleExtrusionEndpointExtension,0.2
;   horizontalSizeCompensation,0
G90
M82
M106 S0
M140 S60
M190 S60
M104 S200 T0
M109 S200 T0
M115 U3.0.7 ; use the latest firmware version
G28 W ; home all axes without mesh bed leveling
G80 ; run mesh bed leveling routine
G1 Y-3.0 F1000.0 ; prepare to prime
G92 E0 ; reset extrusion distance
G1 X60.0 E9.0  F1000.0 ; priming
G1 X100.0 E12.5  F1000.0 ; priming
; process Process1
; layer 1, Z = 0.300
T0
G92 E0.0000
G1 E-1.0000 F2400
; feature outer perimeter
; tool H0.300 W0.400
G1 Z0.300 F1002
G1 X95.572 Y89.341 F12000
G1 E0.0000 F2400
G92 E0.0000
G1 X96.955 Y87.947 E0.0980 F1200
G1 X98.436 Y86.703 E0.1945
G1 X99.500 Y86.021 E0.2575
G1 X101.083 Y85.324 E0.3438
G1 X101.735 Y84.927 E0.3819
G1 X102.136 Y84.351 E0.4169
G1 X102.098 Y83.582 E0.4553
G1 X101.957 Y83.027 E0.4839
G1 X102.547 Y83.021 E0.5133
G1 X103.378 Y83.258 E0.5564
G1 X104.168 Y83.644 E0.6003
G1 X104.848 Y84.072 E0.6403
G1 X105.669 Y84.657 E0.6906
G1 X110.205 Y84.659 E0.9169
G1 X110.565 Y84.873 E0.9378
G1 X110.563 Y93.095 E1.3480
G1 X110.204 Y93.309 E1.3688
G1 X105.740 Y93.302 E1.5915
G1 X104.691 Y93.185 E1.6442
G1 X103.692 Y93.159 E1.6940
G1 X102.490 Y93.239 E1.7541
G1 X101.165 Y93.489 E1.8214
G1 X100.275 Y93.804 E1.8685
G1 X100.589 Y93.253 E1.9001
G1 X100.685 Y92.667 E1.9298
G1 X100.484 Y92.167 E1.9567
G1 X100.030 Y91.822 E1.9851
G1 X99.395 Y91.629 E2.0182
G1 X98.319 Y91.556 E2.0720
G1 X96.803 Y91.615 E2.1477
G1 X95.393 Y91.792 E2.2186
G1 X94.161 Y92.031 E2.2812
G1 X93.410 Y92.227 E2.3200
G1 X93.292 Y92.044 E2.3308
G1 X94.216 Y90.897 E2.4043
G1 X95.441 Y89.492 E2.4973
G1 X95.572 Y89.341 F1200
G1 X96.955 Y87.947 F1200
G1 X96.983 Y87.924
; feature inner perimeter
G1 X97.227 Y88.242 F12000
G92 E0.0000
G1 X98.674 Y87.025 E0.0943 F1800
G1 X99.690 Y86.375 E0.1545
G1 X101.269 Y85.680 E0.2406
G1 X102.015 Y85.225 E0.2842
G1 X102.542 Y84.468 E0.3302
G1 X102.490 Y83.421 E0.3825
G1 X103.234 Y83.633 E0.4211
G1 X103.973 Y83.994 E0.4621
G1 X104.625 Y84.404 E0.5006
G1 X105.541 Y85.057 E0.5567
G1 X110.165 Y85.059 E0.7873
G1 X110.163 Y92.909 E1.1790
G1 X105.763 Y92.902 E1.3985
G1 X104.718 Y92.786 E1.4509
G1 X103.684 Y92.758 E1.5025
G1 X102.440 Y92.841 E1.5648
G1 X101.018 Y93.110 E1.6369
G1 X101.098 Y92.622 E1.6616
G1 X100.814 Y91.915 E1.6996
G1 X100.215 Y91.460 E1.7371
G1 X99.468 Y91.233 E1.7761
G1 X98.325 Y91.155 E1.8332
G1 X96.770 Y91.216 E1.9109
G1 X95.330 Y91.397 E1.9833
G1 X94.141 Y91.627 E2.0437
G1 X94.523 Y91.154 E2.0741
G1 X95.865 Y89.614 E2.1760
G1 X97.086 Y88.384 E2.2624
G1 X97.227 Y88.242 F1800
; feature solid layer
G1 X95.118 Y90.957 F12000
G92 E0.0000
G1 X95.248 Y91.087 E0.0091 F1920
G1 X95.280 Y91.080 E0.0108
G1 X95.748 Y91.022 E0.0343
G1 X95.382 Y90.655 E0.0602
G1 X95.645 Y90.353 E0.0802
G1 X96.251 Y90.958 E0.1229
G1 X96.744 Y90.896 E0.1477
G1 X96.754 Y90.896 E0.1482
G1 X95.909 Y90.051 E0.2078
G1 X96.100 Y89.832 E0.2223
G1 X96.177 Y89.754 E0.2278
G1 X97.298 Y90.875 E0.3069
G1 X97.843 Y90.854 E0.3341
G1 X96.459 Y89.470 E0.4318
G1 X96.741 Y89.186 E0.4517
G1 X98.394 Y90.839 E0.5684
G1 X99.001 Y90.881 E0.5988
G1 X97.022 Y88.902 E0.7384
G1 X97.304 Y88.618 E0.7583
G1 X99.636 Y90.950 E0.9229
G1 X100.363 Y91.171 E0.9608
G1 X100.611 Y91.359 E0.9763
G1 X97.599 Y88.347 E1.1889
G1 X97.906 Y88.088 E1.2089
G1 X102.350 Y92.533 E1.5225
G1 X102.399 Y92.523 E1.5250
G1 X102.875 Y92.492 E1.5487
G1 X98.214 Y87.830 E1.8776
G1 X98.521 Y87.572 E1.8977
G1 X103.405 Y92.456 E2.2423
G1 X103.678 Y92.438 E2.2559
G1 X103.960 Y92.446 E2.2700
G1 X98.828 Y87.314 E2.6321
G1 X98.864 Y87.284 E2.6344
G1 X99.169 Y87.088 E2.6525
G1 X104.541 Y92.461 E3.0316
G1 X104.740 Y92.466 E3.0415
G1 X105.159 Y92.513 E3.0625
G1 X99.514 Y86.867 E3.4608
G1 X99.841 Y86.657 E3.4802
G1 X99.861 Y86.649 E3.4813
G1 X105.793 Y92.582 E3.8999
G1 X106.360 Y92.583 E3.9281
G1 X100.254 Y86.476 E4.3590
G1 X100.646 Y86.303 E4.3804
G1 X106.927 Y92.584 E4.8235
G1 X107.493 Y92.585 E4.8518
G1 X101.039 Y86.130 E5.3072
G1 X101.417 Y85.964 E5.3277
G1 X101.430 Y85.956 E5.3285
G1 X108.060 Y92.585 E5.7963
G1 X108.627 Y92.586 E5.8246
G1 X101.782 Y85.742 E6.3075
G1 X102.133 Y85.528 E6.3280
G1 X109.193 Y92.587 E6.8261
G1 X109.760 Y92.588 E6.8544
G1 X102.401 Y85.230 E7.3736
G1 X102.634 Y84.897 E7.3939
G1 X109.843 Y92.106 E7.9025
G1 X109.843 Y91.540 E7.9307
G1 X102.866 Y84.563 E8.4230
G1 X102.838 Y83.969 E8.4527
G1 X109.843 Y90.975 E8.9469
G1 X109.843 Y90.409 E8.9752
G1 X103.604 Y84.169 E9.4154
G1 X103.818 Y84.274 E9.4273
G1 X104.447 Y84.670 E9.4644
G1 X105.222 Y85.222 E9.5119
G1 X109.843 Y89.843 E9.8379
G1 X109.844 Y89.278 E9.8661
G1 X105.942 Y85.377 E10.1414
G1 X106.508 Y85.377 E10.1696
G1 X109.844 Y88.712 E10.4049
G1 X109.844 Y88.147 E10.4331
G1 X107.074 Y85.377 E10.6286
G1 X107.640 Y85.378 E10.6568
G1 X109.844 Y87.581 E10.8123
G1 X109.844 Y87.016 E10.8405
G1 X108.206 Y85.378 E10.9560
G1 X108.772 Y85.378 E10.9843
G1 X109.844 Y86.450 E11.0599
G1 X109.844 Y85.885 E11.0881
G1 X109.479 Y85.520 E11.1139
G1 X109.338 Y85.378 F1920
G1 X101.874 Y92.622 F12000
G92 E0.0000
G1 X101.295 Y92.043 E0.0409 F1920
G1 X101.153 Y91.901 F1920
G92 E0.0000
G1 E-1.0000 F2400
; feature outer perimeter
G1 X101.957 Y99.558 F12000
G1 E0.0000 F2400
G92 E0.0000
G1 X102.547 Y99.552 E0.0294 F1200
G1 X103.378 Y99.788 E0.0725
G1 X104.168 Y100.174 E0.1164
G1 X104.848 Y100.602 E0.1565
G1 X105.669 Y101.187 E0.2068
G1 X110.205 Y101.189 E0.4331
G1 X110.565 Y101.404 E0.4540
G1 X110.563 Y109.625 E0.8641
G1 X110.204 Y109.840 E0.8850
G1 X105.740 Y109.832 E1.1077
G1 X104.691 Y109.716 E1.1603
G1 X103.692 Y109.689 E1.2102
G1 X102.490 Y109.769 E1.2703
G1 X101.165 Y110.020 E1.3376
G1 X100.275 Y110.334 E1.3847
G1 X100.589 Y109.784 E1.4163
G1 X100.685 Y109.198 E1.4459
G1 X100.484 Y108.697 E1.4728
G1 X100.030 Y108.352 E1.5012
G1 X99.395 Y108.160 E1.5343
G1 X98.319 Y108.086 E1.5882
G1 X96.803 Y108.145 E1.6639
G1 X95.393 Y108.322 E1.7347
G1 X94.161 Y108.562 E1.7974
G1 X93.410 Y108.757 E1.8361
G1 X93.292 Y108.575 E1.8469
G1 X94.216 Y107.427 E1.9204
G1 X95.572 Y105.871 E2.0234
G1 X96.956 Y104.477 E2.1214
G1 X98.436 Y103.233 E2.2179
G1 X99.500 Y102.551 E2.2809
G1 X101.083 Y101.855 E2.3672
G1 X101.735 Y101.458 E2.4053
G1 X102.136 Y100.882 E2.4403
G1 X102.098 Y100.113 E2.4787
G1 X102.006 Y99.752 E2.4973
G1 X101.957 Y99.558 F1200
G1 X102.547 Y99.552 F1200
G1 X103.378 Y99.788
G1 X103.869 Y100.028
; feature inner perimeter
G1 X103.973 Y100.524 F12000
G92 E0.0000
G1 X104.625 Y100.935 E0.0384 F1800
G1 X105.541 Y101.587 E0.0945
G1 X110.165 Y101.589 E0.3252
G1 X110.163 Y109.440 E0.7169
G1 X105.762 Y109.432 E0.9364
G1 X104.718 Y109.316 E0.9888
G1 X103.684 Y109.289 E1.0404
G1 X102.440 Y109.372 E1.1026
G1 X101.018 Y109.640 E1.1748
G1 X101.098 Y109.152 E1.1995
G1 X100.814 Y108.445 E1.2375
G1 X100.215 Y107.991 E1.2750
G1 X99.468 Y107.764 E1.3139
G1 X98.325 Y107.686 E1.3711
G1 X96.770 Y107.746 E1.4488
G1 X95.330 Y107.927 E1.5211
G1 X94.141 Y108.158 E1.5816
G1 X94.523 Y107.684 E1.6119
G1 X95.865 Y106.144 E1.7139
G1 X97.227 Y104.772 E1.8103
G1 X98.674 Y103.556 E1.9046
G1 X99.690 Y102.905 E1.9648
G1 X101.269 Y102.210 E2.0508
G1 X102.015 Y101.756 E2.0944
G1 X102.542 Y100.999 E2.1405
G1 X102.490 Y99.951 E2.1928
G1 X103.234 Y100.163 E2.2314
G1 X103.794 Y100.437 E2.2624
G1 X103.973 Y100.524 F1800
G92 E0.0000
G1 E-1.0000 F2400
; feature solid layer
G1 X109.464 Y101.909 F12000
G1 E0.0000 F2400
G92 E0.0000
G1 X109.844 Y102.289 E0.0269 F1920
G1 X109.844 Y102.855 E0.0551
G1 X108.898 Y101.909 E0.1219
G1 X108.332 Y101.908 E0.1501
G1 X109.844 Y103.421 E0.2568
G1 X109.844 Y103.986 E0.2850
G1 X107.766 Y101.908 E0.4316
G1 X107.200 Y101.908 E0.4599
G1 X109.844 Y104.552 E0.6464
G1 X109.844 Y105.117 E0.6746
G1 X106.634 Y101.908 E0.9011
G1 X106.068 Y101.907 E0.9293
G1 X109.844 Y105.683 E1.1957
G1 X109.843 Y106.248 E1.2239
G1 X105.502 Y101.907 E1.5302
G1 X105.439 Y101.907 E1.5334
G1 X104.447 Y101.200 E1.5941
G1 X103.861 Y100.832 E1.6287
G1 X109.843 Y106.814 E2.0507
G1 X109.843 Y107.379 E2.0790
G1 X102.851 Y100.387 E2.5723
G1 X102.832 Y100.382 E2.5733
G1 X102.861 Y100.963 E2.6023
G1 X109.843 Y107.945 E3.0950
G1 X109.843 Y108.511 E3.1232
G1 X102.685 Y101.353 E3.6282
G1 X102.453 Y101.686 E3.6485
G1 X109.843 Y109.076 E4.1698
G1 X109.843 Y109.119 E4.1720
G1 X109.319 Y109.118 E4.1981
G1 X102.212 Y102.010 E4.6996
G1 X101.860 Y102.225 E4.7201
G1 X108.752 Y109.117 E5.2064
G1 X108.186 Y109.116 E5.2347
G1 X101.508 Y102.439 E5.7058
G1 X101.417 Y102.495 E5.7112
G1 X101.126 Y102.622 E5.7270
G1 X107.619 Y109.115 E6.1851
G1 X107.053 Y109.114 E6.2134
G1 X100.734 Y102.795 E6.6592
G1 X100.341 Y102.968 E6.6806
G1 X106.486 Y109.113 E7.1142
G1 X105.919 Y109.112 E7.1425
G1 X99.948 Y103.141 E7.5638
G1 X99.841 Y103.188 E7.5696
G1 X99.590 Y103.349 E7.5845
G1 X105.300 Y109.059 E7.9873
G1 X104.740 Y108.997 E8.0154
G1 X104.670 Y108.995 E8.0189
G1 X99.245 Y103.570 E8.4017
G1 X98.900 Y103.791 E8.4221
G1 X104.089 Y108.980 E8.7882
G1 X103.678 Y108.969 E8.8088
G1 X103.523 Y108.979 E8.8165
G1 X98.589 Y104.045 E9.1646
G1 X98.282 Y104.303 E9.1847
G1 X102.993 Y109.014 E9.5170
G1 X102.462 Y109.050 E9.5436
G1 X97.974 Y104.562 E9.8602
G1 X97.667 Y104.820 E9.8802
G1 X101.980 Y109.133 E10.1846
G1 X101.504 Y109.223 E10.2087
G1 X101.424 Y109.142 E10.2144
G1 X101.428 Y109.116 E10.2157
G1 X101.078 Y108.244 E10.2626
G1 X100.363 Y107.701 E10.3074
G1 X99.817 Y107.535 E10.3359
G1 X97.367 Y105.085 E10.5087
G1 X97.085 Y105.369 E10.5287
G1 X99.136 Y107.420 E10.6734
G1 X98.529 Y107.379 E10.7038
G1 X96.803 Y105.653 E10.8255
G1 X96.521 Y105.937 E10.8455
G1 X97.964 Y107.380 E10.9473
G1 X97.419 Y107.401 E10.9745
G1 X96.240 Y106.221 E11.0577
G1 X96.100 Y106.362 E11.0676
G1 X95.967 Y106.514 E11.0777
G1 X96.875 Y107.422 E11.1417
G1 X96.744 Y107.427 E11.1483
G1 X96.362 Y107.475 E11.1674
G1 X95.704 Y106.816 E11.2139
G1 X95.440 Y107.119 E11.2339
G1 X95.860 Y107.538 E11.2635
G1 X95.357 Y107.601 E11.2888
G1 X95.318 Y107.562 E11.2915
G1 X95.177 Y107.421 F1920
G92 E0.0000
G1 E-1.0000 F2400
; feature outer perimeter
G1 X101.957 Y116.088 F12000
G1 E0.0000 F2400
G92 E0.0000
G1 X102.547 Y116.082 E0.0294 F1200
G1 X103.378 Y116.319 E0.0725
G1 X104.168 Y116.705 E0.1164
G1 X104.848 Y117.133 E0.1565
G1 X105.669 Y117.718 E0.2068
G1 X110.205 Y117.720 E0.4331
G1 X110.565 Y117.934 E0.4540
G1 X110.563 Y126.156 E0.8641
G1 X110.204 Y126.370 E0.8850
G1 X105.740 Y126.362 E1.1077
