; generated by PrusaSlicer 2.0.0+ on 2019-07-01 at 11:27:58

; 

; external perimeters extrusion width = 0.45mm
; perimeters extrusion width = 0.45mm
; infill extrusion width = 0.45mm
; solid infill extrusion width = 0.45mm
; top infill extrusion width = 0.40mm
; first layer extrusion width = 0.42mm

M73 P0 R40
M73 Q0 S40
M201 X1000 Y1000 Z1000 E5000 ; sets maximum accelerations, mm/sec^2
M203 X200 Y200 Z12 E120 ; sets maximum feedrates, mm/sec
M204 P1250 R1250 T1250 ; sets acceleration (P, T) and retract acceleration (R), mm/sec^2
M205 X8.00 Y8.00 Z0.40 E1.50 ; sets the jerk limits, mm/sec
M205 S0 T0 ; sets the minimum extruding and travel feed rate, mm/sec
M107
M115 U3.7.1 ; tell printer latest fw version
G90 ; use absolute coordinates
M83 ; extruder relative mode
M104 S200 ; set extruder temp
M140 S60 ; set bed temp
M190 S60 ; wait for bed temp
M109 S200 ; wait for extruder temp
G28 W ; home all without mesh bed level
G80 ; mesh bed leveling
G1 Y-3.0 F1000.0 ; go outside print area
G92 E0.0
G1 X60.0 E9.0 F1000.0 ; intro line
M73 Q0 S40
M73 P0 R40
G1 X100.0 E12.5 F1000.0 ; intro line
G92 E0.0
M221 S95
M900 K30 ; Filament gcode
G21 ; set units to millimeters
G90 ; use absolute coordinates
M83 ; use relative distances for extrusion
;BEFORE_LAYER_CHANGE
G92 E0.0
;0.2


G1 E-0.80000 F2100.00000
G1 Z0.600 F10800.000
;AFTER_LAYER_CHANGE
;0.2
G1 X128.587 Y108.450
G1 Z0.200
G1 E0.80000 F2100.00000
M204 S1000
G1 F1200
G1 X128.590 Y101.300 E0.22417
G1 X129.116 Y101.360 E0.01658
G1 X129.400 Y101.413 E0.00907
G1 X129.602 Y101.479 E0.00664
G1 X129.829 Y101.588 E0.00791
G1 X130.094 Y101.759 E0.00989
G1 X130.406 Y102.012 E0.01260
G1 X131.288 Y102.873 E0.03864
G1 X131.584 Y103.190 E0.01361
G1 X131.662 Y103.303 E0.00429
G1 X131.701 Y103.396 E0.00318
G1 X131.725 Y103.534 E0.00438
G1 X131.740 Y103.857 E0.01015
G1 X131.739 Y105.888 E0.06365
G1 X131.724 Y106.212 E0.01017
G1 X131.701 Y106.340 E0.00409
G1 X131.614 Y106.513 E0.00607
G1 X131.359 Y106.801 E0.01205
G1 X130.651 Y107.500 E0.03120
G1 X130.189 Y107.914 E0.01945
G1 X129.815 Y108.166 E0.01415
G1 X129.465 Y108.315 E0.01193
G1 X129.184 Y108.377 E0.00900
G1 X128.647 Y108.442 E0.01698
G1 X128.210 Y108.910 F10800.000
G1 F1200
G1 X128.213 Y100.835 E0.25321
G1 X128.501 Y100.910 E0.00933
G1 X129.172 Y100.987 E0.02117
G1 X129.494 Y101.047 E0.01027
G1 X129.742 Y101.128 E0.00818
G1 X130.013 Y101.258 E0.00943
G1 X130.316 Y101.453 E0.01129
G1 X130.657 Y101.731 E0.01378
G1 X131.558 Y102.609 E0.03945
G1 X131.878 Y102.953 E0.01472
G1 X131.987 Y103.110 E0.00600
G1 X132.067 Y103.303 E0.00655
G1 X132.101 Y103.493 E0.00604
G1 X132.117 Y103.849 E0.01119
G1 X132.116 Y105.896 E0.06419
G1 X132.099 Y106.253 E0.01121
G1 X132.066 Y106.440 E0.00594
G1 X132.009 Y106.592 E0.00508
G1 X131.918 Y106.739 E0.00544
G1 X131.633 Y107.060 E0.01345
G1 X130.910 Y107.775 E0.03188
G1 X130.422 Y108.212 E0.02055
G1 X130.006 Y108.492 E0.01571
G1 X129.828 Y108.582 E0.00624
G1 X129.572 Y108.677 E0.00857
G1 X129.248 Y108.749 E0.01040
G1 X128.408 Y108.851 E0.02654
G1 X128.268 Y108.893 E0.00460
G1 X128.392 Y108.554 F10800.000
G1 F8640
G1 X128.245 Y105.602 E-0.76000
G1 E-0.04000 F2100.00000
G1 Z0.800 F10800.000
G1 X129.402 Y108.213
G1 Z0.200
G1 E0.80000 F2100.00000
G1 F1200
G1 X128.870 Y107.681 E0.02509
G1 X128.871 Y107.114 E0.01892
G1 X129.675 Y107.918 E0.03795
G1 X130.015 Y107.691 E0.01364
G1 X128.871 Y106.547 E0.05397
G1 X128.871 Y105.980 E0.01892
G1 X130.314 Y107.423 E0.06808
G1 X130.606 Y107.147 E0.01339
G1 X128.871 Y105.412 E0.08184
G1 X128.872 Y104.845 E0.01892
G1 X130.892 Y106.865 E0.09530
G1 X131.176 Y106.582 E0.01338
G1 X128.872 Y104.278 E0.10868
G1 X128.872 Y103.711 E0.01892
G1 X131.420 Y106.259 E0.12019
G1 X131.442 Y106.170 E0.00306
G1 X131.456 Y105.727 E0.01476
G1 X128.872 Y103.144 E0.12188
G1 X128.873 Y102.577 E0.01892
G1 X131.456 Y105.160 E0.12189
G1 X131.456 Y104.593 E0.01892
G1 X128.873 Y102.010 E0.12189
G1 X128.873 Y101.617 E0.01311
G1 X129.070 Y101.639 E0.00661
G1 X131.626 Y104.196 E0.12062
G1 X131.616 Y103.618 F10800.000
G1 F1200
G1 X129.603 Y101.605 E0.09495
G1 F8640
G1 X131.616 Y103.618 E-0.65719
G1 E-0.14281 F2100.00000
G1 Z0.800 F10800.000
G1 X117.989 Y108.450
G1 Z0.200
G1 E0.80000 F2100.00000
G1 F1200
G1 X117.992 Y101.300 E0.22417
G1 X118.517 Y101.360 E0.01658
G1 X118.802 Y101.413 E0.00907
G1 X119.003 Y101.479 E0.00664
G1 X119.231 Y101.588 E0.00791
G1 X119.496 Y101.759 E0.00989
G1 X119.807 Y102.012 E0.01260
G1 X120.690 Y102.873 E0.03864
G1 X120.985 Y103.190 E0.01361
G1 X121.064 Y103.303 E0.00429
G1 X121.102 Y103.396 E0.00318
G1 X121.127 Y103.534 E0.00438
G1 X121.141 Y103.857 E0.01015
G1 X121.140 Y105.888 E0.06365
G1 X121.125 Y106.212 E0.01017
G1 X121.102 Y106.340 E0.00409
G1 X121.016 Y106.513 E0.00607
G1 X120.761 Y106.801 E0.01205
G1 X120.053 Y107.500 E0.03120
G1 X119.591 Y107.914 E0.01945
G1 X119.217 Y108.166 E0.01415
G1 X118.866 Y108.315 E0.01193
G1 X118.586 Y108.377 E0.00900
G1 X118.049 Y108.442 E0.01698
G1 X117.612 Y108.910 F10800.000
G1 F1200
G1 X117.615 Y100.835 E0.25321
G1 X117.903 Y100.910 E0.00933
G1 X118.574 Y100.987 E0.02117
G1 X118.896 Y101.047 E0.01027
G1 X119.144 Y101.128 E0.00818
G1 X119.415 Y101.258 E0.00943
G1 X119.718 Y101.453 E0.01129
G1 X120.059 Y101.731 E0.01378
G1 X120.959 Y102.609 E0.03945
G1 X121.279 Y102.953 E0.01472
G1 X121.389 Y103.110 E0.00600
G1 X121.469 Y103.303 E0.00655
G1 X121.502 Y103.493 E0.00604
G1 X121.518 Y103.849 E0.01119
G1 X121.517 Y105.896 E0.06419
G1 X121.501 Y106.253 E0.01121
G1 X121.468 Y106.440 E0.00594
G1 X121.411 Y106.592 E0.00508
G1 X121.319 Y106.739 E0.00544
G1 X121.035 Y107.060 E0.01345
G1 X120.311 Y107.775 E0.03188
G1 X119.823 Y108.212 E0.02055
G1 X119.408 Y108.492 E0.01571
G1 X119.230 Y108.582 E0.00624
G1 X118.974 Y108.677 E0.00857
G1 X118.650 Y108.749 E0.01040
G1 X117.810 Y108.851 E0.02654
G1 X117.669 Y108.893 E0.00460
G1 X117.794 Y108.554 F10800.000
G1 F8640
G1 X117.647 Y105.602 E-0.76000
G1 E-0.04000 F2100.00000
G1 Z0.800 F10800.000
G1 X118.804 Y108.213
G1 Z0.200
G1 E0.80000 F2100.00000
G1 F1200
G1 X118.272 Y107.681 E0.02509
G1 X118.272 Y107.114 E0.01892
G1 X119.077 Y107.918 E0.03795
G1 X119.416 Y107.691 E0.01364
G1 X118.273 Y106.547 E0.05397
G1 X118.273 Y105.980 E0.01892
G1 X119.716 Y107.423 E0.06808
G1 X120.008 Y107.147 E0.01339
G1 X118.273 Y105.412 E0.08184
G1 X118.273 Y104.845 E0.01892
G1 X120.293 Y106.865 E0.09530
G1 X120.577 Y106.582 E0.01338
G1 X118.273 Y104.278 E0.10868
G1 X118.274 Y103.711 E0.01892
G1 X120.821 Y106.259 E0.12019
G1 X120.844 Y106.170 E0.00306
G1 X120.857 Y105.727 E0.01476
G1 X118.274 Y103.144 E0.12188
G1 X118.274 Y102.577 E0.01892
G1 X120.858 Y105.160 E0.12189
G1 X120.858 Y104.593 E0.01892
G1 X118.274 Y102.010 E0.12189
G1 X118.275 Y101.617 E0.01311
G1 X118.471 Y101.639 E0.00661
G1 X121.028 Y104.196 E0.12062
G1 X121.017 Y103.618 F10800.000
G1 F1200
G1 X119.005 Y101.605 E0.09495
G1 F8640
G1 X121.017 Y103.618 E-0.65719
G1 E-0.14281 F2100.00000
G1 Z0.800 F10800.000
G1 X107.391 Y108.450
G1 Z0.200
G1 E0.80000 F2100.00000
G1 F1200
G1 X107.394 Y101.300 E0.22417
G1 X107.919 Y101.360 E0.01658
G1 X108.204 Y101.413 E0.00907
G1 X108.405 Y101.479 E0.00664
G1 X108.632 Y101.588 E0.00791
G1 X108.897 Y101.759 E0.00989
G1 X109.209 Y102.012 E0.01260
G1 X110.091 Y102.873 E0.03864
G1 X110.387 Y103.190 E0.01361
G1 X110.465 Y103.303 E0.00429
G1 X110.504 Y103.396 E0.00318
G1 X110.528 Y103.534 E0.00438
G1 X110.543 Y103.857 E0.01015
G1 X110.542 Y105.888 E0.06365
G1 X110.527 Y106.212 E0.01017
G1 X110.504 Y106.340 E0.00409
G1 X110.417 Y106.513 E0.00607
G1 X110.163 Y106.801 E0.01205
G1 X109.455 Y107.500 E0.03120
G1 X108.993 Y107.914 E0.01945
G1 X108.618 Y108.166 E0.01415
G1 X108.268 Y108.315 E0.01193
G1 X107.988 Y108.377 E0.00900
G1 X107.450 Y108.442 E0.01698
G1 X107.013 Y108.910 F10800.000
G1 F1200
G1 X107.017 Y100.835 E0.25321
G1 X107.304 Y100.910 E0.00933
G1 X107.975 Y100.987 E0.02117
G1 X108.297 Y101.047 E0.01027
G1 X108.545 Y101.128 E0.00818
G1 X108.817 Y101.258 E0.00943
G1 X109.119 Y101.453 E0.01129
G1 X109.460 Y101.731 E0.01378
G1 X110.361 Y102.609 E0.03945
G1 X110.681 Y102.953 E0.01472
G1 X110.791 Y103.110 E0.00600
G1 X110.871 Y103.303 E0.00655
G1 X110.904 Y103.493 E0.00604
G1 X110.920 Y103.849 E0.01119
G1 X110.919 Y105.896 E0.06419
G1 X110.902 Y106.253 E0.01121
G1 X110.869 Y106.440 E0.00594
G1 X110.812 Y106.592 E0.00508
G1 X110.721 Y106.739 E0.00544
G1 X110.436 Y107.060 E0.01345
G1 X109.713 Y107.775 E0.03188
G1 X109.225 Y108.212 E0.02055
G1 X108.809 Y108.492 E0.01571
G1 X108.632 Y108.582 E0.00624
G1 X108.375 Y108.677 E0.00857
G1 X108.051 Y108.749 E0.01040
G1 X107.211 Y108.851 E0.02654
G1 X107.071 Y108.893 E0.00460
G1 X107.195 Y108.554 F10800.000
G1 F8640
G1 X107.049 Y105.602 E-0.76000
G1 E-0.04000 F2100.00000
G1 Z0.800 F10800.000
G1 X108.206 Y108.213
G1 Z0.200
G1 E0.80000 F2100.00000
G1 F1200
G1 X107.674 Y107.681 E0.02509
G1 X107.674 Y107.114 E0.01892
G1 X108.478 Y107.918 E0.03795
G1 X108.818 Y107.691 E0.01364
G1 X107.674 Y106.547 E0.05397
G1 X107.674 Y105.980 E0.01892
G1 X109.117 Y107.423 E0.06808
G1 X109.409 Y107.147 E0.01339
G1 X107.675 Y105.412 E0.08184
G1 X107.675 Y104.845 E0.01892
G1 X109.695 Y106.865 E0.09530
G1 X109.979 Y106.582 E0.01338
G1 X107.675 Y104.278 E0.10868
G1 X107.675 Y103.711 E0.01892
G1 X110.223 Y106.259 E0.12019
G1 X110.246 Y106.170 E0.00306
G1 X110.259 Y105.727 E0.01476
G1 X107.676 Y103.144 E0.12188
G1 X107.676 Y102.577 E0.01892
G1 X110.259 Y105.160 E0.12189
G1 X110.260 Y104.593 E0.01892
G1 X107.676 Y102.010 E0.12189
G1 X107.676 Y101.617 E0.01311
G1 X107.873 Y101.639 E0.00661
G1 X110.430 Y104.196 E0.12062
G1 X110.419 Y103.618 F10800.000
G1 F1200
G1 X108.406 Y101.605 E0.09495
G1 F8640
G1 X110.419 Y103.618 E-0.65719
G1 E-0.14281 F2100.00000
G1 Z0.800 F10800.000
G1 X117.989 Y90.218
G1 Z0.200
G1 E0.80000 F2100.00000
G1 F1200
G1 X117.992 Y83.069 E0.22417
G1 X118.517 Y83.129 E0.01658
G1 X118.802 Y83.182 E0.00907
G1 X119.003 Y83.248 E0.00664
G1 X119.231 Y83.357 E0.00791
G1 X119.496 Y83.528 E0.00989
G1 X119.807 Y83.781 E0.01260
G1 X120.690 Y84.642 E0.03864
G1 X120.985 Y84.959 E0.01361
G1 X121.064 Y85.071 E0.00429
G1 X121.102 Y85.165 E0.00318
G1 X121.127 Y85.303 E0.00438
G1 X121.141 Y85.626 E0.01015
G1 X121.140 Y87.656 E0.06365
G1 X121.125 Y87.980 E0.01017
G1 X121.102 Y88.109 E0.00409
G1 X121.016 Y88.282 E0.00607
G1 X120.761 Y88.570 E0.01205
G1 X120.053 Y89.269 E0.03120
G1 X119.591 Y89.683 E0.01945
G1 X119.217 Y89.935 E0.01415
G1 X118.866 Y90.084 E0.01193
G1 X118.586 Y90.146 E0.00900
G1 X118.049 Y90.211 E0.01698
G1 X117.612 Y90.679 F10800.000
G1 F1200
G1 X117.615 Y82.603 E0.25321
G1 X117.903 Y82.679 E0.00933
G1 X118.574 Y82.755 E0.02117
G1 X118.896 Y82.816 E0.01027
G1 X119.144 Y82.897 E0.00818
G1 X119.415 Y83.027 E0.00943
G1 X119.718 Y83.222 E0.01129
G1 X120.059 Y83.499 E0.01378
G1 X120.959 Y84.378 E0.03945
G1 X121.279 Y84.722 E0.01472
G1 X121.389 Y84.879 E0.00600
G1 X121.469 Y85.072 E0.00655
G1 X121.502 Y85.261 E0.00604
G1 X121.518 Y85.618 E0.01119
G1 X121.517 Y87.665 E0.06419
G1 X121.501 Y88.022 E0.01121
G1 X121.468 Y88.209 E0.00594
G1 X121.411 Y88.361 E0.00508
G1 X121.319 Y88.508 E0.00544
G1 X121.035 Y88.829 E0.01345
G1 X120.311 Y89.544 E0.03188
G1 X119.823 Y89.981 E0.02055
G1 X119.408 Y90.261 E0.01571
G1 X119.230 Y90.350 E0.00624
G1 X118.974 Y90.446 E0.00857
G1 X118.650 Y90.518 E0.01040
G1 X117.810 Y90.620 E0.02654
G1 X117.669 Y90.662 E0.00460
G1 X117.794 Y90.323 F10800.000
G1 F8640
G1 X117.647 Y87.371 E-0.76000
G1 E-0.04000 F2100.00000
G1 Z0.800 F10800.000
G1 X118.804 Y89.982
G1 Z0.200
G1 E0.80000 F2100.00000
G1 F1200
G1 X118.272 Y89.450 E0.02509
G1 X118.272 Y88.883 E0.01892
G1 X119.077 Y89.687 E0.03795
G1 X119.416 Y89.459 E0.01364
G1 X118.273 Y88.316 E0.05397
G1 X118.273 Y87.748 E0.01892
G1 X119.716 Y89.191 E0.06808
G1 X120.008 Y88.916 E0.01339
G1 X118.273 Y87.181 E0.08184
G1 X118.273 Y86.614 E0.01892
G1 X120.293 Y88.634 E0.09530
G1 X120.577 Y88.351 E0.01338
G1 X118.273 Y86.047 E0.10868
G1 X118.274 Y85.480 E0.01892
G1 X120.821 Y88.027 E0.12019
G1 X120.844 Y87.938 E0.00306
G1 X120.857 Y87.496 E0.01476
G1 X118.274 Y84.913 E0.12188
G1 X118.274 Y84.346 E0.01892
G1 X120.858 Y86.929 E0.12189
G1 X120.858 Y86.362 E0.01892
G1 X118.274 Y83.778 E0.12189
G1 X118.275 Y83.386 E0.01311
G1 X118.471 Y83.408 E0.00661
G1 X121.028 Y85.965 E0.12062
G1 X121.017 Y85.387 F10800.000
G1 F1200
G1 X119.005 Y83.374 E0.09495
G1 F8640
G1 X121.017 Y85.387 E-0.65719
G1 E-0.14281 F2100.00000
G1 Z0.800 F10800.000
G1 X128.587 Y90.218
G1 Z0.200
G1 E0.80000 F2100.00000
G1 F1200
G1 X128.590 Y83.069 E0.22417
G1 X129.116 Y83.129 E0.01658
G1 X129.400 Y83.182 E0.00907
G1 X129.602 Y83.248 E0.00664
G1 X129.829 Y83.357 E0.00791
G1 X130.094 Y83.528 E0.00989
G1 X130.406 Y83.781 E0.01260
G1 X131.288 Y84.642 E0.03864
G1 X131.584 Y84.959 E0.01361
G1 X131.662 Y85.071 E0.00429
G1 X131.701 Y85.165 E0.00318
G1 X131.725 Y85.303 E0.00438
G1 X131.740 Y85.626 E0.01015
G1 X131.739 Y87.656 E0.06365
G1 X131.724 Y87.980 E0.01017
G1 X131.701 Y88.109 E0.00409
G1 X131.614 Y88.282 E0.00607
G1 X131.359 Y88.570 E0.01205
G1 X130.651 Y89.269 E0.03120
G1 X130.189 Y89.683 E0.01945
G1 X129.815 Y89.935 E0.01415
G1 X129.465 Y90.084 E0.01193
G1 X129.184 Y90.146 E0.00900
G1 X128.647 Y90.211 E0.01698
G1 X128.210 Y90.679 F10800.000
G1 F1200
G1 X128.213 Y82.603 E0.25321
G1 X128.501 Y82.679 E0.00933
G1 X129.172 Y82.755 E0.02117
G1 X129.494 Y82.816 E0.01027
G1 X129.742 Y82.897 E0.00818
G1 X130.013 Y83.027 E0.00943
G1 X130.316 Y83.222 E0.01129
G1 X130.657 Y83.499 E0.01378
G1 X131.558 Y84.378 E0.03945
G1 X131.878 Y84.722 E0.01472
G1 X131.987 Y84.879 E0.00600
G1 X132.067 Y85.072 E0.00655
G1 X132.101 Y85.261 E0.00604
G1 X132.117 Y85.618 E0.01119
G1 X132.116 Y87.665 E0.06419
G1 X132.099 Y88.022 E0.01121
G1 X132.066 Y88.209 E0.00594
G1 X132.009 Y88.361 E0.00508
G1 X131.918 Y88.508 E0.00544
G1 X131.633 Y88.829 E0.01345
G1 X130.910 Y89.544 E0.03188
G1 X130.422 Y89.981 E0.02055
G1 X130.006 Y90.261 E0.01571
G1 X129.828 Y90.350 E0.00624
G1 X129.572 Y90.446 E0.00857
G1 X129.248 Y90.518 E0.01040
G1 X128.408 Y90.620 E0.02654
G1 X128.268 Y90.662 E0.00460
G1 X128.392 Y90.323 F10800.000
G1 F8640
G1 X128.245 Y87.371 E-0.76000
G1 E-0.04000 F2100.00000
G1 Z0.800 F10800.000
G1 X129.402 Y89.982
G1 Z0.200
G1 E0.80000 F2100.00000
G1 F1200
G1 X128.870 Y89.450 E0.02509
G1 X128.871 Y88.883 E0.01892
G1 X129.675 Y89.687 E0.03795
G1 X130.015 Y89.459 E0.01364
G1 X128.871 Y88.316 E0.05397
G1 X128.871 Y87.748 E0.01892
G1 X130.314 Y89.191 E0.06808
G1 X130.606 Y88.916 E0.01339
G1 X128.871 Y87.181 E0.08184
G1 X128.872 Y86.614 E0.01892
G1 X130.892 Y88.634 E0.09530
G1 X131.176 Y88.351 E0.01338
G1 X128.872 Y86.047 E0.10868
G1 X128.872 Y85.480 E0.01892
G1 X131.420 Y88.027 E0.12019
G1 X131.442 Y87.938 E0.00306
G1 X131.456 Y87.496 E0.01476
G1 X128.872 Y84.913 E0.12188
G1 X128.873 Y84.346 E0.01892
G1 X131.456 Y86.929 E0.12189
G1 X131.456 Y86.362 E0.01892
G1 X128.873 Y83.778 E0.12189
G1 X128.873 Y83.386 E0.01311
G1 X129.070 Y83.408 E0.00661
G1 X131.626 Y85.965 E0.12062
G1 X131.616 Y85.387 F10800.000
G1 F1200
G1 X129.603 Y83.374 E0.09495
G1 F8640
G1 X131.616 Y85.387 E-0.65719
G1 E-0.14281 F2100.00000
G1 Z0.800 F10800.000
G1 X139.186 Y90.218
G1 Z0.200
G1 E0.80000 F2100.00000
G1 F1200
G1 X139.189 Y83.069 E0.22417
G1 X139.714 Y83.129 E0.01658
G1 X139.999 Y83.182 E0.00907
G1 X140.200 Y83.248 E0.00664
G1 X140.427 Y83.357 E0.00791
G1 X140.692 Y83.528 E0.00989
G1 X141.004 Y83.781 E0.01260
G1 X141.886 Y84.642 E0.03864
G1 X142.182 Y84.959 E0.01361
G1 X142.260 Y85.071 E0.00429
G1 X142.299 Y85.165 E0.00318
G1 X142.323 Y85.303 E0.00438
G1 X142.338 Y85.626 E0.01015
G1 X142.337 Y87.656 E0.06365
G1 X142.322 Y87.980 E0.01017
G1 X142.299 Y88.109 E0.00409
G1 X142.213 Y88.282 E0.00607
G1 X141.958 Y88.570 E0.01205
G1 X141.250 Y89.269 E0.03120
G1 X140.788 Y89.683 E0.01945
G1 X140.413 Y89.935 E0.01415
G1 X140.063 Y90.084 E0.01193
G1 X139.783 Y90.146 E0.00900
G1 X139.245 Y90.211 E0.01698
G1 X138.808 Y90.679 F10800.000
G1 F1200
G1 X138.812 Y82.603 E0.25321
G1 X139.100 Y82.679 E0.00933
G1 X139.770 Y82.755 E0.02117
G1 X140.092 Y82.816 E0.01027
G1 X140.341 Y82.897 E0.00818
G1 X140.612 Y83.027 E0.00943
G1 X140.914 Y83.222 E0.01129
