; generated by PrusaSlicer 2.2.0+win64 on 2020-07-22 at 19:31:40 UTC

; 

; external perimeters extrusion width = 0.45mm
; perimeters extrusion width = 0.45mm
; infill extrusion width = 0.45mm
; solid infill extrusion width = 0.45mm
; top infill extrusion width = 0.40mm
; first layer extrusion width = 0.42mm

M73 P0 R139
M73 Q0 S140
M201 X1000 Y1000 Z1000 E5000 ; sets maximum accelerations, mm/sec^2
M203 X200 Y200 Z12 E120 ; sets maximum feedrates, mm/sec
M204 P1250 R1250 T1250 ; sets acceleration (P, T) and retract acceleration (R), mm/sec^2
M205 X8.00 Y8.00 Z0.40 E1.50 ; sets the jerk limits, mm/sec
M205 S0 T0 ; sets the minimum extruding and travel feed rate, mm/sec
M107
M862.3 P "MK3S" ; printer model check
M862.1 P0.4 ; nozzle diameter check
M115 U3.8.0 ; tell printer latest fw version
G90 ; use absolute coordinates
M83 ; extruder relative mode
M104 S215 ; set extruder temp
M140 S60 ; set bed temp
M190 S60 ; wait for bed temp
M109 S215 ; wait for extruder temp
G28 W ; home all without mesh bed level
G80 ; mesh bed leveling
G1 Y-3.0 F1000.0 ; go outside print area
G92 E0.0
G1 X60.0 E9.0 F1000.0 ; intro line
M73 Q0 S140
M73 P0 R139
G1 X100.0 E12.5 F1000.0 ; intro line
G92 E0.0
M221 S95
G21 ; set units to millimeters
G90 ; use absolute coordinates
M83 ; use relative distances for extrusion
M900 K0.06 ; Filament gcode LA 1.5
M900 K30 ; Filament gcode LA 1.0
;BEFORE_LAYER_CHANGE
G92 E0.0
;0.2


G1 E-0.80000 F2100.00000
G1 Z0.600 F10800.000
;AFTER_LAYER_CHANGE
;0.2
G1 X125.000 Y107.973
G1 Z0.200
G1 E0.80000 F2100.00000
M204 S1000
G1 F1200.000
G1 X128.176 Y108.286 E0.10006
G1 X131.230 Y109.212 E0.10006
G1 X134.044 Y110.716 E0.10006
G1 X136.511 Y112.741 E0.10006
G1 X138.536 Y115.208 E0.10006
G1 X140.040 Y118.022 E0.10006
G1 X140.966 Y121.076 E0.10006
G1 X141.279 Y124.252 E0.10006
G1 X140.966 Y127.428 E0.10006
G1 X140.040 Y130.482 E0.10006
G1 X138.536 Y133.296 E0.10006
G1 X136.511 Y135.763 E0.10006
G1 X134.044 Y137.787 E0.10006
G1 X131.230 Y139.292 E0.10006
G1 X128.176 Y140.218 E0.10006
G1 X125.000 Y140.531 E0.10006
G1 X121.824 Y140.218 E0.10006
G1 X118.770 Y139.292 E0.10006
G1 X115.956 Y137.787 E0.10006
G1 X113.489 Y135.763 E0.10006
G1 X111.464 Y133.296 E0.10006
G1 X109.960 Y130.482 E0.10006
G1 X109.034 Y127.428 E0.10006
G1 X108.721 Y124.252 E0.10006
G1 X109.034 Y121.076 E0.10006
G1 X109.960 Y118.022 E0.10006
G1 X111.464 Y115.208 E0.10006
G1 X113.489 Y112.741 E0.10006
G1 X115.956 Y110.716 E0.10006
G1 X118.770 Y109.212 E0.10006
G1 X121.824 Y108.286 E0.10006
G1 X124.940 Y107.979 E0.09818
G1 X125.200 Y107.626 F10800.000
G1 E-0.80000 F2100.00000
G1 Z0.800 F10800.000
G1 X121.359 Y140.673
G1 Z0.200
G1 E0.80000 F2100.00000
G1 F1200.000
G1 X99.480 Y140.673 E0.68600
G1 X99.481 Y107.148 E1.05114
G1 X150.519 Y107.150 E1.60028
G1 X150.520 Y140.673 E1.05109
G1 X128.641 Y140.673 E0.68600
G1 X128.613 Y140.480 E0.00612
G1 X131.375 Y139.642 E0.09050
G1 X134.255 Y138.102 E0.10239
G1 X136.779 Y136.031 E0.10239
G1 X138.851 Y133.506 E0.10239
G1 X140.390 Y130.627 E0.10239
G1 X141.338 Y127.502 E0.10239
G1 X141.658 Y124.252 E0.10239
G1 X141.338 Y121.002 E0.10239
G1 X140.390 Y117.877 E0.10239
G1 X138.851 Y114.997 E0.10239
G1 X136.779 Y112.473 E0.10239
G1 X134.255 Y110.401 E0.10239
G1 X131.375 Y108.862 E0.10239
G1 X128.250 Y107.914 E0.10239
G1 X125.000 Y107.594 E0.10239
G1 X121.750 Y107.914 E0.10239
G1 X118.625 Y108.862 E0.10239
G1 X115.745 Y110.401 E0.10239
G1 X113.221 Y112.473 E0.10239
G1 X111.149 Y114.997 E0.10239
G1 X109.610 Y117.877 E0.10239
G1 X108.662 Y121.002 E0.10239
G1 X108.342 Y124.252 E0.10239
G1 X108.662 Y127.502 E0.10239
G1 X109.610 Y130.627 E0.10239
G1 X111.149 Y133.507 E0.10239
G1 X113.221 Y136.031 E0.10239
G1 X115.745 Y138.102 E0.10239
G1 X118.625 Y139.642 E0.10239
G1 X121.387 Y140.480 E0.09050
G1 X121.368 Y140.613 E0.00424
G1 E-0.80000 F2100.00000
G1 Z0.800 F10800.000
G1 X125.000 Y141.050
G1 Z0.200
G1 E0.80000 F2100.00000
G1 F1200.000
G1 X99.102 Y141.050 E0.81200
G1 X99.104 Y106.771 E1.07479
G1 X150.896 Y106.773 E1.62393
G1 X150.898 Y141.050 E1.07473
G1 X125.060 Y141.050 E0.81012
G1 X124.704 Y140.780 F10800.000
G1 X125.007 Y140.791
G1 F1200.000
G1 X125.465 Y140.768 E0.00710
G1 X125.923 Y140.746 E0.00882
G1 X126.381 Y140.723 E0.01054
G1 X126.840 Y140.701 E0.01226
G1 X127.298 Y140.678 E0.01397
G1 X128.214 Y140.633 E0.02874
G1 X128.405 Y140.366 E0.01029
G1 X129.392 Y140.463 F10800.000
G1 F1200.000
G1 X129.591 Y140.433 E0.00167
G1 X129.790 Y140.404 E0.00251
G1 X129.989 Y140.374 E0.00334
G1 X130.187 Y140.345 E0.00417
G1 X130.386 Y140.315 E0.00500
G1 X130.585 Y140.286 E0.00584
G1 X130.784 Y140.256 E0.00667
G1 X130.983 Y140.227 E0.00750
G1 X131.917 Y140.560 F10800.000
G1 F1200.000
G1 X131.313 Y139.956 E0.02695
G1 X131.483 Y139.904 E0.00562
G1 X131.689 Y139.795 E0.00735
G1 X132.284 Y140.390 E0.02658
G1 X132.821 Y140.390 E0.01696
G1 X132.039 Y139.608 E0.03494
G1 X132.389 Y139.420 E0.01253
G1 X133.358 Y140.390 E0.04329
G1 X133.895 Y140.390 E0.01696
G1 X132.739 Y139.233 E0.05164
G1 X133.089 Y139.046 E0.01253
G1 X134.432 Y140.390 E0.06000
G1 X134.969 Y140.390 E0.01696
G1 X133.439 Y138.859 E0.06835
G1 X133.789 Y138.672 E0.01253
G1 X135.506 Y140.390 E0.07670
G1 X136.043 Y140.390 E0.01696
G1 X134.139 Y138.485 E0.08506
G1 X134.413 Y138.339 E0.00981
G1 X134.477 Y138.286 E0.00262
G1 X136.580 Y140.390 E0.09394
G1 X137.117 Y140.390 E0.01696
G1 X134.772 Y138.044 E0.10475
G1 X135.066 Y137.802 E0.01205
G1 X137.654 Y140.390 E0.11556
G1 X138.191 Y140.390 E0.01696
G1 X135.361 Y137.560 E0.12637
G1 X135.656 Y137.318 E0.01205
G1 X138.728 Y140.390 E0.13718
G1 X139.265 Y140.390 E0.01696
G1 X135.951 Y137.076 E0.14799
G1 X136.246 Y136.834 E0.01205
G1 X139.803 Y140.390 E0.15880
G1 X140.340 Y140.390 E0.01696
G1 X136.541 Y136.592 E0.16961
G1 X136.836 Y136.350 E0.01205
G1 X140.877 Y140.390 E0.18042
G1 X141.414 Y140.390 E0.01696
G1 X137.104 Y136.080 E0.19244
G1 X137.346 Y135.785 E0.01205
G1 X141.951 Y140.390 E0.20561
G1 X142.488 Y140.390 E0.01696
G1 X137.588 Y135.490 E0.21878
G1 X137.830 Y135.195 E0.01205
G1 X143.025 Y140.390 E0.23196
G1 X143.562 Y140.390 E0.01696
G1 X138.072 Y134.900 E0.24513
G1 X138.314 Y134.606 E0.01205
G1 X144.099 Y140.390 E0.25830
G1 X144.636 Y140.390 E0.01696
G1 X138.557 Y134.311 E0.27147
G1 X138.799 Y134.016 E0.01205
G1 X145.173 Y140.390 E0.28464
G1 X145.710 Y140.390 E0.01696
G1 X139.041 Y133.721 E0.29781
G1 X139.238 Y133.381 E0.01240
G1 X146.247 Y140.390 E0.31297
G1 X146.784 Y140.390 E0.01696
G1 X139.425 Y133.031 E0.32860
G1 X139.612 Y132.681 E0.01253
G1 X147.321 Y140.390 E0.34423
G1 X147.858 Y140.390 E0.01696
G1 X139.799 Y132.331 E0.35986
G1 X139.986 Y131.981 E0.01253
G1 X148.395 Y140.390 E0.37548
G1 X148.932 Y140.390 E0.01696
G1 X140.174 Y131.631 E0.39111
G1 X140.361 Y131.281 E0.01253
G1 X149.469 Y140.390 E0.40674
G1 X150.006 Y140.390 E0.01696
G1 X140.548 Y130.931 E0.42237
G1 X140.652 Y130.735 E0.00702
G1 X140.707 Y130.554 E0.00598
G1 X150.238 Y140.084 E0.42557
G1 X150.238 Y139.547 E0.01696
G1 X140.832 Y130.142 E0.41998
G1 X140.957 Y129.730 E0.01360
G1 X150.238 Y139.010 E0.41440
G1 X150.238 Y138.473 E0.01696
G1 X141.082 Y129.318 E0.40882
G1 X141.207 Y128.906 E0.01360
G1 X150.238 Y137.936 E0.40324
G1 X150.238 Y137.399 E0.01696
G1 X141.332 Y128.494 E0.39766
G1 X141.457 Y128.082 E0.01360
G1 X150.238 Y136.862 E0.39207
G1 X150.237 Y136.325 E0.01696
G1 X141.582 Y127.670 E0.38649
G1 X141.617 Y127.557 E0.00372
G1 X141.652 Y127.202 E0.01127
G1 X150.237 Y135.788 E0.38340
G1 X150.237 Y135.251 E0.01696
G1 X141.700 Y126.713 E0.38125
G1 X141.748 Y126.224 E0.01551
G1 X150.237 Y134.714 E0.37910
G1 X150.237 Y134.177 E0.01696
G1 X141.796 Y125.735 E0.37695
G1 X141.844 Y125.246 E0.01551
G1 X150.237 Y133.640 E0.37480
G1 X150.237 Y133.103 E0.01696
G1 X141.892 Y124.758 E0.37265
G1 X141.940 Y124.269 E0.01551
G1 X150.237 Y132.566 E0.37050
G1 X150.237 Y132.028 E0.01696
G1 X141.885 Y123.677 E0.37295
G1 X141.827 Y123.081 E0.01890
G1 X150.237 Y131.491 E0.37557
G1 X150.237 Y130.954 E0.01696
G1 X141.768 Y122.485 E0.37819
G1 X141.709 Y121.889 E0.01890
G1 X150.237 Y130.417 E0.38081
G1 X150.237 Y129.880 E0.01696
G1 X141.651 Y121.294 E0.38343
G1 X141.617 Y120.947 E0.01102
G1 X141.519 Y120.625 E0.01061
G1 X150.237 Y129.343 E0.38931
G1 X150.237 Y128.806 E0.01696
G1 X141.285 Y119.854 E0.39975
G1 X141.051 Y119.083 E0.02544
G1 X150.237 Y128.269 E0.41019
G1 X150.237 Y127.732 E0.01696
G1 X140.817 Y118.312 E0.42063
G1 X140.652 Y117.768 E0.01795
G1 X140.471 Y117.429 E0.01216
G1 X150.237 Y127.195 E0.43611
M73 Q0 S139
M73 P0 R138
G1 X150.237 Y126.658 E0.01696
G1 X139.854 Y116.275 E0.46364
G1 X139.238 Y115.121 E0.04131
G1 X150.237 Y126.121 E0.49118
G1 X150.237 Y125.584 E0.01696
G1 X132.085 Y107.432 E0.81057
G1 X132.622 Y107.432 E0.01696
G1 X150.237 Y125.047 E0.78659
G1 X150.237 Y124.510 E0.01696
G1 X133.159 Y107.432 E0.76260
G1 X133.696 Y107.432 E0.01696
G1 X150.237 Y123.973 E0.73862
G1 X150.237 Y123.436 E0.01696
G1 X134.233 Y107.432 E0.71464
G1 X134.770 Y107.432 E0.01696
G1 X150.237 Y122.899 E0.69066
G1 X150.237 Y122.362 E0.01696
G1 X135.308 Y107.432 E0.66667
G1 X135.845 Y107.432 E0.01696
G1 X150.237 Y121.825 E0.64269
G1 X150.237 Y121.287 E0.01696
G1 X136.382 Y107.432 E0.61871
G1 X136.919 Y107.432 E0.01696
G1 X150.237 Y120.750 E0.59472
G1 X150.237 Y120.213 E0.01696
G1 X137.456 Y107.432 E0.57074
G1 X137.993 Y107.432 E0.01696
G1 X150.237 Y119.676 E0.54676
G1 X150.237 Y119.139 E0.01696
G1 X138.530 Y107.432 E0.52278
G1 X139.067 Y107.432 E0.01696
G1 X150.237 Y118.602 E0.49879
G1 X150.237 Y118.065 E0.01696
G1 X139.604 Y107.432 E0.47481
G1 X140.141 Y107.432 E0.01696
G1 X150.237 Y117.528 E0.45083
G1 X150.237 Y116.991 E0.01696
G1 X140.678 Y107.432 E0.42684
G1 X141.215 Y107.432 E0.01696
G1 X150.237 Y116.454 E0.40286
G1 X150.237 Y115.917 E0.01696
G1 X141.752 Y107.432 E0.37888
G1 X142.289 Y107.432 E0.01696
G1 X150.237 Y115.380 E0.35490
G1 X150.237 Y114.843 E0.01696
G1 X142.826 Y107.432 E0.33091
G1 X143.363 Y107.432 E0.01696
G1 X150.237 Y114.306 E0.30693
G1 X150.237 Y113.769 E0.01696
G1 X143.900 Y107.432 E0.28295
G1 X144.437 Y107.432 E0.01696
G1 X150.237 Y113.232 E0.25897
G1 X150.237 Y112.695 E0.01696
G1 X144.975 Y107.432 E0.23498
G1 X145.512 Y107.432 E0.01696
G1 X150.237 Y112.158 E0.21100
G1 X150.237 Y111.621 E0.01696
G1 X146.049 Y107.432 E0.18702
G1 X146.586 Y107.432 E0.01696
G1 X150.237 Y111.083 E0.16303
G1 X150.237 Y110.546 E0.01696
G1 X147.123 Y107.432 E0.13905
G1 X147.660 Y107.432 E0.01696
G1 X150.237 Y110.009 E0.11507
G1 X150.237 Y109.472 E0.01696
G1 X148.197 Y107.433 E0.09109
G1 X148.734 Y107.433 E0.01696
G1 X150.237 Y108.935 E0.06710
G1 X150.237 Y108.398 E0.01696
G1 X149.271 Y107.433 E0.04312
G1 X149.808 Y107.433 E0.01696
G1 X150.406 Y108.031 E0.02672
G1 E-0.80000 F2100.00000
G1 Z0.800 F10800.000
G1 X134.904 Y110.788
G1 Z0.200
G1 E0.80000 F2100.00000
G1 F1200.000
G1 X131.548 Y107.432 E0.14987
G1 X131.011 Y107.432 E0.01696
G1 X132.977 Y109.398 E0.08777
G1 X131.823 Y108.781 E0.04131
G1 X130.474 Y107.432 E0.06024
G1 X129.937 Y107.432 E0.01696
G1 X130.939 Y108.434 E0.04477
G1 X130.169 Y108.200 E0.02544
G1 X129.400 Y107.432 E0.03432
G1 X129.045 Y107.432 E0.01122
G1 X129.021 Y107.590 E0.00505
G1 X129.652 Y108.221 E0.02819
G1 E-0.80000 F2100.00000
G1 Z0.800 F10800.000
G1 X128.734 Y107.595
G1 Z0.200
G1 E0.80000 F2100.00000
G1 F1200.000
G1 X128.345 Y107.537 E0.01471
G1 X128.306 Y107.533 E0.00129
G1 X127.834 Y107.510 E0.01538
G1 X127.362 Y107.487 E0.01356
G1 X126.891 Y107.464 E0.01174
G1 X126.419 Y107.441 E0.00992
G1 X125.947 Y107.417 E0.00810
G1 X125.475 Y107.394 E0.00628
G1 X125.003 Y107.371 E0.00446
G1 X124.490 Y107.396 E0.00287
G1 X123.476 Y107.446 E0.01409
G1 X122.461 Y107.495 E0.02250
G1 X121.694 Y107.533 E0.02340
G1 X121.267 Y107.595 E0.01315
G1 X121.071 Y108.002 F10800.000
G1 F1200.000
G1 X120.500 Y107.431 E0.02552
G1 X119.962 Y107.431 E0.01702
G1 X120.522 Y107.991 E0.02503
G1 X120.109 Y108.116 E0.01365
G1 X119.424 Y107.431 E0.03064
G1 X118.886 Y107.431 E0.01702
G1 X119.696 Y108.241 E0.03624
G1 X119.283 Y108.367 E0.01365
G1 X118.348 Y107.431 E0.04184
G1 X117.810 Y107.431 E0.01702
G1 X118.871 Y108.492 E0.04745
G1 X118.467 Y108.626 E0.01347
G1 X117.272 Y107.431 E0.05345
G1 X116.734 Y107.431 E0.01702
G1 X118.116 Y108.813 E0.06183
G1 X117.765 Y109.001 E0.01258
G1 X116.196 Y107.431 E0.07022
G1 X115.658 Y107.431 E0.01702
G1 X117.415 Y109.188 E0.07860
G1 X117.064 Y109.376 E0.01258
G1 X115.120 Y107.431 E0.08699
G1 X114.582 Y107.431 E0.01702
G1 X116.714 Y109.563 E0.09537
G1 X116.363 Y109.750 E0.01258
G1 X114.044 Y107.431 E0.10376
G1 X113.506 Y107.431 E0.01702
G1 X116.012 Y109.938 E0.11215
G1 X115.662 Y110.125 E0.01258
G1 X112.968 Y107.431 E0.12053
G1 X112.429 Y107.431 E0.01702
G1 X115.354 Y110.356 E0.13086
G1 X115.059 Y110.599 E0.01209
G1 X111.891 Y107.431 E0.14171
G1 X111.353 Y107.431 E0.01702
G1 X114.763 Y110.841 E0.15256
G1 X114.468 Y111.084 E0.01209
G1 X110.815 Y107.431 E0.16341
G1 X110.277 Y107.431 E0.01702
G1 X114.172 Y111.326 E0.17427
G1 X113.877 Y111.569 E0.01209
G1 X109.739 Y107.431 E0.18512
G1 X109.201 Y107.431 E0.01702
G1 X113.581 Y111.811 E0.19597
G1 X113.286 Y112.054 E0.01209
G1 X108.663 Y107.431 E0.20682
G1 X108.125 Y107.431 E0.01702
G1 X112.996 Y112.302 E0.21791
G1 X112.753 Y112.597 E0.01209
G1 X107.587 Y107.431 E0.23113
G1 X107.049 Y107.431 E0.01702
G1 X112.511 Y112.893 E0.24435
G1 X112.268 Y113.188 E0.01209
G1 X106.511 Y107.431 E0.25758
G1 X105.973 Y107.431 E0.01702
G1 X112.026 Y113.484 E0.27080
G1 X111.783 Y113.779 E0.01209
G1 X105.435 Y107.431 E0.28402
G1 X104.897 Y107.431 E0.01702
G1 X111.540 Y114.075 E0.29724
G1 X111.298 Y114.370 E0.01209
G1 X104.358 Y107.431 E0.31046
G1 X103.820 Y107.431 E0.01702
G1 X111.055 Y114.666 E0.32369
G1 X110.913 Y114.839 E0.00710
G1 X110.836 Y114.984 E0.00520
G1 X103.282 Y107.431 E0.33793
G1 X102.744 Y107.431 E0.01702
G1 X110.648 Y115.335 E0.35361
G1 X110.461 Y115.685 E0.01258
G1 X102.206 Y107.431 E0.36930
G1 X101.668 Y107.431 E0.01702
G1 X110.273 Y116.036 E0.38499
G1 X110.086 Y116.387 E0.01258
G1 X101.130 Y107.431 E0.40068
G1 X100.592 Y107.431 E0.01702
G1 X109.899 Y116.737 E0.41636
G1 X109.711 Y117.088 E0.01258
G1 X100.054 Y107.431 E0.43205
G1 X99.763 Y107.431 E0.00919
G1 X99.763 Y107.678 E0.00783
G1 X109.524 Y117.439 E0.43667
G1 X109.340 Y117.793 E0.01263
G1 X99.763 Y108.216 E0.42845
G1 X99.763 Y108.754 E0.01702
G1 X109.215 Y118.206 E0.42285
G1 X109.090 Y118.619 E0.01365
G1 X99.763 Y109.292 E0.41724
G1 X99.763 Y109.830 E0.01702
G1 X108.964 Y119.031 E0.41164
G1 X108.839 Y119.444 E0.01365
G1 X99.763 Y110.368 E0.40604
G1 X99.763 Y110.906 E0.01702
G1 X108.714 Y119.857 E0.40044
G1 X108.589 Y120.270 E0.01365
G1 X99.763 Y111.444 E0.39484
G1 X99.763 Y111.982 E0.01702
G1 X108.463 Y120.683 E0.38924
G1 X108.383 Y120.947 E0.00872
G1 X108.366 Y121.123 E0.00562
G1 X99.763 Y112.521 E0.38488
G1 X99.763 Y113.059 E0.01702
G1 X108.318 Y121.613 E0.38272
G1 X108.270 Y122.103 E0.01557
G1 X99.763 Y113.597 E0.38056
G1 X99.763 Y114.135 E0.01702
G1 X108.221 Y122.593 E0.37840
G1 X108.173 Y123.082 E0.01557
G1 X99.763 Y114.673 E0.37625
G1 X99.763 Y115.211 E0.01702
G1 X108.125 Y123.572 E0.37409
G1 X108.077 Y124.062 E0.01557
G1 X99.763 Y115.749 E0.37193
G1 X99.763 Y116.287 E0.01702
G1 X108.094 Y124.617 E0.37271
G1 X108.153 Y125.214 E0.01897
G1 X99.763 Y116.825 E0.37534
G1 X99.763 Y117.363 E0.01702
G1 X108.211 Y125.811 E0.37797
G1 X108.270 Y126.408 E0.01897
G1 X99.763 Y117.901 E0.38060
G1 X99.763 Y118.439 E0.01702
G1 X108.329 Y127.005 E0.38323
G1 X108.401 Y127.615 E0.01943
G1 X99.763 Y118.977 E0.38645
G1 X99.763 Y119.515 E0.01702
G1 X108.635 Y128.387 E0.39693
G1 X108.869 Y129.159 E0.02553
G1 X99.763 Y120.053 E0.40741
G1 X99.763 Y120.591 E0.01702
G1 X109.104 Y129.932 E0.41789
G1 X109.338 Y130.704 E0.02553
G1 X99.763 Y121.129 E0.42838
G1 X99.763 Y121.667 E0.01702
G1 X109.940 Y131.844 E0.45532
G1 X110.558 Y133.000 E0.04146
G1 X99.763 Y122.205 E0.48296
G1 X99.763 Y122.743 E0.01702
G1 X117.410 Y140.390 E0.78950
M73 Q1 S138
M73 P1 R137
G1 X117.948 Y140.390 E0.01702
G1 X116.252 Y138.694 E0.07589
G1 X117.407 Y139.311 E0.04146
G1 X118.486 Y140.390 E0.04825
G1 X118.707 Y140.390 E0.00701
G1 X118.748 Y140.114 E0.00882
G1 X118.150 Y139.516 E0.02677
