; generated by Slic3r Prusa Edition 1.40.1+ on 2018-11-29 at 09:19:30

; 

; external perimeters extrusion width = 0.45mm
; perimeters extrusion width = 0.45mm
; infill extrusion width = 0.45mm
; solid infill extrusion width = 0.45mm
; top infill extrusion width = 0.40mm
; support material extrusion width = 0.35mm

M107
M115 U3.1.0 ; tell printer latest fw version
M201 X9000 Y9000 Z500 E10000 ; sets maximum accelerations, mm/sec^2
M203 X500 Y500 Z12 E120 ; sets maximum feedrates, mm/sec
M204 S1500 T1500 ; sets acceleration (S) and retract acceleration (T)
M205 X10 Y10 Z0.2 E2.5 ; sets the jerk limits, mm/sec
M205 S0 T0 ; sets the minimum extruding and travel feed rate, mm/sec
M83  ; extruder relative mode
M104 S215 ; set extruder temp
M140 S60 ; set bed temp
M190 S60 ; wait for bed temp
M109 S215 ; wait for extruder temp
G28 W ; home all without mesh bed level
G80 ; mesh bed leveling
G1 Y-3.0 F1000.0 ; go outside print area
G92 E0.0
G1 X60.0 E9.0  F1000.0 ; intro line
G1 X100.0 E12.5  F1000.0 ; intro line
G92 E0.0
M900 K30; Filament gcode
G21 ; set units to millimeters
G90 ; use absolute coordinates
M83 ; use relative distances for extrusion
;BEFORE_LAYER_CHANGE
G92 E0.0
;0.2


G1 E-0.80000 F2100.00000
G1 Z0.600 F10800.000
;AFTER_LAYER_CHANGE
;0.2
G1 X107.021 Y108.259
G1 Z0.200
G1 E0.80000 F2100.00000
M204 S1000
G1 F1800
G1 X106.373 Y107.611 E0.03134
G1 X106.373 Y107.029 E0.01988
G1 X107.419 Y108.076 E0.05060
G1 X108.001 Y108.076 E0.01988
G1 X106.373 Y106.448 E0.07871
G1 X106.373 Y105.866 E0.01988
G1 X108.582 Y108.076 E0.10683
G1 X109.164 Y108.076 E0.01988
G1 X106.373 Y105.285 E0.13494
G1 X106.373 Y104.703 E0.01988
G1 X109.745 Y108.076 E0.16305
G1 X110.327 Y108.076 E0.01988
G1 X106.373 Y104.122 E0.19117
G1 X106.373 Y103.541 E0.01988
G1 X110.908 Y108.076 E0.21928
G1 X111.489 Y108.076 E0.01988
G1 X106.373 Y102.959 E0.24740
G1 X106.373 Y102.378 E0.01988
G1 X112.071 Y108.076 E0.27551
G1 X112.652 Y108.076 E0.01988
G1 X106.501 Y101.924 E0.29744
G1 X107.082 Y101.924 E0.01988
G1 X113.234 Y108.076 E0.29744
G1 X113.815 Y108.076 E0.01988
G1 X107.664 Y101.924 E0.29744
G1 X108.245 Y101.924 E0.01988
G1 X114.397 Y108.076 E0.29744
G1 X114.978 Y108.076 E0.01988
G1 X108.826 Y101.924 E0.29744
G1 X109.408 Y101.924 E0.01988
G1 X115.560 Y108.076 E0.29744
G1 X116.141 Y108.076 E0.01988
G1 X109.989 Y101.924 E0.29744
G1 X110.571 Y101.924 E0.01988
G1 X116.723 Y108.076 E0.29744
G1 X117.304 Y108.076 E0.01988
G1 X111.152 Y101.924 E0.29744
G1 X111.734 Y101.924 E0.01988
G1 X117.886 Y108.076 E0.29744
G1 X118.467 Y108.076 E0.01988
G1 X112.315 Y101.924 E0.29744
G1 X112.897 Y101.924 E0.01988
G1 X119.049 Y108.076 E0.29744
G1 X119.630 Y108.076 E0.01988
G1 X113.478 Y101.924 E0.29744
G1 X114.060 Y101.924 E0.01988
G1 X120.212 Y108.076 E0.29744
G1 X120.793 Y108.076 E0.01988
G1 X114.641 Y101.924 E0.29744
G1 X115.223 Y101.924 E0.01988
G1 X121.374 Y108.076 E0.29744
G1 X121.956 Y108.076 E0.01988
G1 X115.804 Y101.924 E0.29744
G1 X116.386 Y101.924 E0.01988
G1 X122.537 Y108.076 E0.29744
G1 X123.119 Y108.076 E0.01988
G1 X116.967 Y101.924 E0.29744
G1 X117.549 Y101.924 E0.01988
G1 X123.700 Y108.076 E0.29744
G1 X124.282 Y108.076 E0.01988
G1 X118.130 Y101.924 E0.29744
G1 X118.711 Y101.924 E0.01988
G1 X124.863 Y108.076 E0.29744
G1 X125.445 Y108.076 E0.01988
G1 X119.293 Y101.924 E0.29744
G1 X119.874 Y101.924 E0.01988
G1 X126.026 Y108.076 E0.29744
G1 X126.608 Y108.076 E0.01988
G1 X120.456 Y101.924 E0.29744
G1 X121.037 Y101.924 E0.01988
G1 X127.189 Y108.076 E0.29744
G1 X127.771 Y108.076 E0.01988
G1 X121.619 Y101.924 E0.29744
G1 X122.200 Y101.924 E0.01988
G1 X128.352 Y108.076 E0.29744
G1 X128.934 Y108.076 E0.01988
G1 X122.782 Y101.924 E0.29744
G1 X123.363 Y101.924 E0.01988
G1 X129.515 Y108.076 E0.29744
G1 X130.097 Y108.076 E0.01988
G1 X123.945 Y101.924 E0.29744
G1 X124.526 Y101.924 E0.01988
G1 X130.678 Y108.076 E0.29744
G1 X131.259 Y108.076 E0.01988
G1 X125.108 Y101.924 E0.29744
G1 X125.689 Y101.924 E0.01988
G1 X131.841 Y108.076 E0.29744
G1 X132.422 Y108.076 E0.01988
G1 X126.271 Y101.924 E0.29744
G1 X126.852 Y101.924 E0.01988
G1 X133.004 Y108.076 E0.29744
G1 X133.585 Y108.076 E0.01988
G1 X127.434 Y101.924 E0.29744
G1 X128.015 Y101.924 E0.01988
G1 X134.167 Y108.076 E0.29744
G1 X134.748 Y108.076 E0.01988
G1 X128.596 Y101.924 E0.29744
G1 X129.178 Y101.924 E0.01988
G1 X135.330 Y108.076 E0.29744
G1 X135.911 Y108.076 E0.01988
G1 X129.759 Y101.924 E0.29744
G1 X130.341 Y101.924 E0.01988
G1 X136.493 Y108.076 E0.29744
G1 X137.074 Y108.076 E0.01988
G1 X130.922 Y101.924 E0.29744
G1 X131.504 Y101.924 E0.01988
G1 X137.656 Y108.076 E0.29744
G1 X138.237 Y108.076 E0.01988
G1 X132.085 Y101.924 E0.29744
G1 X132.667 Y101.924 E0.01988
G1 X138.819 Y108.076 E0.29744
G1 X139.074 Y108.076 E0.00874
G1 X139.116 Y107.792 E0.00981
G1 X133.248 Y101.924 E0.28372
G1 X133.830 Y101.924 E0.01988
G1 X137.533 Y105.628 E0.17906
G1 X137.509 Y105.549 E0.00281
G1 X137.453 Y104.966 E0.02001
G1 X134.411 Y101.924 E0.14709
G1 X134.993 Y101.924 E0.01988
G1 X137.506 Y104.437 E0.12150
G1 X137.635 Y103.985 E0.01608
G1 X135.574 Y101.924 E0.09963
G1 X136.156 Y101.924 E0.01988
G1 X137.816 Y103.585 E0.08030
G1 X137.950 Y103.336 E0.00966
G1 X138.039 Y103.226 E0.00483
G1 X136.737 Y101.924 E0.06296
G1 X137.319 Y101.924 E0.01988
G1 X138.301 Y102.907 E0.04752
G1 X138.617 Y102.642 E0.01411
G1 X137.900 Y101.924 E0.03469
G1 X138.481 Y101.924 E0.01988
G1 X139.105 Y102.547 E0.03013
G1 X139.306 Y102.078 F10800.000
G1 F1800
G1 X139.793 Y102.006 E0.01664
G1 X140.396 Y101.976 E0.01546
G1 X140.683 Y101.989 E0.00796
G1 X140.970 Y102.002 E0.00858
G1 X141.007 Y102.006 E0.00113
G1 X141.251 Y102.042 E0.00836
G1 X141.496 Y102.078 E0.00918
G1 X141.652 Y101.860 F10800.000
G1 F1800
G1 X143.627 Y103.835 E0.10880
G1 X143.627 Y103.173 E0.02580
G1 X142.378 Y101.924 E0.06879
G1 X143.041 Y101.924 E0.02580
G1 X143.811 Y102.694 E0.04240
G1 F8640
G1 X143.041 Y101.924 E-0.25137
G1 X142.378 Y101.924 E-0.15295
G1 X143.468 Y103.013 E-0.35568
G1 E-0.04000 F2100.00000
G1 Z0.800 F10800.000
G1 X143.456 Y104.312
G1 Z0.200
G1 E0.80000 F2100.00000
G1 F1800
G1 X143.488 Y104.950 E0.02760
G1 X143.456 Y105.635 E0.02753
G1 F8640
G1 X143.488 Y104.950 E-0.15835
G1 E-0.64165 F2100.00000
G1 Z0.800 F10800.000
G1 X143.811 Y106.636
G1 Z0.200
G1 E0.80000 F2100.00000
G1 F1800
G1 X143.161 Y105.986 E0.03244
G1 X143.125 Y106.102 E0.00429
G1 X142.969 Y106.394 E0.01170
G1 X143.627 Y107.053 E0.03286
G1 X143.627 Y107.653 E0.02119
G1 X142.733 Y106.758 E0.04466
G1 X142.457 Y107.083 E0.01503
G1 X143.450 Y108.076 E0.04958
G1 X142.850 Y108.076 E0.02119
G1 X142.127 Y107.353 E0.03607
G1 X142.039 Y107.425 E0.00401
G1 X141.752 Y107.579 E0.01149
G1 X142.433 Y108.259 E0.03396
G1 F8640
G1 X141.752 Y107.579 E-0.22217
G1 X142.039 Y107.425 E-0.07516
G1 X142.127 Y107.353 E-0.02622
G1 X142.850 Y108.076 E-0.23597
G1 X143.450 Y108.076 E-0.13861
G1 X143.261 Y107.886 E-0.06188
G1 E-0.04000 F2100.00000
G1 Z0.800 F10800.000
G1 X141.395 Y107.911
G1 Z0.200
G1 E0.80000 F2100.00000
G1 F1800
G1 X141.018 Y107.967 E0.01475
G1 X140.977 Y107.971 E0.00144
G1 X140.698 Y107.985 E0.00960
G1 X140.419 Y107.998 E0.00896
G1 X139.785 Y107.967 E0.01893
G1 X139.407 Y107.911 E0.01475
G1 F8640
G1 X139.785 Y107.967 E-0.08810
G1 E-0.71190 F2100.00000
G1 Z0.800 F10800.000
G1 X144.340 Y108.788
G1 Z0.200
G1 E0.80000 F2100.00000
G1 F1800
G1 X105.660 Y108.788 E1.30925
G1 X105.660 Y101.212 E0.25646
G1 X144.340 Y101.212 E1.30925
G1 X144.340 Y108.728 E0.25443
G1 X143.941 Y108.763 F10800.000
G1 X143.933 Y108.381
G1 F1800
G1 X106.067 Y108.381 E1.28169
G1 X106.067 Y101.619 E0.22890
G1 X143.933 Y101.619 E1.28170
G1 X143.933 Y108.321 E0.22687
G1 F8640
G1 X140.641 Y108.326 E-0.76000
G1 E-0.04000 F2100.00000
G1 Z0.800 F10800.000
G1 X141.980 Y106.552
G1 Z0.200
G1 E0.80000 F2100.00000
G1 F1800
G1 X141.642 Y106.830 E0.01482
G1 X141.256 Y107.036 E0.01482
G1 X140.837 Y107.164 E0.01482
G1 X140.401 Y107.206 E0.01482
G1 X139.966 Y107.164 E0.01482
G1 X139.547 Y107.036 E0.01482
G1 X139.161 Y106.830 E0.01482
G1 X138.822 Y106.552 E0.01482
G1 X138.545 Y106.214 E0.01482
G1 X138.338 Y105.828 E0.01482
G1 X138.211 Y105.409 E0.01482
G1 X138.168 Y104.974 E0.01482
G1 X138.211 Y104.538 E0.01482
G1 X138.338 Y104.119 E0.01482
G1 X138.545 Y103.733 E0.01482
G1 X138.822 Y103.395 E0.01482
G1 X139.161 Y103.117 E0.01482
G1 X139.547 Y102.911 E0.01482
G1 X139.966 Y102.784 E0.01482
G1 X140.385 Y102.743 E0.01426
G1 X140.836 Y102.784 E0.01534
G1 X141.256 Y102.911 E0.01484
G1 X141.642 Y103.117 E0.01482
G1 X141.980 Y103.395 E0.01482
G1 X142.258 Y103.733 E0.01482
G1 X142.464 Y104.119 E0.01482
G1 X142.591 Y104.538 E0.01482
G1 X142.634 Y104.974 E0.01482
G1 X142.591 Y105.409 E0.01482
G1 X142.464 Y105.828 E0.01482
G1 X142.258 Y106.214 E0.01482
G1 X142.018 Y106.506 E0.01278
G1 X142.084 Y106.939 F10800.000
G1 X142.238 Y106.867
G1 F1800
G1 X141.869 Y107.170 E0.01617
G1 X141.412 Y107.414 E0.01753
G1 X140.917 Y107.565 E0.01753
G1 X140.401 Y107.615 E0.01753
G1 X139.886 Y107.565 E0.01753
G1 X139.390 Y107.414 E0.01753
G1 X138.934 Y107.170 E0.01753
G1 X138.533 Y106.842 E0.01753
G1 X138.205 Y106.441 E0.01753
G1 X137.961 Y105.985 E0.01753
G1 X137.810 Y105.489 E0.01753
G1 X137.759 Y104.974 E0.01753
G1 X137.810 Y104.458 E0.01753
G1 X137.961 Y103.963 E0.01753
G1 X138.205 Y103.506 E0.01753
G1 X138.533 Y103.106 E0.01753
G1 X138.934 Y102.777 E0.01753
G1 X139.390 Y102.533 E0.01753
G1 X139.886 Y102.383 E0.01753
G1 X140.383 Y102.334 E0.01692
G1 X140.914 Y102.382 E0.01805
G1 X141.412 Y102.533 E0.01761
G1 X141.869 Y102.777 E0.01753
G1 X142.269 Y103.106 E0.01753
G1 X142.598 Y103.506 E0.01753
G1 X142.842 Y103.963 E0.01753
G1 X142.992 Y104.458 E0.01753
G1 X143.043 Y104.974 E0.01753
G1 X142.992 Y105.489 E0.01753
G1 X142.842 Y105.985 E0.01753
G1 X142.598 Y106.441 E0.01753
G1 X142.282 Y106.826 E0.01686
M106 S255
;BEFORE_LAYER_CHANGE
G92 E0.0
;0.4


G1 F8640
G1 X141.869 Y107.170 E-0.12409
G1 X141.412 Y107.414 E-0.11958
G1 X140.917 Y107.565 E-0.11958
G1 X140.401 Y107.615 E-0.11958
G1 X139.886 Y107.565 E-0.11958
G1 X139.390 Y107.414 E-0.11958
G1 X139.245 Y107.337 E-0.03801
G1 E-0.04000 F2100.00000
G1 Z0.800 F10800.000
;AFTER_LAYER_CHANGE
;0.4
M104 S210 ; set temperature
G1 X141.395 Y107.911
G1 Z0.400
G1 E0.80000 F2100.00000
G1 F2360
G1 X141.018 Y107.967 E0.01475
G1
G1 X140.977 Y107.971 E0.00144
G1
G1 X140.698 Y107.985 E0.00960
G1
G1 X140.419 Y107.998 E0.00896
G1
G1 X139.785 Y107.967 E0.01893
G1
G1 X139.407 Y107.911 E0.01475
G1 X138.396 Y108.259 F10800.000
M204 S2000
G1 F2360
G1 X139.067 Y107.588 E0.03254
G1 X138.763 Y107.425 E0.01181
G1 X138.699 Y107.373 E0.00284
G1 X137.996 Y108.076 E0.03408
G1 X137.413 Y108.076 E0.01998
G1 X138.379 Y107.110 E0.04682
G1 X138.316 Y107.059 E0.00278
G1 X138.105 Y106.801 E0.01142
G1 X136.830 Y108.076 E0.06179
G1 X136.247 Y108.076 E0.01998
G1 X137.867 Y106.456 E0.07849
G1 X137.668 Y106.072 E0.01483
G1 X135.664 Y108.076 E0.09713
G1 X135.081 Y108.076 E0.01998
G1 X137.532 Y105.625 E0.11881
G1 X137.509 Y105.549 E0.00272
G1 X137.466 Y105.108 E0.01517
G1 X134.498 Y108.076 E0.14384
G1 X133.915 Y108.076 E0.01998
G1 X137.748 Y104.244 E0.18576
M204 S1000
G1 X139.306 Y102.078 F10800.000
G1 F2360
G1 X139.793 Y102.006 E0.01664
G1
G1 X140.358 Y101.978 E0.01464
G1
G1 X140.962 Y102.001 E0.01799
G1
G1 X141.001 Y102.005 E0.00119
G1
G1 X141.249 Y102.042 E0.00844
G1
G1 X141.496 Y102.078 E0.00929
G1 X141.698 Y102.547 F10800.000
M204 S2000
G1 F2360
G1 X142.320 Y101.924 E0.03011
G1 X142.902 Y101.924 E0.01987
G1 X142.185 Y102.641 E0.03466
G1 X142.501 Y102.906 E0.01410
G1 X143.483 Y101.924 E0.04748
G1 X143.627 Y101.924 E0.00493
G1 X143.627 Y102.361 E0.01493
G1 X142.763 Y103.226 E0.04179
G1 X142.853 Y103.336 E0.00486
G1 X142.986 Y103.584 E0.00963
G1 X143.627 Y102.942 E0.03102
G1 X143.627 Y103.524 E0.01987
G1 X143.020 Y104.131 E0.02934
M204 S1000
G1 X143.456 Y104.312 F10800.000
G1 F2360
G1 X143.488 Y104.950 E0.02760
G1
G1 X143.456 Y105.635 E0.02753
G1 X143.811 Y105.945 F10800.000
M204 S2000
G1 F2360
G1 X141.722 Y108.033 E0.11687
G1 X141.728 Y108.076 E0.00171
G1 X142.352 Y108.076 E0.02468
G1 X143.627 Y106.801 E0.07136
G1 X143.627 Y107.474 E0.02662
G1 X142.842 Y108.259 E0.04395
M204 S1000
G1 X133.149 Y108.259 F10800.000
M204 S2000
G1 F2360
G1 X139.040 Y102.368 E0.28555
G1 X138.975 Y101.924 E0.01538
G1 X138.901 Y101.924 E0.00251
G1 X132.750 Y108.076 E0.29818
G1 X132.167 Y108.076 E0.01998
G1 X138.318 Y101.924 E0.29818
G1 X137.735 Y101.924 E0.01998
G1 X131.584 Y108.076 E0.29818
G1 X131.001 Y108.076 E0.01998
G1 X137.153 Y101.924 E0.29818
G1 X136.570 Y101.924 E0.01998
G1 X130.418 Y108.076 E0.29818
G1 X129.835 Y108.076 E0.01998
G1 X135.987 Y101.924 E0.29818
G1 X135.404 Y101.924 E0.01998
G1 X129.252 Y108.076 E0.29818
G1 X128.669 Y108.076 E0.01998
G1 X134.821 Y101.924 E0.29818
G1 X134.238 Y101.924 E0.01998
G1 X128.086 Y108.076 E0.29818
G1 X127.503 Y108.076 E0.01998
G1 X133.655 Y101.924 E0.29818
G1 X133.072 Y101.924 E0.01998
G1 X126.920 Y108.076 E0.29818
G1 X126.337 Y108.076 E0.01998
G1 X132.489 Y101.924 E0.29818
G1 X131.906 Y101.924 E0.01998
G1 X125.754 Y108.076 E0.29818
G1 X125.171 Y108.076 E0.01998
G1 X131.323 Y101.924 E0.29818
G1 X130.740 Y101.924 E0.01998
G1 X124.588 Y108.076 E0.29818
G1 X124.006 Y108.076 E0.01998
G1 X130.157 Y101.924 E0.29818
G1 X129.574 Y101.924 E0.01998
G1 X123.423 Y108.076 E0.29818
G1 X122.840 Y108.076 E0.01998
G1 X128.991 Y101.924 E0.29818
G1 X128.409 Y101.924 E0.01998
G1 X122.257 Y108.076 E0.29818
G1 X121.674 Y108.076 E0.01998
G1 X127.826 Y101.924 E0.29818
G1 X127.243 Y101.924 E0.01998
G1 X121.091 Y108.076 E0.29818
G1 X120.508 Y108.076 E0.01998
G1 X126.660 Y101.924 E0.29818
G1 X126.077 Y101.924 E0.01998
G1 X119.925 Y108.076 E0.29818
G1 X119.342 Y108.076 E0.01998
G1 X125.494 Y101.924 E0.29818
G1 X124.911 Y101.924 E0.01998
G1 X118.759 Y108.076 E0.29818
G1 X118.176 Y108.076 E0.01998
G1 X124.328 Y101.924 E0.29818
G1 X123.745 Y101.924 E0.01998
G1 X117.593 Y108.076 E0.29818
G1 X117.010 Y108.076 E0.01998
G1 X123.162 Y101.924 E0.29818
G1 X122.579 Y101.924 E0.01998
G1 X116.427 Y108.076 E0.29818
G1 X115.844 Y108.076 E0.01998
G1 X121.996 Y101.924 E0.29818
G1 X121.413 Y101.924 E0.01998
G1 X115.262 Y108.076 E0.29818
G1 X114.679 Y108.076 E0.01998
G1 X120.830 Y101.924 E0.29818
G1 X120.247 Y101.924 E0.01998
G1 X114.096 Y108.076 E0.29818
G1 X113.513 Y108.076 E0.01998
G1 X119.665 Y101.924 E0.29818
G1 X119.082 Y101.924 E0.01998
G1 X112.930 Y108.076 E0.29818
G1 X112.347 Y108.076 E0.01998
G1 X118.499 Y101.924 E0.29818
G1 X117.916 Y101.924 E0.01998
G1 X111.764 Y108.076 E0.29818
G1 X111.181 Y108.076 E0.01998
G1 X117.333 Y101.924 E0.29818
G1 X116.750 Y101.924 E0.01998
G1 X110.598 Y108.076 E0.29818
G1 X110.015 Y108.076 E0.01998
G1 X116.167 Y101.924 E0.29818
G1 X115.584 Y101.924 E0.01998
G1 X109.432 Y108.076 E0.29818
G1 X108.849 Y108.076 E0.01998
G1 X115.001 Y101.924 E0.29818
G1 X114.418 Y101.924 E0.01998
G1 X108.266 Y108.076 E0.29818
G1 X107.683 Y108.076 E0.01998
G1 X113.835 Y101.924 E0.29818
G1 X113.252 Y101.924 E0.01998
G1 X107.100 Y108.076 E0.29818
G1 X106.518 Y108.076 E0.01998
G1 X112.669 Y101.924 E0.29818
G1 X112.086 Y101.924 E0.01998
G1 X106.373 Y107.638 E0.27695
G1 X106.373 Y107.055 E0.01998
G1 X111.503 Y101.924 E0.24870
G1 X110.921 Y101.924 E0.01998
G1 X106.373 Y106.472 E0.22044
G1 X106.373 Y105.889 E0.01998
G1 X110.338 Y101.924 E0.19218
G1 X109.755 Y101.924 E0.01998
G1 X106.373 Y105.306 E0.16393
G1 X106.373 Y104.723 E0.01998
G1 X109.172 Y101.924 E0.13567
G1 X108.589 Y101.924 E0.01998
G1 X106.373 Y104.140 E0.10742
G1 X106.373 Y103.557 E0.01998
G1 X108.006 Y101.924 E0.07916
G1 X107.423 Y101.924 E0.01998
G1 X106.373 Y102.974 E0.05091
G1 X106.373 Y102.391 E0.01998
G1 X107.023 Y101.741 E0.03153
M204 S1000
G1 X144.340 Y108.788 F10800.000
M204 S800
G1 F2360
G1 X105.660 Y108.788 E1.30925
G1 X105.660 Y101.212 E0.25646
G1 X144.340 Y101.212 E1.30925
G1 X144.340 Y108.728 E0.25443
M204 S1000
G1 X143.941 Y108.763 F10800.000
G1 X143.933 Y108.381
M204 S800
G1 F2360
G1 X106.067 Y108.381 E1.28169
G1 X106.067 Y101.619 E0.22890
G1 X143.933 Y101.619 E1.28170
G1 X143.933 Y108.321 E0.22687
M204 S1000
G1 X141.980 Y106.552 F10800.000
M204 S800
G1 F1500
G1 X141.642 Y106.830 E0.01482
G1 X141.256 Y107.036 E0.01482
