; generated by PrusaSlicer 2.2.0+win64 on 2021-12-02 at 23:14:27 UTC

; 

; external perimeters extrusion width = 0.45mm
; perimeters extrusion width = 0.45mm
; infill extrusion width = 0.45mm
; solid infill extrusion width = 0.45mm
; top infill extrusion width = 0.40mm
; support material extrusion width = 0.35mm
; first layer extrusion width = 0.42mm

M73 P0 R113
M73 Q0 S118
M201 X1000 Y1000 Z200 E5000 ; sets maximum accelerations, mm/sec^2
M203 X200 Y200 Z12 E120 ; sets maximum feedrates, mm/sec
M204 P1250 R1250 T1250 ; sets acceleration (P, T) and retract acceleration (R), mm/sec^2
M205 X8.00 Y8.00 Z0.40 E4.50 ; sets the jerk limits, mm/sec
M205 S0 T0 ; sets the minimum extruding and travel feed rate, mm/sec
M107
M862.3 P "MK3S" ; printer model check
M862.1 P0.4 ; nozzle diameter check
G90 ; use absolute coordinates
M83 ; extruder relative mode
M104 S215 ; set extruder temp
M140 S60 ; set bed temp
M190 S60 ; wait for bed temp
M109 S215 ; wait for extruder temp
G28 W ; home all without mesh bed level
G80 ; mesh bed leveling
G1 Y-3.0 F1000.0 ; go outside print area
G92 E0.0
G1 X60.0 E9.0 F1000.0 ; intro line
M73 Q0 S118
M73 P0 R113
G1 X100.0 E12.5 F1000.0 ; intro line
G92 E0.0
M221 S95

; Don't change E values below. Excessive value can damage the printer.

M907 E538 ; set extruder motor current
G21 ; set units to millimeters
G90 ; use absolute coordinates
M83 ; use relative distances for extrusion
M900 K0.05 ; Filament gcode LA 1.5
M900 K30 ; Filament gcode LA 1.0
;BEFORE_LAYER_CHANGE
G92 E0.0
;0.2


G1 E-0.80000 F2100.00000
G1 Z0.400 F10800.000
;AFTER_LAYER_CHANGE
;0.2
G1 X190.061 Y151.231
G1 Z0.200
G1 E0.80000 F2100.00000
M204 S1000
G1 F1200.000
G1 X189.401 Y151.574 E0.02331
G1 X188.668 Y151.696 E0.02331
G1 X122.663 Y152.043 E2.06956
G1 X64.096 Y152.213 E1.83633
G1 X63.545 Y152.148 E0.01740
G1 X63.024 Y151.957 E0.01740
G1 X62.561 Y151.650 E0.01740
G1 X62.182 Y151.245 E0.01740
G1 X61.932 Y150.819 E0.01550
G1 X61.775 Y150.346 E0.01562
G1 X59.912 Y141.529 E0.28255
G1 X59.809 Y140.411 E0.03520
G1 X59.440 Y70.325 E2.19753
G1 X59.521 Y69.212 E0.03498
G1 X59.740 Y68.239 E0.03128
G1 X60.228 Y66.988 E0.04211
G1 X60.951 Y65.842 E0.04248
G1 X61.592 Y65.098 E0.03079
G1 X62.446 Y64.362 E0.03534
G1 X63.433 Y63.750 E0.03642
G1 X64.496 Y63.303 E0.03618
G1 X65.620 Y63.026 E0.03630
G1 X66.751 Y62.929 E0.03558
G1 X182.791 Y62.318 E3.63841
G1 X183.909 Y62.400 E0.03513
G1 X184.997 Y62.648 E0.03501
G1 X191.934 Y65.088 E0.23056
G1 X192.469 Y65.422 E0.01977
G1 X192.898 Y65.884 E0.01977
G1 X193.190 Y66.442 E0.01977
G1 X193.326 Y67.062 E0.01989
G1 X195.067 Y99.499 E1.01851
G1 X195.066 Y144.965 E1.42557
G1 X194.919 Y145.702 E0.02355
G1 X194.547 Y146.359 E0.02367
G1 X190.102 Y151.187 E0.20579
; printing object BaseBodyDeepCut.stl id:0 copy 1
G1 F8640.000
G1 X189.401 Y151.574 E-0.18476
G1 X188.668 Y151.696 E-0.17168
G1 X186.920 Y151.705 E-0.40356
G1 E-0.04000 F2100.00000
G1 Z0.600 F10800.000
G1 X126.692 Y145.221
G1 Z0.200
G1 E0.80000 F2100.00000
G1 F1200.000
G1 X126.692 Y99.901 E1.42097
G1 X125.938 Y99.901 E0.02365
G1 X125.938 Y145.052 E1.41565
G1 X125.183 Y145.052 E0.02365
G1 X125.183 Y99.901 E1.41565
G1 X124.957 Y99.901 E0.00709
G1 X124.957 Y67.602 E1.01272
G1 X124.429 Y67.602 E0.01656
G1 X124.429 Y147.359 E2.50071
G1 X123.675 Y147.359 E0.02365
G1 X123.675 Y67.602 E2.50071
G1 X122.921 Y67.602 E0.02365
G1 X122.921 Y147.359 E2.50071
G1 X122.650 Y147.359 E0.00849
G1 X122.650 Y149.666 E0.07234
G1 X122.167 Y149.666 E0.01516
G1 X122.167 Y115.446 E1.07295
G1 X121.413 Y115.450 E0.02365
G1 X121.413 Y149.666 E1.07282
G1 X120.658 Y149.666 E0.02365
G1 X120.658 Y115.454 E1.07270
G1 X119.904 Y115.458 E0.02365
G1 X119.904 Y149.666 E1.07257
G1 X119.150 Y149.666 E0.02365
G1 X119.150 Y135.835 E0.43366
G1 X118.396 Y135.839 E0.02365
G1 X118.396 Y149.666 E0.43353
G1 X117.642 Y149.666 E0.02365
G1 X117.642 Y135.843 E0.43341
G1 X116.888 Y135.847 E0.02365
G1 X116.888 Y149.666 E0.43328
G1 X116.134 Y149.666 E0.02365
G1 X116.134 Y136.815 E0.40294
G1 X115.379 Y136.815 E0.02365
G1 X115.379 Y149.666 E0.40294
G1 X114.625 Y149.666 E0.02365
G1 X114.625 Y136.815 E0.40294
G1 X114.413 Y136.815 E0.00664
G1 X114.413 Y139.122 E0.07234
M73 Q0 S117
G1 X113.871 Y139.122 E0.01700
G1 X113.871 Y149.666 E0.33060
G1 X113.117 Y149.666 E0.02365
G1 X113.117 Y139.122 E0.33060
M73 P0 R112
G1 X112.363 Y139.122 E0.02365
G1 X112.363 Y149.666 E0.33060
G1 X111.609 Y149.666 E0.02365
G1 X111.609 Y139.122 E0.33060
G1 X110.854 Y139.122 E0.02365
G1 X110.854 Y149.666 E0.33060
G1 X110.100 Y149.666 E0.02365
G1 X110.100 Y139.122 E0.33060
G1 X109.346 Y139.122 E0.02365
G1 X109.346 Y149.666 E0.33060
G1 X108.592 Y149.666 E0.02365
G1 X108.592 Y139.122 E0.33060
G1 X107.838 Y139.122 E0.02365
G1 X107.838 Y149.666 E0.33060
G1 X107.084 Y149.666 E0.02365
G1 X107.084 Y139.122 E0.33060
G1 X106.329 Y139.122 E0.02365
G1 X106.329 Y149.666 E0.33060
G1 X105.575 Y149.666 E0.02365
G1 X105.575 Y139.122 E0.33060
G1 X104.821 Y139.122 E0.02365
G1 X104.821 Y149.666 E0.33060
G1 X104.067 Y149.666 E0.02365
G1 X104.067 Y139.122 E0.33060
G1 X103.313 Y139.122 E0.02365
G1 X103.313 Y149.666 E0.33060
G1 X102.559 Y149.666 E0.02365
G1 X102.559 Y139.122 E0.33060
G1 X101.805 Y139.122 E0.02365
G1 X101.805 Y149.666 E0.33060
G1 X101.050 Y149.666 E0.02365
G1 X101.050 Y139.122 E0.33060
G1 X100.296 Y139.122 E0.02365
G1 X100.296 Y149.666 E0.33060
G1 X99.542 Y149.666 E0.02365
G1 X99.542 Y139.122 E0.33060
G1 X98.788 Y139.122 E0.02365
G1 X98.788 Y149.666 E0.33060
G1 X98.034 Y149.666 E0.02365
G1 X98.034 Y139.122 E0.33060
G1 X97.280 Y139.122 E0.02365
G1 X97.280 Y149.666 E0.33060
G1 X96.525 Y149.666 E0.02365
G1 X96.525 Y139.122 E0.33060
G1 X95.771 Y139.122 E0.02365
G1 X95.771 Y149.666 E0.33060
G1 X95.017 Y149.666 E0.02365
G1 X95.017 Y139.122 E0.33060
G1 X94.263 Y139.122 E0.02365
G1 X94.263 Y149.666 E0.33060
G1 X93.509 Y149.666 E0.02365
G1 X93.509 Y139.122 E0.33060
G1 X92.755 Y139.122 E0.02365
G1 X92.755 Y149.666 E0.33060
G1 X92.000 Y149.666 E0.02365
G1 X92.000 Y139.122 E0.33060
G1 X91.246 Y139.122 E0.02365
G1 X91.246 Y149.666 E0.33060
G1 X90.492 Y149.666 E0.02365
G1 X90.492 Y139.122 E0.33060
G1 X89.738 Y139.122 E0.02365
G1 X89.738 Y149.666 E0.33060
G1 X88.984 Y149.666 E0.02365
G1 X88.984 Y139.122 E0.33060
G1 X88.230 Y139.122 E0.02365
G1 X88.230 Y149.666 E0.33060
G1 X87.475 Y149.666 E0.02365
G1 X87.476 Y139.122 E0.33060
G1 X86.721 Y139.122 E0.02365
G1 X86.721 Y149.666 E0.33060
G1 X85.967 Y149.666 E0.02365
G1 X85.967 Y139.122 E0.33060
G1 X85.213 Y139.122 E0.02365
G1 X85.213 Y149.666 E0.33060
G1 X84.459 Y149.666 E0.02365
G1 X84.459 Y139.122 E0.33060
G1 X83.705 Y139.122 E0.02365
G1 X83.705 Y149.666 E0.33060
G1 X82.951 Y149.666 E0.02365
G1 X82.951 Y139.122 E0.33060
G1 X82.196 Y139.122 E0.02365
G1 X82.196 Y149.666 E0.33060
G1 X81.442 Y149.666 E0.02365
G1 X81.442 Y139.122 E0.33060
G1 X80.688 Y139.122 E0.02365
G1 X80.688 Y149.666 E0.33060
G1 X79.934 Y149.666 E0.02365
G1 X79.934 Y139.122 E0.33060
G1 X79.180 Y139.122 E0.02365
G1 X79.180 Y149.666 E0.33060
G1 X78.426 Y149.666 E0.02365
G1 X78.426 Y139.122 E0.33060
G1 X77.671 Y139.122 E0.02365
G1 X77.671 Y149.666 E0.33060
G1 X76.917 Y149.666 E0.02365
G1 X76.917 Y139.122 E0.33060
G1 X76.163 Y139.122 E0.02365
G1 X76.163 Y149.666 E0.33060
G1 X75.409 Y149.666 E0.02365
G1 X75.409 Y139.122 E0.33060
G1 X74.655 Y139.122 E0.02365
G1 X74.655 Y149.666 E0.33060
G1 X73.901 Y149.666 E0.02365
G1 X73.901 Y139.122 E0.33060
G1 X73.146 Y139.122 E0.02365
G1 X73.146 Y149.666 E0.33060
G1 X72.392 Y149.666 E0.02365
G1 X72.392 Y139.122 E0.33060
G1 X71.638 Y139.122 E0.02365
G1 X71.638 Y149.666 E0.33060
G1 X70.884 Y149.666 E0.02365
G1 X70.884 Y139.122 E0.33060
G1 X70.130 Y139.122 E0.02365
G1 X70.130 Y149.666 E0.33060
G1 X69.376 Y149.666 E0.02365
G1 X69.376 Y139.122 E0.33060
G1 X68.622 Y139.122 E0.02365
G1 X68.622 Y149.666 E0.33060
G1 X67.867 Y149.666 E0.02365
G1 X67.867 Y139.122 E0.33060
G1 X67.113 Y139.122 E0.02365
G1 X67.113 Y149.666 E0.33060
G1 X66.359 Y149.666 E0.02365
G1 X66.359 Y145.642 E0.12616
G1 X65.903 Y145.564 E0.01450
G1 X65.605 Y145.470 E0.00981
G1 X65.605 Y149.666 E0.13157
G1 X64.851 Y149.666 E0.02365
G1 X64.851 Y145.175 E0.14080
G1 X64.427 Y144.963 E0.01485
G1 X64.097 Y144.735 E0.01260
G1 X64.097 Y149.835 E0.15994
G1 F8640.000
G1 X64.097 Y146.544 E-0.76000
G1 E-0.04000 F2100.00000
G1 Z0.600 F10800.000
G1 X106.329 Y122.150
G1 Z0.200
G1 E0.80000 F2100.00000
G1 F1200.000
G1 X106.329 Y114.198 E0.24935
G1 X105.575 Y114.452 E0.02496
G1 X105.575 Y121.981 E0.23605
G1 X104.821 Y121.981 E0.02365
G1 X104.821 Y114.774 E0.22595
G1 X104.440 Y114.950 E0.01316
G1 X104.067 Y115.173 E0.01362
G1 X104.067 Y121.981 E0.21344
G1 X103.313 Y121.981 E0.02365
G1 X103.313 Y115.545 E0.20179
G1 X102.559 Y115.549 E0.02365
G1 X102.559 Y121.981 E0.20167
G1 X101.805 Y121.981 E0.02365
G1 X101.805 Y115.553 E0.20155
G1 X101.050 Y115.557 E0.02365
G1 X101.050 Y121.981 E0.20142
G1 X100.296 Y121.981 E0.02365
G1 X100.296 Y115.561 E0.20130
G1 X100.269 Y115.561 E0.00084
G1 X100.289 Y119.196 E0.11398
G1 X100.273 Y119.276 E0.00254
G1 X99.849 Y120.322 E0.03540
G1 X99.562 Y121.349 E0.03342
G1 X99.542 Y121.468 E0.00380
G1 X99.542 Y122.150 E0.02138
G1 F8640.000
G1 X99.542 Y121.468 E-0.15748
G1 X99.562 Y121.349 E-0.02800
G1 X99.849 Y120.322 E-0.24614
G1 X100.273 Y119.276 E-0.26071
G1 X100.289 Y119.196 E-0.01874
G1 X100.287 Y118.984 E-0.04892
G1 E-0.04000 F2100.00000
G1 Z0.600 F10800.000
G1 X99.542 Y126.042
G1 Z0.200
G1 E0.80000 F2100.00000
G1 F1200.000
G1 X99.542 Y122.972 E0.09627
G1 X100.296 Y122.972 E0.02365
G1 X100.296 Y127.595 E0.14494
G1 X100.333 Y127.725 E0.00424
G1 X100.349 Y130.734 E0.09434
G1 X101.050 Y130.730 E0.02198
G1 X101.050 Y122.972 E0.24324
G1 X101.805 Y122.972 E0.02365
G1 X101.805 Y130.726 E0.24311
G1 X102.559 Y130.722 E0.02365
G1 X102.559 Y122.972 E0.24299
G1 X103.313 Y122.972 E0.02365
G1 X103.313 Y131.165 E0.25688
G1 X103.658 Y131.419 E0.01344
G1 X104.067 Y131.657 E0.01483
G1 X104.067 Y122.972 E0.27230
G1 X104.194 Y122.972 E0.00397
G1 X104.194 Y125.279 E0.07234
G1 X104.821 Y125.279 E0.01967
G1 X104.821 Y132.058 E0.21254
G1 X105.575 Y132.382 E0.02574
G1 X105.575 Y125.279 E0.22271
G1 X106.329 Y125.279 E0.02365
G1 X106.329 Y132.806 E0.23599
G1 F8640.000
G1 X106.329 Y129.514 E-0.76000
G1 E-0.04000 F2100.00000
G1 Z0.600 F10800.000
G1 X105.575 Y136.203
G1 Z0.200
G1 E0.80000 F2100.00000
G1 F1200.000
G1 X105.575 Y135.906 E0.00929
G1 X106.329 Y135.902 E0.02365
G1 X106.329 Y136.642 E0.02318
G1 F8640.000
G1 X106.329 Y135.902 E-0.17071
G1 X105.575 Y135.906 E-0.17414
G1 X105.575 Y136.203 E-0.06842
G1 E-0.38673 F2100.00000
G1 Z0.600 F10800.000
G1 X112.363 Y136.737
G1 Z0.200
G1 E0.80000 F2100.00000
G1 F1200.000
G1 X112.363 Y135.871 E0.02716
G1 X113.117 Y135.867 E0.02365
G1 X113.117 Y136.170 E0.00952
G1 F8640.000
G1 X113.117 Y135.867 E-0.07013
G1 X112.363 Y135.871 E-0.17414
G1 X112.363 Y136.737 E-0.20001
G1 E-0.35572 F2100.00000
G1 Z0.600 F10800.000
G1 X113.871 Y131.780
G1 Z0.200
G1 E0.80000 F2100.00000
G1 F1200.000
G1 X113.871 Y125.279 E0.20383
G1 X113.117 Y125.279 E0.02365
G1 X113.117 Y131.999 E0.21068
G1 X112.363 Y132.336 E0.02591
G1 X112.363 Y125.110 E0.22659
G1 X119.150 Y130.804 F10800.000
G1 F1200.000
G1 X119.150 Y115.462 E0.48106
G1 X118.396 Y115.465 E0.02365
G1 X118.396 Y130.639 E0.47574
G1 X117.642 Y130.643 E0.02365
G1 X117.642 Y115.469 E0.47574
G1 X116.888 Y115.473 E0.02365
G1 X116.888 Y130.647 E0.47574
G1 X116.134 Y130.651 E0.02365
G1 X116.134 Y115.477 E0.47574
G1 X115.379 Y115.481 E0.02365
G1 X115.379 Y130.654 E0.47574
G1 X115.246 Y130.655 E0.00417
G1 X115.112 Y130.704 E0.00447
G1 X114.625 Y131.073 E0.01917
G1 X114.625 Y115.485 E0.48875
G1 X114.336 Y115.487 E0.00906
G1 X114.221 Y115.454 E0.00375
G1 X113.871 Y115.246 E0.01276
G1 X113.871 Y121.981 E0.21115
G1 X113.117 Y121.981 E0.02365
G1 X113.117 Y114.829 E0.22425
G1 X112.363 Y114.490 E0.02592
G1 X112.363 Y121.981 E0.23485
G1 X112.106 Y121.981 E0.00804
G1 X112.106 Y119.674 E0.07234
G1 X111.609 Y119.674 E0.01561
G1 X111.609 Y114.244 E0.17026
G1 X111.382 Y114.170 E0.00748
G1 X110.854 Y114.058 E0.01689
G1 X110.854 Y119.674 E0.17607
G1 X110.100 Y119.674 E0.02365
G1 X110.100 Y113.759 E0.18544
G1 F8640.000
G1 X110.100 Y117.051 E-0.76000
G1 E-0.04000 F2100.00000
G1 Z0.600 F10800.000
G1 X110.100 Y110.899
G1 Z0.200
G1 E0.80000 F2100.00000
G1 F1200.000
G1 X110.100 Y104.516 E0.20016
G1 X110.854 Y104.516 E0.02365
G1 X110.854 Y110.596 E0.19065
G1 X111.609 Y110.388 E0.02453
G1 X111.609 Y104.516 E0.18412
G1 X112.106 Y104.516 E0.01561
G1 X112.106 Y102.208 E0.07234
G1 X112.363 Y102.208 E0.00804
G1 X112.363 Y110.119 E0.24804
M73 Q1 S116
G1 X112.951 Y109.875 E0.01997
G1 X113.117 Y109.783 E0.00595
G1 X113.117 Y102.208 E0.23749
G1 X113.871 Y102.208 E0.02365
G1 X113.871 Y109.560 E0.23049
G1 F8640.000
G1 X113.871 Y106.268 E-0.76000
G1 E-0.04000 F2100.00000
G1 Z0.600 F10800.000
G1 X106.329 Y110.666
G1 Z0.200
G1 E0.80000 F2100.00000
M73 P1 R111
G1 F1200.000
G1 X106.329 Y104.516 E0.19285
G1 X105.575 Y104.516 E0.02365
G1 X105.575 Y110.263 E0.18021
G1 X104.821 Y109.959 E0.02550
G1 X104.821 Y104.516 E0.17067
G1 X104.194 Y104.516 E0.01967
G1 X104.194 Y102.208 E0.07234
G1 X104.067 Y102.208 E0.00397
G1 X104.067 Y109.566 E0.23067
G1 X103.785 Y109.413 E0.01006
G1 X103.313 Y109.086 E0.01800
G1 X103.313 Y102.208 E0.21565
G1 X102.559 Y102.208 E0.02365
G1 X102.559 Y108.722 E0.20422
G1 X101.805 Y108.726 E0.02365
G1 X101.805 Y102.208 E0.20434
G1 X101.050 Y102.208 E0.02365
G1 X101.050 Y108.730 E0.20446
G1 X100.296 Y108.734 E0.02365
G1 X100.296 Y102.208 E0.20459
G1 X99.542 Y102.208 E0.02365
G1 X99.542 Y104.282 E0.06503
G1 F8640.000
G1 X99.542 Y102.208 E-0.47889
G1 X100.296 Y102.208 E-0.17414
G1 X100.296 Y102.672 E-0.10698
G1 E-0.04000 F2100.00000
G1 Z0.600 F10800.000
G1 X99.542 Y101.387
G1 Z0.200
G1 E0.80000 F2100.00000
G1 F1200.000
G1 X99.542 Y98.843 E0.07976
G1 X99.733 Y98.163 E0.02215
G1 X100.157 Y97.116 E0.03540
G1 X100.172 Y97.036 E0.00254
G1 X100.154 Y93.561 E0.10897
G1 X100.296 Y93.560 E0.00447
G1 X100.296 Y101.217 E0.24007
G1 X101.050 Y101.217 E0.02365
G1 X101.050 Y93.556 E0.24019
G1 X101.805 Y93.552 E0.02365
G1 X101.805 Y101.217 E0.24032
G1 X102.559 Y101.217 E0.02365
G1 X102.559 Y93.549 E0.24044
G1 X103.047 Y93.546 E0.01530
G1 X103.164 Y93.510 E0.00384
G1 X103.313 Y93.413 E0.00558
G1 X103.313 Y101.217 E0.24469
G1 X104.067 Y101.217 E0.02365
G1 X104.067 Y92.935 E0.25967
G1 X104.821 Y92.559 E0.02642
G1 X104.821 Y98.910 E0.19912
G1 X105.575 Y98.910 E0.02365
G1 X105.575 Y92.256 E0.20862
G1 X106.099 Y92.070 E0.01743
G1 X106.329 Y92.017 E0.00741
G1 X106.329 Y99.080 E0.22145
G1 F8640.000
G1 X106.329 Y95.788 E-0.76000
G1 E-0.04000 F2100.00000
G1 Z0.600 F10800.000
G1 X106.329 Y88.538
G1 Z0.200
G1 E0.80000 F2100.00000
G1 F1200.000
G1 X106.329 Y81.445 E0.22240
G1 X105.575 Y81.445 E0.02365
G1 X105.575 Y88.145 E0.21007
G1 X104.821 Y87.854 E0.02535
G1 X104.821 Y81.445 E0.20094
G1 X104.194 Y81.445 E0.01967
G1 X104.194 Y79.138 E0.07234
G1 X104.067 Y79.138 E0.00397
G1 X104.067 Y87.474 E0.26138
G1 X103.848 Y87.361 E0.00772
G1 X103.313 Y87.009 E0.02009
G1 X103.313 Y79.138 E0.24681
G1 X102.559 Y79.138 E0.02365
G1 X102.559 Y86.721 E0.23778
G1 X101.805 Y86.725 E0.02365
G1 X101.805 Y79.138 E0.23790
G1 X101.050 Y79.138 E0.02365
G1 X101.050 Y86.729 E0.23803
G1 X100.296 Y86.733 E0.02365
G1 X100.296 Y79.138 E0.23815
G1 X99.542 Y79.138 E0.02365
G1 X99.542 Y82.468 E0.10441
G1 F8640.000
G1 X99.542 Y79.176 E-0.76000
G1 E-0.04000 F2100.00000
G1 Z0.600 F10800.000
G1 X99.542 Y78.316
G1 Z0.200
G1 E0.80000 F2100.00000
G1 F1200.000
G1 X99.542 Y76.267 E0.06424
G1 X99.616 Y76.003 E0.00861
G1 X100.040 Y74.956 E0.03540
G1 X100.055 Y74.877 E0.00254
G1 X100.038 Y71.561 E0.10395
G1 X100.296 Y71.560 E0.00810
G1 X100.296 Y78.146 E0.20651
G1 X101.050 Y78.146 E0.02365
G1 X101.050 Y71.556 E0.20663
G1 X101.805 Y71.552 E0.02365
G1 X101.805 Y78.146 E0.20675
G1 X102.559 Y78.146 E0.02365
G1 X102.559 Y71.548 E0.20688
G1 X102.712 Y71.547 E0.00482
G1 X102.832 Y71.510 E0.00393
G1 X103.313 Y71.183 E0.01822
G1 X103.313 Y78.146 E0.21832
G1 X104.067 Y78.146 E0.02365
G1 X104.067 Y70.721 E0.23283
G1 X104.651 Y70.411 E0.02073
G1 X104.821 Y70.343 E0.00574
G1 X104.821 Y75.839 E0.17233
