; generated by PrusaSlicer 2.2.0+win64 on 2020-09-10 at 22:03:27 UTC

; 

; external perimeters extrusion width = 0.45mm
; perimeters extrusion width = 0.45mm
; infill extrusion width = 0.45mm
; solid infill extrusion width = 0.45mm
; top infill extrusion width = 0.40mm
; first layer extrusion width = 0.42mm

M73 P0 R2
M73 Q0 S2
M201 X1000 Y1000 Z1000 E5000 ; sets maximum accelerations, mm/sec^2
M203 X200 Y200 Z12 E120 ; sets maximum feedrates, mm/sec
M204 P1250 R1250 T1250 ; sets acceleration (P, T) and retract acceleration (R), mm/sec^2
M205 X8.00 Y8.00 Z0.40 E1.50 ; sets the jerk limits, mm/sec
M205 S0 T0 ; sets the minimum extruding and travel feed rate, mm/sec
M107
M862.3 P "MK3S" ; printer model check
M862.1 P0.4 ; nozzle diameter check
M115 U3.8.0 ; tell printer latest fw version
G90 ; use absolute coordinates
M83 ; extruder relative mode
M104 S215 ; set extruder temp
M140 S60 ; set bed temp
M190 S60 ; wait for bed temp
M109 S215 ; wait for extruder temp
G28 W ; home all without mesh bed level
G80 ; mesh bed leveling
G1 Y-3.0 F1000.0 ; go outside print area
G92 E0.0
G1 X60.0 E9.0 F1000.0 ; intro line
M73 Q3 S2
M73 P3 R2
G1 X100.0 E12.5 F1000.0 ; intro line
G92 E0.0
M221 S95
G21 ; set units to millimeters
G90 ; use absolute coordinates
M83 ; use relative distances for extrusion
M900 K0.06 ; Filament gcode LA 1.5
M900 K30 ; Filament gcode LA 1.0
;BEFORE_LAYER_CHANGE
G92 E0.0
;0.2


G1 E-0.80000 F2100.00000
G1 Z0.600 F10800.000
;AFTER_LAYER_CHANGE
;0.2
G1 X121.525 Y102.385
G1 Z0.200
G1 E0.80000 F2100.00000
M204 S1000
G1 F900
G1 X121.834 Y102.017 E0.01506
G1 X122.168 Y101.698 E0.01447
G1 X122.644 Y101.345 E0.01859
G1 X123.299 Y100.997 E0.02325
G1 X123.800 Y100.819 E0.01668
G1 X124.251 Y100.715 E0.01451
G1 X124.710 Y100.660 E0.01450
G1 X125.281 Y100.659 E0.01792
G1 X125.696 Y100.706 E0.01308
G1 X126.116 Y100.795 E0.01348
G1 X126.774 Y101.030 E0.02190
G1 X127.475 Y101.421 E0.02517
G1 X127.860 Y101.722 E0.01532
G1 X128.198 Y102.051 E0.01478
G1 X128.473 Y102.380 E0.01344
G1 X128.723 Y102.750 E0.01399
G1 X128.933 Y103.142 E0.01395
G1 X129.100 Y103.547 E0.01374
G1 X129.231 Y103.990 E0.01450
G1 X129.318 Y104.472 E0.01535
G1 X129.349 Y105.090 E0.01942
G1 X129.317 Y105.537 E0.01404
G1 X129.237 Y105.986 E0.01428
G1 X129.116 Y106.409 E0.01381
G1 X128.944 Y106.836 E0.01444
G1 X128.735 Y107.230 E0.01399
G1 X128.487 Y107.601 E0.01397
G1 X128.202 Y107.945 E0.01401
G1 X127.880 Y108.261 E0.01415
G1 X127.353 Y108.658 E0.02069
G1 X126.964 Y108.881 E0.01405
G1 X126.526 Y109.074 E0.01500
G1 X126.105 Y109.207 E0.01386
G1 X125.658 Y109.300 E0.01431
G1 X125.188 Y109.346 E0.01480
G1 X124.731 Y109.342 E0.01434
G1 X124.284 Y109.291 E0.01409
G1 X123.858 Y109.197 E0.01370
G1 X123.434 Y109.059 E0.01397
G1 X123.040 Y108.884 E0.01352
G1 X122.483 Y108.548 E0.02038
G1 X122.115 Y108.256 E0.01473
G1 X121.801 Y107.947 E0.01382
G1 X121.519 Y107.608 E0.01383
G1 X121.276 Y107.249 E0.01360
G1 X121.069 Y106.862 E0.01376
G1 X120.906 Y106.472 E0.01323
G1 X120.732 Y105.843 E0.02049
G1 X120.666 Y105.375 E0.01481
G1 X120.651 Y104.909 E0.01461
G1 X120.682 Y104.469 E0.01384
G1 X120.761 Y104.022 E0.01423
G1 X120.880 Y103.603 E0.01364
G1 X121.050 Y103.177 E0.01439
G1 X121.270 Y102.762 E0.01471
G1 X121.491 Y102.434 E0.01241
G1 E-0.80000 F2100.00000
G1 Z0.800 F10800.000
G1 X121.043 Y105.351
G1 Z0.200
G1 E0.80000 F2100.00000
G1 F900
G1 X121.028 Y104.925 E0.01336
G1 X121.056 Y104.524 E0.01263
G1 X121.127 Y104.115 E0.01302
G1 X121.234 Y103.733 E0.01243
G1 X121.389 Y103.343 E0.01314
G1 X121.588 Y102.964 E0.01343
G1 X121.820 Y102.619 E0.01302
G1 X122.116 Y102.268 E0.01440
G1 X122.419 Y101.979 E0.01313
G1 X122.833 Y101.671 E0.01618
G1 X123.463 Y101.337 E0.02234
G1 X123.914 Y101.178 E0.01502
G1 X124.324 Y101.085 E0.01319
G1 X124.743 Y101.035 E0.01321
G1 X125.249 Y101.035 E0.01588
G1 X125.644 Y101.080 E0.01245
G1 X126.025 Y101.161 E0.01223
G1 X126.605 Y101.368 E0.01930
G1 X127.256 Y101.728 E0.02331
G1 X127.605 Y102.001 E0.01390
G1 X127.915 Y102.300 E0.01351
G1 X128.177 Y102.614 E0.01281
G1 X128.404 Y102.952 E0.01277
G1 X128.596 Y103.310 E0.01274
G1 X128.748 Y103.680 E0.01253
G1 X128.867 Y104.086 E0.01326
G1 X128.945 Y104.526 E0.01401
G1 X128.972 Y105.075 E0.01725
G1 X128.944 Y105.482 E0.01278
G1 X128.872 Y105.892 E0.01306
G1 X128.762 Y106.278 E0.01258
G1 X128.605 Y106.669 E0.01321
G1 X128.415 Y107.030 E0.01278
G1 X128.190 Y107.368 E0.01273
G1 X127.918 Y107.696 E0.01338
G1 X127.625 Y107.983 E0.01285
G1 X127.155 Y108.338 E0.01848
G1 X126.802 Y108.541 E0.01275
G1 X126.402 Y108.718 E0.01374
G1 X126.018 Y108.840 E0.01264
G1 X125.610 Y108.926 E0.01306
G1 X125.180 Y108.969 E0.01354
G1 X124.763 Y108.966 E0.01310
G1 X124.354 Y108.920 E0.01288
G1 X123.965 Y108.836 E0.01250
G1 X123.578 Y108.710 E0.01276
G1 X123.203 Y108.544 E0.01284
G1 X122.707 Y108.245 E0.01816
G1 X122.371 Y107.979 E0.01343
G1 X122.084 Y107.698 E0.01261
G1 X121.825 Y107.389 E0.01264
G1 X121.603 Y107.061 E0.01241
G1 X121.413 Y106.708 E0.01256
G1 X121.259 Y106.338 E0.01256
G1 X121.104 Y105.777 E0.01826
G1 X121.051 Y105.411 E0.01160
G1 X121.419 Y105.327 F10800.000
G1 F900
G1 X121.405 Y104.940 E0.01212
G1 X121.429 Y104.577 E0.01141
G1 X121.493 Y104.206 E0.01181
G1 X121.589 Y103.862 E0.01122
G1 X121.728 Y103.509 E0.01189
G1 X121.908 Y103.165 E0.01216
G1 X122.116 Y102.854 E0.01173
G1 X122.397 Y102.519 E0.01372
G1 X122.670 Y102.261 E0.01178
G1 X123.023 Y101.997 E0.01380
G1 X123.626 Y101.677 E0.02141
G1 X124.027 Y101.538 E0.01332
G1 X124.397 Y101.455 E0.01188
G1 X124.775 Y101.411 E0.01194
G1 X125.218 Y101.411 E0.01389
G1 X125.575 Y101.450 E0.01123
G1 X125.935 Y101.528 E0.01155
G1 X126.437 Y101.705 E0.01672
G1 X127.037 Y102.036 E0.02145
G1 X127.351 Y102.279 E0.01248
G1 X127.633 Y102.551 E0.01226
G1 X127.870 Y102.834 E0.01159
G1 X128.077 Y103.139 E0.01156
G1 X128.251 Y103.463 E0.01151
G1 X128.395 Y103.814 E0.01190
G1 X128.502 Y104.181 E0.01199
G1 X128.571 Y104.579 E0.01268
G1 X128.595 Y105.061 E0.01512
G1 X128.570 Y105.428 E0.01152
G1 X128.506 Y105.799 E0.01181
G1 X128.402 Y106.165 E0.01194
G1 X128.259 Y106.519 E0.01195
G1 X128.087 Y106.844 E0.01155
G1 X127.883 Y107.150 E0.01152
G1 X127.635 Y107.447 E0.01214
G1 X127.371 Y107.704 E0.01156
G1 X126.956 Y108.017 E0.01631
G1 X126.639 Y108.200 E0.01145
G1 X126.276 Y108.362 E0.01247
G1 X125.930 Y108.474 E0.01141
G1 X125.561 Y108.552 E0.01181
G1 X125.172 Y108.592 E0.01227
G1 X124.793 Y108.590 E0.01186
G1 X124.425 Y108.550 E0.01163
G1 X124.055 Y108.469 E0.01187
G1 X123.705 Y108.355 E0.01153
G1 X123.368 Y108.204 E0.01158
G1 X122.931 Y107.941 E0.01598
G1 X122.627 Y107.702 E0.01214
G1 X122.366 Y107.448 E0.01141
G1 X122.131 Y107.168 E0.01145
G1 X121.930 Y106.873 E0.01120
G1 X121.750 Y106.538 E0.01194
G1 X121.612 Y106.205 E0.01129
G1 X121.475 Y105.711 E0.01609
G1 X121.428 Y105.386 E0.01029
G1 X121.795 Y105.301 F10800.000
G1 F900
G1 X121.781 Y104.954 E0.01087
G1 X121.802 Y104.630 E0.01019
G1 X121.859 Y104.297 E0.01060
G1 X121.944 Y103.989 E0.01001
G1 X122.067 Y103.673 E0.01065
G1 X122.227 Y103.365 E0.01089
G1 X122.411 Y103.088 E0.01041
G1 X122.679 Y102.770 E0.01302
G1 X122.921 Y102.543 E0.01042
G1 X123.213 Y102.323 E0.01145
G1 X123.789 Y102.018 E0.02046
G1 X124.139 Y101.899 E0.01158
G1 X124.469 Y101.825 E0.01060
G1 X124.807 Y101.787 E0.01068
G1 X125.187 Y101.787 E0.01193
G1 X125.523 Y101.824 E0.01059
G1 X125.843 Y101.894 E0.01027
G1 X126.270 Y102.044 E0.01420
G1 X126.819 Y102.344 E0.01959
G1 X127.098 Y102.559 E0.01106
G1 X127.351 Y102.801 E0.01097
G1 X127.575 Y103.068 E0.01094
G1 X127.759 Y103.341 E0.01032
G1 X127.913 Y103.631 E0.01030
G1 X128.042 Y103.946 E0.01067
G1 X128.136 Y104.275 E0.01072
G1 X128.198 Y104.632 E0.01136
G1 X128.218 Y105.047 E0.01305
G1 X128.197 Y105.374 E0.01027
G1 X128.140 Y105.707 E0.01058
G1 X128.048 Y106.035 E0.01069
G1 X127.921 Y106.351 E0.01068
G1 X127.759 Y106.659 E0.01091
G1 X127.576 Y106.930 E0.01027
G1 X127.353 Y107.197 E0.01090
G1 X127.117 Y107.425 E0.01028
G1 X126.756 Y107.697 E0.01419
G1 X126.476 Y107.861 E0.01016
G1 X126.149 Y108.007 E0.01121
G1 X125.840 Y108.107 E0.01019
G1 X125.511 Y108.178 E0.01056
G1 X125.162 Y108.215 E0.01101
G1 X124.823 Y108.214 E0.01062
G1 X124.493 Y108.179 E0.01040
G1 X124.162 Y108.108 E0.01061
G1 X123.832 Y108.000 E0.01089
G1 X123.533 Y107.865 E0.01030
G1 X123.154 Y107.637 E0.01385
G1 X122.882 Y107.424 E0.01086
G1 X122.648 Y107.197 E0.01020
G1 X122.437 Y106.948 E0.01023
G1 X122.248 Y106.669 E0.01057
G1 X122.087 Y106.369 E0.01069
G1 X121.965 Y106.073 E0.01003
G1 X121.846 Y105.643 E0.01397
G1 X121.804 Y105.360 E0.00898
G1 X122.172 Y105.274 F10800.000
G1 F900
G1 X122.158 Y104.967 E0.00962
G1 X122.176 Y104.682 E0.00897
G1 X122.225 Y104.387 E0.00939
G1 X122.299 Y104.116 E0.00880
G1 X122.407 Y103.836 E0.00940
G1 X122.548 Y103.564 E0.00962
G1 X122.707 Y103.322 E0.00906
G1 X122.960 Y103.022 E0.01230
G1 X123.171 Y102.825 E0.00905
G1 X123.403 Y102.649 E0.00913
G1 X123.951 Y102.359 E0.01946
G1 X124.248 Y102.260 E0.00979
G1 X124.539 Y102.196 E0.00935
G1 X124.838 Y102.163 E0.00942
G1 X125.157 Y102.163 E0.01002
G1 X125.453 Y102.195 E0.00934
G1 X125.752 Y102.260 E0.00959
G1 X126.104 Y102.383 E0.01170
G1 X126.602 Y102.652 E0.01773
G1 X126.846 Y102.839 E0.00964
G1 X127.069 Y103.052 E0.00969
G1 X127.269 Y103.289 E0.00969
G1 X127.431 Y103.528 E0.00907
G1 X127.576 Y103.800 E0.00965
G1 X127.688 Y104.078 E0.00940
G1 X127.771 Y104.368 E0.00946
G1 X127.824 Y104.684 E0.01004
G1 X127.842 Y105.034 E0.01099
G1 X127.821 Y105.339 E0.00961
G1 X127.771 Y105.632 E0.00931
G1 X127.688 Y105.922 E0.00944
G1 X127.576 Y106.200 E0.00942
G1 X127.431 Y106.472 E0.00965
G1 X127.269 Y106.710 E0.00903
G1 X127.071 Y106.946 E0.00966
G1 X126.864 Y107.145 E0.00901
G1 X126.555 Y107.378 E0.01212
G1 X126.311 Y107.521 E0.00888
G1 X126.022 Y107.652 E0.00995
G1 X125.750 Y107.741 E0.00897
G1 X125.460 Y107.804 E0.00931
G1 X125.151 Y107.838 E0.00974
G1 X124.853 Y107.838 E0.00935
G1 X124.544 Y107.805 E0.00975
G1 X124.253 Y107.742 E0.00933
G1 X123.961 Y107.645 E0.00964
G1 X123.699 Y107.526 E0.00903
G1 X123.377 Y107.333 E0.01177
G1 X123.136 Y107.145 E0.00959
G1 X122.929 Y106.946 E0.00899
G1 X122.743 Y106.726 E0.00902
G1 X122.575 Y106.481 E0.00933
G1 X122.432 Y106.216 E0.00944
G1 X122.318 Y105.940 E0.00936
G1 X122.217 Y105.575 E0.01186
G1 X122.181 Y105.333 E0.00767
G1 X122.548 Y105.246 F10800.000
G1 F900
G1 X122.535 Y104.979 E0.00838
G1 X122.550 Y104.732 E0.00775
G1 X122.592 Y104.476 E0.00814
G1 X122.660 Y104.225 E0.00816
G1 X122.755 Y103.984 E0.00814
G1 X122.878 Y103.747 E0.00836
G1 X123.015 Y103.540 E0.00779
G1 X123.225 Y103.290 E0.01023
G1 X123.420 Y103.108 E0.00837
G1 X123.618 Y102.960 E0.00774
G1 X124.087 Y102.711 E0.01665
G1 X124.340 Y102.625 E0.00838
G1 X124.592 Y102.569 E0.00810
G1 X124.850 Y102.540 E0.00814
G1 X125.127 Y102.539 E0.00870
G1 X125.402 Y102.569 E0.00867
G1 X125.660 Y102.625 E0.00828
G1 X125.940 Y102.722 E0.00928
G1 X126.386 Y102.962 E0.01586
G1 X126.594 Y103.121 E0.00822
G1 X126.789 Y103.305 E0.00841
G1 X126.962 Y103.509 E0.00839
G1 X127.113 Y103.731 E0.00841
G1 X127.238 Y103.967 E0.00837
G1 X127.334 Y104.208 E0.00814
G1 X127.405 Y104.459 E0.00819
G1 X127.450 Y104.734 E0.00874
G1 X127.465 Y105.021 E0.00900
G1 X127.448 Y105.287 E0.00834
G1 X127.405 Y105.540 E0.00807
G1 X127.334 Y105.792 E0.00819
G1 X127.238 Y106.033 E0.00816
G1 X127.113 Y106.269 E0.00837
G1 X126.963 Y106.490 E0.00837
G1 X126.790 Y106.694 E0.00838
G1 X126.612 Y106.865 E0.00774
G1 X126.354 Y107.059 E0.01012
G1 X126.145 Y107.183 E0.00761
G1 X125.893 Y107.297 E0.00869
G1 X125.658 Y107.375 E0.00775
G1 X125.407 Y107.431 E0.00805
G1 X125.139 Y107.461 E0.00848
G1 X124.881 Y107.462 E0.00808
G1 X124.612 Y107.434 E0.00848
G1 X124.360 Y107.380 E0.00808
G1 X124.107 Y107.297 E0.00835
G1 X123.864 Y107.187 E0.00836
G1 X123.599 Y107.027 E0.00971
G1 X123.389 Y106.865 E0.00833
G1 X123.210 Y106.694 E0.00775
G1 X123.037 Y106.490 E0.00838
G1 X122.892 Y106.278 E0.00807
G1 X122.769 Y106.047 E0.00819
G1 X122.672 Y105.808 E0.00809
G1 X122.588 Y105.506 E0.00983
G1 X122.557 Y105.305 E0.00638
G1 X122.924 Y105.216 F10800.000
G1 F900
G1 X122.926 Y104.765 E0.01416
G1 X123.021 Y104.336 E0.01376
G1 X123.206 Y103.932 E0.01396
G1 X123.492 Y103.557 E0.01477
G1 X123.833 Y103.270 E0.01397
G1 X124.223 Y103.063 E0.01386
G1 X124.432 Y102.991 E0.00693
G1 X124.881 Y102.916 E0.01426
G1 X125.098 Y102.915 E0.00679
G1 X125.351 Y102.942 E0.00799
G1 X125.567 Y102.991 E0.00697
G1 X125.777 Y103.063 E0.00694
G1 X126.171 Y103.272 E0.01399
G1 X126.344 Y103.403 E0.00681
G1 X126.509 Y103.557 E0.00708
G1 X126.668 Y103.745 E0.00770
G1 X126.794 Y103.932 E0.00707
G1 X126.979 Y104.336 E0.01396
G1 X127.038 Y104.549 E0.00693
G1 X127.076 Y104.784 E0.00745
G1 X127.074 Y105.235 E0.01415
G1 X126.979 Y105.663 E0.01374
G1 X126.794 Y106.068 E0.01398
G1 X126.668 Y106.256 E0.00709
G1 X126.359 Y106.584 E0.01412
G1 X126.152 Y106.741 E0.00815
G1 X125.764 Y106.943 E0.01371
G1 X125.338 Y107.060 E0.01385
G1 X124.892 Y107.085 E0.01401
G1 X124.451 Y107.014 E0.01400
G1 X124.031 Y106.849 E0.01414
G1 X123.820 Y106.722 E0.00774
G1 X123.478 Y106.429 E0.01411
G1 X123.211 Y106.076 E0.01389
G1 X123.026 Y105.678 E0.01375
G1 X122.933 Y105.276 E0.01294
G1 E-0.80000 F2100.00000
G1 Z0.800 F10800.000
G1 X124.929 Y106.307
G1 Z0.200
G1 E0.80000 F2100.00000
G1 F900
G1 X124.650 Y106.261 E0.00887
G1 X124.387 Y106.156 E0.00887
G1 X124.153 Y105.997 E0.00888
G1 X123.951 Y105.785 E0.00916
G1 X123.884 Y105.686 E0.00375
G1 X123.759 Y105.414 E0.00939
G1 X123.699 Y105.142 E0.00875
G1 X123.699 Y104.843 E0.00937
G1 X123.717 Y104.731 E0.00355
G1 X123.812 Y104.451 E0.00928
G1 X123.958 Y104.208 E0.00888
G1 X124.153 Y104.003 E0.00887
G1 X124.387 Y103.844 E0.00887
G1 X124.664 Y103.733 E0.00937
G1 X124.775 Y103.709 E0.00354
G1 X125.087 Y103.692 E0.00980
G1 X125.196 Y103.704 E0.00346
G1 X125.484 Y103.784 E0.00938
G1 X125.734 Y103.917 E0.00887
G1 X125.962 Y104.110 E0.00938
G1 X126.034 Y104.194 E0.00345
G1 X126.188 Y104.450 E0.00938
G1 X126.278 Y104.719 E0.00887
G1 X126.309 Y105.000 E0.00887
G1 X126.278 Y105.281 E0.00887
G1 X126.188 Y105.550 E0.00887
G1 X126.042 Y105.792 E0.00888
G1 X125.841 Y106.004 E0.00915
G1 X125.744 Y106.079 E0.00384
G1 X125.485 Y106.216 E0.00919
G1 X125.212 Y106.291 E0.00888
G1 X124.989 Y106.304 E0.00699
G1 X124.909 Y106.686 F10800.000
G1 F900
G1 X124.548 Y106.626 E0.01144
G1 X124.209 Y106.491 E0.01144
G1 X123.907 Y106.286 E0.01145
G1 X123.657 Y106.023 E0.01140
G1 X123.555 Y105.873 E0.00570
G1 X123.399 Y105.535 E0.01166
G1 X123.322 Y105.183 E0.01131
G1 X123.322 Y104.812 E0.01162
G1 X123.350 Y104.639 E0.00548
G1 X123.468 Y104.291 E0.01152
G1 X123.656 Y103.978 E0.01145
G1 X123.907 Y103.713 E0.01144
G1 X124.209 Y103.509 E0.01144
G1 X124.554 Y103.371 E0.01162
G1 X124.724 Y103.334 E0.00547
G1 X125.097 Y103.314 E0.01171
G1 X125.268 Y103.333 E0.00538
G1 X125.625 Y103.432 E0.01162
G1 X125.947 Y103.603 E0.01144
G1 X126.230 Y103.843 E0.01162
G1 X126.341 Y103.974 E0.00538
G1 X126.532 Y104.291 E0.01163
G1 X126.649 Y104.637 E0.01144
G1 X126.688 Y105.000 E0.01144
G1 X126.649 Y105.363 E0.01144
G1 X126.532 Y105.709 E0.01144
G1 X126.344 Y106.022 E0.01145
G1 X126.094 Y106.286 E0.01139
G1 X125.948 Y106.397 E0.00578
G1 X125.625 Y106.568 E0.01145
G1 X125.273 Y106.666 E0.01145
G1 X124.969 Y106.682 E0.00956
G1 X124.743 Y106.360 F10800.000
G1 E-0.80000 F2100.00000
G1 Z0.800 F10800.000
G1 X126.163 Y104.730
G1 Z0.200
G1 E0.80000 F2100.00000
G1 F900
G1 X125.575 Y104.152 E0.02771
G1 X125.379 Y104.049 E0.00744
G1 X125.143 Y103.983 E0.00824
G1 X124.849 Y103.988 E0.00987
G1 X126.008 Y105.147 E0.05509
G1 X125.930 Y105.430 E0.00986
G1 X125.851 Y105.561 E0.00515
G1 X124.439 Y104.150 E0.06707
G1 X124.337 Y104.219 E0.00415
G1 X124.152 Y104.434 E0.00953
G1 X125.569 Y105.851 E0.06734
G1 X125.380 Y105.951 E0.00720
G1 X125.157 Y106.011 E0.00773
G1 X123.986 Y104.840 E0.05566
G1 X123.982 Y105.111 E0.00911
G1 X124.028 Y105.324 E0.00732
G1 X124.131 Y105.547 E0.00824
G1 X124.735 Y106.160 E0.02894
M106 S255
;BEFORE_LAYER_CHANGE
G92 E0.0
;0.4


G1 E-0.80000 F2100.00000
G1 Z0.800 F10800.000
;AFTER_LAYER_CHANGE
;0.4
M104 S210 ; set temperature
G1 X124.910 Y106.335
G1 Z0.400
G1 E0.80000 F2100.00000
M204 S800
G1 F900
