; generated by PrusaSlicer 2.5.0-rc2+win64 on 2022-10-13 at 19:21:46 UTC

; 

; external perimeters extrusion width = 0.45mm
; perimeters extrusion width = 0.45mm
; infill extrusion width = 0.45mm
; solid infill extrusion width = 0.45mm
; top infill extrusion width = 0.40mm
; first layer extrusion width = 0.42mm

M73 P0 R31
M73 Q0 S31
M107
;TYPE:Custom
M862.3 P "MK3S" ; printer model check
M862.1 P0.4 ; nozzle diameter check
G90 ; use absolute coordinates
M83 ; extruder relative mode
M104 S215 ; set extruder temp
M140 S60 ; set bed temp
M190 S60 ; wait for bed temp
M109 S215 ; wait for extruder temp
G28 W ; home all without mesh bed level
G80 ; mesh bed leveling
G1 Y-3.0 F1000.0 ; go outside print area
G92 E0.0
G1 X60.0 E9.0 F1000.0 ; intro line
G1 X100.0 E12.5 F1000.0 ; intro line
G92 E0.0
M221 S95

; Don't change E values below. Excessive value can damage the printer.
M907 E430 ; set extruder motor current
G21 ; set units to millimeters
G90 ; use absolute coordinates
M83 ; use relative distances for extrusion
M900 K0.05 ; Filament gcode LA 1.5
M900 K30 ; Filament gcode LA 1.0
M107
;LAYER_CHANGE
;Z:0.2
;HEIGHT:0.2
;BEFORE_LAYER_CHANGE
G92 E0.0
;0.2


G1 E-.8 F2100
G1 Z.4 F720
;AFTER_LAYER_CHANGE
;0.2
G1 X87.82 Y91.022 F10800
G1 Z.2 F720
G1 E.8 F2100
M204 S800
;TYPE:Skirt/Brim
;WIDTH:0.42
G1 F1200
G1 X88.866 Y90.146 E.04278
G1 X89.806 Y89.952 E.03008
G1 X160.194 Y89.952 E2.20698
G1 X161.501 Y90.344 E.04278
G1 X162.378 Y91.39 E.04278
G1 X162.571 Y92.329 E.03008
G1 X162.571 Y117.671 E.79456
G1 X162.18 Y118.978 E.04278
G1 X161.134 Y119.854 E.04278
G1 X160.194 Y120.048 E.03008
G1 X89.806 Y120.048 E2.20698
G1 X88.499 Y119.656 E.04278
M73 P0 R30
G1 X87.622 Y118.61 E.04278
G1 X87.429 Y117.671 E.03008
G1 X87.429 Y92.329 E.79456
G1 X87.803 Y91.08 E.0409
M204 S1000
; printing object Top.stl id:0 copy 0
;WIPE_START
G1 F8640
G1 X88.866 Y90.146 E-.32671
G1 X89.806 Y89.952 E-.22155
G1 X90.723 Y89.952 E-.21174
;WIPE_END
G1 E-.04 F2100
G1 Z.6 F720
G1 X91.004 Y102.846 F10800
G1 Z.2 F720
G1 E.8 F2100
M204 S800
;TYPE:Perimeter
;WIDTH:0.419999
G1 F1200
G1 X90.937 Y102.726 E.00433
G1 X90.593 Y102.578 E.01173
G1 X90.593 Y96.728 E.18342
G1 X90.973 Y96.543 E.01327
G1 X91.046 Y96.42 E.00447
G1 X91.093 Y96.195 E.00721
G1 X91.061 Y95.354 E.0264
G1 X90.932 Y95.145 E.0077
G1 X90.593 Y95.002 E.01155
G1 X90.593 Y93.116 E.05911
G1 X159.407 Y93.116 E2.15762
G1 X159.407 Y95.002 E.05911
M73 P1 R30
M73 Q1 S31
G1 X159.068 Y95.145 E.01155
G1 X158.939 Y95.354 E.0077
G1 X158.907 Y95.539 E.00591
G1 X158.922 Y96.324 E.02461
G1 X159.027 Y96.543 E.0076
G1 X159.407 Y96.728 E.01327
G1 X159.407 Y102.578 E.18342
G1 X159.063 Y102.726 E.01173
G1 X158.974 Y102.85 E.00479
G1 X158.907 Y103.116 E.0086
G1 X158.915 Y103.906 E.02476
G1 X159.036 Y104.173 E.00919
G1 X159.407 Y104.348 E.01289
G1 X159.407 Y109.875 E.17328
G1 X159.038 Y110.048 E.0128
G1 X158.96 Y110.172 E.00459
G1 X158.907 Y110.41 E.00763
G1 X158.933 Y111.276 E.02718
G1 X159.061 Y111.496 E.00797
G1 X159.407 Y111.645 E.01181
G1 X159.407 Y116.884 E.16425
G1 X90.593 Y116.884 E2.15762
G1 X90.593 Y111.645 E.16425
G1 X90.939 Y111.496 E.01181
G1 X91.027 Y111.372 E.00478
G1 X91.093 Y111.108 E.00853
G1 X91.079 Y110.285 E.0258
G1 X90.962 Y110.048 E.00827
G1 X90.593 Y109.875 E.0128
G1 X90.593 Y104.348 E.17328
G1 X90.964 Y104.173 E.01289
G1 X91.042 Y104.049 E.00457
G1 X91.093 Y103.814 E.00755
G1 X91.074 Y102.971 E.02644
G1 X91.034 Y102.899 E.00259
M204 S1000
G1 X90.694 Y103.027 F10800
M204 S800
;TYPE:External perimeter
G1 F1200
G1 X90.527 Y102.927 E.00608
G1 X90.216 Y102.927 E.00977
G1 X90.216 Y96.383 E.20518
G1 X90.527 Y96.383 E.00977
G1 X90.676 Y96.311 E.00519
G1 X90.716 Y96.195 E.00384
G1 X90.716 Y95.539 E.02055
G1 X90.662 Y95.408 E.00446
G1 X90.527 Y95.351 E.00459
G1 X90.216 Y95.351 E.00977
G1 X90.216 Y92.739 E.08188
G1 X159.784 Y92.739 E2.18127
G1 X159.784 Y95.351 E.08188
M73 Q1 S30
G1 X159.473 Y95.351 E.00977
G1 X159.338 Y95.408 E.00459
G1 X159.284 Y95.539 E.00446
G1 X159.3 Y96.27 E.02291
G1 X159.473 Y96.383 E.00649
G1 X159.784 Y96.383 E.00977
G1 X159.784 Y102.927 E.20518
G1 X159.473 Y102.927 E.00977
G1 X159.336 Y102.986 E.00466
G1 X159.284 Y103.116 E.00439
G1 X159.301 Y103.892 E.02435
G1 X159.473 Y104.002 E.00639
G1 X159.784 Y104.002 E.00977
G1 X159.784 Y110.221 E.19499
G1 X159.473 Y110.221 E.00977
G1 X159.328 Y110.289 E.00502
G1 X159.284 Y110.41 E.00402
G1 X159.306 Y111.196 E.02465
G1 X159.473 Y111.296 E.0061
G1 X159.784 Y111.296 E.00977
G1 X159.784 Y117.261 E.18701
G1 X90.216 Y117.261 E2.18127
G1 X90.216 Y111.296 E.18701
G1 X90.527 Y111.296 E.00977
G1 X90.664 Y111.237 E.00468
G1 X90.716 Y111.108 E.00436
G1 X90.698 Y110.331 E.02437
G1 X90.527 Y110.221 E.00636
G1 X90.216 Y110.221 E.00977
G1 X90.216 Y104.002 E.19499
G1 X90.527 Y104.002 E.00977
G1 X90.673 Y103.933 E.00506
G1 X90.716 Y103.814 E.00398
G1 X90.695 Y103.087 E.02279
M204 S1000
G1 X90.763 Y102.846 F10800
;WIPE_START
G1 F8640
G1 X90.527 Y102.927 E-.05355
G1 X90.216 Y102.927 E-.07192
G1 X90.216 Y100.179 E-.63454
;WIPE_END
G1 E-.04 F2100
M73 P2 R30
M73 Q2 S30
G1 Z.6 F720
G1 X158.528 Y93.23 F10800
G1 Z.2 F720
G1 E.8 F2100
M204 S800
;TYPE:Solid infill
;WIDTH:0.42198
G1 F1200
G1 X159.124 Y93.826 E.0266
G1 X159.124 Y94.362 E.0169
G1 X158.161 Y93.399 E.04293
G1 X157.625 Y93.399 E.0169
G1 X159.076 Y94.85 E.06468
G1 X158.869 Y94.938 E.0071
G1 X158.776 Y95.087 E.00552
G1 X157.089 Y93.399 E.07522
G1 X156.553 Y93.399 E.0169
G1 X158.633 Y95.479 E.09272
G1 X158.624 Y96.007 E.01662
G1 X156.017 Y93.399 E.11623
G1 X155.481 Y93.399 E.0169
G1 X159.124 Y97.043 E.16241
G1 X159.124 Y97.579 E.0169
G1 X154.945 Y93.399 E.1863
G1 X154.409 Y93.399 E.0169
G1 X159.124 Y98.115 E.2102
G1 X159.124 Y98.651 E.0169
G1 X153.873 Y93.399 E.23409
G1 X153.337 Y93.399 E.0169
G1 X159.124 Y99.187 E.25799
G1 X159.124 Y99.723 E.0169
G1 X152.8 Y93.399 E.28188
G1 X152.264 Y93.399 E.0169
G1 X159.124 Y100.259 E.30578
G1 X159.124 Y100.795 E.0169
G1 X151.728 Y93.399 E.32967
G1 X151.192 Y93.399 E.0169
G1 X159.124 Y101.331 E.35357
G1 X159.124 Y101.867 E.0169
G1 X150.656 Y93.399 E.37747
G1 X150.12 Y93.399 E.0169
G1 X159.124 Y102.403 E.40136
G1 X158.866 Y102.519 E.00894
G1 X158.798 Y102.613 E.00364
G1 X149.584 Y93.399 E.4107
G1 X149.048 Y93.399 E.0169
G1 X158.645 Y102.996 E.42777
G1 X158.624 Y103.107 E.00357
G1 X158.624 Y103.512 E.01275
G1 X148.512 Y93.399 E.45076
G1 X147.976 Y93.399 E.0169
G1 X159.124 Y104.548 E.49694
G1 X159.124 Y105.084 E.0169
G1 X147.44 Y93.399 E.52084
G1 X146.904 Y93.399 E.0169
G1 X159.124 Y105.62 E.54473
G1 X159.124 Y106.156 E.0169
G1 X146.368 Y93.399 E.56863
G1 X145.832 Y93.399 E.0169
G1 X159.124 Y106.692 E.59252
G1 X159.124 Y107.228 E.0169
G1 X145.295 Y93.399 E.61642
G1 X144.759 Y93.399 E.0169
G1 X159.124 Y107.764 E.64031
G1 X159.124 Y108.3 E.0169
G1 X144.223 Y93.399 E.66421
G1 X143.687 Y93.399 E.0169
G1 X159.124 Y108.836 E.6881
G1 X159.124 Y109.372 E.0169
G1 X143.151 Y93.399 E.712
G1 X142.615 Y93.399 E.0169
M73 P3 R30
M73 Q3 S30
G1 X158.993 Y109.777 E.73002
G1 X158.825 Y109.856 E.00584
G1 X158.722 Y110.042 E.00672
G1 X142.079 Y93.399 E.74185
G1 X141.543 Y93.399 E.0169
G1 X158.624 Y110.481 E.7614
G1 X158.624 Y111.017 E.0169
G1 X141.007 Y93.399 E.78529
G1 X140.471 Y93.399 E.0169
G1 X159.124 Y112.053 E.83147
G1 X159.124 Y112.589 E.0169
G1 X139.935 Y93.399 E.85537
G1 X139.399 Y93.399 E.0169
G1 X159.124 Y113.125 E.87926
G1 X159.124 Y113.661 E.0169
G1 X138.863 Y93.399 E.90316
G1 X138.327 Y93.399 E.0169
G1 X159.124 Y114.197 E.92705
G1 X159.124 Y114.733 E.0169
G1 X137.79 Y93.399 E.95095
G1 X137.254 Y93.399 E.0169
G1 X159.124 Y115.269 E.97484
G1 X159.124 Y115.805 E.0169
G1 X136.718 Y93.399 E.99874
G1 X136.182 Y93.399 E.0169
M73 P3 R29
G1 X159.124 Y116.341 E1.02263
G1 X159.124 Y116.601 E.00818
M73 P4 R29
M73 Q4 S30
G1 X158.848 Y116.601 E.00872
G1 X135.646 Y93.399 E1.0342
G1 X135.11 Y93.399 E.0169
G1 X158.312 Y116.601 E1.0342
G1 X157.776 Y116.601 E.0169
G1 X134.574 Y93.399 E1.0342
G1 X134.038 Y93.399 E.0169
G1 X157.24 Y116.601 E1.0342
G1 X156.703 Y116.601 E.0169
G1 X133.502 Y93.399 E1.0342
G1 X132.966 Y93.399 E.0169
G1 X156.167 Y116.601 E1.0342
G1 X155.631 Y116.601 E.0169
G1 X132.43 Y93.399 E1.0342
G1 X131.894 Y93.399 E.0169
G1 X155.095 Y116.601 E1.0342
G1 X154.559 Y116.601 E.0169
G1 X131.358 Y93.399 E1.0342
G1 X130.822 Y93.399 E.0169
G1 X154.023 Y116.601 E1.0342
G1 X153.487 Y116.601 E.0169
M73 Q4 S29
G1 X130.285 Y93.399 E1.0342
G1 X129.749 Y93.399 E.0169
M73 P5 R29
G1 X152.951 Y116.601 E1.0342
G1 X152.415 Y116.601 E.0169
M73 Q5 S29
G1 X129.213 Y93.399 E1.0342
G1 X128.677 Y93.399 E.0169
G1 X151.879 Y116.601 E1.0342
G1 X151.343 Y116.601 E.0169
G1 X128.141 Y93.399 E1.0342
G1 X127.605 Y93.399 E.0169
G1 X150.807 Y116.601 E1.0342
G1 X150.271 Y116.601 E.0169
G1 X127.069 Y93.399 E1.0342
G1 X126.533 Y93.399 E.0169
G1 X149.735 Y116.601 E1.0342
G1 X149.198 Y116.601 E.0169
G1 X125.997 Y93.399 E1.0342
G1 X125.461 Y93.399 E.0169
G1 X148.662 Y116.601 E1.0342
G1 X148.126 Y116.601 E.0169
G1 X124.925 Y93.399 E1.0342
G1 X124.389 Y93.399 E.0169
G1 X147.59 Y116.601 E1.0342
G1 X147.054 Y116.601 E.0169
G1 X123.853 Y93.399 E1.0342
G1 X123.317 Y93.399 E.0169
M73 P6 R29
M73 Q6 S29
G1 X146.518 Y116.601 E1.0342
G1 X145.982 Y116.601 E.0169
G1 X122.78 Y93.399 E1.0342
G1 X122.244 Y93.399 E.0169
G1 X145.446 Y116.601 E1.0342
G1 X144.91 Y116.601 E.0169
G1 X121.708 Y93.399 E1.0342
G1 X121.172 Y93.399 E.0169
G1 X144.374 Y116.601 E1.0342
G1 X143.838 Y116.601 E.0169
G1 X120.636 Y93.399 E1.0342
G1 X120.1 Y93.399 E.0169
G1 X143.302 Y116.601 E1.0342
G1 X142.766 Y116.601 E.0169
G1 X119.564 Y93.399 E1.0342
G1 X119.028 Y93.399 E.0169
G1 X142.23 Y116.601 E1.0342
G1 X141.693 Y116.601 E.0169
G1 X118.492 Y93.399 E1.0342
G1 X117.956 Y93.399 E.0169
G1 X141.157 Y116.601 E1.0342
G1 X140.621 Y116.601 E.0169
M73 P7 R29
M73 Q7 S29
G1 X117.42 Y93.399 E1.0342
G1 X116.884 Y93.399 E.0169
M73 P7 R28
G1 X140.085 Y116.601 E1.0342
G1 X139.549 Y116.601 E.0169
G1 X116.348 Y93.399 E1.0342
G1 X115.812 Y93.399 E.0169
G1 X139.013 Y116.601 E1.0342
G1 X138.477 Y116.601 E.0169
G1 X115.275 Y93.399 E1.0342
G1 X114.739 Y93.399 E.0169
G1 X137.941 Y116.601 E1.0342
G1 X137.405 Y116.601 E.0169
G1 X114.203 Y93.399 E1.0342
G1 X113.667 Y93.399 E.0169
G1 X136.869 Y116.601 E1.0342
G1 X136.333 Y116.601 E.0169
G1 X113.131 Y93.399 E1.0342
G1 X112.595 Y93.399 E.0169
G1 X135.797 Y116.601 E1.0342
G1 X135.261 Y116.601 E.0169
G1 X112.059 Y93.399 E1.0342
G1 X111.523 Y93.399 E.0169
M73 P8 R28
M73 Q8 S29
G1 X134.725 Y116.601 E1.0342
G1 X134.188 Y116.601 E.0169
M73 Q8 S28
G1 X110.987 Y93.399 E1.0342
G1 X110.451 Y93.399 E.0169
G1 X133.652 Y116.601 E1.0342
G1 X133.116 Y116.601 E.0169
G1 X109.915 Y93.399 E1.0342
G1 X109.379 Y93.399 E.0169
G1 X132.58 Y116.601 E1.0342
G1 X132.044 Y116.601 E.0169
G1 X108.843 Y93.399 E1.0342
G1 X108.307 Y93.399 E.0169
G1 X131.508 Y116.601 E1.0342
G1 X130.972 Y116.601 E.0169
G1 X107.77 Y93.399 E1.0342
G1 X107.234 Y93.399 E.0169
G1 X130.436 Y116.601 E1.0342
G1 X129.9 Y116.601 E.0169
G1 X106.698 Y93.399 E1.0342
G1 X106.162 Y93.399 E.0169
G1 X129.364 Y116.601 E1.0342
G1 X128.828 Y116.601 E.0169
M73 P9 R28
G1 X105.626 Y93.399 E1.0342
G1 X105.09 Y93.399 E.0169
M73 Q9 S28
G1 X128.292 Y116.601 E1.0342
G1 X127.756 Y116.601 E.0169
G1 X104.554 Y93.399 E1.0342
G1 X104.018 Y93.399 E.0169
G1 X127.22 Y116.601 E1.0342
G1 X126.683 Y116.601 E.0169
G1 X103.482 Y93.399 E1.0342
G1 X102.946 Y93.399 E.0169
G1 X126.147 Y116.601 E1.0342
G1 X125.611 Y116.601 E.0169
G1 X102.41 Y93.399 E1.0342
G1 X101.874 Y93.399 E.0169
G1 X125.075 Y116.601 E1.0342
G1 X124.539 Y116.601 E.0169
G1 X101.338 Y93.399 E1.0342
G1 X100.802 Y93.399 E.0169
G1 X124.003 Y116.601 E1.0342
G1 X123.467 Y116.601 E.0169
G1 X100.265 Y93.399 E1.0342
G1 X99.729 Y93.399 E.0169
M73 P10 R28
G1 X122.931 Y116.601 E1.0342
G1 X122.395 Y116.601 E.0169
M73 Q10 S28
G1 X99.193 Y93.399 E1.0342
G1 X98.657 Y93.399 E.0169
G1 X121.859 Y116.601 E1.0342
G1 X121.323 Y116.601 E.0169
M73 P10 R27
G1 X98.121 Y93.399 E1.0342
G1 X97.585 Y93.399 E.0169
G1 X120.787 Y116.601 E1.0342
G1 X120.251 Y116.601 E.0169
G1 X97.049 Y93.399 E1.0342
G1 X96.513 Y93.399 E.0169
G1 X119.715 Y116.601 E1.0342
G1 X119.178 Y116.601 E.0169
G1 X95.977 Y93.399 E1.0342
G1 X95.441 Y93.399 E.0169
G1 X118.642 Y116.601 E1.0342
G1 X118.106 Y116.601 E.0169
G1 X94.905 Y93.399 E1.0342
G1 X94.369 Y93.399 E.0169
G1 X117.57 Y116.601 E1.0342
G1 X117.034 Y116.601 E.0169
M73 P11 R27
G1 X93.833 Y93.399 E1.0342
G1 X93.297 Y93.399 E.0169
M73 Q11 S28
G1 X116.498 Y116.601 E1.0342
G1 X115.962 Y116.601 E.0169
G1 X92.76 Y93.399 E1.0342
G1 X92.224 Y93.399 E.0169
M73 Q11 S27
G1 X115.426 Y116.601 E1.0342
G1 X114.89 Y116.601 E.0169
G1 X91.688 Y93.399 E1.0342
G1 X91.152 Y93.399 E.0169
G1 X114.354 Y116.601 E1.0342
G1 X113.818 Y116.601 E.0169
G1 X90.876 Y93.659 E1.02263
G1 X90.876 Y94.195 E.0169
G1 X113.282 Y116.601 E.99874
G1 X112.746 Y116.601 E.0169
G1 X90.706 Y94.561 E.98241
M204 S1000
;WIPE_START
G1 F8640
G1 X93.033 Y96.889 E-.76
;WIPE_END
G1 E-.04 F2100
G1 Z.6 F720
G1 X91.206 Y95.597 F10800
G1 Z.2 F720
G1 E.8 F2100
M204 S800
G1 F1200
G1 X112.21 Y116.601 E.93623
G1 X111.673 Y116.601 E.0169
G1 X91.365 Y96.292 E.90524
G1 X91.305 Y96.534 E.00786
M73 P12 R27
G1 X91.218 Y96.681 E.00539
G1 X111.137 Y116.601 E.8879
G1 X110.601 Y116.601 E.0169
G1 X90.881 Y96.881 E.879
G1 X90.876 Y97.411 E.01671
M73 Q12 S27
G1 X110.065 Y116.601 E.85537
G1 X109.529 Y116.601 E.0169
G1 X90.876 Y97.947 E.83147
G1 X90.876 Y98.483 E.0169
G1 X108.993 Y116.601 E.80758
G1 X108.457 Y116.601 E.0169
G1 X90.876 Y99.019 E.78368
G1 X90.876 Y99.555 E.0169
G1 X107.921 Y116.601 E.75979
G1 X107.385 Y116.601 E.0169
G1 X90.876 Y100.092 E.73589
G1 X90.876 Y100.628 E.0169
G1 X106.849 Y116.601 E.712
G1 X106.313 Y116.601 E.0169
G1 X90.876 Y101.164 E.6881
G1 X90.876 Y101.7 E.0169
G1 X105.777 Y116.601 E.66421
G1 X105.241 Y116.601 E.0169
G1 X90.876 Y102.236 E.64031
G1 X90.876 Y102.408 E.00544
G1 X91.134 Y102.519 E.00888
G1 X91.275 Y102.713 E.00755
G1 X91.323 Y102.82 E.0037
G1 X91.373 Y103.045 E.00726
G1 X91.374 Y103.27 E.0071
G1 X104.705 Y116.601 E.59421
G1 X104.168 Y116.601 E.0169
G1 X91.376 Y103.808 E.57023
G1 X91.336 Y104.075 E.00851
G1 X91.255 Y104.223 E.00533
G1 X103.632 Y116.601 E.55172
G1 X103.096 Y116.601 E.0169
G1 X90.962 Y104.466 E.54088
G1 X90.876 Y104.507 E.00301
M73 P13 R27
G1 X90.876 Y104.916 E.01289
G1 X102.56 Y116.601 E.52084
G1 X102.024 Y116.601 E.0169
G1 X90.876 Y105.452 E.49694
G1 X90.876 Y105.988 E.0169
G1 X101.488 Y116.601 E.47305
G1 X100.952 Y116.601 E.0169
M73 Q13 S27
G1 X90.876 Y106.524 E.44915
G1 X90.876 Y107.06 E.0169
G1 X100.416 Y116.601 E.42526
G1 X99.88 Y116.601 E.0169
G1 X90.876 Y107.597 E.40136
G1 X90.876 Y108.133 E.0169
G1 X99.344 Y116.601 E.37747
G1 X98.808 Y116.601 E.0169
G1 X90.876 Y108.669 E.35357
G1 X90.876 Y109.205 E.0169
G1 X98.272 Y116.601 E.32967
G1 X97.736 Y116.601 E.0169
G1 X91.345 Y110.21 E.28485
G1 X91.376 Y110.402 E.00613
G1 X91.376 Y110.777 E.01181
G1 X97.2 Y116.601 E.2596
G1 X96.663 Y116.601 E.0169
G1 X91.349 Y111.287 E.23687
G1 X91.277 Y111.506 E.00727
G1 X91.175 Y111.648 E.00553
G1 X96.127 Y116.601 E.22075
G1 X95.591 Y116.601 E.0169
G1 X90.876 Y111.885 E.2102
G1 X90.876 Y112.421 E.0169
G1 X95.055 Y116.601 E.1863
G1 X94.519 Y116.601 E.0169
M73 P13 R26
G1 X90.876 Y112.957 E.16241
G1 X90.876 Y113.493 E.0169
G1 X93.983 Y116.601 E.13851
G1 X93.447 Y116.601 E.0169
G1 X90.876 Y114.029 E.11462
G1 X90.876 Y114.565 E.0169
G1 X92.911 Y116.601 E.09072
G1 X92.375 Y116.601 E.0169
G1 X90.876 Y115.102 E.06683
G1 X90.876 Y115.638 E.0169
G1 X91.839 Y116.601 E.04293
G1 X91.303 Y116.601 E.0169
G1 X90.706 Y116.004 E.0266
M204 S1000
; stop printing object Top.stl id:0 copy 0
M106 S84.15
;LAYER_CHANGE
;Z:0.35
;HEIGHT:0.15
;BEFORE_LAYER_CHANGE
G92 E0.0
;0.35


;WIPE_START
G1 F8640
G1 X91.303 Y116.601 E-.19488
G1 X91.839 Y116.601 E-.12378
G1 X90.876 Y115.638 E-.31452
G1 X90.876 Y115.102 E-.12378
G1 X90.885 Y115.111 E-.00304
;WIPE_END
G1 E-.04 F2100
G1 Z.6 F720
;AFTER_LAYER_CHANGE
;0.35
G1 X87.429 Y115.111 F10800
G1 Z.35 F720
G1 E.8 F2100
;TYPE:Skirt/Brim
;WIDTH:0.42
G1 F3000
G1 X87.429 Y92.329 E.55097
G1 X87.82 Y91.022 E.033
G1 X88.866 Y90.146 E.033
G1 X89.806 Y89.952 E.02321
G1 X160.194 Y89.952 E1.70234
