; generated by PrusaSlicer 2.5.0-rc2+win64 on 2022-11-08 at 18:23:24 UTC

; 

; external perimeters extrusion width = 0.45mm
; perimeters extrusion width = 0.45mm
; infill extrusion width = 0.45mm
; solid infill extrusion width = 0.45mm
; top infill extrusion width = 0.40mm
; first layer extrusion width = 0.42mm

M73 P0 R25
M73 Q0 S25
M107
;TYPE:Custom
M862.3 P "MK3S" ; printer model check
M862.1 P0.4 ; nozzle diameter check
G90 ; use absolute coordinates
M83 ; extruder relative mode
M104 S215 ; set extruder temp
M140 S60 ; set bed temp
M190 S60 ; wait for bed temp
M109 S215 ; wait for extruder temp
G28 W ; home all without mesh bed level
G80 ; mesh bed leveling
G1 Y-3.0 F1000.0 ; go outside print area
G92 E0.0
G1 X60.0 E9.0 F1000.0 ; intro line
G1 X100.0 E12.5 F1000.0 ; intro line
G92 E0.0
M221 S95

; Don't change E values below. Excessive value can damage the printer.

M907 E538 ; set extruder motor current
G21 ; set units to millimeters
G90 ; use absolute coordinates
M83 ; use relative distances for extrusion
M900 K0.05 ; Filament gcode LA 1.5
M900 K30 ; Filament gcode LA 1.0
M107
;LAYER_CHANGE
;Z:0.2
;HEIGHT:0.2
;BEFORE_LAYER_CHANGE
G92 E0.0
;0.2


G1 E-.8 F2100
G1 Z.4 F720
;AFTER_LAYER_CHANGE
;0.2
G1 X88.866 Y111.126 F10800
G1 Z.2 F720
G1 E.8 F2100
M204 S800
;TYPE:Skirt/Brim
;WIDTH:0.42
G1 F1200
G1 X89.806 Y110.933 E.03008
G1 X160.194 Y110.933 E2.20698
G1 X161.501 Y111.324 E.04278
M73 P0 R24
G1 X162.378 Y112.37 E.04278
G1 X162.571 Y113.31 E.03008
G1 X162.571 Y117.443 E.1296
G1 X162.18 Y118.75 E.04278
G1 X161.134 Y119.627 E.04278
G1 X160.194 Y119.82 E.03008
G1 X89.806 Y119.82 E2.20698
G1 X88.499 Y119.429 E.04278
M73 Q1 S25
G1 X87.622 Y118.383 E.04278
G1 X87.429 Y117.443 E.03008
G1 X87.429 Y113.31 E.1296
G1 X87.82 Y112.003 E.04278
M73 P1 R24
G1 X88.82 Y111.165 E.0409
M204 S1000
; printing object Top.stl id:0 copy 0
;WIPE_START
G1 F8640
G1 X89.806 Y110.933 E-.23384
G1 X92.084 Y110.933 E-.52616
;WIPE_END
G1 E-.04 F2100
G1 Z.6 F720
G1 X159.977 Y116.981 F10800
G1 Z.2 F720
G1 E.8 F2100
M204 S800
;TYPE:External perimeter
;WIDTH:0.434816
G1 F1200
G1 X159.977 Y117.177 E.00639
G1 X90.023 Y117.177 E2.27953
G1 X90.023 Y116.785 E.01277
G1 X159.977 Y116.785 E2.27953
G1 X159.977 Y116.921 E.00443
M204 S1000
M73 Q1 S24
G1 X159.879 Y117.151 F10800
; stop printing object Top.stl id:0 copy 0
M106 S84.15
;LAYER_CHANGE
;Z:0.4
;HEIGHT:0.2
;BEFORE_LAYER_CHANGE
G92 E0.0
;0.4


;WIPE_START
G1 F8640
G1 X159.977 Y117.177 E-.0591
G1 X156.941 Y117.177 E-.7009
;WIPE_END
G1 E-.04 F2100
G1 Z.6 F720
;AFTER_LAYER_CHANGE
;0.4
M104 S210 ; set temperature
G1 X156.941 Y119.82 F10800
G1 Z.4 F720
G1 E.8 F2100
;TYPE:Skirt/Brim
;WIDTH:0.42
G1 F3000
G1 X89.806 Y119.82 E2.10499
G1 X88.499 Y119.429 E.04278
G1 X87.622 Y118.383 E.04278
G1 X87.429 Y117.443 E.03008
G1 X87.429 Y113.31 E.1296
G1 X87.82 Y112.003 E.04278
G1 X88.866 Y111.126 E.04278
G1 X89.806 Y110.933 E.03008
G1 X160.194 Y110.933 E2.20698
G1 X161.501 Y111.324 E.04278
G1 X162.378 Y112.37 E.04278
G1 X162.571 Y113.31 E.03008
G1 X162.571 Y117.443 E.1296
G1 X162.18 Y118.75 E.04278
G1 X161.134 Y119.627 E.04278
G1 X160.194 Y119.82 E.03008
G1 X157.001 Y119.82 E.10011
; printing object Top.stl id:0 copy 0
;WIPE_START
G1 F8640
G1 X153.71 Y119.82 E-.76
;WIPE_END
G1 E-.04 F2100
G1 Z.8 F720
G1 X159.562 Y116.787 F10800
G1 Z.4 F720
G1 E.8 F2100
M204 S800
;TYPE:Perimeter
;WIDTH:0.449999
G1 F3600
G1 X90.438 Y116.787 E2.33977
G1 X90.438 Y116.368 E.01419
;TYPE:Overhang perimeter
G1 F1500
G1 X90.438 Y115.571 E.02697
G1 X159.562 Y115.571 E2.33977
G1 X159.562 Y116.179 E.02058
M73 P2 R24
M73 Q2 S24
G1 X159.562 Y116.368 E.00639
;TYPE:Perimeter
G1 F3600
G1 X159.562 Y116.727 E.01216
M204 S1000
G1 X159.969 Y117.194 F10800
M204 S800
;TYPE:External perimeter
G1 F2100
G1 X90.031 Y117.194 E2.36733
G1 X90.031 Y116.368 E.02797
;TYPE:Overhang perimeter
G1 F1500
G1 X90.031 Y115.164 E.04075
G1 X159.969 Y115.164 E2.36733
G1 X159.969 Y116.179 E.03436
G1 X159.969 Y116.368 E.00639
;TYPE:External perimeter
G1 F2100
G1 X159.969 Y117.134 E.02594
M204 S1000
;WIPE_START
G1 F8640
G1 X156.678 Y117.137 E-.76
;WIPE_END
G1 E-.04 F2100
G1 Z.8 F720
G1 X90.559 Y115.905 F10800
G1 Z.4 F720
G1 E.8 F2100
;TYPE:Bridge infill
;WIDTH:0.50699
G1 F1500
G1 X159.267 Y115.905 E2.65128
G1 X159.267 Y116.369 E.01791
G1 X90.559 Y116.369 E2.65128
; stop printing object Top.stl id:0 copy 0
M106 S170.85
;LAYER_CHANGE
;Z:0.6
;HEIGHT:0.2
;BEFORE_LAYER_CHANGE
G92 E0.0
;0.6


;WIPE_START
G1 F8640
G1 X93.85 Y116.369 E-.76
;WIPE_END
G1 E-.04 F2100
G1 Z.8 F720
;AFTER_LAYER_CHANGE
;0.6
G1 X93.85 Y119.82 F10800
G1 Z.6 F720
G1 E.8 F2100
;TYPE:Skirt/Brim
;WIDTH:0.42
G1 F3000
G1 X89.806 Y119.82 E.12682
G1 X88.499 Y119.429 E.04278
G1 X87.622 Y118.383 E.04278
G1 X87.429 Y117.443 E.03008
G1 X87.429 Y113.31 E.1296
G1 X87.82 Y112.003 E.04278
G1 X88.866 Y111.126 E.04278
G1 X89.806 Y110.933 E.03008
G1 X160.194 Y110.933 E2.20698
G1 X161.501 Y111.324 E.04278
M73 P3 R24
M73 Q3 S24
G1 X162.378 Y112.37 E.04278
G1 X162.571 Y113.31 E.03008
G1 X162.571 Y117.443 E.1296
G1 X162.18 Y118.75 E.04278
G1 X161.134 Y119.627 E.04278
G1 X160.194 Y119.82 E.03008
G1 X93.91 Y119.82 E2.07829
; printing object Top.stl id:0 copy 0
;WIPE_START
G1 F8640
G1 X90.619 Y119.82 E-.76
;WIPE_END
G1 E-.04 F2100
G1 Z1 F720
G1 X159.562 Y116.811 F10800
G1 Z.6 F720
G1 E.8 F2100
M204 S800
;TYPE:Perimeter
;WIDTH:0.449999
G1 F3600
G1 X90.438 Y116.811 E2.33977
G1 X90.438 Y114.739 E.07016
;TYPE:Overhang perimeter
G1 F1500
G1 X90.438 Y113.942 E.02697
G1 X159.562 Y113.942 E2.33977
G1 X159.562 Y114.739 E.02697
;TYPE:Perimeter
G1 F3600
G1 X159.562 Y115.377 E.02159
G1 X159.562 Y116.751 E.04653
M204 S1000
G1 X159.969 Y117.218 F10800
M204 S800
;TYPE:External perimeter
G1 F2100
G1 X90.031 Y117.218 E2.36733
G1 X90.031 Y114.739 E.08393
;TYPE:Overhang perimeter
G1 F1500
G1 X90.031 Y113.535 E.04075
G1 X159.969 Y113.535 E2.36733
G1 X159.969 Y114.739 E.04075
;TYPE:External perimeter
G1 F2100
G1 X159.969 Y115.377 E.02159
G1 X159.969 Y117.158 E.06031
M204 S1000
;WIPE_START
G1 F8640
G1 X156.678 Y117.161 E-.76
;WIPE_END
G1 E-.04 F2100
G1 Z1 F720
G1 X90.559 Y114.266 F10800
G1 Z.6 F720
G1 E.8 F2100
;TYPE:Bridge infill
;WIDTH:0.487234
G1 F1500
G1 X159.267 Y114.266 E2.53841
G1 X159.267 Y114.71 E.01642
M73 P4 R24
M73 Q4 S24
G1 X90.733 Y114.71 E2.53198
G1 X90.733 Y115.154 E.01642
G1 X159.267 Y115.154 E2.53198
G1 X159.267 Y115.599 E.01642
G1 X90.733 Y115.599 E2.53198
G1 X90.733 Y116.043 E.01642
M73 P4 R23
G1 X159.267 Y116.043 E2.53198
G1 X159.267 Y116.487 E.01642
G1 X90.559 Y116.487 E2.53841
; stop printing object Top.stl id:0 copy 0
M106 S255
;LAYER_CHANGE
;Z:0.8
;HEIGHT:0.2
;BEFORE_LAYER_CHANGE
G92 E0.0
;0.8


;WIPE_START
G1 F8640
M73 Q5 S24
G1 X93.85 Y116.487 E-.76
;WIPE_END
G1 E-.04 F2100
G1 Z1 F720
;AFTER_LAYER_CHANGE
;0.8
; printing object Top.stl id:0 copy 0
G1 X159.562 Y116.836 F10800
G1 Z.8 F720
M73 P5 R23
G1 E.8 F2100
M204 S800
;TYPE:Perimeter
;WIDTH:0.449999
G1 F3600
G1 X90.438 Y116.836 E2.33977
G1 X90.438 Y113.11 E.12612
;TYPE:Overhang perimeter
G1 F1500
G1 X90.438 Y112.313 E.02697
G1 X159.562 Y112.313 E2.33977
G1 X159.562 Y113.11 E.02697
;TYPE:Perimeter
G1 F3600
G1 X159.562 Y114.574 E.04958
G1 X159.562 Y116.776 E.07452
M204 S1000
G1 X159.969 Y117.243 F10800
M204 S800
;TYPE:External perimeter
G1 F2100
G1 X90.031 Y117.243 E2.36733
G1 X90.031 Y113.11 E.1399
;TYPE:Overhang perimeter
M73 Q5 S23
G1 F1500
G1 X90.031 Y111.906 E.04075
G1 X159.969 Y111.906 E2.36733
G1 X159.969 Y113.11 E.04075
;TYPE:External perimeter
G1 F2100
G1 X159.969 Y114.574 E.04958
G1 X159.969 Y117.183 E.08829
M204 S1000
;WIPE_START
G1 F8640
G1 X156.678 Y117.186 E-.76
;WIPE_END
G1 E-.04 F2100
G1 Z1.2 F720
G1 X90.559 Y112.61 F10800
G1 Z.8 F720
G1 E.8 F2100
;TYPE:Bridge infill
;WIDTH:0.432423
G1 F1500
G1 X159.267 Y112.61 E2.22527
G1 X159.267 Y112.999 E.01261
G1 X90.733 Y112.999 E2.21963
G1 X90.733 Y113.389 E.01261
M73 P6 R23
M73 Q6 S23
G1 X159.267 Y113.389 E2.21963
G1 X159.267 Y113.778 E.01261
G1 X90.733 Y113.778 E2.21963
G1 X90.733 Y114.168 E.01261
G1 X159.267 Y114.168 E2.21963
G1 X159.267 Y114.557 E.01261
G1 X90.733 Y114.557 E2.21963
G1 X90.733 Y114.947 E.01261
G1 X159.267 Y114.947 E2.21963
G1 X159.267 Y115.336 E.01261
M73 Q7 S23
G1 X90.733 Y115.336 E2.21963
G1 X90.733 Y115.726 E.01261
M73 P7 R23
G1 X159.267 Y115.726 E2.21963
G1 X159.267 Y116.115 E.01261
G1 X90.559 Y116.115 E2.22527
; stop printing object Top.stl id:0 copy 0
;LAYER_CHANGE
;Z:1
;HEIGHT:0.2
;BEFORE_LAYER_CHANGE
G92 E0.0
;1


;WIPE_START
G1 F8640
G1 X93.85 Y116.115 E-.76
;WIPE_END
G1 E-.04 F2100
G1 Z1.2 F720
;AFTER_LAYER_CHANGE
;1
; printing object Top.stl id:0 copy 0
G1 X159.562 Y116.86 F10800
G1 Z1 F720
G1 E.8 F2100
M204 S800
;TYPE:Perimeter
;WIDTH:0.449999
G1 F3600
G1 X90.438 Y116.86 E2.33977
G1 X90.438 Y111.481 E.18209
;TYPE:Overhang perimeter
G1 F1500
G1 X90.438 Y111.241 E.00813
G1 X90.776 Y111.093 E.01248
G1 X90.936 Y110.684 E.01486
G1 X94.016 Y110.684 E.10426
;WIDTH:0.486215
G1 X94.823 Y110.702 E.02976
G1 X155.177 Y110.702 E2.22465
G1 X155.984 Y110.684 E.02976
;WIDTH:0.449999
G1 X159.064 Y110.684 E.10426
G1 X159.224 Y111.093 E.01486
G1 X159.562 Y111.241 E.01248
G1 X159.562 Y111.481 E.00813
;TYPE:Perimeter
G1 F3600
G1 X159.562 Y116.8 E.18006
M204 S1000
G1 X159.969 Y117.267 F10800
M204 S800
;TYPE:External perimeter
G1 F2100
G1 X90.031 Y117.267 E2.36733
G1 X90.031 Y111.481 E.19587
;TYPE:Overhang perimeter
M73 P8 R23
M73 Q8 S23
G1 F1500
G1 X90.031 Y110.882 E.02027
G1 X90.327 Y110.882 E.01003
G1 X90.477 Y110.817 E.00552
G1 X90.531 Y110.679 E.00502
G1 X90.523 Y110.379 E.01015
;WIDTH:0.440144
G1 X90.425 Y110.302 E.0041
;WIDTH:0.411532
G1 X90.327 Y110.226 E.00381
;WIDTH:0.41646
G1 X90.63 Y110.252 E.00943
;WIDTH:0.449999
G1 X90.932 Y110.277 E.01028
G1 X159.068 Y110.277 E2.3063
G1 X159.357 Y110.252 E.00983
;WIDTH:0.41646
G1 X159.646 Y110.227 E.00902
;WIDTH:0.409512
G1 X159.563 Y110.303 E.00343
;WIDTH:0.436104
G1 X159.48 Y110.379 E.00368
;WIDTH:0.449999
G1 X159.469 Y110.679 E.01016
G1 X159.523 Y110.817 E.00502
G1 X159.673 Y110.882 E.00552
G1 X159.969 Y110.882 E.01003
G1 X159.969 Y111.179 E.01003
G1 X159.969 Y111.481 E.01023
;TYPE:External perimeter
G1 F2100
G1 X159.969 Y117.207 E.19384
M204 S1000
;WIPE_START
G1 F8640
G1 X156.678 Y117.21 E-.76
;WIPE_END
G1 E-.04 F2100
G1 Z1.4 F720
G1 X159.646 Y110.227 F10800
G1 Z1 F720
G1 E.8 F2100
M204 S800
;TYPE:Overhang perimeter
;WIDTH:0.38292
G1 F1500
G1 X160.02 Y110.226 E.01057
M204 S1000
;WIPE_START
G1 F8640
G1 X159.646 Y110.227 E-.08635
;WIPE_END
G1 E-.71365 F2100
G1 Z1.4 F720
G1 X94.214 Y111.75 F10800
G1 Z1 F720
G1 E.8 F2100
M204 S800
;TYPE:Perimeter
;WIDTH:0.449999
G1 F3600
G1 X94.314 Y111.481 E.00971
;TYPE:Overhang perimeter
G1 F1500
G1 X94.35 Y111.388 E.00337
;WIDTH:0.492658
G1 X94.714 Y111.152 E.01623
G1 X94.823 Y111.146 E.00409
;WIDTH:0.486215
G1 X155.177 Y111.146 E2.22465
G1 X155.65 Y111.388 E.0196
;WIDTH:0.449999
G1 X155.686 Y111.481 E.00337
;TYPE:Perimeter
G1 F3600
G1 X155.787 Y111.742 E.00949
G1 X155.751 Y111.981 E.00818
G1 X155.61 Y112.204 E.00893
G1 X153.951 Y113.876 E.07973
G1 X153.761 Y114.006 E.00778
M73 P8 R22
G1 X153.518 Y114.057 E.00843
G1 X96.482 Y114.057 E1.93057
G1 X96.239 Y114.006 E.00843
G1 X96.049 Y113.876 E.00778
G1 X94.39 Y112.204 E.07973
G1 X94.249 Y111.981 E.00893
G1 X94.223 Y111.809 E.00589
M204 S1000
G1 X94.62 Y111.764 F10800
M204 S800
;TYPE:External perimeter
G1 F2100
G1 X94.665 Y111.646 E.00428
G1 X94.823 Y111.571 E.00591
G1 X155.177 Y111.571 E2.0429
G1 X155.335 Y111.646 E.00591
G1 X155.38 Y111.764 E.00428
G1 X155.368 Y111.843 E.00273
G1 X154.964 Y112.278 E.02009
G1 X153.662 Y113.59 E.06256
G1 X153.518 Y113.65 E.0053
G1 X96.482 Y113.65 E1.93057
G1 X96.338 Y113.59 E.0053
G1 X94.679 Y111.918 E.07973
G1 X94.641 Y111.82 E.00355
M204 S1000
G1 X94.51 Y111.701 F10800
;WIPE_START
G1 F8640
G1 X94.665 Y111.646 E-.0406
G1 X94.823 Y111.571 E-.0403
G1 X97.764 Y111.571 E-.6791
;WIPE_END
G1 E-.04 F2100
G1 Z1.4 F720
G1 X89.98 Y110.226 F10800
G1 Z1 F720
G1 E.8 F2100
M204 S800
;TYPE:Overhang perimeter
;WIDTH:0.38292
G1 F1500
G1 X90.327 Y110.226 E.00982
M204 S1000
;WIPE_START
G1 F8640
G1 X89.98 Y110.226 E-.08021
;WIPE_END
G1 E-.71979 F2100
G1 Z1.4 F720
G1 X94.512 Y110.981 F10800
G1 Z1 F720
G1 E.8 F2100
;TYPE:Bridge infill
;WIDTH:0.432423
G1 F1500
G1 X91.121 Y110.981 E.10981
G1 X90.997 Y111.3 E.0111
G1 X90.836 Y111.37 E.00569
G1 X94.051 Y111.37 E.10415
G1 X93.916 Y111.721 E.01219
G1 X93.922 Y111.76 E.00125
G1 X90.733 Y111.76 E.10327
G1 X90.733 Y112.149 E.01261
G1 X94.011 Y112.149 E.10618
G1 X94.173 Y112.405 E.00981
G1 X94.306 Y112.539 E.00609
G1 X90.733 Y112.539 E.11571
G1 X90.733 Y112.928 E.01261
G1 X94.692 Y112.928 E.12823
G1 X95.079 Y113.318 E.01777
M73 Q9 S23
G1 X90.733 Y113.318 E.14075
G1 X90.733 Y113.707 E.01261
G1 X95.465 Y113.707 E.15327
G1 X95.741 Y113.985 E.01268
G1 X95.579 Y114.097 E.00639
G1 X90.733 Y114.097 E.15694
G1 X90.733 Y114.486 E.01261
G1 X95.318 Y114.486 E.14851
;WIPE_START
G1 F8640
M73 P9 R22
G1 X92.027 Y114.486 E-.76
;WIPE_END
G1 E-.04 F2100
G1 Z1.4 F720
G1 X155.376 Y114.662 F10800
G1 Z1 F720
G1 E.8 F2100
;WIDTH:0.447623
G1 F1500
G1 X159.267 Y114.487 E.13108
G1 X159.267 Y114.082 E.01363
G1 X154.699 Y114.287 E.15389
G1 X154.259 Y113.985 E.01795
G1 X154.346 Y113.898 E.00415
G1 X159.267 Y113.677 E.16578
G1 X159.267 Y113.272 E.01363
G1 X154.766 Y113.474 E.1516
G1 X155.187 Y113.05 E.0201
G1 X159.267 Y112.867 E.13743
G1 X159.267 Y112.461 E.01363
G1 X155.608 Y112.626 E.12325
G1 X155.827 Y112.405 E.01045
G1 X155.953 Y112.205 E.00797
G1 X159.267 Y112.056 E.11162
G1 X159.267 Y111.651 E.01363
G1 X156.073 Y111.795 E.10758
G1 X156.084 Y111.721 E.00249
G1 X155.958 Y111.395 E.01179
G1 X158.987 Y111.259 E.10204
G1 X158.878 Y110.979 E.0101
G1 X156.186 Y110.979 E.0906
G1 X155.422 Y111.014 E.02573
;WIPE_START
G1 F8640
G1 X156.186 Y110.979 E-.17658
G1 X158.712 Y110.979 E-.58342
;WIPE_END
G1 E-.04 F2100
G1 Z1.4 F720
G1 X159.44 Y115.527 F10800
G1 Z1 F720
G1 E.8 F2100
;TYPE:Solid infill
;WIDTH:0.451078
G1 F11025.142
G1 X158.798 Y114.885 E.03081
G1 X158.221 Y114.885 E.01959
G1 X159.257 Y115.921 E.04973
G1 X159.257 Y116.498 E.01959
G1 X157.644 Y114.885 E.07743
G1 X157.066 Y114.885 E.01959
G1 X158.737 Y116.555 E.08018
G1 X158.16 Y116.555 E.01959
G1 X156.489 Y114.885 E.08018
G1 X155.912 Y114.885 E.01959
G1 X157.583 Y116.555 E.08018
G1 X157.005 Y116.555 E.01959
G1 X155.335 Y114.885 E.08018
G1 X154.868 Y114.885 E.01584
G1 X154.516 Y114.643 E.0145
G1 X156.428 Y116.555 E.09178
G1 X155.851 Y116.555 E.01959
G1 X153.647 Y114.351 E.10578
G1 X153.081 Y114.362 E.01922
G1 X155.274 Y116.555 E.10526
G1 X154.696 Y116.555 E.01959
G1 X152.503 Y114.362 E.10526
G1 X151.926 Y114.362 E.01959
G1 X154.119 Y116.555 E.10526
G1 X153.542 Y116.555 E.01959
M73 Q9 S22
G1 X151.349 Y114.362 E.10526
G1 X150.772 Y114.362 E.01959
G1 X152.965 Y116.555 E.10526
G1 X152.388 Y116.555 E.01959
G1 X150.194 Y114.362 E.10526
G1 X149.617 Y114.362 E.01959
G1 X151.81 Y116.555 E.10526
G1 X151.233 Y116.555 E.01959
G1 X149.04 Y114.362 E.10526
G1 X148.463 Y114.362 E.01959
G1 X150.656 Y116.555 E.10526
G1 X150.079 Y116.555 E.01959
G1 X147.886 Y114.362 E.10526
G1 X147.308 Y114.362 E.01959
G1 X149.501 Y116.555 E.10526
G1 X148.924 Y116.555 E.01959
G1 X146.731 Y114.362 E.10526
G1 X146.154 Y114.362 E.01959
G1 X148.347 Y116.555 E.10526
G1 X147.77 Y116.555 E.01959
G1 X145.577 Y114.362 E.10526
G1 X144.999 Y114.362 E.01959
G1 X147.193 Y116.555 E.10526
G1 X146.615 Y116.555 E.01959
G1 X144.422 Y114.362 E.10526
G1 X143.845 Y114.362 E.01959
G1 X146.038 Y116.555 E.10526
G1 X145.461 Y116.555 E.01959
G1 X143.268 Y114.362 E.10526
G1 X142.691 Y114.362 E.01959
G1 X144.884 Y116.555 E.10526
G1 X144.306 Y116.555 E.01959
G1 X142.113 Y114.362 E.10526
G1 X141.536 Y114.362 E.01959
G1 X143.729 Y116.555 E.10526
G1 X143.152 Y116.555 E.01959
G1 X140.959 Y114.362 E.10526
G1 X140.382 Y114.362 E.01959
G1 X142.575 Y116.555 E.10526
G1 X141.998 Y116.555 E.01959
G1 X139.804 Y114.362 E.10526
G1 X139.227 Y114.362 E.01959
G1 X141.42 Y116.555 E.10526
G1 X140.843 Y116.555 E.01959
G1 X138.65 Y114.362 E.10526
G1 X138.073 Y114.362 E.01959
G1 X140.266 Y116.555 E.10526
G1 X139.689 Y116.555 E.01959
G1 X137.496 Y114.362 E.10526
