; generated by PrusaSlicer 2.3.1+win64 on 2021-05-27 at 21:19:06 UTC

; 

; external perimeters extrusion width = 0.45mm
; perimeters extrusion width = 0.45mm
; infill extrusion width = 0.45mm
; solid infill extrusion width = 0.45mm
; top infill extrusion width = 0.40mm
; first layer extrusion width = 0.42mm

M73 P0 R54
M73 Q0 S54
M201 X1000 Y1000 Z1000 E5000 ; sets maximum accelerations, mm/sec^2
M203 X200 Y200 Z12 E120 ; sets maximum feedrates, mm/sec
M204 P1250 R1250 T1250 ; sets acceleration (P, T) and retract acceleration (R), mm/sec^2
M205 X8.00 Y8.00 Z0.40 E1.50 ; sets the jerk limits, mm/sec
M205 S0 T0 ; sets the minimum extruding and travel feed rate, mm/sec
M107
;TYPE:Custom
M862.3 P "MK3S" ; printer model check
M862.1 P0.4 ; nozzle diameter check
M115 U3.8.0 ; tell printer latest fw version
G90 ; use absolute coordinates
M83 ; extruder relative mode
M104 S215 ; set extruder temp
M140 S60 ; set bed temp
M190 S60 ; wait for bed temp
M109 S215 ; wait for extruder temp
G28 W ; home all without mesh bed level
G80 ; mesh bed leveling
G1 Y-3.0 F1000.0 ; go outside print area
G92 E0.0
G1 X60.0 E9.0 F1000.0 ; intro line
G1 X100.0 E12.5 F1000.0 ; intro line
G92 E0.0
M221 S95
G21 ; set units to millimeters
G90 ; use absolute coordinates
M83 ; use relative distances for extrusion
M900 K0.05 ; Filament gcode LA 1.5
M900 K30 ; Filament gcode LA 1.0
;LAYER_CHANGE
;Z:0.2
;HEIGHT:0.2
;BEFORE_LAYER_CHANGE
G92 E0.0
;0.2


G1 E-0.80000 F2100.000
G1 Z0.600 F10800.000
;AFTER_LAYER_CHANGE
;0.2
G1 X104.500 Y100.531
G1 Z0.200
G1 E0.80000 F2100.000
M204 S1000
;TYPE:Perimeter
;WIDTH:0.42
G1 F1200.000
G1 X101.913 Y100.531 E0.08112
G1 X101.913 Y93.898 E0.20799
G1 X107.087 Y93.898 E0.16223
G1 X107.087 Y100.531 E0.20799
G1 X104.560 Y100.531 E0.07923
G1 X104.500 Y100.154 F10800.000
;TYPE:External perimeter
G1 F1200.000
G1 X102.290 Y100.154 E0.06929
G1 X102.290 Y94.275 E0.18434
G1 X106.710 Y94.275 E0.13859
G1 X106.710 Y100.154 E0.18434
G1 X104.560 Y100.154 E0.06741
G1 X104.452 Y100.551 F10800.000
G1 E-0.80000 F2100.000
G1 Z0.800 F10800.000
G1 X104.500 Y130.531
G1 Z0.200
G1 E0.80000 F2100.000
;TYPE:Perimeter
G1 F1200.000
G1 X101.913 Y130.531 E0.08112
G1 X101.913 Y123.898 E0.20799
G1 X107.087 Y123.898 E0.16223
G1 X107.087 Y130.531 E0.20799
G1 X104.560 Y130.531 E0.07923
G1 X104.500 Y130.154 F10800.000
;TYPE:External perimeter
G1 F1200.000
G1 X102.290 Y130.154 E0.06929
G1 X102.290 Y124.275 E0.18434
G1 X106.710 Y124.275 E0.13859
G1 X106.710 Y130.154 E0.18434
G1 X104.560 Y130.154 E0.06741
G1 X104.452 Y130.551 F10800.000
G1 E-0.80000 F2100.000
G1 Z0.800 F10800.000
G1 X104.500 Y136.913
G1 Z0.200
G1 E0.80000 F2100.000
;TYPE:Perimeter
G1 F1200.000
G1 X87.587 Y136.913 E0.53029
M73 P0 R53
G1 X87.587 Y73.087 E2.00121
G1 X121.413 Y73.087 E1.06059
G1 X121.413 Y124.163 E1.60146
G1 X118.647 Y121.398 E0.12264
G1 X118.647 Y79.913 E1.30072
G1 X113.973 Y79.913 E0.14655
G1 X113.973 Y130.387 E1.58258
G1 X118.647 Y130.387 E0.14655
G1 X118.647 Y127.277 E0.09750
G1 X121.413 Y130.043 E0.12264
G1 X121.413 Y136.913 E0.21540
G1 X104.560 Y136.913 E0.52841
G1 X104.500 Y137.290 F10800.000
;TYPE:External perimeter
G1 F1200.000
G1 X87.210 Y137.290 E0.54212
G1 X87.210 Y72.710 E2.02486
G1 X121.790 Y72.710 E1.08423
M73 P1 R53
M73 Q1 S54
G1 X121.790 Y125.074 E1.64183
G1 X118.270 Y121.554 E0.15608
G1 X118.270 Y80.290 E1.29380
G1 X114.350 Y80.290 E0.12291
G1 X114.350 Y130.010 E1.55894
G1 X118.270 Y130.010 E0.12291
M73 Q1 S53
G1 X118.270 Y126.367 E0.11422
G1 X121.790 Y129.887 E0.15608
G1 X121.790 Y137.290 E0.23212
G1 X104.560 Y137.290 E0.54023
G1 X104.255 Y136.974 F10800.000
G1 E-0.80000 F2100.000
G1 Z0.800 F10800.000
G1 X102.084 Y130.644
G1 Z0.200
G1 E0.80000 F2100.000
;TYPE:Solid infill
;WIDTH:0.420851
G1 F1200.000
G1 X108.070 Y136.630 E0.26602
G1 X108.605 Y136.630 E0.01680
G1 X102.788 Y130.814 E0.25848
G1 X103.323 Y130.814 E0.01680
G1 X109.139 Y136.630 E0.25848
G1 X109.674 Y136.630 E0.01680
G1 X103.857 Y130.814 E0.25848
G1 X104.392 Y130.814 E0.01680
G1 X110.208 Y136.630 E0.25848
G1 X110.743 Y136.630 E0.01680
G1 X104.926 Y130.814 E0.25848
G1 X105.461 Y130.814 E0.01680
G1 X111.277 Y136.630 E0.25848
G1 X111.812 Y136.630 E0.01680
G1 X105.995 Y130.814 E0.25848
G1 X106.530 Y130.814 E0.01680
G1 X112.346 Y136.630 E0.25848
G1 X112.880 Y136.630 E0.01680
G1 X107.064 Y130.814 E0.25848
G1 X107.370 Y130.814 E0.00960
G1 X107.370 Y130.585 E0.00719
G1 X113.415 Y136.630 E0.26865
G1 X113.949 Y136.630 E0.01680
G1 X107.370 Y130.051 E0.29241
G1 X107.370 Y129.516 E0.01680
G1 X114.484 Y136.630 E0.31616
G1 X115.018 Y136.630 E0.01680
G1 X107.370 Y128.982 E0.33991
G1 X107.370 Y128.447 E0.01680
G1 X115.553 Y136.630 E0.36367
G1 X116.087 Y136.630 E0.01680
G1 X107.370 Y127.913 E0.38742
G1 X107.370 Y127.378 E0.01680
G1 X116.622 Y136.630 E0.41117
G1 X117.156 Y136.630 E0.01680
G1 X107.370 Y126.844 E0.43492
G1 X107.370 Y126.309 E0.01680
G1 X117.691 Y136.630 E0.45868
G1 X118.225 Y136.630 E0.01680
G1 X107.370 Y125.775 E0.48243
G1 X107.370 Y125.240 E0.01680
G1 X118.760 Y136.630 E0.50618
G1 X119.294 Y136.630 E0.01680
G1 X107.370 Y124.706 E0.52994
G1 X107.370 Y124.171 E0.01680
G1 X119.829 Y136.630 E0.55369
G1 X120.363 Y136.630 E0.01680
G1 X114.403 Y130.670 E0.26488
G1 X114.937 Y130.670 E0.01680
G1 X120.898 Y136.630 E0.26488
G1 X121.130 Y136.630 E0.00731
G1 X121.130 Y136.328 E0.00949
G1 X115.472 Y130.670 E0.25146
G1 X116.006 Y130.670 E0.01680
G1 X121.130 Y135.794 E0.22771
G1 X121.130 Y135.259 E0.01680
G1 X116.541 Y130.670 E0.20396
G1 X117.075 Y130.670 E0.01680
G1 X121.130 Y134.725 E0.18021
G1 X121.130 Y134.190 E0.01680
G1 X117.610 Y130.670 E0.15645
G1 X118.144 Y130.670 E0.01680
G1 X121.130 Y133.656 E0.13270
G1 X121.130 Y133.121 E0.01680
G1 X118.679 Y130.670 E0.10895
G1 X118.930 Y130.670 E0.00789
G1 X118.930 Y130.387 E0.00890
G1 X121.130 Y132.587 E0.09778
G1 X121.130 Y132.052 E0.01680
G1 X118.930 Y129.852 E0.09778
G1 X118.930 Y129.318 E0.01680
G1 X121.130 Y131.518 E0.09778
G1 X121.130 Y130.983 E0.01680
G1 X118.930 Y128.783 E0.09778
G1 X118.930 Y128.249 E0.01680
G1 X121.300 Y130.619 E0.10532
G1 E-0.80000 F2100.000
G1 Z0.800 F10800.000
G1 X113.860 Y130.127
G1 Z0.200
G1 E0.80000 F2100.000
G1 F1200.000
G1 X87.870 Y104.137 E1.15504
G1 X87.870 Y103.602 E0.01680
G1 X113.690 Y129.423 E1.14750
M73 P2 R53
M73 Q2 S53
G1 X113.690 Y128.888 E0.01680
G1 X87.870 Y103.068 E1.14750
G1 X87.870 Y102.533 E0.01680
G1 X113.690 Y128.354 E1.14750
G1 X113.690 Y127.819 E0.01680
G1 X87.870 Y101.999 E1.14750
G1 X87.870 Y101.465 E0.01680
G1 X113.690 Y127.285 E1.14750
M73 P2 R52
G1 X113.690 Y126.750 E0.01680
G1 X87.870 Y100.930 E1.14750
G1 X87.870 Y100.396 E0.01680
G1 X113.690 Y126.216 E1.14750
G1 X113.690 Y125.681 E0.01680
G1 X87.870 Y99.861 E1.14750
G1 X87.870 Y99.327 E0.01680
G1 X113.690 Y125.147 E1.14750
G1 X113.690 Y124.612 E0.01680
G1 X87.870 Y98.792 E1.14750
G1 X87.870 Y98.258 E0.01680
G1 X113.690 Y124.078 E1.14750
G1 X113.690 Y123.543 E0.01680
G1 X87.870 Y97.723 E1.14750
G1 X87.870 Y97.189 E0.01680
G1 X113.690 Y123.009 E1.14750
G1 X113.690 Y122.474 E0.01680
G1 X87.870 Y96.654 E1.14750
G1 X87.870 Y96.120 E0.01680
G1 X113.690 Y121.940 E1.14750
G1 X113.690 Y121.406 E0.01680
G1 X87.870 Y95.585 E1.14750
G1 X87.870 Y95.051 E0.01680
G1 X113.690 Y120.871 E1.14750
G1 X113.690 Y120.337 E0.01680
G1 X87.870 Y94.516 E1.14750
M73 P3 R52
M73 Q3 S53
G1 X87.870 Y93.982 E0.01680
G1 X113.690 Y119.802 E1.14750
G1 X113.690 Y119.268 E0.01680
G1 X87.870 Y93.447 E1.14750
G1 X87.870 Y92.913 E0.01680
G1 X113.690 Y118.733 E1.14750
M73 Q3 S52
G1 X113.690 Y118.199 E0.01680
G1 X87.870 Y92.378 E1.14750
G1 X87.870 Y91.844 E0.01680
G1 X113.690 Y117.664 E1.14750
G1 X113.690 Y117.130 E0.01680
G1 X87.870 Y91.309 E1.14750
G1 X87.870 Y90.775 E0.01680
G1 X113.690 Y116.595 E1.14750
G1 X113.690 Y116.061 E0.01680
G1 X87.870 Y90.241 E1.14750
G1 X87.870 Y89.706 E0.01680
G1 X113.690 Y115.526 E1.14750
G1 X113.690 Y114.992 E0.01680
G1 X87.870 Y89.172 E1.14750
G1 X87.870 Y88.637 E0.01680
G1 X113.690 Y114.457 E1.14750
G1 X113.690 Y113.923 E0.01680
G1 X87.870 Y88.103 E1.14750
G1 X87.870 Y87.568 E0.01680
G1 X113.690 Y113.388 E1.14750
G1 X113.690 Y112.854 E0.01680
G1 X87.870 Y87.034 E1.14750
G1 X87.870 Y86.499 E0.01680
G1 X101.630 Y100.259 E0.61153
G1 X101.630 Y99.725 E0.01680
G1 X87.870 Y85.965 E0.61153
G1 X87.870 Y85.430 E0.01680
G1 X101.630 Y99.190 E0.61153
G1 X101.630 Y98.656 E0.01680
G1 X87.870 Y84.896 E0.61153
G1 X87.870 Y84.361 E0.01680
G1 X101.630 Y98.122 E0.61153
G1 X101.630 Y97.587 E0.01680
G1 X87.870 Y83.827 E0.61153
M73 P4 R52
G1 X87.870 Y83.292 E0.01680
G1 X101.630 Y97.053 E0.61153
M73 Q4 S52
G1 X101.630 Y96.518 E0.01680
G1 X87.870 Y82.758 E0.61153
G1 X87.870 Y82.223 E0.01680
G1 X101.630 Y95.984 E0.61153
G1 X101.630 Y95.449 E0.01680
G1 X87.870 Y81.689 E0.61153
M73 P4 R51
G1 X87.870 Y81.154 E0.01680
G1 X101.630 Y94.915 E0.61153
G1 X101.630 Y94.380 E0.01680
G1 X87.870 Y80.620 E0.61153
G1 X87.870 Y80.085 E0.01680
G1 X101.630 Y93.846 E0.61153
G1 X101.630 Y93.615 E0.00726
G1 X101.934 Y93.615 E0.00954
G1 X87.870 Y79.551 E0.62502
G1 X87.870 Y79.017 E0.01680
G1 X102.468 Y93.615 E0.64877
G1 X103.003 Y93.615 E0.01680
G1 X87.870 Y78.482 E0.67252
G1 X87.870 Y77.948 E0.01680
G1 X103.537 Y93.615 E0.69628
G1 X104.072 Y93.615 E0.01680
G1 X87.870 Y77.413 E0.72003
G1 X87.870 Y76.879 E0.01680
G1 X104.606 Y93.615 E0.74378
G1 X105.140 Y93.615 E0.01680
G1 X87.870 Y76.344 E0.76754
G1 X87.870 Y75.810 E0.01680
G1 X105.675 Y93.615 E0.79129
G1 X106.209 Y93.615 E0.01680
G1 X87.870 Y75.275 E0.81504
G1 X87.870 Y74.741 E0.01680
G1 X106.914 Y93.784 E0.84634
G1 E-0.80000 F2100.000
G1 Z0.800 F10800.000
G1 X102.015 Y100.644
G1 Z0.200
G1 E0.80000 F2100.000
G1 F1200.000
G1 X113.690 Y112.319 E0.51887
G1 X113.690 Y111.785 E0.01680
G1 X102.719 Y100.814 E0.48757
G1 X103.254 Y100.814 E0.01680
G1 X113.690 Y111.250 E0.46382
G1 X113.690 Y110.716 E0.01680
G1 X103.788 Y100.814 E0.44007
G1 X104.322 Y100.814 E0.01680
G1 X113.690 Y110.182 E0.41631
G1 X113.690 Y109.647 E0.01680
G1 X104.857 Y100.814 E0.39256
G1 X105.391 Y100.814 E0.01680
G1 X113.690 Y109.113 E0.36881
G1 X113.690 Y108.578 E0.01680
G1 X105.926 Y100.814 E0.34506
G1 X106.460 Y100.814 E0.01680
G1 X113.690 Y108.044 E0.32130
G1 X113.690 Y107.509 E0.01680
G1 X106.995 Y100.814 E0.29755
G1 X107.370 Y100.814 E0.01178
G1 X107.370 Y100.654 E0.00501
G1 X113.690 Y106.975 E0.28088
G1 X113.690 Y106.440 E0.01680
G1 X107.370 Y100.120 E0.28088
G1 X107.370 Y99.585 E0.01680
G1 X113.690 Y105.906 E0.28088
G1 X113.690 Y105.371 E0.01680
G1 X107.370 Y99.051 E0.28088
G1 X107.370 Y98.517 E0.01680
G1 X113.690 Y104.837 E0.28088
G1 X113.690 Y104.302 E0.01680
G1 X107.370 Y97.982 E0.28088
G1 X107.370 Y97.448 E0.01680
G1 X113.690 Y103.768 E0.28088
G1 X113.690 Y103.233 E0.01680
G1 X107.370 Y96.913 E0.28088
G1 X107.370 Y96.379 E0.01680
G1 X113.690 Y102.699 E0.28088
G1 X113.690 Y102.164 E0.01680
G1 X107.370 Y95.844 E0.28088
G1 X107.370 Y95.310 E0.01680
G1 X113.690 Y101.630 E0.28088
G1 X113.690 Y101.095 E0.01680
G1 X107.370 Y94.775 E0.28088
M73 P5 R51
M73 Q4 S51
G1 X107.370 Y94.241 E0.01680
G1 X113.690 Y100.561 E0.28088
G1 X113.690 Y100.027 E0.01680
G1 X87.870 Y74.206 E1.14750
M73 Q5 S51
G1 X87.870 Y73.672 E0.01680
G1 X113.690 Y99.492 E1.14750
G1 X113.690 Y98.958 E0.01680
G1 X88.102 Y73.370 E1.13716
G1 X88.637 Y73.370 E0.01680
G1 X113.690 Y98.423 E1.11341
G1 X113.690 Y97.889 E0.01680
G1 X89.171 Y73.370 E1.08966
G1 X89.706 Y73.370 E0.01680
G1 X113.690 Y97.354 E1.06590
G1 X113.690 Y96.820 E0.01680
G1 X90.240 Y73.370 E1.04215
G1 X90.775 Y73.370 E0.01680
G1 X113.690 Y96.285 E1.01840
G1 X113.690 Y95.751 E0.01680
G1 X91.309 Y73.370 E0.99464
G1 X91.844 Y73.370 E0.01680
G1 X113.690 Y95.216 E0.97089
G1 X113.690 Y94.682 E0.01680
G1 X92.378 Y73.370 E0.94714
G1 X92.913 Y73.370 E0.01680
G1 X113.690 Y94.147 E0.92339
G1 X113.690 Y93.613 E0.01680
G1 X93.447 Y73.370 E0.89963
G1 X93.982 Y73.370 E0.01680
G1 X113.690 Y93.078 E0.87588
G1 X113.690 Y92.544 E0.01680
G1 X94.516 Y73.370 E0.85213
G1 X95.051 Y73.370 E0.01680
G1 X113.690 Y92.009 E0.82837
G1 X113.690 Y91.475 E0.01680
G1 X95.585 Y73.370 E0.80462
G1 X96.120 Y73.370 E0.01680
G1 X113.690 Y90.940 E0.78087
G1 X113.690 Y90.406 E0.01680
G1 X96.654 Y73.370 E0.75711
G1 X97.189 Y73.370 E0.01680
G1 X113.690 Y89.871 E0.73336
M73 P5 R50
G1 X113.690 Y89.337 E0.01680
G1 X97.723 Y73.370 E0.70961
M73 P6 R50
G1 X98.257 Y73.370 E0.01680
G1 X113.690 Y88.803 E0.68585
M73 Q6 S51
G1 X113.690 Y88.268 E0.01680
G1 X98.792 Y73.370 E0.66210
G1 X99.326 Y73.370 E0.01680
G1 X113.690 Y87.734 E0.63835
G1 X113.690 Y87.199 E0.01680
G1 X99.861 Y73.370 E0.61460
G1 X100.395 Y73.370 E0.01680
G1 X113.690 Y86.665 E0.59084
G1 X113.690 Y86.130 E0.01680
G1 X100.930 Y73.370 E0.56709
G1 X101.464 Y73.370 E0.01680
G1 X113.690 Y85.596 E0.54334
G1 X113.690 Y85.061 E0.01680
G1 X101.999 Y73.370 E0.51958
G1 X102.533 Y73.370 E0.01680
G1 X113.690 Y84.527 E0.49583
G1 X113.690 Y83.992 E0.01680
G1 X103.068 Y73.370 E0.47208
G1 X103.602 Y73.370 E0.01680
G1 X113.690 Y83.458 E0.44832
G1 X113.690 Y82.923 E0.01680
G1 X104.137 Y73.370 E0.42457
G1 X104.671 Y73.370 E0.01680
G1 X113.690 Y82.389 E0.40082
G1 X113.690 Y81.854 E0.01680
G1 X105.206 Y73.370 E0.37707
G1 X105.740 Y73.370 E0.01680
G1 X113.690 Y81.320 E0.35331
G1 X113.690 Y80.785 E0.01680
G1 X106.275 Y73.370 E0.32956
G1 X106.809 Y73.370 E0.01680
G1 X113.690 Y80.251 E0.30581
G1 X113.690 Y79.716 E0.01680
G1 X107.344 Y73.370 E0.28205
G1 X107.878 Y73.370 E0.01680
G1 X114.138 Y79.630 E0.27822
G1 X114.673 Y79.630 E0.01680
G1 X108.412 Y73.370 E0.27822
G1 X108.947 Y73.370 E0.01680
G1 X115.207 Y79.630 E0.27822
G1 X115.742 Y79.630 E0.01680
G1 X109.481 Y73.370 E0.27822
G1 X110.016 Y73.370 E0.01680
G1 X116.276 Y79.630 E0.27822
G1 X116.811 Y79.630 E0.01680
G1 X110.550 Y73.370 E0.27822
G1 X111.085 Y73.370 E0.01680
G1 X117.345 Y79.630 E0.27822
G1 X117.880 Y79.630 E0.01680
G1 X111.619 Y73.370 E0.27822
G1 X112.154 Y73.370 E0.01680
G1 X118.584 Y79.800 E0.28576
G1 E-0.80000 F2100.000
G1 Z0.800 F10800.000
G1 X121.300 Y73.964
G1 Z0.200
G1 E0.80000 F2100.000
G1 F1200.000
G1 X120.705 Y73.370 E0.02642
G1 X120.171 Y73.370 E0.01680
G1 X121.130 Y74.329 E0.04263
G1 X121.130 Y74.864 E0.01680
G1 X119.636 Y73.370 E0.06638
G1 X119.102 Y73.370 E0.01680
G1 X121.130 Y75.398 E0.09013
G1 X121.130 Y75.932 E0.01680
G1 X118.568 Y73.370 E0.11389
G1 X118.033 Y73.370 E0.01680
G1 X121.130 Y76.467 E0.13764
G1 X121.130 Y77.001 E0.01680
G1 X117.499 Y73.370 E0.16139
G1 X116.964 Y73.370 E0.01680
G1 X121.130 Y77.536 E0.18515
G1 X121.130 Y78.070 E0.01680
G1 X116.430 Y73.370 E0.20890
G1 X115.895 Y73.370 E0.01680
G1 X121.130 Y78.605 E0.23265
G1 X121.130 Y79.139 E0.01680
G1 X115.361 Y73.370 E0.25640
G1 X114.826 Y73.370 E0.01680
G1 X121.130 Y79.674 E0.28016
G1 X121.130 Y80.208 E0.01680
G1 X114.292 Y73.370 E0.30391
G1 X113.757 Y73.370 E0.01680
G1 X121.130 Y80.743 E0.32766
G1 X121.130 Y81.277 E0.01680
G1 X113.223 Y73.370 E0.35142
G1 X112.688 Y73.370 E0.01680
G1 X121.130 Y81.812 E0.37517
G1 X121.130 Y82.346 E0.01680
G1 X118.930 Y80.146 E0.09778
G1 X118.930 Y80.680 E0.01680
G1 X121.130 Y82.881 E0.09778
G1 X121.130 Y83.415 E0.01680
G1 X118.930 Y81.215 E0.09778
G1 X118.930 Y81.749 E0.01680
G1 X121.130 Y83.950 E0.09778
G1 X121.130 Y84.484 E0.01680
G1 X118.930 Y82.284 E0.09778
G1 X118.930 Y82.818 E0.01680
G1 X121.130 Y85.019 E0.09778
G1 X121.130 Y85.553 E0.01680
G1 X118.930 Y83.353 E0.09778
G1 X118.930 Y83.887 E0.01680
G1 X121.130 Y86.088 E0.09778
G1 X121.130 Y86.622 E0.01680
G1 X118.930 Y84.422 E0.09778
G1 X118.930 Y84.956 E0.01680
G1 X121.130 Y87.156 E0.09778
G1 X121.130 Y87.691 E0.01680
G1 X118.930 Y85.491 E0.09778
G1 X118.930 Y86.025 E0.01680
G1 X121.130 Y88.225 E0.09778
M73 Q6 S50
G1 X121.130 Y88.760 E0.01680
G1 X118.930 Y86.560 E0.09778
G1 X118.930 Y87.094 E0.01680
G1 X121.130 Y89.294 E0.09778
G1 X121.130 Y89.829 E0.01680
G1 X118.930 Y87.629 E0.09778
G1 X118.930 Y88.163 E0.01680
G1 X121.130 Y90.363 E0.09778
G1 X121.130 Y90.898 E0.01680
G1 X118.930 Y88.698 E0.09778
G1 X118.930 Y89.232 E0.01680
G1 X121.130 Y91.432 E0.09778
G1 X121.130 Y91.967 E0.01680
G1 X118.930 Y89.766 E0.09778
G1 X118.930 Y90.301 E0.01680
G1 X121.130 Y92.501 E0.09778
G1 X121.130 Y93.036 E0.01680
G1 X118.930 Y90.835 E0.09778
