; generated by PrusaSlicer 2.3.1+win64 on 2021-05-27 at 21:20:25 UTC

; 

; external perimeters extrusion width = 0.45mm
; perimeters extrusion width = 0.45mm
; infill extrusion width = 0.45mm
; solid infill extrusion width = 0.45mm
; top infill extrusion width = 0.40mm
; first layer extrusion width = 0.42mm

M73 P0 R185
M73 Q0 S187
M201 X1000 Y1000 Z1000 E5000 ; sets maximum accelerations, mm/sec^2
M203 X200 Y200 Z12 E120 ; sets maximum feedrates, mm/sec
M204 P1250 R1250 T1250 ; sets acceleration (P, T) and retract acceleration (R), mm/sec^2
M205 X8.00 Y8.00 Z0.40 E1.50 ; sets the jerk limits, mm/sec
M205 S0 T0 ; sets the minimum extruding and travel feed rate, mm/sec
M107
;TYPE:Custom
M862.3 P "MK3S" ; printer model check
M862.1 P0.4 ; nozzle diameter check
M115 U3.8.0 ; tell printer latest fw version
G90 ; use absolute coordinates
M83 ; extruder relative mode
M104 S215 ; set extruder temp
M140 S60 ; set bed temp
M190 S60 ; wait for bed temp
M109 S215 ; wait for extruder temp
G28 W ; home all without mesh bed level
G80 ; mesh bed leveling
G1 Y-3.0 F1000.0 ; go outside print area
G92 E0.0
G1 X60.0 E9.0 F1000.0 ; intro line
G1 X100.0 E12.5 F1000.0 ; intro line
G92 E0.0
M221 S95
G21 ; set units to millimeters
G90 ; use absolute coordinates
M83 ; use relative distances for extrusion
M900 K0.05 ; Filament gcode LA 1.5
M900 K30 ; Filament gcode LA 1.0
;LAYER_CHANGE
;Z:0.2
;HEIGHT:0.2
;BEFORE_LAYER_CHANGE
G92 E0.0
;0.2


G1 E-0.80000 F2100.000
G1 Z0.600 F10800.000
;AFTER_LAYER_CHANGE
;0.2
G1 X63.500 Y65.031
G1 Z0.200
G1 E0.80000 F2100.000
M204 S1000
;TYPE:Perimeter
;WIDTH:0.42
G1 F1200.000
G1 X60.913 Y65.031 E0.08112
G1 X60.913 Y58.398 E0.20799
G1 X66.087 Y58.398 E0.16223
G1 X66.087 Y65.031 E0.20799
G1 X63.560 Y65.031 E0.07923
G1 X63.500 Y64.654 F10800.000
;TYPE:External perimeter
G1 F1200.000
G1 X61.290 Y64.654 E0.06929
G1 X61.290 Y58.775 E0.18434
G1 X65.710 Y58.775 E0.13859
G1 X65.710 Y64.654 E0.18434
G1 X63.560 Y64.654 E0.06741
G1 X63.452 Y65.051 F10800.000
G1 E-0.80000 F2100.000
G1 Z0.800 F10800.000
G1 X63.500 Y95.031
G1 Z0.200
G1 E0.80000 F2100.000
;TYPE:Perimeter
G1 F1200.000
G1 X60.913 Y95.031 E0.08112
G1 X60.913 Y88.398 E0.20799
G1 X66.087 Y88.398 E0.16223
G1 X66.087 Y95.031 E0.20799
G1 X63.560 Y95.031 E0.07923
G1 X63.500 Y94.654 F10800.000
;TYPE:External perimeter
G1 F1200.000
G1 X61.290 Y94.654 E0.06929
G1 X61.290 Y88.775 E0.18434
G1 X65.710 Y88.775 E0.13859
G1 X65.710 Y94.654 E0.18434
G1 X63.560 Y94.654 E0.06741
G1 X63.452 Y95.051 F10800.000
G1 E-0.80000 F2100.000
G1 Z0.800 F10800.000
G1 X63.500 Y101.413
G1 Z0.200
G1 E0.80000 F2100.000
;TYPE:Perimeter
G1 F1200.000
G1 X46.587 Y101.413 E0.53029
G1 X46.587 Y37.587 E2.00121
G1 X80.413 Y37.587 E1.06059
M73 Q0 S186
G1 X80.413 Y88.663 E1.60146
M73 P0 R184
G1 X77.647 Y85.898 E0.12264
G1 X77.647 Y44.413 E1.30072
G1 X72.973 Y44.413 E0.14655
G1 X72.973 Y94.887 E1.58258
G1 X77.647 Y94.887 E0.14655
G1 X77.647 Y91.777 E0.09750
G1 X80.413 Y94.543 E0.12264
G1 X80.413 Y101.413 E0.21540
G1 X63.560 Y101.413 E0.52841
G1 X63.500 Y101.790 F10800.000
;TYPE:External perimeter
G1 F1200.000
G1 X46.210 Y101.790 E0.54212
G1 X46.210 Y37.210 E2.02486
G1 X80.790 Y37.210 E1.08423
G1 X80.790 Y89.574 E1.64183
G1 X77.270 Y86.054 E0.15608
G1 X77.270 Y44.790 E1.29380
G1 X73.350 Y44.790 E0.12291
G1 X73.350 Y94.510 E1.55894
G1 X77.270 Y94.510 E0.12291
G1 X77.270 Y90.867 E0.11422
G1 X80.790 Y94.387 E0.15608
G1 X80.790 Y101.790 E0.23212
G1 X63.560 Y101.790 E0.54023
G1 X63.255 Y101.474 F10800.000
G1 E-0.80000 F2100.000
G1 Z0.800 F10800.000
G1 X61.084 Y95.144
G1 Z0.200
G1 E0.80000 F2100.000
;TYPE:Solid infill
;WIDTH:0.420851
G1 F1200.000
G1 X67.070 Y101.130 E0.26602
G1 X67.605 Y101.130 E0.01680
G1 X61.788 Y95.314 E0.25848
G1 X62.323 Y95.314 E0.01680
G1 X68.139 Y101.130 E0.25848
G1 X68.674 Y101.130 E0.01680
G1 X62.857 Y95.314 E0.25848
G1 X63.392 Y95.314 E0.01680
G1 X69.208 Y101.130 E0.25848
G1 X69.743 Y101.130 E0.01680
G1 X63.926 Y95.314 E0.25848
G1 X64.461 Y95.314 E0.01680
G1 X70.277 Y101.130 E0.25848
G1 X70.812 Y101.130 E0.01680
G1 X64.995 Y95.314 E0.25848
G1 X65.530 Y95.314 E0.01680
G1 X71.346 Y101.130 E0.25848
G1 X71.880 Y101.130 E0.01680
G1 X66.064 Y95.314 E0.25848
G1 X66.370 Y95.314 E0.00960
G1 X66.370 Y95.085 E0.00719
G1 X72.415 Y101.130 E0.26865
G1 X72.949 Y101.130 E0.01680
G1 X66.370 Y94.551 E0.29241
G1 X66.370 Y94.016 E0.01680
G1 X73.484 Y101.130 E0.31616
G1 X74.018 Y101.130 E0.01680
G1 X66.370 Y93.482 E0.33991
G1 X66.370 Y92.947 E0.01680
G1 X74.553 Y101.130 E0.36367
G1 X75.087 Y101.130 E0.01680
G1 X66.370 Y92.413 E0.38742
G1 X66.370 Y91.878 E0.01680
G1 X75.622 Y101.130 E0.41117
G1 X76.156 Y101.130 E0.01680
G1 X66.370 Y91.344 E0.43492
G1 X66.370 Y90.809 E0.01680
G1 X76.691 Y101.130 E0.45868
G1 X77.225 Y101.130 E0.01680
G1 X66.370 Y90.275 E0.48243
G1 X66.370 Y89.740 E0.01680
G1 X77.760 Y101.130 E0.50618
G1 X78.294 Y101.130 E0.01680
G1 X66.370 Y89.206 E0.52994
G1 X66.370 Y88.671 E0.01680
G1 X78.829 Y101.130 E0.55369
G1 X79.363 Y101.130 E0.01680
G1 X73.403 Y95.170 E0.26488
G1 X73.937 Y95.170 E0.01680
G1 X79.898 Y101.130 E0.26488
G1 X80.130 Y101.130 E0.00731
G1 X80.130 Y100.828 E0.00949
G1 X74.472 Y95.170 E0.25146
G1 X75.006 Y95.170 E0.01680
G1 X80.130 Y100.294 E0.22771
G1 X80.130 Y99.759 E0.01680
G1 X75.541 Y95.170 E0.20396
G1 X76.075 Y95.170 E0.01680
G1 X80.130 Y99.225 E0.18021
G1 X80.130 Y98.690 E0.01680
G1 X76.610 Y95.170 E0.15645
G1 X77.144 Y95.170 E0.01680
G1 X80.130 Y98.156 E0.13270
G1 X80.130 Y97.621 E0.01680
G1 X77.679 Y95.170 E0.10895
G1 X77.930 Y95.170 E0.00789
G1 X77.930 Y94.887 E0.00890
G1 X80.130 Y97.087 E0.09778
G1 X80.130 Y96.552 E0.01680
G1 X77.930 Y94.352 E0.09778
G1 X77.930 Y93.818 E0.01680
G1 X80.130 Y96.018 E0.09778
G1 X80.130 Y95.483 E0.01680
G1 X77.930 Y93.283 E0.09778
G1 X77.930 Y92.749 E0.01680
G1 X80.300 Y95.119 E0.10532
G1 E-0.80000 F2100.000
G1 Z0.800 F10800.000
G1 X72.860 Y94.627
G1 Z0.200
G1 E0.80000 F2100.000
G1 F1200.000
G1 X46.870 Y68.637 E1.15504
G1 X46.870 Y68.102 E0.01680
G1 X72.690 Y93.923 E1.14750
G1 X72.690 Y93.388 E0.01680
G1 X46.870 Y67.568 E1.14750
G1 X46.870 Y67.033 E0.01680
G1 X72.690 Y92.854 E1.14750
G1 X72.690 Y92.319 E0.01680
G1 X46.870 Y66.499 E1.14750
G1 X46.870 Y65.965 E0.01680
G1 X72.690 Y91.785 E1.14750
G1 X72.690 Y91.250 E0.01680
G1 X46.870 Y65.430 E1.14750
G1 X46.870 Y64.896 E0.01680
G1 X72.690 Y90.716 E1.14750
G1 X72.690 Y90.181 E0.01680
G1 X46.870 Y64.361 E1.14750
M73 Q0 S185
G1 X46.870 Y63.827 E0.01680
G1 X72.690 Y89.647 E1.14750
G1 X72.690 Y89.112 E0.01680
G1 X46.870 Y63.292 E1.14750
M73 P0 R183
G1 X46.870 Y62.758 E0.01680
G1 X72.690 Y88.578 E1.14750
G1 X72.690 Y88.043 E0.01680
G1 X46.870 Y62.223 E1.14750
G1 X46.870 Y61.689 E0.01680
G1 X72.690 Y87.509 E1.14750
G1 X72.690 Y86.974 E0.01680
G1 X46.870 Y61.154 E1.14750
G1 X46.870 Y60.620 E0.01680
G1 X72.690 Y86.440 E1.14750
G1 X72.690 Y85.906 E0.01680
G1 X46.870 Y60.085 E1.14750
G1 X46.870 Y59.551 E0.01680
G1 X72.690 Y85.371 E1.14750
G1 X72.690 Y84.837 E0.01680
G1 X46.870 Y59.016 E1.14750
G1 X46.870 Y58.482 E0.01680
G1 X72.690 Y84.302 E1.14750
G1 X72.690 Y83.768 E0.01680
G1 X46.870 Y57.947 E1.14750
G1 X46.870 Y57.413 E0.01680
G1 X72.690 Y83.233 E1.14750
G1 X72.690 Y82.699 E0.01680
G1 X46.870 Y56.878 E1.14750
G1 X46.870 Y56.344 E0.01680
G1 X72.690 Y82.164 E1.14750
G1 X72.690 Y81.630 E0.01680
G1 X46.870 Y55.809 E1.14750
G1 X46.870 Y55.275 E0.01680
G1 X72.690 Y81.095 E1.14750
G1 X72.690 Y80.561 E0.01680
G1 X46.870 Y54.741 E1.14750
M73 P1 R183
M73 Q1 S185
G1 X46.870 Y54.206 E0.01680
G1 X72.690 Y80.026 E1.14750
G1 X72.690 Y79.492 E0.01680
G1 X46.870 Y53.672 E1.14750
G1 X46.870 Y53.137 E0.01680
G1 X72.690 Y78.957 E1.14750
G1 X72.690 Y78.423 E0.01680
G1 X46.870 Y52.603 E1.14750
G1 X46.870 Y52.068 E0.01680
G1 X72.690 Y77.888 E1.14750
G1 X72.690 Y77.354 E0.01680
G1 X46.870 Y51.534 E1.14750
G1 X46.870 Y50.999 E0.01680
G1 X60.630 Y64.759 E0.61153
G1 X60.630 Y64.225 E0.01680
G1 X46.870 Y50.465 E0.61153
G1 X46.870 Y49.930 E0.01680
G1 X60.630 Y63.690 E0.61153
G1 X60.630 Y63.156 E0.01680
G1 X46.870 Y49.396 E0.61153
G1 X46.870 Y48.861 E0.01680
G1 X60.630 Y62.622 E0.61153
G1 X60.630 Y62.087 E0.01680
G1 X46.870 Y48.327 E0.61153
G1 X46.870 Y47.792 E0.01680
G1 X60.630 Y61.553 E0.61153
G1 X60.630 Y61.018 E0.01680
G1 X46.870 Y47.258 E0.61153
G1 X46.870 Y46.723 E0.01680
G1 X60.630 Y60.484 E0.61153
G1 X60.630 Y59.949 E0.01680
G1 X46.870 Y46.189 E0.61153
G1 X46.870 Y45.654 E0.01680
G1 X60.630 Y59.415 E0.61153
G1 X60.630 Y58.880 E0.01680
G1 X46.870 Y45.120 E0.61153
G1 X46.870 Y44.585 E0.01680
G1 X60.630 Y58.346 E0.61153
G1 X60.630 Y58.115 E0.00726
G1 X60.934 Y58.115 E0.00954
G1 X46.870 Y44.051 E0.62502
M73 Q1 S184
G1 X46.870 Y43.517 E0.01680
G1 X61.468 Y58.115 E0.64877
G1 X62.003 Y58.115 E0.01680
G1 X46.870 Y42.982 E0.67252
G1 X46.870 Y42.448 E0.01680
G1 X62.537 Y58.115 E0.69628
M73 P1 R182
G1 X63.072 Y58.115 E0.01680
G1 X46.870 Y41.913 E0.72003
G1 X46.870 Y41.379 E0.01680
G1 X63.606 Y58.115 E0.74378
G1 X64.140 Y58.115 E0.01680
G1 X46.870 Y40.844 E0.76754
G1 X46.870 Y40.310 E0.01680
G1 X64.675 Y58.115 E0.79129
G1 X65.209 Y58.115 E0.01680
G1 X46.870 Y39.775 E0.81504
G1 X46.870 Y39.241 E0.01680
G1 X65.914 Y58.284 E0.84634
G1 E-0.80000 F2100.000
G1 Z0.800 F10800.000
G1 X61.015 Y65.144
G1 Z0.200
G1 E0.80000 F2100.000
G1 F1200.000
G1 X72.690 Y76.819 E0.51887
G1 X72.690 Y76.285 E0.01680
G1 X61.719 Y65.314 E0.48757
G1 X62.254 Y65.314 E0.01680
G1 X72.690 Y75.750 E0.46382
G1 X72.690 Y75.216 E0.01680
G1 X62.788 Y65.314 E0.44007
G1 X63.322 Y65.314 E0.01680
G1 X72.690 Y74.682 E0.41631
G1 X72.690 Y74.147 E0.01680
G1 X63.857 Y65.314 E0.39256
G1 X64.391 Y65.314 E0.01680
G1 X72.690 Y73.613 E0.36881
G1 X72.690 Y73.078 E0.01680
G1 X64.926 Y65.314 E0.34506
G1 X65.460 Y65.314 E0.01680
G1 X72.690 Y72.544 E0.32130
G1 X72.690 Y72.009 E0.01680
G1 X65.995 Y65.314 E0.29755
G1 X66.370 Y65.314 E0.01178
G1 X66.370 Y65.154 E0.00501
G1 X72.690 Y71.475 E0.28088
G1 X72.690 Y70.940 E0.01680
G1 X66.370 Y64.620 E0.28088
G1 X66.370 Y64.085 E0.01680
G1 X72.690 Y70.406 E0.28088
G1 X72.690 Y69.871 E0.01680
G1 X66.370 Y63.551 E0.28088
G1 X66.370 Y63.017 E0.01680
G1 X72.690 Y69.337 E0.28088
G1 X72.690 Y68.802 E0.01680
G1 X66.370 Y62.482 E0.28088
G1 X66.370 Y61.948 E0.01680
G1 X72.690 Y68.268 E0.28088
G1 X72.690 Y67.733 E0.01680
G1 X66.370 Y61.413 E0.28088
G1 X66.370 Y60.879 E0.01680
G1 X72.690 Y67.199 E0.28088
G1 X72.690 Y66.664 E0.01680
G1 X66.370 Y60.344 E0.28088
G1 X66.370 Y59.810 E0.01680
G1 X72.690 Y66.130 E0.28088
G1 X72.690 Y65.595 E0.01680
G1 X66.370 Y59.275 E0.28088
G1 X66.370 Y58.741 E0.01680
G1 X72.690 Y65.061 E0.28088
G1 X72.690 Y64.527 E0.01680
G1 X46.870 Y38.706 E1.14750
G1 X46.870 Y38.172 E0.01680
G1 X72.690 Y63.992 E1.14750
G1 X72.690 Y63.458 E0.01680
G1 X47.102 Y37.870 E1.13716
G1 X47.637 Y37.870 E0.01680
G1 X72.690 Y62.923 E1.11341
G1 X72.690 Y62.389 E0.01680
G1 X48.171 Y37.870 E1.08966
G1 X48.706 Y37.870 E0.01680
G1 X72.690 Y61.854 E1.06590
G1 X72.690 Y61.320 E0.01680
G1 X49.240 Y37.870 E1.04215
G1 X49.775 Y37.870 E0.01680
G1 X72.690 Y60.785 E1.01840
G1 X72.690 Y60.251 E0.01680
G1 X50.309 Y37.870 E0.99464
G1 X50.844 Y37.870 E0.01680
G1 X72.690 Y59.716 E0.97089
G1 X72.690 Y59.182 E0.01680
G1 X51.378 Y37.870 E0.94714
G1 X51.913 Y37.870 E0.01680
G1 X72.690 Y58.647 E0.92339
G1 X72.690 Y58.113 E0.01680
G1 X52.447 Y37.870 E0.89963
G1 X52.982 Y37.870 E0.01680
G1 X72.690 Y57.578 E0.87588
G1 X72.690 Y57.044 E0.01680
G1 X53.516 Y37.870 E0.85213
G1 X54.051 Y37.870 E0.01680
G1 X72.690 Y56.509 E0.82837
G1 X72.690 Y55.975 E0.01680
G1 X54.585 Y37.870 E0.80462
G1 X55.120 Y37.870 E0.01680
G1 X72.690 Y55.440 E0.78087
G1 X72.690 Y54.906 E0.01680
G1 X55.654 Y37.870 E0.75711
G1 X56.189 Y37.870 E0.01680
G1 X72.690 Y54.371 E0.73336
G1 X72.690 Y53.837 E0.01680
G1 X56.723 Y37.870 E0.70961
G1 X57.257 Y37.870 E0.01680
G1 X72.690 Y53.303 E0.68585
G1 X72.690 Y52.768 E0.01680
G1 X57.792 Y37.870 E0.66210
G1 X58.326 Y37.870 E0.01680
G1 X72.690 Y52.234 E0.63835
M73 Q1 S183
G1 X72.690 Y51.699 E0.01680
G1 X58.861 Y37.870 E0.61460
G1 X59.395 Y37.870 E0.01680
G1 X72.690 Y51.165 E0.59084
G1 X72.690 Y50.630 E0.01680
G1 X59.930 Y37.870 E0.56709
G1 X60.464 Y37.870 E0.01680
G1 X72.690 Y50.096 E0.54334
M73 P1 R181
G1 X72.690 Y49.561 E0.01680
G1 X60.999 Y37.870 E0.51958
G1 X61.533 Y37.870 E0.01680
G1 X72.690 Y49.027 E0.49583
G1 X72.690 Y48.492 E0.01680
G1 X62.068 Y37.870 E0.47208
G1 X62.602 Y37.870 E0.01680
G1 X72.690 Y47.958 E0.44832
G1 X72.690 Y47.423 E0.01680
G1 X63.137 Y37.870 E0.42457
G1 X63.671 Y37.870 E0.01680
G1 X72.690 Y46.889 E0.40082
G1 X72.690 Y46.354 E0.01680
G1 X64.206 Y37.870 E0.37707
G1 X64.740 Y37.870 E0.01680
G1 X72.690 Y45.820 E0.35331
G1 X72.690 Y45.285 E0.01680
G1 X65.275 Y37.870 E0.32956
G1 X65.809 Y37.870 E0.01680
G1 X72.690 Y44.751 E0.30581
G1 X72.690 Y44.216 E0.01680
G1 X66.344 Y37.870 E0.28205
G1 X66.878 Y37.870 E0.01680
G1 X73.138 Y44.130 E0.27822
G1 X73.673 Y44.130 E0.01680
G1 X67.412 Y37.870 E0.27822
G1 X67.947 Y37.870 E0.01680
G1 X74.207 Y44.130 E0.27822
G1 X74.742 Y44.130 E0.01680
G1 X68.481 Y37.870 E0.27822
G1 X69.016 Y37.870 E0.01680
G1 X75.276 Y44.130 E0.27822
G1 X75.811 Y44.130 E0.01680
G1 X69.550 Y37.870 E0.27822
G1 X70.085 Y37.870 E0.01680
G1 X76.345 Y44.130 E0.27822
G1 X76.880 Y44.130 E0.01680
G1 X70.619 Y37.870 E0.27822
G1 X71.154 Y37.870 E0.01680
G1 X77.584 Y44.300 E0.28576
G1 E-0.80000 F2100.000
G1 Z0.800 F10800.000
G1 X80.300 Y38.464
G1 Z0.200
G1 E0.80000 F2100.000
G1 F1200.000
G1 X79.705 Y37.870 E0.02642
G1 X79.171 Y37.870 E0.01680
G1 X80.130 Y38.829 E0.04263
G1 X80.130 Y39.364 E0.01680
G1 X78.636 Y37.870 E0.06638
G1 X78.102 Y37.870 E0.01680
G1 X80.130 Y39.898 E0.09013
G1 X80.130 Y40.432 E0.01680
G1 X77.568 Y37.870 E0.11389
G1 X77.033 Y37.870 E0.01680
G1 X80.130 Y40.967 E0.13764
G1 X80.130 Y41.501 E0.01680
G1 X76.499 Y37.870 E0.16139
G1 X75.964 Y37.870 E0.01680
G1 X80.130 Y42.036 E0.18515
G1 X80.130 Y42.570 E0.01680
G1 X75.430 Y37.870 E0.20890
G1 X74.895 Y37.870 E0.01680
G1 X80.130 Y43.105 E0.23265
G1 X80.130 Y43.639 E0.01680
G1 X74.361 Y37.870 E0.25640
G1 X73.826 Y37.870 E0.01680
G1 X80.130 Y44.174 E0.28016
G1 X80.130 Y44.708 E0.01680
G1 X73.292 Y37.870 E0.30391
G1 X72.757 Y37.870 E0.01680
G1 X80.130 Y45.243 E0.32766
G1 X80.130 Y45.777 E0.01680
G1 X72.223 Y37.870 E0.35142
G1 X71.688 Y37.870 E0.01680
G1 X80.130 Y46.312 E0.37517
G1 X80.130 Y46.846 E0.01680
G1 X77.930 Y44.646 E0.09778
G1 X77.930 Y45.180 E0.01680
G1 X80.130 Y47.381 E0.09778
G1 X80.130 Y47.915 E0.01680
G1 X77.930 Y45.715 E0.09778
G1 X77.930 Y46.249 E0.01680
G1 X80.130 Y48.450 E0.09778
G1 X80.130 Y48.984 E0.01680
G1 X77.930 Y46.784 E0.09778
G1 X77.930 Y47.318 E0.01680
G1 X80.130 Y49.519 E0.09778
G1 X80.130 Y50.053 E0.01680
G1 X77.930 Y47.853 E0.09778
G1 X77.930 Y48.387 E0.01680
G1 X80.130 Y50.588 E0.09778
G1 X80.130 Y51.122 E0.01680
G1 X77.930 Y48.922 E0.09778
G1 X77.930 Y49.456 E0.01680
G1 X80.130 Y51.656 E0.09778
G1 X80.130 Y52.191 E0.01680
G1 X77.930 Y49.991 E0.09778
G1 X77.930 Y50.525 E0.01680
G1 X80.130 Y52.725 E0.09778
G1 X80.130 Y53.260 E0.01680
G1 X77.930 Y51.060 E0.09778
G1 X77.930 Y51.594 E0.01680
G1 X80.130 Y53.794 E0.09778
G1 X80.130 Y54.329 E0.01680
G1 X77.930 Y52.129 E0.09778
M73 P2 R181
G1 X77.930 Y52.663 E0.01680
G1 X80.130 Y54.863 E0.09778
G1 X80.130 Y55.398 E0.01680
G1 X77.930 Y53.198 E0.09778
G1 X77.930 Y53.732 E0.01680
G1 X80.130 Y55.932 E0.09778
G1 X80.130 Y56.467 E0.01680
G1 X77.930 Y54.266 E0.09778
G1 X77.930 Y54.801 E0.01680
G1 X80.130 Y57.001 E0.09778
G1 X80.130 Y57.536 E0.01680
G1 X77.930 Y55.335 E0.09778
G1 X77.930 Y55.870 E0.01680
G1 X80.130 Y58.070 E0.09778
G1 X80.130 Y58.605 E0.01680
G1 X77.930 Y56.404 E0.09778
G1 X77.930 Y56.939 E0.01680
G1 X80.130 Y59.139 E0.09778
G1 X80.130 Y59.674 E0.01680
G1 X77.930 Y57.473 E0.09778
M73 Q2 S183
G1 X77.930 Y58.008 E0.01680
G1 X80.130 Y60.208 E0.09778
G1 X80.130 Y60.743 E0.01680
G1 X77.930 Y58.542 E0.09778
G1 X77.930 Y59.077 E0.01680
G1 X80.130 Y61.277 E0.09778
G1 X80.130 Y61.811 E0.01680
G1 X77.930 Y59.611 E0.09778
G1 X77.930 Y60.146 E0.01680
G1 X80.130 Y62.346 E0.09778
G1 X80.130 Y62.880 E0.01680
G1 X77.930 Y60.680 E0.09778
G1 X77.930 Y61.215 E0.01680
G1 X80.130 Y63.415 E0.09778
