; generated by PrusaSlicer 2.2.0+win64 on 2021-02-06 at 21:28:27 UTC

; 

; external perimeters extrusion width = 0.45mm
; perimeters extrusion width = 0.45mm
; infill extrusion width = 0.45mm
; solid infill extrusion width = 0.45mm
; top infill extrusion width = 0.40mm
; first layer extrusion width = 0.42mm

M73 P0 R36
M73 Q0 S37
M201 X1000 Y1000 Z1000 E5000 ; sets maximum accelerations, mm/sec^2
M203 X200 Y200 Z12 E120 ; sets maximum feedrates, mm/sec
M204 P1250 R1250 T1250 ; sets acceleration (P, T) and retract acceleration (R), mm/sec^2
M205 X8.00 Y8.00 Z0.40 E1.50 ; sets the jerk limits, mm/sec
M205 S0 T0 ; sets the minimum extruding and travel feed rate, mm/sec
M107
M862.3 P "MK3S" ; printer model check
M862.1 P0.4 ; nozzle diameter check
M115 U3.8.0 ; tell printer latest fw version
G90 ; use absolute coordinates
M83 ; extruder relative mode
M104 S215 ; set extruder temp
M140 S60 ; set bed temp
M190 S60 ; wait for bed temp
M109 S215 ; wait for extruder temp
G28 W ; home all without mesh bed level
G80 ; mesh bed leveling
G1 Y-3.0 F1000.0 ; go outside print area
G92 E0.0
G1 X60.0 E9.0 F1000.0 ; intro line
M73 Q0 S36
M73 P0 R36
G1 X100.0 E12.5 F1000.0 ; intro line
G92 E0.0
M221 S95
G21 ; set units to millimeters
G90 ; use absolute coordinates
M83 ; use relative distances for extrusion
M900 K0.05 ; Filament gcode LA 1.5
M900 K30 ; Filament gcode LA 1.0
;BEFORE_LAYER_CHANGE
G92 E0.0
;0.2


G1 E-0.80000 F2100.00000
G1 Z0.600 F10800.000
;AFTER_LAYER_CHANGE
;0.2
G1 X139.737 Y72.422
G1 Z0.200
G1 E0.80000 F2100.00000
M204 S1000
G1 F1200.000
G1 X141.047 Y72.451 E0.04110
G1 X142.586 Y72.665 E0.04871
G1 X144.091 Y73.046 E0.04867
G1 X145.544 Y73.590 E0.04867
G1 X146.929 Y74.291 E0.04867
G1 X148.229 Y75.140 E0.04867
G1 X149.427 Y76.126 E0.04867
G1 X150.509 Y77.239 E0.04867
G1 X151.463 Y78.464 E0.04867
G1 X152.275 Y79.786 E0.04867
G1 X152.938 Y81.190 E0.04867
G1 X153.442 Y82.658 E0.04867
G1 X153.781 Y84.172 E0.04867
G1 X153.951 Y85.707 E0.04841
G1 X153.973 Y86.491 E0.02460
G1 X153.951 Y87.275 E0.02460
G1 X153.781 Y88.810 E0.04841
G1 X153.442 Y90.325 E0.04867
G1 X152.938 Y91.793 E0.04867
G1 X152.275 Y93.196 E0.04867
G1 X151.463 Y94.519 E0.04867
G1 X150.509 Y95.744 E0.04867
G1 X149.427 Y96.856 E0.04867
G1 X148.229 Y97.843 E0.04867
G1 X146.929 Y98.692 E0.04867
G1 X145.612 Y99.358 E0.04629
G1 X144.092 Y99.937 E0.05098
G1 X142.586 Y100.318 E0.04872
G1 X141.049 Y100.531 E0.04867
G1 X139.497 Y100.574 E0.04867
G1 X137.950 Y100.446 E0.04867
G1 X136.427 Y100.148 E0.04867
G1 X134.946 Y99.685 E0.04867
G1 X133.524 Y99.061 E0.04867
G1 X132.180 Y98.285 E0.04867
G1 X130.929 Y97.366 E0.04867
G1 X129.787 Y96.315 E0.04867
G1 X128.768 Y95.144 E0.04867
G1 X127.884 Y93.869 E0.04867
G1 X127.145 Y92.504 E0.04867
G1 X126.561 Y91.066 E0.04867
G1 X126.138 Y89.572 E0.04867
G1 X125.883 Y88.041 E0.04867
G1 X125.797 Y86.491 E0.04867
G1 X125.883 Y84.941 E0.04867
G1 X126.138 Y83.411 E0.04867
G1 X126.540 Y81.990 E0.04629
G1 X127.144 Y80.480 E0.05098
G1 X127.884 Y79.114 E0.04872
G1 X128.768 Y77.838 E0.04867
G1 X129.787 Y76.668 E0.04867
G1 X130.929 Y75.617 E0.04867
G1 X132.180 Y74.697 E0.04867
G1 X133.524 Y73.921 E0.04867
G1 X134.946 Y73.298 E0.04867
G1 X136.427 Y72.834 E0.04867
G1 X137.950 Y72.537 E0.04867
G1 X139.422 Y72.415 E0.04629
G1 X139.677 Y72.421 E0.00800
G1 E-0.80000 F2100.00000
G1 Z0.800 F10800.000
G1 X139.508 Y100.196
G1 Z0.200
G1 E0.80000 F2100.00000
G1 F1200.000
G1 X138.002 Y100.072 E0.04736
G1 X136.520 Y99.782 E0.04736
G1 X135.078 Y99.331 E0.04736
G1 X133.695 Y98.724 E0.04736
G1 X132.387 Y97.969 E0.04736
G1 X131.169 Y97.074 E0.04736
G1 X130.058 Y96.051 E0.04736
G1 X129.066 Y94.912 E0.04736
G1 X128.205 Y93.671 E0.04736
G1 X127.486 Y92.343 E0.04736
G1 X126.918 Y90.943 E0.04736
G1 X126.507 Y89.489 E0.04736
G1 X126.258 Y88.000 E0.04736
G1 X126.175 Y86.491 E0.04736
G1 X126.258 Y84.983 E0.04736
G1 X126.507 Y83.493 E0.04736
G1 X126.898 Y82.112 E0.04501
G1 X127.486 Y80.641 E0.04968
G1 X128.205 Y79.312 E0.04738
G1 X129.066 Y78.070 E0.04736
G1 X130.058 Y76.931 E0.04736
G1 X131.169 Y75.908 E0.04736
G1 X132.387 Y75.013 E0.04736
G1 X133.695 Y74.258 E0.04736
G1 X135.078 Y73.651 E0.04736
G1 X136.520 Y73.200 E0.04736
G1 X138.002 Y72.911 E0.04736
G1 X139.433 Y72.792 E0.04501
G1 X141.017 Y72.828 E0.04968
G1 X142.514 Y73.035 E0.04738
G1 X143.978 Y73.406 E0.04736
G1 X145.393 Y73.936 E0.04736
G1 X146.741 Y74.618 E0.04736
G1 X148.005 Y75.444 E0.04736
G1 X149.171 Y76.404 E0.04736
G1 X150.224 Y77.487 E0.04736
G1 X151.152 Y78.679 E0.04736
G1 X151.943 Y79.966 E0.04736
G1 X152.588 Y81.332 E0.04736
G1 X153.078 Y82.761 E0.04736
G1 X153.409 Y84.235 E0.04736
G1 X153.575 Y85.733 E0.04727
G1 X153.595 Y86.491 E0.02378
G1 X153.575 Y87.249 E0.02378
G1 X153.409 Y88.748 E0.04727
G1 X153.078 Y90.222 E0.04736
G1 X152.588 Y91.651 E0.04736
G1 X151.943 Y93.017 E0.04736
G1 X151.152 Y94.304 E0.04736
G1 X150.224 Y95.496 E0.04736
G1 X149.171 Y96.578 E0.04736
G1 X148.005 Y97.539 E0.04736
G1 X146.741 Y98.365 E0.04736
G1 X145.460 Y99.013 E0.04501
G1 X143.979 Y99.576 E0.04968
G1 X142.514 Y99.947 E0.04738
G1 X141.018 Y100.155 E0.04736
G1 X139.568 Y100.195 E0.04548
G1 X139.298 Y100.537 F10800.000
G1 E-0.80000 F2100.00000
G1 Z0.800 F10800.000
G1 X139.501 Y101.398
G1 Z0.200
G1 E0.80000 F2100.00000
G1 F1200.000
G1 X137.971 Y101.280 E0.04814
G1 X136.460 Y101.005 E0.04814
G1 X134.986 Y100.576 E0.04814
G1 X133.564 Y99.997 E0.04814
G1 X132.209 Y99.276 E0.04814
G1 X130.935 Y98.419 E0.04814
G1 X129.756 Y97.435 E0.04814
G1 X128.739 Y96.392 E0.04568
G1 X127.731 Y95.130 E0.05063
G1 X126.908 Y93.836 E0.04809
G1 X126.221 Y92.463 E0.04814
G1 X125.680 Y91.026 E0.04814
G1 X125.289 Y89.542 E0.04814
G1 X125.052 Y88.025 E0.04814
G1 X124.973 Y86.491 E0.04814
G1 X125.052 Y84.958 E0.04814
G1 X125.289 Y83.441 E0.04814
G1 X125.680 Y81.956 E0.04814
G1 X126.221 Y80.520 E0.04814
G1 X126.908 Y79.146 E0.04814
G1 X127.732 Y77.851 E0.04814
G1 X128.684 Y76.647 E0.04814
G1 X129.756 Y75.547 E0.04814
G1 X130.935 Y74.564 E0.04814
G1 X132.209 Y73.707 E0.04814
G1 X133.564 Y72.985 E0.04814
G1 X134.986 Y72.407 E0.04814
G1 X136.460 Y71.978 E0.04814
G1 X137.971 Y71.703 E0.04814
G1 X139.501 Y71.584 E0.04814
G1 X140.958 Y71.622 E0.04568
G1 X142.560 Y71.821 E0.05063
G1 X144.053 Y72.173 E0.04809
G1 X145.503 Y72.678 E0.04814
G1 X146.894 Y73.329 E0.04814
G1 X148.210 Y74.119 E0.04814
G1 X149.438 Y75.041 E0.04814
G1 X150.565 Y76.083 E0.04814
G1 X151.578 Y77.237 E0.04814
G1 X152.468 Y78.488 E0.04814
G1 X153.224 Y79.824 E0.04814
G1 X153.839 Y81.231 E0.04814
G1 X154.306 Y82.694 E0.04814
G1 X154.620 Y84.196 E0.04814
G1 X154.779 Y85.731 E0.04838
G1 X154.798 Y86.491 E0.02384
G1 X154.779 Y87.251 E0.02384
G1 X154.620 Y88.786 E0.04838
G1 X154.306 Y90.289 E0.04814
G1 X153.839 Y91.752 E0.04814
G1 X153.224 Y93.158 E0.04814
G1 X152.468 Y94.495 E0.04814
G1 X151.578 Y95.746 E0.04814
G1 X150.565 Y96.899 E0.04814
G1 X149.438 Y97.942 E0.04814
G1 X148.210 Y98.864 E0.04814
G1 X146.894 Y99.654 E0.04814
G1 X145.503 Y100.305 E0.04814
G1 X144.053 Y100.809 E0.04814
G1 X142.559 Y101.162 E0.04814
G1 X141.036 Y101.359 E0.04814
G1 X139.561 Y101.397 E0.04626
G1 X139.492 Y101.776 F10800.000
G1 F1200.000
G1 X137.922 Y101.654 E0.04936
G1 X136.374 Y101.372 E0.04936
G1 X134.862 Y100.932 E0.04936
G1 X133.404 Y100.339 E0.04936
G1 X132.014 Y99.599 E0.04936
G1 X130.708 Y98.721 E0.04936
G1 X129.500 Y97.712 E0.04936
G1 X128.456 Y96.642 E0.04687
G1 X127.424 Y95.350 E0.05185
G1 X126.579 Y94.022 E0.04934
G1 X125.875 Y92.614 E0.04936
G1 X125.320 Y91.141 E0.04936
G1 X124.919 Y89.619 E0.04936
G1 X124.677 Y88.063 E0.04936
G1 X124.596 Y86.491 E0.04936
G1 X124.677 Y84.919 E0.04936
G1 X124.919 Y83.364 E0.04936
G1 X125.320 Y81.841 E0.04936
G1 X125.875 Y80.368 E0.04936
G1 X126.579 Y78.960 E0.04936
G1 X127.424 Y77.632 E0.04936
G1 X128.401 Y76.398 E0.04936
G1 X129.500 Y75.270 E0.04936
G1 X130.708 Y74.262 E0.04936
G1 X132.014 Y73.383 E0.04936
G1 X133.404 Y72.643 E0.04936
G1 X134.862 Y72.050 E0.04936
G1 X136.374 Y71.610 E0.04936
G1 X137.922 Y71.328 E0.04936
G1 X139.492 Y71.207 E0.04936
G1 X140.986 Y71.245 E0.04687
G1 X142.627 Y71.449 E0.05185
G1 X144.159 Y71.811 E0.04934
G1 X145.645 Y72.328 E0.04936
G1 X147.071 Y72.995 E0.04936
G1 X148.421 Y73.806 E0.04936
G1 X149.680 Y74.751 E0.04936
G1 X150.835 Y75.820 E0.04936
G1 X151.874 Y77.002 E0.04936
G1 X152.787 Y78.285 E0.04936
G1 X153.562 Y79.655 E0.04936
G1 X154.192 Y81.098 E0.04936
G1 X154.671 Y82.597 E0.04936
G1 X154.993 Y84.138 E0.04936
G1 X155.155 Y85.707 E0.04944
G1 X155.175 Y86.491 E0.02460
G1 X155.155 Y87.276 E0.02460
G1 X154.993 Y88.844 E0.04944
G1 X154.671 Y90.385 E0.04936
G1 X154.192 Y91.885 E0.04936
G1 X153.562 Y93.327 E0.04936
G1 X152.787 Y94.697 E0.04936
G1 X151.874 Y95.980 E0.04936
G1 X150.835 Y97.163 E0.04936
G1 X149.680 Y98.232 E0.04936
G1 X148.421 Y99.177 E0.04936
G1 X147.071 Y99.987 E0.04936
G1 X145.645 Y100.655 E0.04936
G1 X144.159 Y101.172 E0.04936
G1 X142.627 Y101.533 E0.04936
G1 X141.065 Y101.735 E0.04936
G1 X139.552 Y101.774 E0.04748
G1 X139.301 Y101.424 F10800.000
G1 X139.512 Y100.986
G1 F1200.000
G1 X137.906 Y100.852 E0.05751
G1 X136.316 Y100.539 E0.05786
G1 X135.124 Y100.179 E0.04443
G1 X134.793 Y100.060 E0.01258
G1 X133.742 Y99.616 E0.04069
G1 X133.331 Y99.416 E0.01631
G1 X132.426 Y98.914 E0.03695
G1 X131.950 Y98.616 E0.02005
G1 X131.189 Y98.080 E0.03322
G1 X130.683 Y97.684 E0.02294
G1 X130.043 Y97.125 E0.03032
G1 X129.507 Y96.604 E0.02668
G1 X129.054 Y96.113 E0.02383
G1 X128.445 Y95.381 E0.03400
G1 X128.075 Y94.885 E0.02210
G1 X127.534 Y94.070 E0.03491
G1 X127.275 Y93.628 E0.01863
G1 X126.785 Y92.687 E0.03864
G1 X126.607 Y92.294 E0.01568
G1 X126.181 Y91.209 E0.04245
G1 X126.079 Y90.899 E0.01187
G1 X125.738 Y89.649 E0.04714
G1 X125.475 Y88.074 E0.05927
G1 X125.386 Y86.479 E0.05928
G1 X125.478 Y84.884 E0.05701
G1 X125.697 Y83.526 E0.04910
G1 X126.079 Y82.084 E0.05326
G1 X126.607 Y80.688 E0.05325
G1 X126.784 Y80.298 E0.01531
G1 X127.275 Y79.354 E0.03796
G1 X127.547 Y78.893 E0.01911
G1 X128.076 Y78.096 E0.03415
G1 X128.458 Y77.582 E0.02285
G1 X129.002 Y76.926 E0.03042
G1 X129.507 Y76.379 E0.02659
G1 X130.043 Y75.858 E0.02668
G1 X130.665 Y75.313 E0.02948
G1 X131.189 Y74.902 E0.02378
G1 X131.950 Y74.367 E0.03322
G1 X132.426 Y74.069 E0.02005
G1 X133.331 Y73.566 E0.03695
G1 X133.742 Y73.367 E0.01631
G1 X134.793 Y72.923 E0.04069
G1 X135.124 Y72.803 E0.01258
G1 X136.339 Y72.437 E0.04529
G1 X138.024 Y72.114 E0.06124
G1 X139.421 Y72.003 E0.05001
G1 X140.927 Y72.035 E0.05377
G1 X142.676 Y72.267 E0.06298
G1 X143.936 Y72.575 E0.04630
G1 X144.223 Y72.662 E0.01071
G1 X145.345 Y73.067 E0.04256
G1 X145.718 Y73.225 E0.01444
G1 X146.696 Y73.701 E0.03882
G1 X147.141 Y73.948 E0.01818
G1 X147.974 Y74.469 E0.03509
G1 X148.477 Y74.822 E0.02191
G1 X149.167 Y75.365 E0.03135
G1 X149.708 Y75.838 E0.02565
G1 X150.262 Y76.379 E0.02761
G1 X150.805 Y76.966 E0.02855
G1 X151.247 Y77.499 E0.02472
G1 X151.787 Y78.225 E0.03228
G1 X152.112 Y78.715 E0.02098
G1 X152.625 Y79.584 E0.03602
G1 X152.847 Y80.012 E0.01725
G1 X153.308 Y81.027 E0.03976
G1 X153.446 Y81.379 E0.01351
G1 X153.829 Y82.536 E0.04349
G1 X154.182 Y84.093 E0.05700
G1 X154.361 Y85.688 E0.05728
G1 X154.385 Y86.491 E0.02868
G1 X154.361 Y87.295 E0.02868
G1 X154.209 Y88.722 E0.05124
G1 X153.836 Y90.424 E0.06217
G1 X153.446 Y91.603 E0.04435
G1 X153.308 Y91.956 E0.01351
G1 X152.847 Y92.970 E0.03976
G1 X152.625 Y93.399 E0.01725
G1 X152.112 Y94.268 E0.03602
G1 X151.787 Y94.758 E0.02098
G1 X151.247 Y95.483 E0.03228
G1 X150.805 Y96.017 E0.02472
G1 X150.262 Y96.604 E0.02855
G1 X149.708 Y97.144 E0.02761
G1 X149.167 Y97.617 E0.02565
G1 X148.477 Y98.160 E0.03135
G1 X147.974 Y98.513 E0.02191
G1 X147.121 Y99.047 E0.03593
G1 X146.696 Y99.282 E0.01734
G1 X145.786 Y99.725 E0.03610
G1 X145.344 Y99.913 E0.01717
G1 X144.226 Y100.319 E0.04244
G1 X143.936 Y100.407 E0.01082
G1 X142.484 Y100.752 E0.05326
G1 X141.095 Y100.938 E0.05004
G1 X139.572 Y100.984 E0.05437
G1 E-0.80000 F2100.00000
G1 Z0.800 F10800.000
G1 X107.005 Y100.964
G1 Z0.200
G1 E0.80000 F2100.00000
G1 F1200.000
G1 X105.795 Y100.929 E0.03795
G1 X104.657 Y100.766 E0.03606
G1 X103.431 Y100.451 E0.03968
G1 X102.303 Y100.011 E0.03795
G1 X101.234 Y99.447 E0.03790
G1 X100.236 Y98.765 E0.03790
G1 X99.322 Y97.973 E0.03790
G1 X98.505 Y97.083 E0.03790
G1 X97.794 Y96.105 E0.03790
G1 X97.200 Y95.052 E0.03790
G1 X96.729 Y93.938 E0.03790
G1 X96.389 Y92.778 E0.03790
G1 X96.182 Y91.587 E0.03790
G1 X96.113 Y90.380 E0.03790
G1 X96.182 Y89.173 E0.03790
G1 X96.379 Y88.040 E0.03606
G1 X96.729 Y86.824 E0.03968
G1 X97.200 Y85.709 E0.03795
G1 X97.794 Y84.656 E0.03790
G1 X98.505 Y83.678 E0.03790
G1 X99.322 Y82.787 E0.03790
G1 X100.236 Y81.996 E0.03790
G1 X101.234 Y81.313 E0.03790
G1 X102.303 Y80.749 E0.03790
G1 X103.430 Y80.310 E0.03790
G1 X104.599 Y80.003 E0.03790
G1 X105.795 Y79.831 E0.03790
G1 X106.945 Y79.798 E0.03606
G1 X108.207 Y79.900 E0.03968
G1 X109.393 Y80.140 E0.03795
G1 X110.543 Y80.514 E0.03790
G1 X111.643 Y81.016 E0.03790
G1 X112.678 Y81.640 E0.03790
G1 X113.635 Y82.378 E0.03790
G1 X114.502 Y83.221 E0.03790
G1 X115.267 Y84.157 E0.03790
G1 X115.889 Y85.124 E0.03606
G1 X116.454 Y86.257 E0.03968
G1 X116.861 Y87.397 E0.03795
G1 X117.134 Y88.575 E0.03790
G1 X117.271 Y89.767 E0.03764
G1 X117.289 Y90.380 E0.01922
G1 X117.271 Y90.993 E0.01922
G1 X117.134 Y92.186 E0.03764
G1 X116.861 Y93.363 E0.03790
G1 X116.454 Y94.502 E0.03790
G1 X115.921 Y95.587 E0.03790
G1 X115.267 Y96.604 E0.03790
G1 X114.502 Y97.540 E0.03790
G1 X113.635 Y98.382 E0.03790
G1 X112.678 Y99.120 E0.03790
G1 X111.643 Y99.745 E0.03790
G1 X110.543 Y100.247 E0.03790
G1 X109.393 Y100.620 E0.03790
G1 X108.266 Y100.849 E0.03606
G1 X107.065 Y100.959 E0.03780
G1 X106.994 Y100.586 F10800.000
G1 F1200.000
G1 X105.828 Y100.553 E0.03657
G1 X104.731 Y100.395 E0.03474
G1 X103.547 Y100.091 E0.03833
G1 X102.460 Y99.668 E0.03657
G1 X101.429 Y99.124 E0.03655
G1 X100.467 Y98.466 E0.03655
G1 X99.586 Y97.702 E0.03655
G1 X98.797 Y96.844 E0.03655
G1 X98.112 Y95.900 E0.03655
G1 X97.539 Y94.885 E0.03655
G1 X97.085 Y93.811 E0.03655
G1 X96.756 Y92.693 E0.03655
G1 X96.558 Y91.544 E0.03655
G1 X96.491 Y90.380 E0.03655
G1 X96.558 Y89.216 E0.03655
G1 X96.747 Y88.124 E0.03474
G1 X97.085 Y86.950 E0.03833
G1 X97.539 Y85.875 E0.03657
G1 X98.112 Y84.860 E0.03655
G1 X98.797 Y83.917 E0.03655
G1 X99.586 Y83.058 E0.03655
G1 X100.467 Y82.295 E0.03655
G1 X101.429 Y81.637 E0.03655
G1 X102.460 Y81.093 E0.03655
G1 X103.546 Y80.670 E0.03655
G1 X104.674 Y80.373 E0.03655
G1 X105.828 Y80.207 E0.03655
G1 X106.935 Y80.176 E0.03474
G1 X108.154 Y80.274 E0.03833
G1 X109.297 Y80.505 E0.03657
G1 X110.406 Y80.866 E0.03655
G1 X111.466 Y81.350 E0.03655
G1 X112.465 Y81.952 E0.03655
G1 X113.388 Y82.664 E0.03655
G1 X114.224 Y83.476 E0.03655
G1 X114.962 Y84.379 E0.03655
G1 X115.561 Y85.311 E0.03474
G1 X116.106 Y86.405 E0.03833
G1 X116.498 Y87.504 E0.03657
G1 X116.762 Y88.639 E0.03655
G1 X116.895 Y89.794 E0.03646
G1 X116.912 Y90.380 E0.01838
G1 X116.895 Y90.966 E0.01838
G1 X116.762 Y92.121 E0.03646
G1 X116.498 Y93.257 E0.03655
G1 X116.106 Y94.355 E0.03655
G1 X115.592 Y95.401 E0.03655
G1 X114.962 Y96.382 E0.03655
G1 X114.224 Y97.284 E0.03655
G1 X113.388 Y98.097 E0.03655
G1 X112.465 Y98.809 E0.03655
G1 X111.466 Y99.411 E0.03655
G1 X110.406 Y99.895 E0.03655
G1 X109.297 Y100.255 E0.03655
G1 X108.211 Y100.475 E0.03474
G1 X107.053 Y100.581 E0.03645
G1 X106.804 Y100.938 F10800.000
G1 E-0.80000 F2100.00000
G1 Z0.800 F10800.000
G1 X106.408 Y101.789
G1 Z0.200
G1 E0.80000 F2100.00000
G1 F1200.000
G1 X105.236 Y101.698 E0.03684
G1 X104.080 Y101.487 E0.03684
G1 X102.952 Y101.159 E0.03684
G1 X101.864 Y100.716 E0.03684
G1 X100.827 Y100.164 E0.03684
G1 X99.852 Y99.508 E0.03684
G1 X98.950 Y98.755 E0.03684
G1 X98.129 Y97.914 E0.03684
G1 X97.400 Y96.993 E0.03684
G1 X96.770 Y96.001 E0.03684
G1 X96.244 Y94.950 E0.03684
G1 X95.830 Y93.851 E0.03684
G1 X95.531 Y92.715 E0.03684
G1 X95.350 Y91.554 E0.03684
G1 X95.289 Y90.380 E0.03684
G1 X95.350 Y89.207 E0.03684
G1 X95.531 Y88.046 E0.03684
G1 X95.830 Y86.910 E0.03684
G1 X96.244 Y85.810 E0.03684
G1 X96.770 Y84.759 E0.03684
G1 X97.400 Y83.768 E0.03684
G1 X98.129 Y82.846 E0.03684
G1 X98.950 Y82.005 E0.03684
G1 X99.852 Y81.252 E0.03684
