; generated by PrusaSlicer 2.3.1+win64 on 2022-05-13 at 17:11:06 UTC

; 

; external perimeters extrusion width = 0.45mm
; perimeters extrusion width = 0.45mm
; infill extrusion width = 0.45mm
; solid infill extrusion width = 0.45mm
; top infill extrusion width = 0.40mm
; support material extrusion width = 0.35mm
; first layer extrusion width = 0.42mm

M73 P0 R49
M73 Q0 S49
M201 X1000 Y1000 Z1000 E5000 ; sets maximum accelerations, mm/sec^2
M203 X200 Y200 Z12 E120 ; sets maximum feedrates, mm/sec
M204 P1250 R1250 T1250 ; sets acceleration (P, T) and retract acceleration (R), mm/sec^2
M205 X8.00 Y8.00 Z0.40 E1.50 ; sets the jerk limits, mm/sec
M205 S0 T0 ; sets the minimum extruding and travel feed rate, mm/sec
M107
;TYPE:Custom
M862.3 P "MK3S" ; printer model check
M862.1 P0.4 ; nozzle diameter check
M115 U3.8.0 ; tell printer latest fw version
G90 ; use absolute coordinates
M83 ; extruder relative mode
M104 S215 ; set extruder temp
M140 S60 ; set bed temp
M190 S60 ; wait for bed temp
M109 S215 ; wait for extruder temp
G28 W ; home all without mesh bed level
G80 ; mesh bed leveling
G1 Y-3.0 F1000.0 ; go outside print area
G92 E0.0
G1 X60.0 E9.0 F1000.0 ; intro line
G1 X100.0 E12.5 F1000.0 ; intro line
G92 E0.0
M221 S95
G21 ; set units to millimeters
G90 ; use absolute coordinates
M83 ; use relative distances for extrusion
M900 K0.05 ; Filament gcode LA 1.5
M900 K30 ; Filament gcode LA 1.0
;LAYER_CHANGE
;Z:0.2
;HEIGHT:0.2
;BEFORE_LAYER_CHANGE
G92 E0.0
;0.2


G1 E-0.80000 F2100.000
G1 Z0.600 F10800.000
;AFTER_LAYER_CHANGE
;0.2
G1 X112.760 Y88.467
G1 Z0.200
G1 E0.80000 F2100.000
M204 S1000
;TYPE:Skirt
;WIDTH:0.42
G1 F1200.000
G1 X124.341 Y81.531 E0.42322
G1 X124.951 Y81.278 E0.02071
G1 X125.538 Y81.201 E0.01858
G1 X140.670 Y81.201 E0.47443
G1 X141.287 Y81.283 E0.01953
G1 X141.862 Y81.522 E0.01953
G1 X153.214 Y88.490 E0.41763
G1 X153.814 Y89.031 E0.02532
G1 X154.199 Y89.745 E0.02543
G1 X154.322 Y90.489 E0.02367
G1 X154.321 Y117.424 E0.84451
G1 X154.251 Y117.940 E0.01633
G1 X154.071 Y118.425 E0.01621
G1 X153.791 Y118.859 E0.01621
G1 X153.421 Y119.226 E0.01633
G1 X153.004 Y119.491 E0.01550
G1 X152.541 Y119.664 E0.01550
G1 X135.014 Y123.992 E0.56605
G1 X133.451 Y124.215 E0.04949
G1 X132.193 Y124.173 E0.03948
G1 X130.610 Y123.835 E0.05076
G1 X104.699 Y115.390 E0.85449
G1 X103.634 Y114.915 E0.03655
G1 X102.642 Y114.296 E0.03667
G1 X101.743 Y113.542 E0.03679
G1 X100.968 Y112.682 E0.03631
G1 X100.302 Y111.697 E0.03726
G1 X99.789 Y110.647 E0.03665
G1 X99.424 Y109.527 E0.03692
G1 X99.221 Y108.376 E0.03665
G1 X99.179 Y107.199 E0.03692
G1 X99.301 Y106.037 E0.03665
G1 X99.585 Y104.896 E0.03685
G1 X100.023 Y103.810 E0.03672
G1 X100.580 Y102.836 E0.03518
G1 X101.087 Y102.151 E0.02674
G1 X112.722 Y88.512 E0.56208
; printing object BULLET-TOP-EXTENDED-SILVER.STL id:1 copy 0
G1 E-0.80000 F2100.000
G1 Z0.800 F10800.000
G1 X114.237 Y90.330
G1 Z0.200
G1 E0.80000 F2100.000
;TYPE:Support material
G1 F1200.000
G1 X114.237 Y114.886 E0.76994
G1 X114.991 Y114.886 E0.02365
G1 X114.991 Y90.500 E0.76462
G1 X115.745 Y90.500 E0.02365
G1 X115.745 Y114.886 E0.76462
G1 X116.499 Y114.886 E0.02365
G1 X116.499 Y90.500 E0.76462
G1 X117.253 Y90.500 E0.02365
G1 X117.253 Y115.056 E0.76994
G1 X118.762 Y114.238 F10800.000
G1 F1200.000
G1 X118.762 Y114.886 E0.02033
G1 X118.007 Y114.886 E0.02365
G1 X118.007 Y113.378 E0.04727
G1 X117.850 Y113.055 E0.01129
G1 X117.696 Y112.675 E0.01284
G1 X117.557 Y112.251 E0.01400
G1 X117.452 Y111.825 E0.01376
G1 X117.329 Y111.007 E0.02595
G1 X117.593 Y110.725 E0.01209
G1 X118.007 Y110.746 E0.01303
G1 X118.007 Y90.500 E0.63482
G1 X118.762 Y90.500 E0.02365
G1 X118.762 Y110.786 E0.63606
G1 X119.516 Y110.825 E0.02368
G1 X119.516 Y90.500 E0.63730
G1 X120.270 Y90.500 E0.02365
G1 X120.270 Y110.865 E0.63854
G1 X121.024 Y110.904 E0.02368
G1 X121.024 Y90.500 E0.63977
G1 X121.778 Y90.500 E0.02365
G1 X121.778 Y110.944 E0.64101
G1 X122.532 Y110.983 E0.02368
G1 X122.532 Y90.500 E0.64225
M73 Q1 S49
G1 X123.204 Y90.500 E0.02107
M73 P1 R49
G1 X123.204 Y85.886 E0.14467
G1 X123.287 Y85.886 E0.00257
G1 X123.287 Y111.023 E0.78817
G1 X124.041 Y111.062 E0.02368
G1 X124.041 Y85.886 E0.78940
G1 X124.795 Y85.886 E0.02365
G1 X124.795 Y111.102 E0.79064
G1 X125.549 Y111.141 E0.02368
G1 X125.549 Y83.578 E0.86422
G1 X126.303 Y83.578 E0.02365
G1 X126.303 Y111.181 E0.86546
G1 X127.057 Y111.221 E0.02368
G1 X127.057 Y83.578 E0.86670
G1 X127.811 Y83.578 E0.02365
G1 X127.811 Y111.260 E0.86794
G1 X128.566 Y111.300 E0.02368
G1 X128.566 Y83.578 E0.86918
G1 X129.320 Y83.578 E0.02365
G1 X129.320 Y111.339 E0.87042
G1 X130.074 Y111.379 E0.02368
G1 X130.074 Y83.578 E0.87166
G1 X130.828 Y83.578 E0.02365
G1 X130.828 Y111.418 E0.87289
G1 X131.582 Y111.458 E0.02368
G1 X131.582 Y83.578 E0.87413
G1 X132.336 Y83.578 E0.02365
G1 X132.336 Y111.497 E0.87537
G1 X133.091 Y111.537 E0.02368
G1 X133.091 Y83.578 E0.87661
G1 X133.845 Y83.578 E0.02365
G1 X133.845 Y111.576 E0.87785
G1 X134.599 Y111.616 E0.02368
G1 X134.599 Y83.578 E0.87909
G1 X135.353 Y83.578 E0.02365
G1 X135.353 Y111.655 E0.88033
M73 P1 R48
G1 X136.107 Y111.695 E0.02368
G1 X136.107 Y83.578 E0.88157
G1 X136.861 Y83.578 E0.02365
G1 X136.861 Y111.734 E0.88281
G1 X137.616 Y111.774 E0.02368
G1 X137.616 Y83.578 E0.88405
G1 X138.370 Y83.578 E0.02365
G1 X138.370 Y111.813 E0.88529
M73 P2 R48
M73 Q2 S48
G1 X139.124 Y111.853 E0.02368
G1 X139.124 Y83.578 E0.88653
G1 X139.878 Y83.578 E0.02365
G1 X139.878 Y111.892 E0.88777
G1 X140.632 Y111.932 E0.02368
G1 X140.632 Y83.578 E0.88901
G1 X140.670 Y83.578 E0.00118
G1 X140.670 Y85.886 E0.07234
G1 X141.386 Y85.886 E0.02247
G1 X141.386 Y111.971 E0.81791
G1 X142.141 Y112.011 E0.02368
G1 X142.141 Y85.886 E0.81915
G1 X142.895 Y85.886 E0.02365
G1 X142.895 Y112.051 E0.82039
G1 X143.649 Y112.090 E0.02368
G1 X143.649 Y90.500 E0.67695
G1 X144.403 Y90.500 E0.02365
G1 X144.403 Y112.130 E0.67819
G1 X145.157 Y112.169 E0.02368
G1 X145.157 Y90.500 E0.67943
G1 X145.911 Y90.500 E0.02365
G1 X145.911 Y112.209 E0.68067
G1 X146.665 Y112.248 E0.02368
G1 X146.665 Y90.500 E0.68191
G1 X147.420 Y90.500 E0.02365
G1 X147.420 Y112.288 E0.68315
G1 X148.174 Y112.327 E0.02368
G1 X148.174 Y90.500 E0.68439
G1 X148.928 Y90.500 E0.02365
G1 X148.928 Y117.193 E0.83696
G1 X149.682 Y117.193 E0.02365
G1 X149.682 Y90.500 E0.83696
G1 X150.436 Y90.500 E0.02365
G1 X150.436 Y117.193 E0.83696
G1 X151.190 Y117.193 E0.02365
G1 X151.190 Y90.500 E0.83696
G1 X151.945 Y90.500 E0.02365
G1 X151.945 Y117.363 E0.84228
G1 X148.174 Y117.363 F10800.000
G1 F1200.000
G1 X148.174 Y113.378 E0.12493
G1 X147.920 Y113.826 E0.01613
G1 X147.687 Y114.171 E0.01307
G1 X147.420 Y114.512 E0.01358
G1 X147.420 Y117.193 E0.08405
G1 X146.665 Y117.193 E0.02365
G1 X146.665 Y115.261 E0.06057
G1 X146.170 Y115.640 E0.01955
G1 X145.911 Y115.804 E0.00960
G1 X145.911 Y117.193 E0.04357
G1 X145.157 Y117.193 E0.02365
G1 X145.157 Y116.194 E0.03132
G1 X144.639 Y116.394 E0.01741
G1 X144.403 Y116.464 E0.00772
G1 X144.403 Y117.193 E0.02287
G1 X143.649 Y117.193 E0.02365
G1 X143.649 Y116.629 E0.01768
G1 X143.367 Y116.669 E0.00891
G1 X142.895 Y116.700 E0.01485
G1 X142.895 Y117.193 E0.01547
G1 X142.141 Y117.193 E0.02365
G1 X142.141 Y116.506 E0.02156
G1 E-0.80000 F2100.000
G1 Z0.800 F10800.000
G1 X138.823 Y113.675
G1 Z0.200
G1 E0.80000 F2100.000
;TYPE:Perimeter
G1 F1200.000
G1 X137.738 Y114.302 E0.03929
G1 X137.934 Y115.109 E0.02606
G1 X138.027 Y115.791 E0.02156
G1 X138.037 Y116.135 E0.01079
G1 X137.986 Y116.821 E0.02157
G1 X137.840 Y117.494 E0.02158
G1 X137.602 Y118.140 E0.02161
G1 X137.278 Y118.746 E0.02154
G1 X136.872 Y119.302 E0.02158
G1 X136.393 Y119.795 E0.02157
G1 X135.850 Y120.218 E0.02158
G1 X135.557 Y120.400 E0.01079
G1 X134.939 Y120.701 E0.02157
G1 X134.615 Y120.818 E0.01080
G1 X133.947 Y120.984 E0.02158
G1 X133.263 Y121.056 E0.02157
G1 X132.575 Y121.032 E0.02158
G1 X131.897 Y120.913 E0.02158
G1 X131.566 Y120.818 E0.01080
G1 X130.928 Y120.561 E0.02157
G1 X130.624 Y120.400 E0.01079
G1 X130.332 Y120.218 E0.01080
G1 X129.788 Y119.795 E0.02158
G1 X129.309 Y119.302 E0.02157
G1 X128.903 Y118.746 E0.02158
G1 X128.578 Y118.139 E0.02158
G1 X128.448 Y117.821 E0.01080
G1 X128.256 Y117.160 E0.02158
G1 X128.158 Y116.480 E0.02155
G1 X128.144 Y116.135 E0.01082
G1 X128.189 Y115.449 E0.02155
G1 X128.247 Y115.109 E0.01080
G1 X128.444 Y114.302 E0.02606
G1 X127.358 Y113.675 E0.03929
G1 X126.757 Y114.250 E0.02606
G1 X126.214 Y114.670 E0.02155
G1 X125.616 Y115.011 E0.02158
G1 X124.977 Y115.267 E0.02157
G1 X124.309 Y115.431 E0.02158
G1 X123.624 Y115.500 E0.02158
G1 X122.936 Y115.474 E0.02158
G1 X122.259 Y115.353 E0.02158
G1 X121.605 Y115.139 E0.02157
G1 X120.987 Y114.836 E0.02158
G1 X120.695 Y114.653 E0.01079
G1 X120.154 Y114.229 E0.02158
G1 X119.676 Y113.734 E0.02158
G1 X119.272 Y113.177 E0.02158
G1 X118.949 Y112.570 E0.02158
G1 X118.734 Y111.987 E0.01948
G1 X146.723 Y113.453 E0.87879
G1 X146.505 Y113.734 E0.01114
G1 X146.028 Y114.229 E0.02157
G1 X145.486 Y114.653 E0.02158
G1 X145.194 Y114.836 E0.01080
G1 X144.890 Y114.998 E0.01079
G1 X144.253 Y115.257 E0.02157
G1 X143.585 Y115.425 E0.02158
G1 X142.901 Y115.499 E0.02158
G1 X142.214 Y115.477 E0.02157
G1 X141.536 Y115.360 E0.02158
G1 X140.880 Y115.150 E0.02158
G1 X140.565 Y115.011 E0.01079
G1 X139.968 Y114.670 E0.02158
G1 X139.689 Y114.470 E0.01077
G1 X139.424 Y114.250 E0.01080
G1 X138.866 Y113.717 E0.02418
G1 X138.767 Y114.143 F10800.000
;TYPE:External perimeter
G1 F1200.000
G1 X138.171 Y114.487 E0.02157
G1 X138.304 Y115.033 E0.01762
G1 X138.366 Y115.398 E0.01162
G1 X138.403 Y115.766 E0.01159
G1 X138.414 Y116.137 E0.01162
G1 X138.400 Y116.507 E0.01162
G1 X138.360 Y116.875 E0.01162
G1 X138.293 Y117.241 E0.01165
G1 X138.203 Y117.599 E0.01159
G1 X138.087 Y117.951 E0.01162
G1 X137.946 Y118.295 E0.01165
G1 X137.783 Y118.627 E0.01158
M73 Q3 S48
G1 X137.597 Y118.947 E0.01162
G1 X137.389 Y119.253 E0.01162
G1 X137.160 Y119.545 E0.01162
G1 X136.912 Y119.820 E0.01162
G1 X136.645 Y120.076 E0.01162
G1 X136.360 Y120.314 E0.01162
G1 X136.060 Y120.531 E0.01162
G1 X135.746 Y120.727 E0.01162
M73 P3 R48
G1 X135.418 Y120.901 E0.01162
G1 X135.079 Y121.051 E0.01162
G1 X134.731 Y121.177 E0.01162
G1 X134.375 Y121.279 E0.01162
G1 X134.012 Y121.356 E0.01162
G1 X133.646 Y121.407 E0.01162
G1 X133.276 Y121.433 E0.01162
G1 X132.905 Y121.433 E0.01162
G1 X132.536 Y121.407 E0.01162
G1 X132.169 Y121.356 E0.01162
G1 X131.806 Y121.279 E0.01162
G1 X131.450 Y121.177 E0.01162
G1 X131.102 Y121.051 E0.01162
G1 X130.763 Y120.901 E0.01162
G1 X130.436 Y120.727 E0.01162
G1 X130.121 Y120.531 E0.01162
G1 X129.821 Y120.314 E0.01162
G1 X129.537 Y120.076 E0.01162
G1 X129.270 Y119.820 E0.01162
G1 X129.021 Y119.545 E0.01162
G1 X128.792 Y119.253 E0.01162
G1 X128.584 Y118.947 E0.01162
G1 X128.398 Y118.627 E0.01162
G1 X128.234 Y118.294 E0.01162
G1 X128.094 Y117.951 E0.01162
G1 X127.979 Y117.600 E0.01158
G1 X127.888 Y117.240 E0.01165
G1 X127.822 Y116.875 E0.01162
G1 X127.782 Y116.508 E0.01159
G1 X127.767 Y116.137 E0.01165
G1 X127.778 Y115.766 E0.01162
G1 X127.815 Y115.398 E0.01159
G1 X127.877 Y115.033 E0.01162
G1 X128.010 Y114.487 E0.01762
G1 X127.415 Y114.143 E0.02157
G1 X127.008 Y114.531 E0.01762
G1 X126.723 Y114.768 E0.01162
G1 X126.423 Y114.984 E0.01159
G1 X126.107 Y115.179 E0.01165
G1 X125.780 Y115.351 E0.01159
G1 X125.441 Y115.501 E0.01162
G1 X125.092 Y115.626 E0.01162
G1 X124.735 Y115.727 E0.01165
G1 X124.373 Y115.802 E0.01158
G1 X124.006 Y115.853 E0.01162
G1 X123.636 Y115.877 E0.01162
G1 X123.266 Y115.876 E0.01162
G1 X122.896 Y115.849 E0.01162
G1 X122.529 Y115.797 E0.01162
G1 X122.167 Y115.719 E0.01162
G1 X121.811 Y115.616 E0.01162
G1 X121.463 Y115.489 E0.01162
G1 X121.125 Y115.337 E0.01162
G1 X120.798 Y115.163 E0.01162
G1 X120.484 Y114.966 E0.01162
G1 X120.185 Y114.748 E0.01162
G1 X119.901 Y114.509 E0.01162
G1 X119.635 Y114.252 E0.01162
G1 X119.387 Y113.976 E0.01162
G1 X119.159 Y113.684 E0.01162
G1 X118.952 Y113.377 E0.01162
G1 X118.766 Y113.056 E0.01162
G1 X118.604 Y112.723 E0.01162
G1 X118.465 Y112.380 E0.01162
G1 X118.350 Y112.027 E0.01162
G1 X118.245 Y111.583 E0.01430
G1 X147.373 Y113.110 E0.91454
G1 X147.228 Y113.379 E0.00961
G1 X147.022 Y113.684 E0.01152
G1 X146.794 Y113.976 E0.01162
G1 X146.547 Y114.252 E0.01162
G1 X146.280 Y114.509 E0.01162
G1 X145.997 Y114.748 E0.01162
G1 X145.697 Y114.966 E0.01162
G1 X145.383 Y115.163 E0.01162
G1 X145.056 Y115.337 E0.01162
G1 X144.718 Y115.489 E0.01162
G1 X144.370 Y115.616 E0.01162
G1 X144.014 Y115.719 E0.01162
G1 X143.652 Y115.797 E0.01162
G1 X143.286 Y115.849 E0.01158
G1 X142.916 Y115.876 E0.01166
G1 X142.545 Y115.877 E0.01162
G1 X142.175 Y115.853 E0.01162
G1 X141.808 Y115.802 E0.01162
G1 X141.446 Y115.727 E0.01162
G1 X141.089 Y115.626 E0.01162
G1 X140.740 Y115.501 E0.01162
G1 X140.401 Y115.351 E0.01162
G1 X140.074 Y115.179 E0.01159
G1 X139.758 Y114.984 E0.01165
G1 X139.458 Y114.768 E0.01159
G1 X139.173 Y114.531 E0.01162
G1 X138.810 Y114.185 E0.01574
G1 X138.532 Y113.819 F10800.000
G1 E-0.80000 F2100.000
G1 Z0.800 F10800.000
G1 X145.728 Y113.515
G1 Z0.200
G1 E0.80000 F2100.000
;TYPE:Solid infill
;WIDTH:0.424254
G1 F1200.000
G1 X146.031 Y113.818 E0.01360
G1 X145.756 Y114.082 E0.01209
G1 X145.338 Y113.664 E0.01876
G1 X144.769 Y113.634 E0.01807
G1 X145.454 Y114.319 E0.03071
G1 X145.135 Y114.540 E0.01229
G1 X144.200 Y113.604 E0.04193
G1 X143.631 Y113.575 E0.01807
G1 X144.788 Y114.732 E0.05191
G1 X144.407 Y114.890 E0.01310
G1 X143.062 Y113.545 E0.06031
G1 X142.493 Y113.515 E0.01807
G1 X144.006 Y115.028 E0.06785
G1 X143.575 Y115.136 E0.01409
G1 X141.923 Y113.485 E0.07405
G1 X141.354 Y113.455 E0.01807
G1 X143.093 Y115.194 E0.07797
G1 X142.891 Y115.216 E0.00646
G1 X142.565 Y115.206 E0.01032
G1 X140.785 Y113.425 E0.07983
G1 X140.216 Y113.396 E0.01807
G1 X141.969 Y115.148 E0.07858
G1 X141.603 Y115.085 E0.01176
G1 X141.254 Y114.973 E0.01161
G1 X139.647 Y113.366 E0.07208
G1 X139.078 Y113.336 E0.01807
G1 X140.681 Y114.939 E0.07187
G1 E-0.80000 F2100.000
G1 Z0.800 F10800.000
G1 X138.329 Y113.127
G1 Z0.200
G1 E0.80000 F2100.000
G1 F1200.000
G1 X138.651 Y113.448 E0.01441
G1 X138.309 Y113.645 E0.01252
G1 X137.940 Y113.276 E0.01655
G1 X137.371 Y113.246 E0.01807
G1 X137.967 Y113.843 E0.02674
G1 X137.625 Y114.040 E0.01252
G1 X136.801 Y113.217 E0.03693
G1 X136.232 Y113.187 E0.01807
G1 X137.478 Y114.433 E0.05588
G1 X137.652 Y115.146 E0.02327
G1 X135.663 Y113.157 E0.08919
G1 X135.094 Y113.127 E0.01807
G1 X137.739 Y115.772 E0.11859
G1 X137.754 Y116.129 E0.01133
G1 X137.740 Y116.313 E0.00585
G1 X134.525 Y113.097 E0.14418
G1 X133.956 Y113.068 E0.01807
G1 X137.699 Y116.811 E0.16785
G1 X137.603 Y117.254 E0.01438
G1 X133.387 Y113.038 E0.18906
G1 X132.818 Y113.008 E0.01807
G1 X137.476 Y117.666 E0.20887
G1 X137.327 Y118.056 E0.01325
G1 X132.249 Y112.978 E0.22771
G1 X131.679 Y112.948 E0.01807
G1 X137.138 Y118.407 E0.24479
G1 X137.038 Y118.595 E0.00675
G1 X136.932 Y118.740 E0.00569
G1 X131.110 Y112.918 E0.26105
G1 X130.541 Y112.889 E0.01807
G1 X136.704 Y119.052 E0.27636
G1 X136.455 Y119.341 E0.01212
G1 X129.972 Y112.859 E0.29069
G1 X129.403 Y112.829 E0.01807
G1 X136.172 Y119.598 E0.30352
G1 X135.878 Y119.844 E0.01214
G1 X128.834 Y112.799 E0.31589
G1 X128.265 Y112.769 E0.01807
G1 X135.556 Y120.060 E0.32695
G1 X135.217 Y120.261 E0.01249
G1 X127.696 Y112.739 E0.33726
G1 X127.126 Y112.710 E0.01807
G1 X134.840 Y120.423 E0.34588
G1 X134.446 Y120.569 E0.01330
G1 X128.626 Y114.748 E0.26100
G1 X128.521 Y115.183 E0.01417
G1 X134.014 Y120.676 E0.24633
G1 X133.550 Y120.751 E0.01491
G1 X128.459 Y115.659 E0.22832
G1 X128.429 Y116.169 E0.01618
G1 X133.029 Y120.769 E0.20629
G1 X132.442 Y120.722 E0.01866
G1 X128.485 Y116.764 E0.17746
G1 X128.533 Y117.100 E0.01075
G1 X128.637 Y117.456 E0.01175
G1 X131.755 Y120.574 E0.13982
G1 X131.654 Y120.549 E0.00331
G1 X131.047 Y120.304 E0.02072
G1 X130.832 Y120.190 E0.00772
G1 X128.645 Y118.003 E0.09808
G1 E-0.80000 F2100.000
G1 Z0.800 F10800.000
G1 X127.510 Y113.632
G1 Z0.200
G1 E0.80000 F2100.000
G1 F1200.000
G1 X126.557 Y112.680 E0.04270
G1 X125.988 Y112.650 E0.01807
G1 X126.982 Y113.644 E0.04457
G1 X126.706 Y113.907 E0.01209
G1 X125.419 Y112.620 E0.05772
G1 X124.850 Y112.590 E0.01807
G1 X126.416 Y114.156 E0.07022
