; generated by PrusaSlicer 2.4.2+win64 on 2022-08-25 at 17:21:48 UTC

; 

; external perimeters extrusion width = 0.45mm
; perimeters extrusion width = 0.45mm
; infill extrusion width = 0.45mm
; solid infill extrusion width = 0.45mm
; top infill extrusion width = 0.40mm
; support material extrusion width = 0.35mm
; first layer extrusion width = 0.42mm

M73 P0 R26
M73 C20
M73 Q0 S26
M73 D20
M201 X1000 Y1000 Z200 E5000 ; sets maximum accelerations, mm/sec^2
M203 X200 Y200 Z12 E120 ; sets maximum feedrates, mm / sec
M204 P1250 R1250 T1250 ; sets acceleration (P, T) and retract acceleration (R), mm/sec^2
M205 X8.00 Y8.00 Z0.40 E4.50 ; sets the jerk limits, mm/sec
M205 S0 T0 ; sets the minimum extruding and travel feed rate, mm/sec
M107
;TYPE:Custom
M862.3 P "MK3S" ; printer model check
M862.1 P0.4 ; nozzle diameter check
M115 U3.10.1 ; tell printer latest fw version
G90 ; use absolute coordinates
M83 ; extruder relative mode
M104 S215 ; set extruder temp
M140 S60 ; set bed temp
M190 S60 ; wait for bed temp
M109 S215 ; wait for extruder temp
G28 W ; home all without mesh bed level
G80 ; mesh bed leveling
G1 Z0.2 F720
G1 Y-3 F1000 ; go outside print area
G92 E0
G1 X60 E9 F1000 ; intro line
G1 X100 E12.5 F1000 ; intro line
G92 E0
M221 S95

; Don't change E values below. Excessive value can damage the printer.

G21 ; set units to millimeters
G90 ; use absolute coordinates
M83 ; use relative distances for extrusion
M900 K0.05 ; Filament gcode LA 1.5
M900 K30 ; Filament gcode LA 1.0
M107
;LAYER_CHANGE
;Z:0.2
;HEIGHT:0.2
;BEFORE_LAYER_CHANGE
G92 E0.0
;0.2


G1 E-.8 F2100
G1 Z.4 F720
;AFTER_LAYER_CHANGE
;0.2
G1 X48.353 Y12.551 F10800
G1 Z.2 F720
G1 E.8 F2100
M204 S800
;TYPE:Skirt/Brim
;WIDTH:0.42
G1 F600
G1 X49.454 Y11.227 E.05397
G1 X51.712 Y10.472 E.07467
G1 X188.712 Y10.472 E4.29554
G1 X190.388 Y10.867 E.05397
M73 P1 R26
M73 Q1 S26
G1 X191.711 Y11.968 E.05397
G1 X192.466 Y14.226 E.07467
G1 X192.466 Y36 E.68271
G1 X192.072 Y37.676 E.05397
G1 X190.971 Y38.999 E.05397
G1 X188.712 Y39.754 E.07467
G1 X51.712 Y39.754 E4.29554
G1 X50.037 Y39.36 E.05397
M73 P2 R26
M73 C19
M73 Q2 S26
G1 X48.713 Y38.259 E.05397
G1 X47.958 Y36 E.07467
G1 X47.958 Y14.226 E.68271
G1 X48.339 Y12.609 E.05209
M204 S1000
G1 X48.714 Y12.702 F10800
M204 S800
G1 F600
G1 X48.729 Y12.643 E.00192
G1 X49.819 Y11.429 E.05115
G1 X51.712 Y10.849 E.06207
G1 X188.712 Y10.849 E4.29554
G1 X190.295 Y11.243 E.05115
M73 P3 R25
M73 Q3 S26
M73 D19
G1 X191.509 Y12.333 E.05115
G1 X192.089 Y14.226 E.06207
G1 X192.089 Y36 E.68271
G1 X191.695 Y37.583 E.05115
M73 Q3 S25
G1 X190.605 Y38.797 E.05115
G1 X188.712 Y39.377 E.06207
G1 X51.712 Y39.377 E4.29554
G1 X50.129 Y38.983 E.05115
M73 P4 R25
M73 Q4 S25
G1 X48.915 Y37.893 E.05115
G1 X48.335 Y36 E.06207
G1 X48.335 Y14.226 E.68271
G1 X48.7 Y12.761 E.04735
M204 S1000
; printing object Airlock Cover Bottom.stl id:0 copy 0
;WIPE_START
G1 F8640
G1 X48.729 Y12.643 E-.028
G1 X49.819 Y11.429 E-.37671
G1 X51.291 Y10.978 E-.3553
;WIPE_END
G1 E-.04 F2100
G1 Z.6 F720
G1 X146.527 Y19.115 F10800
G1 Z.2 F720
G1 E.8 F2100
M204 S800
;TYPE:Perimeter
G1 F540
G1 X175.195 Y19.115 E.89886
G1 X175.195 Y31.111 E.37611
G1 X146.527 Y31.111 E.89886
M73 P5 R25
M73 Q5 S25
G1 X146.527 Y19.175 E.37423
M204 S1000
G1 X146.904 Y19.493 F10800
M204 S800
G1 F540
G1 X174.818 Y19.493 E.87522
G1 X174.818 Y30.734 E.35246
G1 X146.904 Y30.734 E.87522
G1 X146.904 Y19.553 E.35058
M204 S1000
G1 X147.281 Y19.87 F10800
M204 S800
;TYPE:External perimeter
G1 F300
G1 X174.441 Y19.87 E.85157
G1 X174.441 Y30.357 E.32882
M73 P6 R25
M73 C18
M73 Q6 S25
G1 X147.281 Y30.357 E.85157
G1 X147.281 Y19.93 E.32694
M204 S1000
M73 P6 R24
M73 D18
G1 X147.125 Y19.501 F10800
;WIPE_START
G1 F8640
G1 X150.573 Y19.922 E-.76
;WIPE_END
G1 E-.04 F2100
G1 Z.6 F720
G1 X178.103 Y28.206 F10800
G1 Z.2 F720
G1 E.8 F2100
M204 S800
;TYPE:Perimeter
G1 F300
G1 X178.25 Y27.785 E.01397
G1 X178.425 Y27.415 E.01282
G1 X178.635 Y27.065 E.01282
G1 X178.878 Y26.736 E.01282
G1 X179.153 Y26.433 E.01282
G1 X179.456 Y26.159 E.01282
G1 X179.784 Y25.915 E.01282
G1 X180.135 Y25.705 E.01282
G1 X180.504 Y25.53 E.01282
G1 X180.889 Y25.393 E.01282
G1 X181.292 Y25.292 E.01301
G1 X181.744 Y25.231 E.01431
G1 X182.098 Y25.213 E.01112
G1 X182.507 Y25.233 E.01282
G1 X182.911 Y25.293 E.01282
G1 X183.308 Y25.393 E.01282
G1 X183.692 Y25.53 E.01282
G1 X184.062 Y25.705 E.01282
G1 X184.413 Y25.915 E.01282
G1 X184.741 Y26.159 E.01282
G1 X185.044 Y26.433 E.01282
G1 X185.318 Y26.736 E.01282
G1 X185.562 Y27.065 E.01282
G1 X185.772 Y27.415 E.01282
G1 X185.947 Y27.785 E.01282
G1 X186.085 Y28.17 E.01282
G1 X186.184 Y28.566 E.01282
G1 X186.244 Y28.971 E.01281
G1 X186.264 Y29.379 E.01282
G1 X186.244 Y29.787 E.01282
G1 X186.184 Y30.192 E.01281
G1 X186.085 Y30.588 E.01282
G1 X185.947 Y30.973 E.01282
G1 X185.772 Y31.343 E.01282
G1 X185.562 Y31.693 E.01282
G1 X185.318 Y32.022 E.01282
G1 X185.044 Y32.324 E.01282
G1 X184.741 Y32.599 E.01282
M73 P7 R24
G1 X184.413 Y32.843 E.01282
G1 X184.062 Y33.053 E.01282
G1 X183.692 Y33.227 E.01282
M73 Q7 S25
G1 X183.308 Y33.365 E.01282
G1 X182.911 Y33.464 E.01282
G1 X182.507 Y33.524 E.01282
G1 X182.098 Y33.545 E.01282
G1 X181.69 Y33.524 E.01282
G1 X181.286 Y33.464 E.01282
G1 X180.889 Y33.365 E.01282
G1 X180.504 Y33.227 E.01282
G1 X180.135 Y33.053 E.01282
G1 X179.784 Y32.843 E.01282
G1 X179.456 Y32.599 E.01282
G1 X179.153 Y32.324 E.01282
G1 X178.878 Y32.022 E.01282
G1 X178.635 Y31.693 E.01282
G1 X178.425 Y31.343 E.01282
G1 X178.25 Y30.973 E.01282
G1 X178.112 Y30.588 E.01282
G1 X178.013 Y30.192 E.01282
G1 X177.953 Y29.787 E.01282
G1 X177.933 Y29.379 E.01282
G1 X177.953 Y28.971 E.01282
G1 X178.013 Y28.566 E.01282
G1 X178.089 Y28.264 E.00977
M204 S1000
G1 X178.469 Y28.297 F10800
M204 S800
G1 F300
G1 X178.599 Y27.929 E.01223
G1 X178.758 Y27.593 E.01166
G1 X178.949 Y27.274 E.01166
G1 X179.17 Y26.976 E.01165
G1 X179.42 Y26.7 E.01166
G1 X179.695 Y26.451 E.01166
G1 X179.994 Y26.229 E.01165
G1 X180.313 Y26.038 E.01166
G1 X180.649 Y25.879 E.01166
G1 X180.999 Y25.754 E.01166
G1 X181.363 Y25.663 E.01178
G1 X181.779 Y25.607 E.01315
G1 X182.098 Y25.591 E.01003
G1 X182.47 Y25.609 E.01166
G1 X182.837 Y25.664 E.01166
G1 X183.198 Y25.754 E.01166
G1 X183.548 Y25.879 E.01166
G1 X183.884 Y26.038 E.01166
G1 X184.203 Y26.229 E.01166
M73 Q7 S24
G1 X184.501 Y26.451 E.01165
G1 X184.777 Y26.7 E.01166
G1 X185.027 Y26.976 E.01166
G1 X185.248 Y27.274 E.01165
G1 X185.439 Y27.593 E.01165
G1 X185.598 Y27.929 E.01166
G1 X185.723 Y28.279 E.01166
G1 X185.814 Y28.64 E.01166
G1 X185.868 Y29.008 E.01165
G1 X185.886 Y29.379 E.01166
G1 X185.868 Y29.75 E.01166
G1 X185.814 Y30.118 E.01165
G1 X185.723 Y30.479 E.01166
G1 X185.598 Y30.829 E.01166
G1 X185.439 Y31.165 E.01166
G1 X185.248 Y31.483 E.01166
G1 X185.027 Y31.782 E.01165
G1 X184.777 Y32.058 E.01166
G1 X184.501 Y32.307 E.01166
G1 X184.203 Y32.529 E.01165
G1 X183.884 Y32.72 E.01166
G1 X183.548 Y32.879 E.01166
G1 X183.198 Y33.004 E.01166
G1 X182.837 Y33.094 E.01166
G1 X182.47 Y33.149 E.01166
G1 X182.098 Y33.167 E.01166
G1 X181.727 Y33.149 E.01166
G1 X181.359 Y33.094 E.01166
G1 X180.999 Y33.004 E.01166
G1 X180.649 Y32.879 E.01166
G1 X180.313 Y32.72 E.01166
G1 X179.994 Y32.529 E.01166
G1 X179.695 Y32.307 E.01165
G1 X179.42 Y32.058 E.01166
G1 X179.17 Y31.782 E.01166
G1 X178.949 Y31.483 E.01165
G1 X178.758 Y31.165 E.01166
G1 X178.599 Y30.829 E.01166
G1 X178.473 Y30.479 E.01166
G1 X178.383 Y30.118 E.01166
G1 X178.329 Y29.75 E.01166
G1 X178.31 Y29.379 E.01166
G1 X178.329 Y29.008 E.01166
G1 X178.383 Y28.64 E.01166
G1 X178.454 Y28.356 E.00919
M204 S1000
G1 X178.835 Y28.389 F10800
M204 S800
;TYPE:External perimeter
G1 F300
G1 X178.947 Y28.074 E.01049
G1 X179.091 Y27.771 E.01049
G1 X179.263 Y27.484 E.01049
G1 X179.462 Y27.215 E.01049
G1 X179.687 Y26.967 E.01049
G1 X179.935 Y26.743 E.01049
G1 X180.204 Y26.543 E.01049
G1 X180.491 Y26.371 E.01049
G1 X180.793 Y26.228 E.01049
G1 X181.108 Y26.115 E.01049
G1 X181.434 Y26.034 E.01054
G1 X181.813 Y25.982 E.01199
G1 X182.098 Y25.968 E.00895
G1 X182.433 Y25.985 E.01049
G1 X182.764 Y26.034 E.01049
G1 X183.088 Y26.115 E.01049
G1 X183.404 Y26.228 E.01049
G1 X183.706 Y26.371 E.01049
G1 X183.993 Y26.543 E.01049
G1 X184.262 Y26.743 E.01049
G1 X184.51 Y26.967 E.01049
G1 X184.735 Y27.215 E.01049
G1 X184.934 Y27.484 E.01049
G1 X185.106 Y27.771 E.01049
G1 X185.249 Y28.074 E.01049
G1 X185.362 Y28.389 E.01049
G1 X185.443 Y28.714 E.01049
G1 X185.492 Y29.045 E.01049
G1 X185.509 Y29.379 E.01049
G1 X185.492 Y29.713 E.01049
G1 X185.443 Y30.044 E.01049
G1 X185.362 Y30.369 E.01049
G1 X185.249 Y30.684 E.01049
G1 X185.106 Y30.987 E.01049
G1 X184.934 Y31.274 E.01049
G1 X184.735 Y31.543 E.01049
G1 X184.51 Y31.791 E.01049
G1 X184.262 Y32.015 E.01049
G1 X183.993 Y32.215 E.01049
G1 X183.706 Y32.387 E.01049
G1 X183.404 Y32.53 E.01049
G1 X183.088 Y32.643 E.01049
G1 X182.764 Y32.724 E.01049
G1 X182.433 Y32.773 E.01049
G1 X182.098 Y32.789 E.01049
G1 X181.764 Y32.773 E.01049
G1 X181.433 Y32.724 E.01049
G1 X181.108 Y32.643 E.01049
G1 X180.793 Y32.53 E.01049
G1 X180.491 Y32.387 E.01049
G1 X180.204 Y32.215 E.01049
G1 X179.935 Y32.015 E.01049
G1 X179.687 Y31.791 E.01049
G1 X179.462 Y31.543 E.01049
G1 X179.263 Y31.274 E.01049
G1 X179.091 Y30.987 E.01049
G1 X178.947 Y30.684 E.01049
G1 X178.835 Y30.369 E.01049
G1 X178.753 Y30.044 E.01049
G1 X178.704 Y29.713 E.01049
G1 X178.688 Y29.379 E.01049
G1 X178.704 Y29.045 E.01049
G1 X178.753 Y28.714 E.01049
G1 X178.82 Y28.447 E.00861
M204 S1000
G1 X178.606 Y28.145 F10800
;WIPE_START
G1 F8640
G1 X178.947 Y28.074 E-.09108
G1 X179.091 Y27.771 E-.07728
G1 X179.263 Y27.484 E-.07728
G1 X179.462 Y27.215 E-.07728
G1 X179.687 Y26.967 E-.07729
G1 X179.935 Y26.743 E-.07729
G1 X180.204 Y26.543 E-.07728
G1 X180.491 Y26.371 E-.07728
G1 X180.793 Y26.228 E-.07728
G1 X181 Y26.154 E-.05067
;WIPE_END
G1 E-.04 F2100
G1 Z.6 F720
G1 X99.051 Y19.115 F10800
G1 Z.2 F720
G1 E.8 F2100
M204 S800
;TYPE:Perimeter
G1 F540
G1 X99.051 Y31.111 E.37611
G1 X68.977 Y31.111 E.94293
G1 X68.977 Y19.115 E.37611
M73 P8 R24
M73 Q8 S24
G1 X98.991 Y19.115 E.94105
M204 S1000
G1 X98.674 Y19.493 F10800
M204 S800
G1 F540
G1 X98.674 Y30.734 E.35246
G1 X69.354 Y30.734 E.91929
G1 X69.354 Y19.493 E.35246
G1 X98.614 Y19.493 E.91741
M204 S1000
G1 X98.297 Y19.87 F10800
M204 S800
;TYPE:External perimeter
G1 F300
G1 X98.297 Y30.357 E.32882
G1 X69.731 Y30.357 E.89564
M73 P9 R24
M73 Q9 S24
G1 X69.731 Y19.87 E.32882
G1 X98.237 Y19.87 E.89376
M204 S1000
G1 X98.694 Y19.823 F10800
;WIPE_START
M73 C17
G1 F8640
G1 X98.255 Y23.161 E-.76
;WIPE_END
G1 E-.04 F2100
G1 Z.6 F720
G1 X62.403 Y28.53 F10800
G1 Z.2 F720
G1 E.8 F2100
M204 S800
;TYPE:Perimeter
G1 F300
G1 X62.472 Y28.971 E.01397
G1 X62.492 Y29.379 E.01282
G1 X62.472 Y29.787 E.01282
G1 X62.412 Y30.192 E.01282
G1 X62.312 Y30.588 E.01282
G1 X62.175 Y30.973 E.01282
G1 X62 Y31.343 E.01282
G1 X61.79 Y31.693 E.01282
G1 X61.546 Y32.022 E.01282
G1 X61.272 Y32.324 E.01282
G1 X60.969 Y32.599 E.01282
G1 X60.64 Y32.843 E.01282
G1 X60.29 Y33.053 E.01282
G1 X59.92 Y33.227 E.01282
G1 X59.535 Y33.365 E.01282
M73 P10 R24
G1 X59.139 Y33.464 E.01282
G1 X58.734 Y33.524 E.01282
G1 X58.326 Y33.545 E.01282
M73 Q10 S24
G1 X57.918 Y33.524 E.01282
G1 X57.513 Y33.464 E.01282
G1 X57.117 Y33.365 E.01282
G1 X56.732 Y33.227 E.01282
G1 X56.362 Y33.053 E.01282
G1 X56.012 Y32.843 E.01282
G1 X55.683 Y32.599 E.01282
G1 X55.381 Y32.324 E.01282
G1 X55.106 Y32.022 E.01282
G1 X54.863 Y31.693 E.01282
G1 X54.652 Y31.343 E.01282
G1 X54.478 Y30.973 E.01282
G1 X54.34 Y30.588 E.01282
G1 X54.241 Y30.192 E.01282
G1 X54.181 Y29.787 E.01282
G1 X54.16 Y29.379 E.01282
G1 X54.181 Y28.971 E.01282
G1 X54.241 Y28.566 E.01282
G1 X54.34 Y28.17 E.01282
G1 X54.478 Y27.785 E.01282
G1 X54.652 Y27.415 E.01282
G1 X54.863 Y27.065 E.01282
G1 X55.106 Y26.736 E.01282
G1 X55.381 Y26.433 E.01282
G1 X55.683 Y26.159 E.01282
G1 X56.012 Y25.915 E.01282
G1 X56.362 Y25.705 E.01282
G1 X56.732 Y25.53 E.01282
G1 X57.117 Y25.393 E.01282
G1 X57.519 Y25.292 E.01301
G1 X57.972 Y25.231 E.01431
G1 X58.326 Y25.213 E.01112
G1 X58.734 Y25.233 E.01282
G1 X59.139 Y25.293 E.01282
G1 X59.535 Y25.393 E.01282
G1 X59.92 Y25.53 E.01282
G1 X60.29 Y25.705 E.01282
G1 X60.64 Y25.915 E.01282
G1 X60.969 Y26.159 E.01282
G1 X61.272 Y26.433 E.01282
G1 X61.546 Y26.736 E.01282
G1 X61.79 Y27.065 E.01282
G1 X62 Y27.415 E.01282
G1 X62.175 Y27.785 E.01282
G1 X62.312 Y28.17 E.01282
G1 X62.388 Y28.472 E.00977
M204 S1000
G1 X62.041 Y28.64 F10800
M204 S800
G1 F300
G1 X62.096 Y29.008 E.01166
G1 X62.114 Y29.379 E.01166
G1 X62.096 Y29.75 E.01166
G1 X62.041 Y30.118 E.01166
G1 X61.951 Y30.479 E.01166
M73 P10 R23
G1 X61.826 Y30.829 E.01166
G1 X61.667 Y31.165 E.01166
G1 X61.476 Y31.483 E.01166
G1 X61.254 Y31.782 E.01165
G1 X61.005 Y32.058 E.01166
G1 X60.729 Y32.307 E.01166
G1 X60.431 Y32.529 E.01166
G1 X60.112 Y32.72 E.01166
G1 X59.776 Y32.879 E.01166
G1 X59.426 Y33.004 E.01166
G1 X59.065 Y33.094 E.01166
G1 X58.697 Y33.149 E.01166
G1 X58.326 Y33.167 E.01166
G1 X57.955 Y33.149 E.01166
M73 D17
G1 X57.587 Y33.094 E.01166
G1 X57.226 Y33.004 E.01166
G1 X56.876 Y32.879 E.01166
G1 X56.54 Y32.72 E.01166
G1 X56.222 Y32.529 E.01166
G1 X55.923 Y32.307 E.01165
G1 X55.648 Y32.058 E.01166
G1 X55.398 Y31.782 E.01166
G1 X55.176 Y31.483 E.01166
G1 X54.985 Y31.165 E.01166
G1 X54.826 Y30.829 E.01166
G1 X54.701 Y30.479 E.01166
G1 X54.611 Y30.118 E.01166
G1 X54.556 Y29.75 E.01165
G1 X54.538 Y29.379 E.01166
G1 X54.556 Y29.008 E.01166
G1 X54.611 Y28.64 E.01165
G1 X54.701 Y28.279 E.01166
G1 X54.826 Y27.929 E.01166
G1 X54.985 Y27.593 E.01166
G1 X55.176 Y27.274 E.01166
G1 X55.398 Y26.976 E.01166
G1 X55.648 Y26.7 E.01166
G1 X55.923 Y26.451 E.01166
G1 X56.222 Y26.229 E.01165
G1 X56.54 Y26.038 E.01166
G1 X56.876 Y25.879 E.01166
G1 X57.226 Y25.754 E.01166
G1 X57.591 Y25.663 E.01178
G1 X58.006 Y25.607 E.01315
G1 X58.326 Y25.591 E.01003
G1 X58.697 Y25.609 E.01166
G1 X59.065 Y25.664 E.01166
G1 X59.426 Y25.754 E.01166
G1 X59.776 Y25.879 E.01166
G1 X60.112 Y26.038 E.01166
G1 X60.431 Y26.229 E.01166
G1 X60.729 Y26.451 E.01166
G1 X61.005 Y26.7 E.01166
G1 X61.254 Y26.976 E.01166
G1 X61.476 Y27.274 E.01166
G1 X61.667 Y27.593 E.01166
G1 X61.826 Y27.929 E.01166
G1 X61.951 Y28.279 E.01166
G1 X62.027 Y28.582 E.00977
M204 S1000
G1 X61.671 Y28.714 F10800
M204 S800
;TYPE:External perimeter
G1 F300
G1 X61.72 Y29.045 E.01049
G1 X61.737 Y29.379 E.01049
G1 X61.72 Y29.713 E.01049
G1 X61.671 Y30.044 E.01049
G1 X61.59 Y30.369 E.01049
G1 X61.477 Y30.684 E.01049
G1 X61.334 Y30.987 E.01049
G1 X61.162 Y31.274 E.01049
G1 X60.962 Y31.543 E.01049
G1 X60.738 Y31.791 E.01049
G1 X60.49 Y32.015 E.01049
G1 X60.221 Y32.215 E.01049
G1 X59.934 Y32.387 E.01049
G1 X59.631 Y32.53 E.01049
G1 X59.316 Y32.643 E.01049
G1 X58.991 Y32.724 E.01049
G1 X58.66 Y32.773 E.01049
G1 X58.326 Y32.789 E.01049
G1 X57.992 Y32.773 E.01049
G1 X57.661 Y32.724 E.01049
G1 X57.336 Y32.643 E.01049
G1 X57.021 Y32.53 E.01049
G1 X56.718 Y32.387 E.01049
G1 X56.431 Y32.215 E.01049
G1 X56.162 Y32.015 E.01049
G1 X55.914 Y31.791 E.01049
G1 X55.69 Y31.543 E.01049
G1 X55.49 Y31.274 E.01049
G1 X55.318 Y30.987 E.01049
G1 X55.175 Y30.684 E.01049
G1 X55.062 Y30.369 E.0105
G1 X54.981 Y30.044 E.01049
G1 X54.932 Y29.713 E.01049
G1 X54.916 Y29.379 E.01049
G1 X54.932 Y29.045 E.01049
G1 X54.981 Y28.714 E.01049
G1 X55.062 Y28.389 E.01049
G1 X55.175 Y28.074 E.01049
G1 X55.318 Y27.771 E.01049
G1 X55.49 Y27.484 E.01049
G1 X55.69 Y27.215 E.01049
G1 X55.914 Y26.967 E.01049
G1 X56.162 Y26.743 E.01049
G1 X56.431 Y26.543 E.01049
G1 X56.718 Y26.371 E.01049
G1 X57.021 Y26.228 E.01049
G1 X57.336 Y26.115 E.01049
G1 X57.662 Y26.034 E.01054
G1 X58.041 Y25.982 E.01199
G1 X58.326 Y25.968 E.00895
G1 X58.66 Y25.985 E.01049
G1 X58.991 Y26.034 E.01049
G1 X59.316 Y26.115 E.01049
G1 X59.631 Y26.228 E.01049
G1 X59.934 Y26.371 E.01049
G1 X60.221 Y26.543 E.01049
G1 X60.49 Y26.743 E.01049
G1 X60.738 Y26.967 E.01049
G1 X60.962 Y27.215 E.01049
G1 X61.162 Y27.484 E.01049
G1 X61.334 Y27.771 E.01049
G1 X61.477 Y28.074 E.01049
G1 X61.59 Y28.389 E.01049
G1 X61.656 Y28.655 E.00861
M204 S1000
G1 X61.988 Y28.821 F10800
;WIPE_START
G1 F8640
G1 X61.72 Y29.045 E-.09108
G1 X61.737 Y29.379 E-.07728
G1 X61.72 Y29.713 E-.07728
