; generated by Slic3r Prusa Edition 1.39.1-prusa3d on 2018-05-31 at 15:54:02

; 

; external perimeters extrusion width = 0.45mm
; perimeters extrusion width = 0.45mm
; infill extrusion width = 0.45mm
; solid infill extrusion width = 0.45mm
; top infill extrusion width = 0.40mm
; support material extrusion width = 0.35mm
; first layer extrusion width = 0.42mm

M107
M115 U3.1.0 ; tell printer latest fw version
M83  ; extruder relative mode
M104 S235 ; set extruder temp
M140 S60 ; set bed temp
M190 S60 ; wait for bed temp
M109 S235 ; wait for extruder temp
G28 W ; home all without mesh bed level
G80 ; mesh bed leveling
G1 Y-3.0 F1000.0 ; go outside print area
G92 E0.0
G1 X60.0 E9.0  F1000.0 ; intro line
G1 X100.0 E12.5  F1000.0 ; intro line
G92 E0.0
M900 K30; Filament gcode
G21 ; set units to millimeters
G90 ; use absolute coordinates
M83 ; use relative distances for extrusion
;BEFORE_LAYER_CHANGE
;0.2


G1 E-0.80000 F2100.00000
G1 Z0.600 F7200.000
;AFTER_LAYER_CHANGE
;0.2
G1 X91.348 Y62.603 F7200.000
G1 Z0.200 F7200.000
G1 E0.80000 F2100.00000
M204 S1000
G1 F1800
G1 X91.348 Y61.946 E0.02062
G1 X92.102 Y61.946 E0.02365
G1 X92.102 Y63.117 E0.03674
G1 X92.856 Y63.871 E0.03344
G1 X92.856 Y61.946 E0.06039
G1 X93.610 Y61.946 E0.02365
G1 X93.610 Y64.452 E0.07859
G1 X94.365 Y64.452 E0.02365
G1 X94.365 Y61.946 E0.07859
G1 X95.119 Y61.946 E0.02365
G1 X95.119 Y64.452 E0.07859
G1 X95.873 Y64.452 E0.02365
G1 X95.873 Y61.946 E0.07859
G1 X96.627 Y61.946 E0.02365
G1 X96.627 Y64.452 E0.07859
G1 X97.381 Y64.452 E0.02365
G1 X97.381 Y61.946 E0.07859
G1 X98.135 Y61.946 E0.02365
G1 X98.135 Y72.490 E0.33060
G1 X98.890 Y72.490 E0.02365
G1 X98.890 Y61.946 E0.33060
G1 X99.644 Y61.946 E0.02365
G1 X99.644 Y72.490 E0.33060
G1 X100.398 Y72.490 E0.02365
G1 X100.398 Y61.946 E0.33060
G1 X101.152 Y61.946 E0.02365
G1 X101.152 Y72.490 E0.33060
G1 X101.906 Y72.490 E0.02365
G1 X101.906 Y61.946 E0.33060
G1 X102.660 Y61.946 E0.02365
G1 X102.660 Y72.490 E0.33060
G1 X103.414 Y72.490 E0.02365
G1 X103.414 Y61.946 E0.33060
G1 X104.169 Y61.946 E0.02365
G1 X104.169 Y72.490 E0.33060
G1 X104.923 Y72.490 E0.02365
G1 X104.923 Y61.946 E0.33060
G1 X105.677 Y61.946 E0.02365
G1 X105.677 Y118.631 E1.77734
G1 X106.431 Y118.631 E0.02365
G1 X106.431 Y61.946 E1.77734
G1 X107.185 Y61.946 E0.02365
G1 X107.185 Y118.631 E1.77734
G1 X107.683 Y118.631 E0.01561
G1 X107.683 Y120.938 E0.07234
G1 X107.939 Y120.938 E0.00804
G1 X107.939 Y61.946 E1.84967
G1 X108.694 Y61.946 E0.02365
G1 X108.694 Y120.938 E1.84967
G1 X109.448 Y120.938 E0.02365
G1 X109.448 Y61.946 E1.84967
G1 X110.202 Y61.946 E0.02365
G1 X110.202 Y123.245 E1.92201
G1 X110.956 Y123.245 E0.02365
G1 X110.956 Y61.946 E1.92201
G1 X111.710 Y61.946 E0.02365
G1 X111.710 Y123.245 E1.92201
G1 X112.297 Y123.245 E0.01840
G1 X112.297 Y132.474 E0.28935
G1 X112.464 Y132.474 E0.00524
G1 X112.464 Y61.946 E2.21136
G1 X113.219 Y61.946 E0.02365
G1 X113.219 Y132.474 E2.21136
G1 X113.973 Y132.474 E0.02365
G1 X113.973 Y61.946 E2.21136
G1 X114.727 Y61.946 E0.02365
G1 X114.727 Y132.474 E2.21136
G1 X115.481 Y132.474 E0.02365
G1 X115.481 Y61.946 E2.21136
G1 X116.235 Y61.946 E0.02365
G1 X116.235 Y132.474 E2.21136
G1 X116.989 Y132.474 E0.02365
G1 X116.989 Y61.946 E2.21136
G1 X117.743 Y61.946 E0.02365
G1 X117.743 Y132.474 E2.21136
G1 X118.498 Y132.474 E0.02365
G1 X118.498 Y61.946 E2.21136
G1 X119.252 Y61.946 E0.02365
G1 X119.252 Y132.474 E2.21136
G1 X120.006 Y132.474 E0.02365
G1 X120.006 Y61.946 E2.21136
G1 X120.760 Y61.946 E0.02365
G1 X120.760 Y130.166 E2.13902
G1 X121.514 Y130.166 E0.02365
G1 X121.514 Y61.946 E2.13902
G1 X122.268 Y61.946 E0.02365
G1 X122.268 Y130.166 E2.13902
G1 X122.841 Y130.166 E0.01796
G1 X122.841 Y125.552 E0.14467
G1 X123.023 Y125.552 E0.00569
G1 X123.023 Y61.946 E1.99435
G1 X123.777 Y61.946 E0.02365
G1 X123.777 Y125.552 E1.99435
G1 X124.531 Y125.552 E0.02365
G1 X124.531 Y61.946 E1.99435
G1 X125.285 Y61.946 E0.02365
G1 X125.285 Y125.552 E1.99435
G1 X126.039 Y125.552 E0.02365
G1 X126.039 Y61.946 E1.99435
G1 X126.793 Y61.946 E0.02365
G1 X126.793 Y125.552 E1.99435
G1 X127.548 Y125.552 E0.02365
G1 X127.548 Y61.946 E1.99435
G1 X128.302 Y61.946 E0.02365
G1 X128.302 Y125.552 E1.99435
G1 X129.056 Y125.552 E0.02365
G1 X129.056 Y61.946 E1.99435
G1 X129.810 Y61.946 E0.02365
G1 X129.810 Y125.552 E1.99435
G1 X130.564 Y125.552 E0.02365
G1 X130.564 Y61.946 E1.99435
G1 X131.318 Y61.946 E0.02365
G1 X131.318 Y125.552 E1.99435
G1 X132.073 Y125.552 E0.02365
G1 X132.073 Y61.946 E1.99435
G1 X132.827 Y61.946 E0.02365
G1 X132.827 Y125.552 E1.99435
G1 X133.061 Y125.552 E0.00734
G1 X133.061 Y127.859 E0.07234
G1 X133.581 Y127.859 E0.01630
G1 X133.581 Y61.946 E2.06668
G1 X134.335 Y61.946 E0.02365
G1 X134.335 Y127.859 E2.06668
G1 X135.089 Y127.859 E0.02365
G1 X135.089 Y64.253 E1.99435
G1 X135.843 Y64.253 E0.02365
G1 X135.843 Y127.859 E1.99435
G1 X136.597 Y127.859 E0.02365
G1 X136.597 Y64.253 E1.99435
G1 X137.352 Y64.253 E0.02365
G1 X137.352 Y127.859 E1.99435
G1 X137.675 Y127.859 E0.01014
G1 X137.675 Y132.474 E0.14467
G1 X138.106 Y132.474 E0.01351
G1 X138.106 Y64.253 E2.13902
G1 X138.860 Y64.253 E0.02365
G1 X138.860 Y132.474 E2.13902
G1 X139.614 Y132.474 E0.02365
G1 X139.614 Y64.253 E2.13902
G1 X140.368 Y64.253 E0.02365
G1 X140.368 Y132.474 E2.13902
G1 X141.122 Y132.474 E0.02365
G1 X141.122 Y64.253 E2.13902
G1 X141.298 Y64.253 E0.00550
G1 X141.298 Y66.560 E0.07234
G1 X141.877 Y66.560 E0.01815
G1 X141.877 Y132.474 E2.06668
G1 X142.631 Y132.474 E0.02365
G1 X142.631 Y66.560 E2.06668
G1 X143.385 Y66.560 E0.02365
G1 X143.385 Y132.474 E2.06668
G1 X144.139 Y132.474 E0.02365
G1 X144.139 Y68.867 E1.99435
G1 X144.893 Y68.867 E0.02365
G1 X144.893 Y132.474 E1.99435
G1 X145.647 Y132.474 E0.02365
G1 X145.647 Y68.867 E1.99435
G1 X146.402 Y68.867 E0.02365
G1 X146.402 Y132.474 E1.99435
G1 X147.156 Y132.474 E0.02365
G1 X147.156 Y68.867 E1.99435
G1 X147.910 Y68.867 E0.02365
G1 X147.910 Y132.474 E1.99435
G1 X148.664 Y132.474 E0.02365
G1 X148.664 Y68.867 E1.99435
G1 X149.418 Y68.867 E0.02365
G1 X149.418 Y134.781 E2.06668
G1 X150.172 Y134.781 E0.02365
G1 X150.172 Y68.867 E2.06668
G1 X150.526 Y68.867 E0.01109
G1 X150.526 Y73.481 E0.14467
G1 X150.926 Y73.481 E0.01255
G1 X150.926 Y134.950 E1.92733
G1 F5760
G1 X150.926 Y132.756 E-0.76000
G1 E-0.04000 F2100.00000
G1 Z0.800 F7200.000
G1 X149.418 Y135.602 F7200.000
G1 Z0.200 F7200.000
G1 E0.80000 F2100.00000
G1 F1800
G1 X149.418 Y146.316 E0.33592
G1 X150.172 Y146.316 E0.02365
G1 X150.172 Y135.772 E0.33060
G1 X150.926 Y135.772 E0.02365
G1 X150.926 Y146.316 E0.33060
G1 X151.517 Y146.316 E0.01853
G1 X151.517 Y148.623 E0.07234
G1 X151.681 Y148.623 E0.00512
G1 X151.681 Y73.481 E2.35603
G1 X152.435 Y73.481 E0.02365
G1 X152.435 Y148.623 E2.35603
G1 X153.189 Y148.623 E0.02365
G1 X153.189 Y108.087 E1.27098
G1 X153.943 Y108.087 E0.02365
G1 X153.943 Y148.623 E1.27098
G1 X154.697 Y148.623 E0.02365
G1 X154.697 Y108.087 E1.27098
G1 X155.140 Y108.087 E0.01389
G1 X155.140 Y112.701 E0.14467
G1 X155.451 Y112.701 E0.00976
G1 X155.451 Y148.623 E1.12631
G1 X156.206 Y148.623 E0.02365
G1 X156.206 Y112.701 E1.12631
G1 X156.960 Y112.701 E0.02365
G1 X156.960 Y148.623 E1.12631
G1 X157.714 Y148.623 E0.02365
G1 X157.714 Y112.701 E1.12631
G1 X158.468 Y112.701 E0.02365
G1 X158.468 Y148.623 E1.12631
G1 X159.222 Y148.623 E0.02365
G1 X159.222 Y112.701 E1.12631
G1 X159.976 Y112.701 E0.02365
G1 X159.976 Y144.009 E0.98163
G1 X160.731 Y144.009 E0.02365
G1 X160.731 Y112.701 E0.98163
G1 X161.485 Y112.701 E0.02365
G1 X161.485 Y144.009 E0.98163
G1 X162.061 Y144.009 E0.01808
G1 X162.061 Y137.088 E0.21701
G1 X162.239 Y137.088 E0.00556
G1 X162.239 Y115.008 E0.69228
G1 X162.993 Y115.008 E0.02365
G1 X162.993 Y137.088 E0.69228
G1 X163.747 Y137.088 E0.02365
G1 X163.747 Y115.008 E0.69228
G1 X164.369 Y115.008 E0.01948
G1 X164.369 Y124.237 E0.28935
G1 X164.501 Y124.237 E0.00416
G1 X164.501 Y132.474 E0.25826
G1 X165.256 Y132.474 E0.02365
G1 X165.256 Y124.237 E0.25826
G1 X166.010 Y124.237 E0.02365
G1 X166.010 Y132.643 E0.26358
G1 F5760
G1 X166.010 Y130.449 E-0.76000
G1 E-0.04000 F2100.00000
G1 Z0.800 F7200.000
G1 X104.923 Y107.265 F7200.000
G1 Z0.200 F7200.000
G1 E0.80000 F2100.00000
G1 F1800
G1 X104.923 Y80.402 E0.84228
G1 X104.169 Y80.402 E0.02365
G1 X104.169 Y107.096 E0.83696
G1 X103.414 Y107.096 E0.02365
G1 X103.414 Y80.232 E0.84228
G1 F5760
G1 X103.414 Y82.427 E-0.76000
G1 E-0.04000 F2100.00000
G1 Z0.800 F7200.000
G1 X97.381 Y72.659 F7200.000
G1 Z0.200 F7200.000
G1 E0.80000 F2100.00000
G1 F1800
G1 X97.381 Y68.399 E0.13358
G1 X96.627 Y68.399 E0.02365
G1 X96.627 Y72.490 E0.12826
G1 X95.873 Y72.490 E0.02365
G1 X95.873 Y68.399 E0.12826
G1 X95.119 Y68.399 E0.02365
G1 X95.119 Y72.490 E0.12826
G1 X94.365 Y72.490 E0.02365
G1 X94.365 Y68.399 E0.12826
G1 X93.610 Y68.399 E0.02365
G1 X93.610 Y72.490 E0.12826
G1 X92.856 Y72.490 E0.02365
G1 X92.856 Y68.399 E0.12826
G1 X92.102 Y68.399 E0.02365
G1 X92.102 Y72.490 E0.12826
G1 X91.348 Y72.490 E0.02365
G1 X91.348 Y68.399 E0.12826
G1 X90.594 Y68.399 E0.02365
G1 X90.594 Y72.490 E0.12826
G1 X89.840 Y72.490 E0.02365
G1 X89.840 Y68.399 E0.12826
G1 X89.085 Y68.399 E0.02365
G1 X89.085 Y72.490 E0.12826
G1 X88.331 Y72.490 E0.02365
G1 X88.331 Y68.399 E0.12826
G1 X87.619 Y68.399 E0.02232
G1 X87.577 Y68.399 E0.00133
G1 X87.577 Y72.659 E0.13358
G1 F5760
G1 X87.577 Y70.465 E-0.76000
G1 E-0.04000 F2100.00000
G1 Z0.800 F7200.000
G1 X88.164 Y67.353 F7200.000
G1 Z0.200 F7200.000
G1 E0.80000 F2100.00000
G1 F1800
G1 X88.164 Y65.498 E0.05818
G1 X96.902 Y65.498 E0.27397
G1 X96.902 Y67.353 E0.05818
G1 X88.224 Y67.353 E0.27209
G1 X87.787 Y67.730 F7200.000
G1 F1800
G1 X87.787 Y65.120 E0.08183
G1 X97.279 Y65.120 E0.29762
G1 X97.279 Y67.730 E0.08183
G1 X87.847 Y67.730 E0.29574
G1 X87.955 Y67.367 F7200.000
G1 F5760
G1 X87.797 Y65.537 E-0.76000
G1 E-0.04000 F2100.00000
G1 Z0.800 F7200.000
G1 X88.277 Y66.471 F7200.000
G1 Z0.200 F7200.000
G1 E0.80000 F2100.00000
G1 F1800
G1 X88.876 Y67.070 E0.02679
G1 X89.414 Y67.070 E0.01700
G1 X88.447 Y66.103 E0.04324
G1 X88.447 Y65.780 E0.01021
G1 X88.662 Y65.780 E0.00679
G1 X89.952 Y67.070 E0.05768
G1 X90.490 Y67.070 E0.01700
G1 X89.199 Y65.780 E0.05768
G1 X89.737 Y65.780 E0.01700
G1 X91.027 Y67.070 E0.05768
G1 X91.565 Y67.070 E0.01700
G1 X90.275 Y65.780 E0.05768
G1 X90.813 Y65.780 E0.01700
G1 X92.103 Y67.070 E0.05768
G1 X92.640 Y67.070 E0.01700
G1 X91.350 Y65.780 E0.05768
G1 X91.888 Y65.780 E0.01700
G1 X93.178 Y67.070 E0.05768
G1 X93.716 Y67.070 E0.01700
G1 X92.426 Y65.780 E0.05768
G1 X92.964 Y65.780 E0.01700
G1 X94.254 Y67.070 E0.05768
G1 X94.791 Y67.070 E0.01700
G1 X93.501 Y65.780 E0.05768
G1 X94.039 Y65.780 E0.01700
G1 X95.329 Y67.070 E0.05768
G1 X95.867 Y67.070 E0.01700
G1 X94.577 Y65.780 E0.05768
G1 X95.114 Y65.780 E0.01700
G1 X96.404 Y67.070 E0.05768
G1 X96.619 Y67.070 E0.00679
G1 X96.619 Y66.748 E0.01021
G1 X95.652 Y65.780 E0.04325
G1 X96.190 Y65.780 E0.01700
G1 X96.789 Y66.380 E0.02679
M106 S255
;BEFORE_LAYER_CHANGE
;0.4


G1 F5760
G1 X96.190 Y65.780 E-0.29353
G1 F5760
G1 X95.652 Y65.780 E-0.18624
G1 F5760
G1 X96.224 Y66.352 E-0.28023
G1 E-0.04000 F2100.00000
G1 Z0.800 F7200.000
;AFTER_LAYER_CHANGE
;0.4
G1 X96.857 Y65.543 F7200.000
G1 Z0.400 F7200.000
G1 E0.80000 F2100.00000
M204 S800
G1 F900
G1 X96.857 Y67.308 E0.05977
G1 X88.209 Y67.308 E0.29272
G1 X88.209 Y65.543 E0.05977
G1 X96.797 Y65.543 E0.29069
M204 S1000
G1 X97.264 Y65.135 F7200.000
M204 S800
G1 F900
G1 X97.264 Y67.715 E0.08732
G1 X87.802 Y67.715 E0.32028
G1 X87.802 Y65.135 E0.08732
G1 X97.204 Y65.135 E0.31825
M204 S1000
G1 X97.096 Y65.498 F7200.000
G1 F5760
G1 X97.255 Y67.329 E-0.76000
G1 E-0.04000 F2100.00000
G1 Z1.000 F7200.000
G1 X95.893 Y67.186 F7200.000
G1 Z0.400 F7200.000
G1 E0.80000 F2100.00000
M204 S2000
G1 F900
G1 X96.552 Y66.527 E0.03226
G1 X96.552 Y65.938 E0.02037
G1 X95.487 Y67.003 E0.05210
G1 X94.899 Y67.003 E0.02037
G1 X96.054 Y65.848 E0.05653
G1 X95.465 Y65.848 E0.02037
G1 X94.310 Y67.003 E0.05653
G1 X93.721 Y67.003 E0.02037
G1 X94.877 Y65.848 E0.05653
G1 X94.288 Y65.848 E0.02037
G1 X93.133 Y67.003 E0.05653
G1 X92.544 Y67.003 E0.02037
G1 X93.699 Y65.848 E0.05653
G1 X93.111 Y65.848 E0.02037
G1 X91.956 Y67.003 E0.05653
G1 X91.367 Y67.003 E0.02037
G1 X92.522 Y65.848 E0.05653
G1 X91.933 Y65.848 E0.02037
G1 X90.778 Y67.003 E0.05653
G1 X90.190 Y67.003 E0.02037
G1 X91.345 Y65.848 E0.05653
G1 X90.756 Y65.848 E0.02037
G1 X89.601 Y67.003 E0.05653
G1 X89.012 Y67.003 E0.02037
G1 X90.168 Y65.848 E0.05653
G1 X89.579 Y65.848 E0.02037
G1 X88.515 Y66.912 E0.05210
G1 X88.515 Y66.324 E0.02037
G1 X89.173 Y65.665 E0.03225
M204 S1000
;BEFORE_LAYER_CHANGE
;0.4375


G1 F5760
G1 X88.515 Y66.324 E-0.32278
G1 F5760
G1 X88.515 Y66.912 E-0.20387
G1 F5760
G1 X88.991 Y66.436 E-0.23335
G1 E-0.04000 F2100.00000
G1 Z1.000 F7200.000
;AFTER_LAYER_CHANGE
;0.4375
G1 X131.550 Y64.910 F7200.000
G1 Z0.438 F7200.000
G1 E0.80000 F2100.00000
G1 F3000
G1 X97.913 Y64.910 E0.99319
G1 X97.913 Y67.218 E0.06812
G1 X138.333 Y67.218 E1.19347
G1 X138.333 Y69.525 E0.06812
G1 X140.640 Y69.525 E0.06812
G1 X89.884 Y69.525 E1.49865
G1 X110.648 Y69.525 E0.61308
G1 X110.648 Y71.832 E0.06812
G1 X147.561 Y71.832 E1.08993
G1 X147.561 Y74.139 E0.06812
G1 X108.341 Y74.139 E1.15805
G1 X108.341 Y76.446 E0.06812
G1 X149.868 Y76.446 E1.22617
G1 X149.868 Y78.753 E0.06812
G1 X108.341 Y78.753 E1.22617
G1 X108.341 Y81.060 E0.06812
G1 X147.561 Y81.060 E1.15805
G1 X147.561 Y83.367 E0.06812
G1 X149.868 Y83.367 E0.06812
G1 X106.034 Y83.367 E1.29429
G1 X106.034 Y85.674 E0.06812
G1 X149.868 Y85.674 E1.29429
G1 X149.868 Y87.981 E0.06812
G1 X106.034 Y87.981 E1.29429
G1 X106.034 Y90.288 E0.06812
G1 X149.868 Y90.288 E1.29429
G1 X149.868 Y92.595 E0.06812
G1 X106.034 Y92.595 E1.29429
G1 X106.034 Y94.902 E0.06812
G1 X149.868 Y94.902 E1.29429
G1 X149.868 Y97.210 E0.06812
G1 X106.034 Y97.210 E1.29429
G1 X106.034 Y99.517 E0.06812
G1 X149.868 Y99.517 E1.29429
G1 X149.868 Y101.824 E0.06812
G1 X106.034 Y101.824 E1.29429
G1 X106.034 Y104.131 E0.06812
G1 X147.561 Y104.131 E1.22617
G1 X147.561 Y106.438 E0.06812
G1 X149.868 Y106.438 E0.06812
G1 X108.341 Y106.438 E1.22617
G1 X108.341 Y108.745 E0.06812
G1 X149.868 Y108.745 E1.22617
G1 X149.868 Y111.052 E0.06812
G1 X152.175 Y111.052 E0.06812
G1 X108.341 Y111.052 E1.29429
G1 X108.341 Y113.359 E0.06812
G1 X152.175 Y113.359 E1.29429
G1 X152.175 Y115.666 E0.06812
G1 X159.097 Y115.666 E0.20436
G1 X108.341 Y115.666 E1.49865
G1 X110.648 Y115.666 E0.06812
G1 X110.648 Y117.973 E0.06812
G1 X161.404 Y117.973 E1.49865
G1 X161.404 Y120.280 E0.06812
G1 X112.955 Y120.280 E1.43053
G1 X115.262 Y120.280 E0.06812
G1 X115.262 Y122.587 E0.06812
G1 X119.876 Y122.587 E0.13624
G1 X119.876 Y124.895 E0.06812
G1 X115.262 Y124.895 E0.13624
G1 X115.262 Y127.202 E0.06812
G1 X119.876 Y127.202 E0.13624
G1 X117.569 Y127.202 E0.06812
G1 X117.569 Y129.509 E0.06812
G1 X115.124 Y129.509 E0.07220
G1 F5760
G1 X117.318 Y129.509 E-0.76000
G1 E-0.04000 F2100.00000
G1 Z1.038 F7200.000
G1 X154.344 Y145.658 F7200.000
G1 Z0.438 F7200.000
G1 E0.80000 F2100.00000
G1 F3000
G1 X156.790 Y145.658 E0.07220
G1 X156.790 Y143.351 E0.06812
G1 X152.175 Y143.351 E0.13624
G1 X152.175 Y141.044 E0.06812
G1 X159.097 Y141.044 E0.20436
G1 X159.097 Y138.737 E0.06812
G1 X152.175 Y138.737 E0.20436
G1 X154.482 Y138.737 E0.06812
G1 X154.482 Y136.430 E0.06812
G1 X159.097 Y136.430 E0.13624
G1 X159.097 Y134.123 E0.06812
G1 X161.404 Y134.123 E0.06812
G1 X154.482 Y134.123 E0.20436
G1 X154.482 Y131.816 E0.06812
G1 X152.175 Y131.816 E0.06812
G1 X161.404 Y131.816 E0.27248
G1 X161.404 Y129.509 E0.06812
G1 X163.711 Y129.509 E0.06812
G1 X140.640 Y129.509 E0.68121
G1 X140.640 Y127.202 E0.06812
G1 X163.711 Y127.202 E0.68121
G1 X161.404 Y127.202 E0.06812
G1 X161.404 Y124.895 E0.06812
G1 X136.026 Y124.895 E0.74933
G1 X136.026 Y122.587 E0.06812
G1 X124.490 Y122.587 E0.34060
G1 X161.542 Y122.587 E1.09401
;BEFORE_LAYER_CHANGE
;0.6


G1 F5760
G1 X159.348 Y122.587 E-0.76000
G1 E-0.04000 F2100.00000
G1 Z1.038 F7200.000
;AFTER_LAYER_CHANGE
;0.6
G1 X96.857 Y67.308 F7200.000
G1 Z0.600 F7200.000
G1 E0.80000 F2100.00000
M204 S800
G1 F900
G1 X88.209 Y67.308 E0.29272
G1 X88.209 Y65.543 E0.05977
G1 X96.857 Y65.543 E0.29272
G1 X96.857 Y67.248 E0.05774
M204 S1000
