; generated by PrusaSlicer 2.3.1+win64 on 2021-11-10 at 20:04:52 UTC

; 

; external perimeters extrusion width = 0.45mm
; perimeters extrusion width = 0.45mm
; infill extrusion width = 0.45mm
; solid infill extrusion width = 0.45mm
; top infill extrusion width = 0.40mm
; support material extrusion width = 0.35mm
; first layer extrusion width = 0.42mm

M73 P0 R47
M73 Q0 S47
M201 X1000 Y1000 Z1000 E5000 ; sets maximum accelerations, mm/sec^2
M203 X200 Y200 Z12 E120 ; sets maximum feedrates, mm/sec
M204 P1250 R1250 T1250 ; sets acceleration (P, T) and retract acceleration (R), mm/sec^2
M205 X8.00 Y8.00 Z0.40 E1.50 ; sets the jerk limits, mm/sec
M205 S0 T0 ; sets the minimum extruding and travel feed rate, mm/sec
M107
;TYPE:Custom
M862.3 P "MK3S" ; printer model check
M862.1 P0.4 ; nozzle diameter check
M115 U3.8.0 ; tell printer latest fw version
G90 ; use absolute coordinates
M83 ; extruder relative mode
M104 S215 ; set extruder temp
M140 S60 ; set bed temp
M190 S60 ; wait for bed temp
M109 S215 ; wait for extruder temp
G28 W ; home all without mesh bed level
G80 ; mesh bed leveling
G1 Y-3.0 F1000.0 ; go outside print area
G92 E0.0
G1 X60.0 E9.0 F1000.0 ; intro line
G1 X100.0 E12.5 F1000.0 ; intro line
G92 E0.0
M221 S95
G21 ; set units to millimeters
G90 ; use absolute coordinates
M83 ; use relative distances for extrusion
M900 K0.05 ; Filament gcode LA 1.5
M900 K30 ; Filament gcode LA 1.0
;LAYER_CHANGE
;Z:0.2
;HEIGHT:0.2
;BEFORE_LAYER_CHANGE
G92 E0.0
;0.2


G1 E-0.80000 F2100.000
G1 Z0.600 F10800.000
;AFTER_LAYER_CHANGE
;0.2
G1 X139.381 Y110.846
G1 Z0.200
G1 E0.80000 F2100.000
M204 S1000
;TYPE:Perimeter
;WIDTH:0.42
G1 F1200.000
G1 X147.523 Y110.846 E0.25529
G1 X147.523 Y106.587 E0.13354
G1 X148.949 Y106.587 E0.04471
G1 X148.949 Y110.846 E0.13354
G1 X157.091 Y110.846 E0.25529
G1 X157.091 Y112.072 E0.03844
G1 X148.949 Y112.072 E0.25529
G1 X148.949 Y116.605 E0.14213
G1 X157.091 Y116.605 E0.25529
G1 X157.091 Y117.631 E0.03216
G1 X148.949 Y117.631 E0.25529
G1 X148.949 Y122.164 E0.14213
G1 X157.091 Y122.164 E0.25529
G1 X157.091 Y123.190 E0.03216
G1 X148.949 Y123.190 E0.25529
G1 X148.949 Y127.723 E0.14213
M73 P0 R46
G1 X157.091 Y127.723 E0.25529
G1 X157.091 Y128.749 E0.03216
G1 X148.949 Y128.749 E0.25529
G1 X148.949 Y133.282 E0.14213
G1 X157.091 Y133.282 E0.25529
G1 X157.091 Y134.308 E0.03216
G1 X148.949 Y134.308 E0.25529
G1 X148.949 Y138.841 E0.14213
G1 X157.091 Y138.841 E0.25529
G1 X157.091 Y139.867 E0.03216
G1 X148.949 Y139.867 E0.25529
G1 X148.949 Y144.460 E0.14401
G1 X157.091 Y144.460 E0.25529
G1 X157.091 Y145.685 E0.03844
G1 X148.949 Y145.685 E0.25529
G1 X148.949 Y149.884 E0.13166
G1 X147.523 Y149.884 E0.04471
G1 X147.523 Y145.685 E0.13166
G1 X139.381 Y145.685 E0.25529
G1 X139.381 Y144.460 E0.03844
G1 X147.523 Y144.460 E0.25529
G1 X147.523 Y139.867 E0.14401
G1 X139.381 Y139.867 E0.25529
G1 X139.381 Y138.841 E0.03216
G1 X147.523 Y138.841 E0.25529
G1 X147.523 Y134.308 E0.14213
M73 Q0 S46
G1 X139.381 Y134.308 E0.25529
G1 X139.381 Y133.282 E0.03216
G1 X147.523 Y133.282 E0.25529
G1 X147.523 Y128.749 E0.14213
G1 X139.381 Y128.749 E0.25529
G1 X139.381 Y127.723 E0.03216
G1 X147.523 Y127.723 E0.25529
G1 X147.523 Y123.190 E0.14213
G1 X139.381 Y123.190 E0.25529
G1 X139.381 Y122.164 E0.03216
G1 X147.523 Y122.164 E0.25529
G1 X147.523 Y117.631 E0.14213
G1 X139.381 Y117.631 E0.25529
G1 X139.381 Y116.605 E0.03216
G1 X147.523 Y116.605 E0.25529
G1 X147.523 Y112.072 E0.14213
G1 X139.381 Y112.072 E0.25529
G1 X139.381 Y110.906 E0.03655
G1 E-0.80000 F2100.000
G1 Z0.800 F10800.000
G1 X149.326 Y110.469
G1 Z0.200
G1 E0.80000 F2100.000
;TYPE:External perimeter
G1 F1200.000
G1 X157.468 Y110.469 E0.25529
G1 X157.468 Y112.449 E0.06208
G1 X149.326 Y112.449 E0.25529
G1 X149.326 Y116.228 E0.11849
G1 X157.468 Y116.228 E0.25529
G1 X157.468 Y118.008 E0.05581
G1 X149.326 Y118.008 E0.25529
G1 X149.326 Y121.787 E0.11849
G1 X157.468 Y121.787 E0.25529
G1 X157.468 Y123.567 E0.05581
G1 X149.326 Y123.567 E0.25529
G1 X149.326 Y127.346 E0.11849
G1 X157.468 Y127.346 E0.25529
M73 Q1 S46
G1 X157.468 Y129.126 E0.05581
G1 X149.326 Y129.126 E0.25529
M73 P1 R46
G1 X149.326 Y132.905 E0.11849
G1 X157.468 Y132.905 E0.25529
G1 X157.468 Y134.685 E0.05581
G1 X149.326 Y134.685 E0.25529
G1 X149.326 Y138.464 E0.11849
G1 X157.468 Y138.464 E0.25529
G1 X157.468 Y140.244 E0.05581
G1 X149.326 Y140.244 E0.25529
G1 X149.326 Y144.083 E0.12036
G1 X157.468 Y144.083 E0.25529
G1 X157.468 Y146.062 E0.06208
G1 X149.326 Y146.062 E0.25529
G1 X149.326 Y150.262 E0.13166
G1 X147.146 Y150.262 E0.06835
G1 X147.146 Y146.062 E0.13166
G1 X139.004 Y146.062 E0.25529
G1 X139.004 Y144.083 E0.06208
G1 X147.146 Y144.083 E0.25529
G1 X147.146 Y140.244 E0.12036
G1 X139.004 Y140.244 E0.25529
G1 X139.004 Y138.464 E0.05581
G1 X147.146 Y138.464 E0.25529
G1 X147.146 Y134.685 E0.11849
G1 X139.004 Y134.685 E0.25529
G1 X139.004 Y132.905 E0.05581
G1 X147.146 Y132.905 E0.25529
G1 X147.146 Y129.126 E0.11849
G1 X139.004 Y129.126 E0.25529
G1 X139.004 Y127.346 E0.05581
G1 X147.146 Y127.346 E0.25529
G1 X147.146 Y123.567 E0.11849
G1 X139.004 Y123.567 E0.25529
G1 X139.004 Y121.787 E0.05581
G1 X147.146 Y121.787 E0.25529
G1 X147.146 Y118.008 E0.11849
G1 X139.004 Y118.008 E0.25529
G1 X139.004 Y116.228 E0.05581
G1 X147.146 Y116.228 E0.25529
G1 X147.146 Y112.449 E0.11849
G1 X139.004 Y112.449 E0.25529
G1 X139.004 Y110.469 E0.06208
G1 X147.146 Y110.469 E0.25529
G1 X147.146 Y106.210 E0.13354
G1 X149.326 Y106.210 E0.06835
G1 X149.326 Y110.409 E0.13165
G1 X149.389 Y110.864 F10800.000
G1 E-0.80000 F2100.000
G1 Z0.800 F10800.000
G1 X149.140 Y111.959
G1 Z0.200
G1 E0.80000 F2100.000
;TYPE:Solid infill
;WIDTH:0.423244
G1 F1200.000
G1 X147.806 Y110.624 E0.05969
G1 X147.806 Y111.129 E0.01596
G1 X147.773 Y111.129 E0.00105
G1 X148.666 Y112.022 E0.03996
G1 X148.666 Y112.560 E0.01701
G1 X147.235 Y111.129 E0.06401
G1 X146.697 Y111.129 E0.01701
G1 X147.357 Y111.789 E0.02953
G1 X146.819 Y111.789 E0.01701
G1 X146.159 Y111.129 E0.02953
G1 X145.621 Y111.129 E0.01701
G1 X146.281 Y111.789 E0.02953
G1 X145.743 Y111.789 E0.01701
G1 X145.083 Y111.129 E0.02953
G1 X144.545 Y111.129 E0.01701
G1 X145.206 Y111.789 E0.02953
G1 X144.668 Y111.789 E0.01701
G1 X144.007 Y111.129 E0.02953
G1 X143.470 Y111.129 E0.01701
G1 X144.130 Y111.789 E0.02953
G1 X143.592 Y111.789 E0.01701
G1 X142.932 Y111.129 E0.02953
G1 X142.394 Y111.129 E0.01701
G1 X143.054 Y111.789 E0.02953
G1 X142.516 Y111.789 E0.01701
G1 X141.856 Y111.129 E0.02953
G1 X141.318 Y111.129 E0.01701
G1 X141.978 Y111.789 E0.02953
G1 X141.441 Y111.789 E0.01701
G1 X140.780 Y111.129 E0.02953
G1 X140.242 Y111.129 E0.01701
G1 X140.903 Y111.789 E0.02953
G1 X140.365 Y111.789 E0.01701
G1 X139.705 Y111.129 E0.02953
G1 X139.664 Y111.129 E0.00130
G1 X139.664 Y111.626 E0.01571
G1 X139.997 Y111.959 E0.01490
G1 E-0.80000 F2100.000
G1 Z0.800 F10800.000
G1 X139.494 Y116.834
G1 Z0.200
G1 E0.80000 F2100.000
G1 F1200.000
G1 X140.007 Y117.348 E0.02297
G1 X140.545 Y117.348 E0.01701
G1 X140.085 Y116.888 E0.02058
G1 X140.623 Y116.888 E0.01701
G1 X141.083 Y117.348 E0.02058
G1 X141.621 Y117.348 E0.01701
G1 X141.161 Y116.888 E0.02058
G1 X141.699 Y116.888 E0.01701
G1 X142.159 Y117.348 E0.02058
G1 X142.697 Y117.348 E0.01701
G1 X142.236 Y116.888 E0.02058
G1 X142.774 Y116.888 E0.01701
G1 X143.235 Y117.348 E0.02058
G1 X143.772 Y117.348 E0.01701
G1 X143.312 Y116.888 E0.02058
G1 X143.850 Y116.888 E0.01701
G1 X144.310 Y117.348 E0.02058
G1 X144.848 Y117.348 E0.01701
G1 X144.388 Y116.888 E0.02058
G1 X144.926 Y116.888 E0.01701
G1 X145.386 Y117.348 E0.02058
G1 X145.924 Y117.348 E0.01701
G1 X145.464 Y116.888 E0.02058
G1 X146.001 Y116.888 E0.01701
G1 X146.462 Y117.348 E0.02058
G1 X147.000 Y117.348 E0.01701
G1 X146.539 Y116.888 E0.02058
G1 X147.077 Y116.888 E0.01701
G1 X148.666 Y118.477 E0.07105
G1 X148.666 Y117.939 E0.01701
G1 X147.615 Y116.888 E0.04700
G1 X147.806 Y116.888 E0.00603
G1 X147.806 Y116.541 E0.01098
G1 X148.666 Y117.401 E0.03847
G1 X148.666 Y117.348 E0.00167
G1 X149.151 Y117.348 E0.01534
G1 X147.806 Y116.003 E0.06017
G1 X147.806 Y115.465 E0.01701
G1 X148.666 Y116.325 E0.03847
G1 X148.666 Y115.787 E0.01701
G1 X147.806 Y114.927 E0.03847
G1 X147.806 Y114.389 E0.01701
G1 X148.666 Y115.249 E0.03847
G1 X148.666 Y114.712 E0.01701
G1 X147.806 Y113.851 E0.03847
G1 X147.806 Y113.313 E0.01701
G1 X148.666 Y114.174 E0.03847
G1 X148.666 Y113.636 E0.01701
G1 X147.806 Y112.776 E0.03847
G1 X147.806 Y112.238 E0.01701
G1 X148.836 Y113.268 E0.04606
G1 E-0.80000 F2100.000
G1 Z0.800 F10800.000
G1 X148.836 Y107.351
G1 Z0.200
G1 E0.80000 F2100.000
G1 F1200.000
G1 X148.354 Y106.870 E0.02152
G1 X147.816 Y106.870 E0.01701
G1 X148.666 Y107.719 E0.03799
G1 X148.666 Y108.257 E0.01701
G1 X147.806 Y107.397 E0.03847
G1 X147.806 Y107.935 E0.01701
G1 X148.666 Y108.795 E0.03847
G1 X148.666 Y109.333 E0.01701
G1 X147.806 Y108.473 E0.03847
G1 X147.806 Y109.011 E0.01701
G1 X148.666 Y109.871 E0.03847
G1 X148.666 Y110.409 E0.01701
G1 X147.806 Y109.548 E0.03847
G1 X147.806 Y110.086 E0.01701
G1 X149.508 Y111.789 E0.07616
G1 X150.046 Y111.789 E0.01701
G1 X149.386 Y111.129 E0.02953
G1 X149.924 Y111.129 E0.01701
G1 X150.584 Y111.789 E0.02953
G1 X151.122 Y111.789 E0.01701
G1 X150.462 Y111.129 E0.02953
G1 X151.000 Y111.129 E0.01701
G1 X151.660 Y111.789 E0.02953
G1 X152.198 Y111.789 E0.01701
G1 X151.538 Y111.129 E0.02953
G1 X152.075 Y111.129 E0.01701
G1 X152.736 Y111.789 E0.02953
G1 X153.273 Y111.789 E0.01701
G1 X152.613 Y111.129 E0.02953
G1 X153.151 Y111.129 E0.01701
G1 X153.811 Y111.789 E0.02953
G1 X154.349 Y111.789 E0.01701
G1 X153.689 Y111.129 E0.02953
G1 X154.227 Y111.129 E0.01701
G1 X154.887 Y111.789 E0.02953
G1 X155.425 Y111.789 E0.01701
G1 X154.765 Y111.129 E0.02953
G1 X155.303 Y111.129 E0.01701
G1 X155.963 Y111.789 E0.02953
G1 X156.501 Y111.789 E0.01701
G1 X155.840 Y111.129 E0.02953
G1 X156.378 Y111.129 E0.01701
G1 X156.978 Y111.728 E0.02681
G1 E-0.80000 F2100.000
G1 Z0.800 F10800.000
G1 X156.978 Y117.107
G1 Z0.200
G1 E0.80000 F2100.000
G1 F1200.000
G1 X156.759 Y116.888 E0.00980
G1 X156.221 Y116.888 E0.01701
G1 X156.681 Y117.348 E0.02058
G1 X156.143 Y117.348 E0.01701
G1 X155.683 Y116.888 E0.02058
G1 X155.145 Y116.888 E0.01701
G1 X155.605 Y117.348 E0.02058
G1 X155.067 Y117.348 E0.01701
G1 X154.607 Y116.888 E0.02058
G1 X154.069 Y116.888 E0.01701
G1 X154.530 Y117.348 E0.02058
G1 X153.992 Y117.348 E0.01701
G1 X153.531 Y116.888 E0.02058
G1 X152.994 Y116.888 E0.01701
G1 X153.454 Y117.348 E0.02058
G1 X152.916 Y117.348 E0.01701
G1 X152.456 Y116.888 E0.02058
G1 X151.918 Y116.888 E0.01701
G1 X152.378 Y117.348 E0.02058
G1 X151.840 Y117.348 E0.01701
G1 X151.380 Y116.888 E0.02058
G1 X150.842 Y116.888 E0.01701
G1 X151.302 Y117.348 E0.02058
G1 X150.765 Y117.348 E0.01701
G1 X150.304 Y116.888 E0.02058
G1 X149.766 Y116.888 E0.01701
G1 X150.227 Y117.348 E0.02058
G1 X149.689 Y117.348 E0.01701
G1 X149.059 Y116.718 E0.02817
G1 E-0.80000 F2100.000
G1 Z0.800 F10800.000
G1 X147.636 Y117.984
G1 Z0.200
G1 E0.80000 F2100.000
G1 F1200.000
G1 X148.666 Y119.014 E0.04606
G1 X148.666 Y119.552 E0.01701
G1 X147.806 Y118.692 E0.03847
G1 X147.806 Y119.230 E0.01701
G1 X148.666 Y120.090 E0.03847
G1 X148.666 Y120.628 E0.01701
G1 X147.806 Y119.768 E0.03847
G1 X147.806 Y120.306 E0.01701
G1 X148.666 Y121.166 E0.03847
G1 X148.666 Y121.704 E0.01701
G1 X147.806 Y120.843 E0.03847
G1 X147.806 Y121.381 E0.01701
G1 X149.331 Y122.907 E0.06823
G1 X149.869 Y122.907 E0.01701
G1 X149.409 Y122.447 E0.02058
G1 X149.947 Y122.447 E0.01701
G1 X150.407 Y122.907 E0.02058
G1 X150.945 Y122.907 E0.01701
G1 X150.485 Y122.447 E0.02058
G1 X151.022 Y122.447 E0.01701
G1 X151.483 Y122.907 E0.02058
G1 X152.021 Y122.907 E0.01701
G1 X151.560 Y122.447 E0.02058
G1 X152.098 Y122.447 E0.01701
G1 X152.558 Y122.907 E0.02058
G1 X153.096 Y122.907 E0.01701
G1 X152.636 Y122.447 E0.02058
G1 X153.174 Y122.447 E0.01701
G1 X153.634 Y122.907 E0.02058
G1 X154.172 Y122.907 E0.01701
G1 X153.712 Y122.447 E0.02058
G1 X154.250 Y122.447 E0.01701
G1 X154.710 Y122.907 E0.02058
G1 X155.248 Y122.907 E0.01701
G1 X154.788 Y122.447 E0.02058
G1 X155.325 Y122.447 E0.01701
G1 X155.786 Y122.907 E0.02058
G1 X156.323 Y122.907 E0.01701
G1 X155.863 Y122.447 E0.02058
G1 X156.401 Y122.447 E0.01701
G1 X156.978 Y123.023 E0.02579
G1 E-0.80000 F2100.000
G1 Z0.800 F10800.000
G1 X156.978 Y128.402
G1 Z0.200
G1 E0.80000 F2100.000
G1 F1200.000
G1 X156.581 Y128.006 E0.01772
G1 X156.044 Y128.006 E0.01701
G1 X156.504 Y128.466 E0.02058
G1 X155.966 Y128.466 E0.01701
G1 X155.506 Y128.006 E0.02058
G1 X154.968 Y128.006 E0.01701
G1 X155.428 Y128.466 E0.02058
G1 X154.890 Y128.466 E0.01701
G1 X154.430 Y128.006 E0.02058
G1 X153.892 Y128.006 E0.01701
G1 X154.352 Y128.466 E0.02058
G1 X153.815 Y128.466 E0.01701
G1 X153.354 Y128.006 E0.02058
G1 X152.816 Y128.006 E0.01701
G1 X153.277 Y128.466 E0.02058
G1 X152.739 Y128.466 E0.01701
G1 X152.279 Y128.006 E0.02058
G1 X151.741 Y128.006 E0.01701
G1 X152.201 Y128.466 E0.02058
G1 X151.663 Y128.466 E0.01701
G1 X151.203 Y128.006 E0.02058
G1 X150.665 Y128.006 E0.01701
G1 X151.125 Y128.466 E0.02058
G1 X150.587 Y128.466 E0.01701
G1 X150.127 Y128.006 E0.02058
G1 X149.589 Y128.006 E0.01701
G1 X150.050 Y128.466 E0.02058
G1 X149.512 Y128.466 E0.01701
G1 X149.051 Y128.006 E0.02058
G1 X148.666 Y128.006 E0.01219
G1 X148.666 Y127.620 E0.01219
G1 X147.806 Y126.760 E0.03847
G1 X147.806 Y126.222 E0.01701
G1 X148.666 Y127.082 E0.03847
G1 X148.666 Y126.544 E0.01701
G1 X147.806 Y125.684 E0.03847
G1 X147.806 Y125.146 E0.01701
G1 X148.666 Y126.007 E0.03847
G1 X148.666 Y125.469 E0.01701
G1 X147.806 Y124.608 E0.03847
G1 X147.806 Y124.071 E0.01701
G1 X148.666 Y124.931 E0.03847
G1 X148.666 Y124.393 E0.01701
G1 X147.636 Y123.363 E0.04606
G1 E-0.80000 F2100.000
G1 Z0.800 F10800.000
G1 X148.963 Y123.077
G1 Z0.200
G1 E0.80000 F2100.000
G1 F1200.000
G1 X147.806 Y121.919 E0.05177
G1 X147.795 Y122.447 E0.01669
G1 X148.666 Y123.317 E0.03893
G1 X148.666 Y123.855 E0.01701
G1 X147.257 Y122.447 E0.06299
G1 X146.720 Y122.447 E0.01701
G1 X147.180 Y122.907 E0.02058
G1 X146.642 Y122.907 E0.01701
G1 X146.182 Y122.447 E0.02058
G1 X145.644 Y122.447 E0.01701
G1 X146.104 Y122.907 E0.02058
G1 X145.566 Y122.907 E0.01701
G1 X145.106 Y122.447 E0.02058
G1 X144.568 Y122.447 E0.01701
G1 X145.028 Y122.907 E0.02058
G1 X144.491 Y122.907 E0.01701
G1 X144.030 Y122.447 E0.02058
G1 X143.492 Y122.447 E0.01701
G1 X143.953 Y122.907 E0.02058
G1 X143.415 Y122.907 E0.01701
G1 X142.955 Y122.447 E0.02058
G1 X142.417 Y122.447 E0.01701
G1 X142.877 Y122.907 E0.02058
G1 X142.339 Y122.907 E0.01701
G1 X141.879 Y122.447 E0.02058
G1 X141.341 Y122.447 E0.01701
G1 X141.801 Y122.907 E0.02058
G1 X141.263 Y122.907 E0.01701
G1 X140.803 Y122.447 E0.02058
G1 X140.265 Y122.447 E0.01701
G1 X140.726 Y122.907 E0.02058
G1 X140.188 Y122.907 E0.01701
G1 X139.558 Y122.277 E0.02817
G1 E-0.80000 F2100.000
G1 Z0.800 F10800.000
G1 X140.000 Y128.636
G1 Z0.200
G1 E0.80000 F2100.000
G1 F1200.000
G1 X139.664 Y128.299 E0.01504
G1 X139.664 Y128.006 E0.00928
G1 X139.908 Y128.006 E0.00773
G1 X140.368 Y128.466 E0.02058
G1 X140.906 Y128.466 E0.01701
G1 X140.446 Y128.006 E0.02058
G1 X140.984 Y128.006 E0.01701
G1 X141.444 Y128.466 E0.02058
G1 X141.982 Y128.466 E0.01701
G1 X141.521 Y128.006 E0.02058
G1 X142.059 Y128.006 E0.01701
G1 X142.519 Y128.466 E0.02058
G1 X143.057 Y128.466 E0.01701
G1 X142.597 Y128.006 E0.02058
G1 X143.135 Y128.006 E0.01701
G1 X143.595 Y128.466 E0.02058
G1 X144.133 Y128.466 E0.01701
G1 X143.673 Y128.006 E0.02058
G1 X144.211 Y128.006 E0.01701
G1 X144.671 Y128.466 E0.02058
G1 X145.209 Y128.466 E0.01701
G1 X144.749 Y128.006 E0.02058
G1 X145.286 Y128.006 E0.01701
G1 X145.747 Y128.466 E0.02058
G1 X146.284 Y128.466 E0.01701
G1 X145.824 Y128.006 E0.02058
G1 X146.362 Y128.006 E0.01701
G1 X146.822 Y128.466 E0.02058
G1 X147.360 Y128.466 E0.01701
G1 X146.900 Y128.006 E0.02058
M73 Q2 S46
G1 X147.438 Y128.006 E0.01701
G1 X148.666 Y129.234 E0.05492
G1 X148.666 Y128.696 E0.01701
G1 X147.806 Y127.836 E0.03847
G1 X147.806 Y127.298 E0.01701
G1 X149.143 Y128.636 E0.05983
M73 P2 R46
G1 E-0.80000 F2100.000
G1 Z0.800 F10800.000
G1 X148.836 Y129.941
G1 Z0.200
G1 E0.80000 F2100.000
G1 F1200.000
G1 X147.806 Y128.911 E0.04606
G1 X147.806 Y129.449 E0.01701
