; generated by Slic3r Prusa Edition 1.42.0-alpha3+ on 2019-04-24 at 16:45:22

; 

; external perimeters extrusion width = 0.45mm
; perimeters extrusion width = 0.45mm
; infill extrusion width = 0.45mm
; solid infill extrusion width = 0.45mm
; top infill extrusion width = 0.40mm
; first layer extrusion width = 0.42mm

M73 P0 R187
M73 Q0 S189
M201 X1000 Y1000 Z1000 E5000 ; sets maximum accelerations, mm/sec^2
M203 X200 Y200 Z12 E120 ; sets maximum feedrates, mm/sec
M204 P1250 R1250 T1250 ; sets acceleration (P, T) and retract acceleration (R), mm/sec^2
M205 X8.00 Y8.00 Z0.40 E1.50 ; sets the jerk limits, mm/sec
M205 S0 T0 ; sets the minimum extruding and travel feed rate, mm/sec
M107
M115 U3.5.1 ; tell printer latest fw version
M83  ; extruder relative mode
M104 S215 ; set extruder temp
M140 S60 ; set bed temp
M190 S60 ; wait for bed temp
M109 S215 ; wait for extruder temp
G28 W ; home all without mesh bed level
G80 ; mesh bed leveling
G1 Y-3.0 F1000.0 ; go outside print area
G92 E0.0
G1 X60.0 E9.0  F1000.0 ; intro line
M73 Q0 S189
M73 P0 R187
G1 X100.0 E12.5  F1000.0 ; intro line
G92 E0.0
M221 S95
M900 K30; Filament gcode
G21 ; set units to millimeters
G90 ; use absolute coordinates
M83 ; use relative distances for extrusion
;BEFORE_LAYER_CHANGE
G92 E0.0
;0.2


G1 E-0.80000 F2100.00000
G1 Z0.600 F10800.000
;AFTER_LAYER_CHANGE
;0.2
G1 X53.615 Y74.243
G1 Z0.200
G1 E0.80000 F2100.00000
M204 S1000
G1 F1200
G1 X54.585 Y74.147 E0.03054
G1 X193.948 Y74.147 E4.36965
G1 X195.641 Y74.152 E0.05307
G1 X196.502 Y74.267 E0.02723
G1 X197.505 Y74.602 E0.03315
G1 X198.417 Y75.136 E0.03315
G1 X199.243 Y75.898 E0.03523
G1 X199.880 Y76.817 E0.03506
G1 X200.300 Y77.853 E0.03506
G1 X200.484 Y78.956 E0.03506
G1 X200.484 Y131.047 E1.63327
G1 X200.393 Y131.760 E0.02253
G1 X200.203 Y132.452 E0.02253
G1 X199.920 Y133.107 E0.02235
G1 X199.545 Y133.719 E0.02253
G1 X199.088 Y134.273 E0.02253
G1 X198.557 Y134.757 E0.02253
G1 X197.963 Y135.162 E0.02253
G1 X197.318 Y135.479 E0.02253
G1 X196.385 Y135.757 E0.03054
G1 X195.415 Y135.853 E0.03054
G1 X54.504 Y135.852 E4.41818
G1 X53.766 Y135.785 E0.02322
G1 X53.046 Y135.611 E0.02322
G1 X52.354 Y135.332 E0.02340
G1 X51.715 Y134.958 E0.02322
G1 X51.137 Y134.495 E0.02322
G1 X50.632 Y133.953 E0.02322
G1 X50.211 Y133.343 E0.02322
G1 X49.883 Y132.679 E0.02322
G1 X49.606 Y131.757 E0.03019
G1 X49.508 Y130.799 E0.03019
G1 X49.514 Y78.992 E1.62437
G1 X49.600 Y78.273 E0.02270
G1 X49.788 Y77.574 E0.02270
G1 X50.070 Y76.913 E0.02253
G1 X50.445 Y76.294 E0.02270
G1 X50.905 Y75.735 E0.02270
G1 X51.439 Y75.246 E0.02270
G1 X52.037 Y74.838 E0.02270
G1 X52.682 Y74.521 E0.02253
G1 X53.558 Y74.260 E0.02866
G1 X52.805 Y74.842 F10800.000
G1 F1200
G1 X54.145 Y74.524 E0.04318
G1 X195.911 Y74.524 E4.44496
G1 X197.134 Y74.822 E0.03947
G1 X197.951 Y75.232 E0.02865
G1 X199.045 Y76.209 E0.04599
G1 X199.787 Y77.421 E0.04457
G1 X200.115 Y78.781 E0.04385
G1 X200.115 Y131.273 E1.64585
G1 X199.806 Y132.532 E0.04067
G1 X199.202 Y133.587 E0.03811
G1 X198.335 Y134.486 E0.03917
G1 X197.195 Y135.158 E0.04149
G1 X195.855 Y135.476 E0.04318
G1 X54.089 Y135.476 E4.44497
G1 X52.829 Y135.167 E0.04067
G1 X51.774 Y134.564 E0.03811
G1 X50.875 Y133.696 E0.03917
G1 X50.203 Y132.556 E0.04149
G1 X49.885 Y131.216 E0.04318
G1 X49.885 Y78.727 E1.64574
G1 X50.194 Y77.468 E0.04067
G1 X50.798 Y76.413 E0.03811
G1 X51.665 Y75.514 E0.03917
G1 X52.754 Y74.872 E0.03961
G1 X52.943 Y75.198 F10800.000
G1 F1200
G1 X54.167 Y74.901 E0.03948
G1 X195.888 Y74.901 E4.44355
G1 X197.022 Y75.183 E0.03664
G1 X197.758 Y75.556 E0.02587
G1 X198.772 Y76.471 E0.04282
G1 X199.428 Y77.540 E0.03933
G1 X199.738 Y78.804 E0.04080
G1 X199.738 Y131.249 E1.64439
G1 X199.447 Y132.414 E0.03766
G1 X198.888 Y133.377 E0.03490
G1 X198.083 Y134.204 E0.03620
G1 X197.030 Y134.818 E0.03822
G1 X195.833 Y135.099 E0.03854
G1 X54.112 Y135.099 E4.44356
M73 Q0 S188
M73 P0 R186
G1 X52.947 Y134.808 E0.03766
G1 X51.984 Y134.250 E0.03490
G1 X51.157 Y133.444 E0.03620
G1 X50.543 Y132.391 E0.03822
G1 X50.262 Y131.194 E0.03854
G1 X50.262 Y78.751 E1.64433
G1 X50.553 Y77.586 E0.03766
G1 X51.112 Y76.623 E0.03490
G1 X51.917 Y75.796 E0.03620
G1 X52.891 Y75.228 E0.03536
G1 X53.134 Y75.523 F10800.000
G1 F1200
G1 X54.188 Y75.278 E0.03394
G1 X195.864 Y75.278 E4.44214
G1 X196.907 Y75.543 E0.03376
G1 X197.562 Y75.879 E0.02309
G1 X198.497 Y76.730 E0.03964
G1 X199.090 Y77.709 E0.03588
G1 X199.361 Y78.826 E0.03602
G1 X199.361 Y131.225 E1.64294
G1 X199.088 Y132.295 E0.03460
G1 X198.576 Y133.165 E0.03167
G1 X197.833 Y133.921 E0.03323
G1 X196.866 Y134.477 E0.03496
G1 X195.812 Y134.722 E0.03394
G1 X54.136 Y134.722 E4.44214
G1 X53.067 Y134.450 E0.03460
G1 X52.196 Y133.937 E0.03167
G1 X51.440 Y133.194 E0.03323
G1 X50.884 Y132.228 E0.03496
G1 X50.639 Y131.173 E0.03394
G1 X50.639 Y78.775 E1.64291
G1 X50.912 Y77.705 E0.03460
G1 X51.424 Y76.835 E0.03167
G1 X52.167 Y76.079 E0.03323
G1 X53.082 Y75.553 E0.03308
G1 X53.267 Y75.880 F10800.000
G1 F1200
G1 X54.209 Y75.655 E0.03036
G1 X195.839 Y75.655 E4.44071
G1 X196.791 Y75.902 E0.03082
G1 X197.365 Y76.202 E0.02031
G1 X198.221 Y76.989 E0.03647
G1 X198.751 Y77.877 E0.03243
G1 X198.984 Y78.848 E0.03129
G1 X198.984 Y131.201 E1.64148
G1 X198.731 Y132.172 E0.03149
G1 X198.265 Y132.951 E0.02844
G1 X197.584 Y133.636 E0.03028
G1 X196.705 Y134.135 E0.03170
G1 X195.791 Y134.345 E0.02940
G1 X54.161 Y134.345 E4.44071
G1 X53.189 Y134.092 E0.03149
G1 X52.410 Y133.626 E0.02844
G1 X51.725 Y132.946 E0.03028
G1 X51.226 Y132.066 E0.03170
G1 X51.016 Y131.152 E0.02940
G1 X51.016 Y78.799 E1.64148
G1 X51.269 Y77.828 E0.03149
G1 X51.735 Y77.049 E0.02844
G1 X52.416 Y76.364 E0.03028
G1 X53.215 Y75.910 E0.02882
G1 X53.454 Y76.207 F10800.000
G1 F1200
G1 X54.230 Y76.032 E0.02492
G1 X195.814 Y76.032 E4.43927
G1 X196.672 Y76.260 E0.02783
G1 X197.165 Y76.523 E0.01752
G1 X197.944 Y77.245 E0.03330
G1 X198.411 Y78.043 E0.02898
G1 X198.606 Y78.869 E0.02664
G1 X198.606 Y131.175 E1.64002
G1 X198.374 Y132.048 E0.02831
G1 X197.955 Y132.734 E0.02520
G1 X197.337 Y133.350 E0.02736
G1 X196.546 Y133.793 E0.02844
G1 X195.770 Y133.968 E0.02492
G1 X54.186 Y133.968 E4.43928
M73 Q1 S187
M73 P1 R185
G1 X53.313 Y133.735 E0.02831
G1 X52.627 Y133.317 E0.02520
G1 X52.011 Y132.699 E0.02736
G1 X51.569 Y131.907 E0.02844
G1 X51.394 Y131.131 E0.02492
G1 X51.394 Y78.825 E1.64004
G1 X51.626 Y77.952 E0.02831
G1 X52.045 Y77.266 E0.02520
G1 X52.663 Y76.650 E0.02736
G1 X53.402 Y76.237 E0.02656
G1 X53.568 Y76.568 F10800.000
G1 F1200
G1 X54.252 Y76.409 E0.02203
G1 X195.788 Y76.409 E4.43777
G1 X196.550 Y76.618 E0.02477
G1 X196.963 Y76.842 E0.01474
G1 X197.665 Y77.500 E0.03016
G1 X198.070 Y78.205 E0.02551
G1 X198.229 Y78.891 E0.02206
G1 X198.229 Y131.149 E1.63854
G1 X198.018 Y131.922 E0.02510
G1 X197.672 Y132.485 E0.02073
G1 X197.127 Y133.036 E0.02430
G1 X196.432 Y133.432 E0.02507
G1 X195.748 Y133.591 E0.02203
G1 X54.212 Y133.591 E4.43777
G1 X53.440 Y133.379 E0.02510
G1 X52.876 Y133.033 E0.02073
G1 X52.325 Y132.488 E0.02430
G1 X51.929 Y131.794 E0.02507
G1 X51.771 Y131.109 E0.02203
G1 X51.771 Y78.851 E1.63854
G1 X51.982 Y78.078 E0.02510
G1 X52.328 Y77.515 E0.02073
G1 X52.873 Y76.964 E0.02430
G1 X53.515 Y76.598 E0.02318
G1 X53.699 Y76.926 F10800.000
G1 F1200
G1 X54.273 Y76.786 E0.01852
G1 X195.761 Y76.786 E4.43628
G1 X196.425 Y76.974 E0.02162
G1 X196.759 Y77.159 E0.01196
G1 X197.383 Y77.753 E0.02703
G1 X197.728 Y78.365 E0.02203
G1 X197.852 Y78.911 E0.01756
G1 X197.852 Y131.123 E1.63704
G1 X197.663 Y131.791 E0.02179
G1 X197.365 Y132.265 E0.01755
G1 X196.880 Y132.750 E0.02151
G1 X196.273 Y133.089 E0.02179
G1 X195.727 Y133.214 E0.01755
G1 X54.239 Y133.214 E4.43628
G1 X53.570 Y133.024 E0.02179
G1 X53.096 Y132.726 E0.01755
G1 X52.611 Y132.241 E0.02151
G1 X52.272 Y131.634 E0.02179
G1 X52.148 Y131.089 E0.01755
G1 X52.148 Y78.877 E1.63704
G1 X52.337 Y78.209 E0.02179
G1 X52.635 Y77.735 E0.01755
G1 X53.120 Y77.250 E0.02151
G1 X53.647 Y76.956 E0.01891
G1 X53.367 Y77.536 F10800.000
G1 F1200
G1 X53.883 Y77.255 E0.01842
G1 X54.293 Y77.163 E0.01318
G1 X195.733 Y77.163 E4.43476
G1 X196.296 Y77.329 E0.01838
G1 X196.550 Y77.474 E0.00919
G1 X197.100 Y78.003 E0.02393
G1 X197.384 Y78.521 E0.01852
G1 X197.475 Y78.932 E0.01318
G1 X197.475 Y131.095 E1.63553
G1 X197.309 Y131.658 E0.01842
G1 X197.084 Y132.013 E0.01318
G1 X196.633 Y132.464 E0.01999
G1 X196.117 Y132.745 E0.01842
G1 X195.707 Y132.837 E0.01318
G1 X54.267 Y132.837 E4.43476
M73 Q1 S186
M73 P1 R184
G1 X53.703 Y132.671 E0.01842
G1 X53.348 Y132.445 E0.01318
G1 X52.897 Y131.994 E0.01999
G1 X52.616 Y131.479 E0.01842
G1 X52.525 Y131.068 E0.01318
G1 X52.525 Y78.905 E1.63553
G1 X52.691 Y78.342 E0.01842
G1 X52.916 Y77.987 E0.01318
G1 X53.324 Y77.579 E0.01811
G1 X53.613 Y77.824 F10800.000
G1 F1200
G1 X54.034 Y77.601 E0.01496
G1 X54.313 Y77.541 E0.00892
G1 X195.704 Y77.541 E4.43322
G1 X196.161 Y77.682 E0.01500
G1 X196.338 Y77.786 E0.00643
G1 X196.815 Y78.251 E0.02089
G1 X197.038 Y78.673 E0.01497
G1 X197.098 Y78.951 E0.00892
G1 X197.098 Y131.065 E1.63399
G1 X196.957 Y131.521 E0.01496
G1 X196.803 Y131.760 E0.00892
G1 X196.387 Y132.176 E0.01845
G1 X195.966 Y132.399 E0.01496
G1 X195.687 Y132.459 E0.00892
G1 X54.296 Y132.459 E4.43322
G1 X53.841 Y132.319 E0.01496
G1 X53.601 Y132.165 E0.00892
G1 X53.185 Y131.749 E0.01845
G1 X52.962 Y131.327 E0.01496
G1 X52.902 Y131.049 E0.00892
G1 X52.902 Y78.935 E1.63399
G1 X53.043 Y78.479 E0.01496
G1 X53.197 Y78.240 E0.00892
G1 X53.570 Y77.866 E0.01657
G1 X54.180 Y77.949 F10800.000
G1 F1200
G1 X54.331 Y77.918 E0.00484
G1 X195.672 Y77.918 E4.43164
G1 X196.019 Y78.031 E0.01144
G1 X196.119 Y78.094 E0.00371
G1 X196.526 Y78.496 E0.01795
G1 X196.689 Y78.819 E0.01134
G1 X196.721 Y78.970 E0.00484
G1 X196.721 Y131.033 E1.63241
G1 X196.608 Y131.378 E0.01136
G1 X196.524 Y131.507 E0.00484
G1 X196.143 Y131.887 E0.01687
G1 X195.820 Y132.051 E0.01136
G1 X195.669 Y132.082 E0.00484
G1 X54.328 Y132.082 E4.43164
G1 X53.984 Y131.969 E0.01136
G1 X53.854 Y131.885 E0.00484
G1 X53.474 Y131.504 E0.01687
G1 X53.311 Y131.181 E0.01136
G1 X53.279 Y131.030 E0.00484
G1 X53.279 Y78.967 E1.63241
G1 X53.392 Y78.622 E0.01136
G1 X53.476 Y78.493 E0.00484
G1 X53.857 Y78.113 E0.01687
G1 X54.127 Y77.976 E0.00948
G1 X54.287 Y78.315 F10800.000
G1 F1200
G1 X54.349 Y78.295 E0.00205
G1 X195.637 Y78.295 E4.42999
G1 X195.864 Y78.376 E0.00757
G1 X196.234 Y78.737 E0.01622
G1 X196.344 Y78.988 E0.00856
G1 X196.344 Y130.998 E1.63075
G1 X196.263 Y131.226 E0.00757
G1 X195.901 Y131.596 E0.01622
G1 X195.651 Y131.705 E0.00856
G1 X54.363 Y131.705 E4.42999
G1 X54.136 Y131.624 E0.00757
G1 X53.766 Y131.263 E0.01622
G1 X53.656 Y131.012 E0.00856
G1 X53.656 Y79.002 E1.63075
M73 Q2 S185
M73 P2 R183
G1 X53.755 Y78.747 E0.00856
G1 X54.099 Y78.404 E0.01522
G1 X54.233 Y78.341 E0.00464
G1 X54.336 Y78.700 F10800.000
G1 F1200
G1 X54.405 Y78.672 E0.00235
G1 X195.595 Y78.672 E4.42691
G1 X195.664 Y78.700 E0.00235
G1 X195.938 Y78.974 E0.01215
G1 X195.967 Y79.044 E0.00235
G1 X195.967 Y130.956 E1.62768
G1 X195.938 Y131.026 E0.00235
G1 X195.664 Y131.300 E0.01215
G1 X195.595 Y131.328 E0.00235
G1 X54.405 Y131.328 E4.42691
G1 X54.336 Y131.300 E0.00235
G1 X54.062 Y131.026 E0.01215
G1 X54.033 Y130.956 E0.00235
G1 X54.033 Y79.044 E1.62768
G1 X54.062 Y78.974 E0.00235
G1 X54.293 Y78.743 E0.01026
G1 X54.521 Y79.049 F10800.000
G1 F1200
G1 X195.479 Y79.049 E4.41966
G1 X195.590 Y79.159 E0.00490
G1 X195.590 Y130.841 E1.62043
G1 X195.479 Y130.951 E0.00490
G1 X54.521 Y130.951 E4.41966
G1 X54.410 Y130.841 E0.00490
G1 X54.410 Y79.159 E1.62043
G1 X54.478 Y79.091 E0.00302
; PURGING FINISHED
G1 X54.809 Y79.447 F10800.000
G1 F1200
G1 X195.191 Y79.447 E4.40160
G1 X195.191 Y130.553 E1.60237
G1 X54.809 Y130.553 E4.40160
G1 X54.809 Y79.507 E1.60049
G1 X55.206 Y79.494 F10800.000
G1 X55.186 Y79.824
G1 F1200
G1 X194.814 Y79.824 E4.37795
M73 Q2 S184
M73 P2 R182
G1 X194.814 Y130.176 E1.57872
G1 X55.186 Y130.176 E4.37795
G1 X55.186 Y79.884 E1.57684
G1 F8640
G1 X58.477 Y79.883 E-0.76000
G1 E-0.04000 F2100.00000
G1 Z0.800 F10800.000
G1 X55.893 Y82.037
G1 Z0.200
G1 E0.80000 F2100.00000
G1 F1200
G1 X194.107 Y82.037 E4.33363
G1 X194.107 Y129.473 E1.48733
G1 X55.893 Y129.473 E4.33363
G1 X55.893 Y82.097 E1.48545
G1 X55.732 Y81.671 F10800.000
G1 X55.515 Y81.660
G1 F1200
G1 X194.485 Y81.660 E4.35728
G1 X194.485 Y129.850 E1.51097
G1 X55.515 Y129.850 E4.35728
G1 X55.515 Y81.720 E1.50909
G1 X56.063 Y81.547 F10800.000
G1 F1200
G1 X55.469 Y80.953 E0.02641
G1 X55.469 Y80.418 E0.01679
G1 X56.428 Y81.377 E0.04261
G1 X56.962 Y81.377 E0.01679
G1 X55.692 Y80.107 E0.05643
G1 X56.226 Y80.107 E0.01679
G1 X57.496 Y81.377 E0.05643
G1 X58.031 Y81.377 E0.01679
G1 X56.761 Y80.107 E0.05643
G1 X57.295 Y80.107 E0.01679
G1 X58.565 Y81.377 E0.05643
G1 X59.100 Y81.377 E0.01679
G1 X57.830 Y80.107 E0.05643
G1 X58.364 Y80.107 E0.01679
G1 X59.634 Y81.377 E0.05643
G1 X60.168 Y81.377 E0.01679
G1 X58.899 Y80.107 E0.05643
G1 X59.433 Y80.107 E0.01679
G1 X60.703 Y81.377 E0.05643
G1 X61.237 Y81.377 E0.01679
G1 X59.967 Y80.107 E0.05643
G1 X60.502 Y80.107 E0.01679
G1 X61.772 Y81.377 E0.05643
G1 X62.306 Y81.377 E0.01679
G1 X61.036 Y80.107 E0.05643
G1 X61.571 Y80.107 E0.01679
G1 X62.841 Y81.377 E0.05643
G1 X63.375 Y81.377 E0.01679
G1 X62.105 Y80.107 E0.05643
G1 X62.640 Y80.107 E0.01679
G1 X63.909 Y81.377 E0.05643
G1 X64.444 Y81.377 E0.01679
G1 X63.174 Y80.107 E0.05643
G1 X63.708 Y80.107 E0.01679
G1 X64.978 Y81.377 E0.05643
G1 X65.513 Y81.377 E0.01679
G1 X64.243 Y80.107 E0.05643
G1 X64.777 Y80.107 E0.01679
G1 X66.047 Y81.377 E0.05643
G1 X66.581 Y81.377 E0.01679
G1 X65.312 Y80.107 E0.05643
G1 X65.846 Y80.107 E0.01679
G1 X67.116 Y81.377 E0.05643
G1 X67.650 Y81.377 E0.01679
G1 X66.380 Y80.107 E0.05643
G1 X66.915 Y80.107 E0.01679
G1 X68.185 Y81.377 E0.05643
G1 X68.719 Y81.377 E0.01679
G1 X67.449 Y80.107 E0.05643
G1 X67.984 Y80.107 E0.01679
G1 X69.254 Y81.377 E0.05643
G1 X69.788 Y81.377 E0.01679
G1 X68.518 Y80.107 E0.05643
G1 X69.053 Y80.107 E0.01679
G1 X70.322 Y81.377 E0.05643
G1 X70.857 Y81.377 E0.01679
G1 X69.587 Y80.107 E0.05643
G1 X70.121 Y80.107 E0.01679
G1 X71.391 Y81.377 E0.05643
G1 X71.926 Y81.377 E0.01679
G1 X70.656 Y80.107 E0.05643
G1 X71.190 Y80.107 E0.01679
G1 X72.460 Y81.377 E0.05643
G1 X72.995 Y81.377 E0.01679
G1 X71.725 Y80.107 E0.05643
G1 X72.259 Y80.107 E0.01679
G1 X73.529 Y81.377 E0.05643
G1 X74.063 Y81.377 E0.01679
G1 X72.793 Y80.107 E0.05643
G1 X73.328 Y80.107 E0.01679
G1 X74.598 Y81.377 E0.05643
G1 X75.132 Y81.377 E0.01679
G1 X73.862 Y80.107 E0.05643
G1 X74.397 Y80.107 E0.01679
G1 X75.667 Y81.377 E0.05643
G1 X76.201 Y81.377 E0.01679
G1 X74.931 Y80.107 E0.05643
G1 X75.466 Y80.107 E0.01679
G1 X76.735 Y81.377 E0.05643
G1 X77.270 Y81.377 E0.01679
G1 X76.000 Y80.107 E0.05643
G1 X76.534 Y80.107 E0.01679
G1 X77.804 Y81.377 E0.05643
G1 X78.339 Y81.377 E0.01679
G1 X77.069 Y80.107 E0.05643
G1 X77.603 Y80.107 E0.01679
G1 X78.873 Y81.377 E0.05643
G1 X79.408 Y81.377 E0.01679
G1 X78.138 Y80.107 E0.05643
G1 X78.672 Y80.107 E0.01679
G1 X79.942 Y81.377 E0.05643
G1 X80.476 Y81.377 E0.01679
G1 X79.207 Y80.107 E0.05643
G1 X79.741 Y80.107 E0.01679
G1 X81.011 Y81.377 E0.05643
G1 X81.545 Y81.377 E0.01679
G1 X80.275 Y80.107 E0.05643
G1 X80.810 Y80.107 E0.01679
G1 X82.080 Y81.377 E0.05643
G1 X82.614 Y81.377 E0.01679
G1 X81.344 Y80.107 E0.05643
G1 X81.879 Y80.107 E0.01679
G1 X83.149 Y81.377 E0.05643
G1 X83.683 Y81.377 E0.01679
G1 X82.413 Y80.107 E0.05643
G1 X82.947 Y80.107 E0.01679
G1 X84.217 Y81.377 E0.05643
G1 X84.752 Y81.377 E0.01679
G1 X83.482 Y80.107 E0.05643
G1 X84.016 Y80.107 E0.01679
G1 X85.286 Y81.377 E0.05643
G1 X85.821 Y81.377 E0.01679
G1 X84.551 Y80.107 E0.05643
G1 X85.085 Y80.107 E0.01679
G1 X86.355 Y81.377 E0.05643
G1 X86.889 Y81.377 E0.01679
G1 X85.620 Y80.107 E0.05643
G1 X86.154 Y80.107 E0.01679
G1 X87.424 Y81.377 E0.05643
G1 X87.958 Y81.377 E0.01679
G1 X86.688 Y80.107 E0.05643
G1 X87.223 Y80.107 E0.01679
G1 X88.493 Y81.377 E0.05643
G1 X89.027 Y81.377 E0.01679
G1 X87.757 Y80.107 E0.05643
G1 X88.292 Y80.107 E0.01679
G1 X89.562 Y81.377 E0.05643
G1 X90.096 Y81.377 E0.01679
G1 X88.826 Y80.107 E0.05643
G1 X89.361 Y80.107 E0.01679
G1 X90.630 Y81.377 E0.05643
G1 X91.165 Y81.377 E0.01679
G1 X89.895 Y80.107 E0.05643
G1 X90.429 Y80.107 E0.01679
