; generated by PrusaSlicer 2.3.1+win64 on 2021-08-03 at 19:00:08 UTC

; 

; external perimeters extrusion width = 0.45mm
; perimeters extrusion width = 0.45mm
; infill extrusion width = 0.45mm
; solid infill extrusion width = 0.45mm
; top infill extrusion width = 0.40mm
; support material extrusion width = 0.35mm
; first layer extrusion width = 0.42mm

M73 P0 R121
M73 Q0 S123
M201 X1000 Y1000 Z1000 E5000 ; sets maximum accelerations, mm/sec^2
M203 X200 Y200 Z12 E120 ; sets maximum feedrates, mm/sec
M204 P1250 R1250 T1250 ; sets acceleration (P, T) and retract acceleration (R), mm/sec^2
M205 X8.00 Y8.00 Z0.40 E1.50 ; sets the jerk limits, mm/sec
M205 S0 T0 ; sets the minimum extruding and travel feed rate, mm/sec
M107
;TYPE:Custom
M862.3 P "MK3S" ; printer model check
M862.1 P0.4 ; nozzle diameter check
M115 U3.8.0 ; tell printer latest fw version
G90 ; use absolute coordinates
M83 ; extruder relative mode
M104 S215 ; set extruder temp
M140 S60 ; set bed temp
M190 S60 ; wait for bed temp
M109 S215 ; wait for extruder temp
G28 W ; home all without mesh bed level
G80 ; mesh bed leveling
G1 Y-3.0 F1000.0 ; go outside print area
G92 E0.0
G1 X60.0 E9.0 F1000.0 ; intro line
G1 X100.0 E12.5 F1000.0 ; intro line
G92 E0.0
M221 S95
G21 ; set units to millimeters
G90 ; use absolute coordinates
M83 ; use relative distances for extrusion
M900 K0.05 ; Filament gcode LA 1.5
M900 K30 ; Filament gcode LA 1.0
;LAYER_CHANGE
;Z:0.2
;HEIGHT:0.2
;BEFORE_LAYER_CHANGE
G92 E0.0
;0.2


G1 E-0.80000 F3600.000
G1 Z0.600 F10800.000
;AFTER_LAYER_CHANGE
;0.2
G1 X94.763 Y33.010
G1 Z0.200
G1 E0.80000 F3600.000
M204 S1000
;TYPE:Skirt
;WIDTH:0.42
G1 F1200.000
G1 X95.389 Y31.831 E0.04186
G1 X96.329 Y30.856 E0.04247
G1 X97.485 Y30.187 E0.04187
G1 X98.782 Y29.885 E0.04174
G1 X151.249 Y29.889 E1.64507
G1 X152.197 Y30.073 E0.03029
G1 X153.107 Y30.464 E0.03104
G1 X154.368 Y31.528 E0.05173
G1 X155.121 Y32.720 E0.04423
G1 X155.476 Y34.142 E0.04595
G1 X155.476 Y175.843 E4.44293
G1 X155.237 Y176.990 E0.03673
G1 X154.611 Y178.169 E0.04186
G1 X153.671 Y179.144 E0.04247
G1 X152.515 Y179.813 E0.04187
G1 X151.218 Y180.115 E0.04174
G1 X98.796 Y180.115 E1.64368
G1 X97.649 Y179.876 E0.03673
G1 X96.470 Y179.250 E0.04186
G1 X95.495 Y178.310 E0.04247
G1 X94.826 Y177.154 E0.04187
G1 X94.524 Y175.857 E0.04174
G1 X94.524 Y34.157 E4.44291
G1 X94.751 Y33.069 E0.03485
G1 X95.109 Y33.161 F10800.000
G1 F1200.000
G1 X95.680 Y32.071 E0.03857
G1 X96.544 Y31.167 E0.03920
G1 X97.600 Y30.547 E0.03841
G1 X98.804 Y30.262 E0.03879
G1 X151.230 Y30.266 E1.64379
G1 X152.104 Y30.439 E0.02791
G1 X152.930 Y30.798 E0.02826
G1 X154.100 Y31.795 E0.04821
G1 X154.785 Y32.894 E0.04059
G1 X155.099 Y34.165 E0.04105
G1 X155.099 Y175.824 E4.44164
M73 Q0 S122
G1 X154.891 Y176.839 E0.03248
G1 X154.320 Y177.929 E0.03857
G1 X153.456 Y178.833 E0.03920
G1 X152.400 Y179.453 E0.03841
G1 X151.196 Y179.738 E0.03878
G1 X98.814 Y179.738 E1.64239
G1 X97.800 Y179.529 E0.03248
G1 X96.710 Y178.958 E0.03857
G1 X95.806 Y178.095 E0.03920
G1 X95.186 Y177.039 E0.03841
G1 X94.901 Y175.835 E0.03878
G1 X94.901 Y34.176 E4.44162
G1 X95.097 Y33.220 E0.03060
G1 X95.466 Y33.297 F10800.000
G1 F1200.000
G1 X96.000 Y32.273 E0.03622
G1 X96.796 Y31.449 E0.03591
G1 X97.764 Y30.888 E0.03509
G1 X98.825 Y30.639 E0.03417
G1 X151.211 Y30.643 E1.64251
G1 X152.008 Y30.804 E0.02550
G1 X152.751 Y31.131 E0.02547
G1 X153.831 Y32.061 E0.04468
G1 X154.448 Y33.065 E0.03695
G1 X154.722 Y34.187 E0.03621
G1 X154.722 Y175.804 E4.44031
M73 P0 R120
G1 X154.527 Y176.735 E0.02981
G1 X154.000 Y177.727 E0.03525
G1 X153.204 Y178.551 E0.03591
G1 X152.236 Y179.112 E0.03509
G1 X151.175 Y179.361 E0.03417
G1 X98.834 Y179.361 E1.64110
G1 X97.904 Y179.166 E0.02981
G1 X96.911 Y178.638 E0.03525
G1 X96.087 Y177.843 E0.03591
G1 X95.526 Y176.874 E0.03509
G1 X95.278 Y175.813 E0.03417
G1 X95.278 Y34.196 E4.44033
G1 X95.454 Y33.356 E0.02691
G1 X95.816 Y33.430 F10800.000
G1 F1200.000
G1 X96.292 Y32.513 E0.03240
G1 X97.011 Y31.759 E0.03264
G1 X97.880 Y31.247 E0.03164
G1 X98.848 Y31.016 E0.03120
G1 X151.191 Y31.020 E1.64119
G1 X151.911 Y31.169 E0.02304
G1 X152.571 Y31.464 E0.02267
G1 X153.561 Y32.325 E0.04114
G1 X154.110 Y33.234 E0.03331
G1 X154.345 Y34.209 E0.03143
G1 X154.345 Y175.786 E4.43904
M73 P1 R120
M73 Q1 S122
G1 X154.181 Y176.584 E0.02556
G1 X153.708 Y177.487 E0.03196
G1 X152.989 Y178.241 E0.03264
G1 X152.120 Y178.753 E0.03164
G1 X151.152 Y178.984 E0.03119
G1 X98.853 Y178.984 E1.63980
G1 X98.054 Y178.819 E0.02556
G1 X97.151 Y178.347 E0.03196
G1 X96.398 Y177.628 E0.03264
G1 X95.886 Y176.759 E0.03164
G1 X95.655 Y175.791 E0.03119
G1 X95.655 Y34.214 E4.43903
G1 X95.804 Y33.489 E0.02322
G1 X96.166 Y33.567 F10800.000
G1 F1200.000
G1 X96.613 Y32.712 E0.03024
G1 X97.262 Y32.041 E0.02927
G1 X98.044 Y31.588 E0.02834
G1 X98.869 Y31.394 E0.02658
G1 X151.172 Y31.397 E1.63991
G1 X151.776 Y31.521 E0.01933
G1 X152.391 Y31.796 E0.02111
G1 X153.288 Y32.588 E0.03753
G1 X153.771 Y33.401 E0.02966
G1 X153.968 Y34.231 E0.02672
G1 X153.968 Y175.767 E4.43778
M73 Q1 S121
G1 X153.834 Y176.433 E0.02130
G1 X153.387 Y177.288 E0.03024
G1 X152.738 Y177.959 E0.02927
G1 X151.956 Y178.412 E0.02834
G1 X151.131 Y178.606 E0.02658
G1 X98.871 Y178.606 E1.63855
G1 X98.205 Y178.473 E0.02130
G1 X97.351 Y178.025 E0.03024
G1 X96.680 Y177.376 E0.02927
G1 X96.227 Y176.594 E0.02834
G1 X96.032 Y175.769 E0.02658
G1 X96.032 Y34.233 E4.43778
G1 X96.154 Y33.625 E0.01942
G1 X96.523 Y33.702 F10800.000
G1 F1200.000
G1 X96.932 Y32.915 E0.02781
G1 X97.512 Y32.325 E0.02592
G1 X98.206 Y31.929 E0.02506
G1 X98.891 Y31.771 E0.02203
G1 X151.152 Y31.774 E1.63861
G1 X151.676 Y31.886 E0.01681
G1 X152.208 Y32.127 E0.01829
G1 X153.014 Y32.848 E0.03391
G1 X153.431 Y33.565 E0.02602
G1 X153.591 Y34.252 E0.02211
G1 X153.591 Y175.748 E4.43650
M73 P1 R119
G1 X153.470 Y176.330 E0.01863
G1 X153.068 Y177.085 E0.02685
G1 X152.488 Y177.675 E0.02592
G1 X151.794 Y178.071 E0.02506
G1 X151.109 Y178.229 E0.02203
G1 X98.891 Y178.229 E1.63727
G1 X98.309 Y178.109 E0.01863
G1 X97.553 Y177.706 E0.02685
G1 X96.964 Y177.127 E0.02592
G1 X96.568 Y176.432 E0.02506
G1 X96.409 Y175.748 E0.02203
G1 X96.409 Y34.252 E4.43650
G1 X96.511 Y33.760 E0.01576
G1 X96.879 Y33.839 F10800.000
G1 F1200.000
G1 X96.892 Y33.777 E0.00198
G1 X97.250 Y33.120 E0.02345
G1 X97.759 Y32.611 E0.02257
G1 X98.366 Y32.272 E0.02179
G1 X98.911 Y32.148 E0.01756
G1 X151.131 Y32.151 E1.63730
G1 X151.574 Y32.249 E0.01423
G1 X152.022 Y32.456 E0.01548
G1 X152.737 Y33.105 E0.03028
G1 X153.089 Y33.726 E0.02236
G1 X153.214 Y34.273 E0.01758
G1 X153.214 Y175.727 E4.43521
G1 X153.108 Y176.223 E0.01589
G1 X152.750 Y176.880 E0.02345
G1 X152.241 Y177.389 E0.02257
G1 X151.634 Y177.728 E0.02179
G1 X151.089 Y177.852 E0.01755
G1 X98.912 Y177.852 E1.63598
G1 X98.416 Y177.747 E0.01589
G1 X97.759 Y177.389 E0.02345
G1 X97.250 Y176.880 E0.02257
G1 X96.911 Y176.273 E0.02179
G1 X96.786 Y175.727 E0.01755
G1 X96.786 Y34.273 E4.43521
M73 P2 R119
M73 Q2 S121
G1 X96.866 Y33.897 E0.01203
G1 X97.229 Y33.972 F10800.000
G1 F1200.000
G1 X97.537 Y33.366 E0.02132
G1 X98.006 Y32.897 E0.02078
G1 X98.521 Y32.616 E0.01842
G1 X98.932 Y32.525 E0.01318
G1 X151.108 Y32.528 E1.63596
G1 X151.468 Y32.611 E0.01157
G1 X151.834 Y32.784 E0.01268
G1 X152.457 Y33.360 E0.02663
G1 X152.745 Y33.883 E0.01870
G1 X152.837 Y34.293 E0.01318
G1 X152.837 Y175.709 E4.43399
M73 Q2 S120
G1 X152.762 Y176.071 E0.01161
G1 X152.463 Y176.634 E0.01997
G1 X151.994 Y177.103 E0.02078
G1 X151.479 Y177.384 E0.01842
G1 X151.068 Y177.475 E0.01318
G1 X98.930 Y177.475 E1.63476
G1 X98.567 Y177.400 E0.01161
G1 X98.005 Y177.102 E0.01997
G1 X97.536 Y176.633 E0.02078
G1 X97.255 Y176.117 E0.01842
G1 X97.163 Y175.707 E0.01318
G1 X97.163 Y34.291 E4.43399
G1 X97.217 Y34.031 E0.00833
G1 X97.584 Y34.111 F10800.000
G1 F1200.000
G1 X97.601 Y34.034 E0.00245
G1 X97.824 Y33.613 E0.01496
G1 X98.251 Y33.185 E0.01896
G1 X98.673 Y32.962 E0.01496
G1 X98.951 Y32.902 E0.00892
G1 X151.087 Y32.905 E1.63466
G1 X151.325 Y32.961 E0.00767
G1 X151.645 Y33.112 E0.01109
G1 X152.175 Y33.612 E0.02284
G1 X152.399 Y34.035 E0.01501
G1 X152.459 Y34.313 E0.00892
G1 X152.459 Y175.687 E4.43271
M73 P2 R118
G1 X152.399 Y175.966 E0.00892
G1 X152.176 Y176.387 E0.01496
G1 X151.749 Y176.815 E0.01896
G1 X151.327 Y177.038 E0.01496
G1 X151.049 Y177.098 E0.00892
G1 X98.951 Y177.098 E1.63348
G1 X98.673 Y177.038 E0.00892
G1 X98.251 Y176.815 E0.01496
G1 X97.824 Y176.387 E0.01896
G1 X97.601 Y175.966 E0.01496
G1 X97.541 Y175.687 E0.00892
G1 X97.541 Y34.313 E4.43271
G1 X97.572 Y34.170 E0.00459
G1 X97.936 Y34.246 F10800.000
G1 F1200.000
G1 X97.949 Y34.180 E0.00210
G1 X98.113 Y33.857 E0.01136
G1 X98.496 Y33.474 E0.01697
G1 X98.819 Y33.311 E0.01136
G1 X98.970 Y33.279 E0.00484
G1 X151.064 Y33.283 E1.63338
G1 X151.181 Y33.310 E0.00377
G1 X151.455 Y33.439 E0.00947
G1 X151.888 Y33.858 E0.01890
G1 X152.051 Y34.180 E0.01131
G1 X152.082 Y34.331 E0.00484
G1 X152.082 Y175.669 E4.43153
G1 X152.051 Y175.820 E0.00484
G1 X151.887 Y176.143 E0.01136
G1 X151.504 Y176.526 E0.01697
G1 X151.181 Y176.689 E0.01136
G1 X151.030 Y176.721 E0.00484
G1 X98.970 Y176.721 E1.63230
G1 X98.819 Y176.689 E0.00484
G1 X98.496 Y176.526 E0.01136
G1 X98.113 Y176.143 E0.01697
G1 X97.949 Y175.820 E0.01136
G1 X97.918 Y175.669 E0.00484
G1 X97.923 Y34.304 E4.43237
G1 X98.295 Y34.349 F10800.000
G1 F1200.000
G1 X98.404 Y34.099 E0.00856
G1 X98.737 Y33.766 E0.01477
G1 X98.988 Y33.656 E0.00856
G1 X151.012 Y33.656 E1.63120
G1 X151.263 Y33.766 E0.00856
G1 X151.596 Y34.099 E0.01477
G1 X151.699 Y34.317 E0.00757
G1 X151.705 Y175.651 E4.43143
M73 P3 R118
M73 Q2 S119
G1 X151.596 Y175.901 E0.00856
G1 X151.263 Y176.234 E0.01477
G1 X151.044 Y176.338 E0.00757
G1 X98.988 Y176.344 E1.63220
G1 X98.737 Y176.234 E0.00856
G1 X98.404 Y175.901 E0.01477
G1 X98.301 Y175.683 E0.00757
G1 X98.295 Y34.409 E4.42955
M73 Q3 S119
G1 X98.672 Y34.409 F10800.000
G1 F1200.000
G1 X98.700 Y34.336 E0.00247
G1 X98.974 Y34.062 E0.01215
G1 X99.044 Y34.033 E0.00235
G1 X150.956 Y34.033 E1.62768
G1 X151.026 Y34.062 E0.00235
G1 X151.300 Y34.336 E0.01215
G1 X151.328 Y34.405 E0.00235
G1 X151.328 Y175.595 E4.42691
M73 P3 R117
G1 X151.300 Y175.664 E0.00235
G1 X151.026 Y175.938 E0.01215
G1 X150.956 Y175.967 E0.00235
G1 X99.044 Y175.967 E1.62768
G1 X98.974 Y175.938 E0.00235
G1 X98.700 Y175.664 E0.01215
G1 X98.672 Y175.595 E0.00235
G1 X98.672 Y34.469 E4.42491
G1 X99.049 Y34.521 F10800.000
G1 F1200.000
G1 X99.159 Y34.410 E0.00490
G1 X150.841 Y34.410 E1.62043
G1 X150.951 Y34.521 E0.00490
G1 X150.951 Y175.479 E4.41967
G1 X150.841 Y175.590 E0.00490
G1 X99.159 Y175.590 E1.62043
G1 X99.049 Y175.479 E0.00490
G1 X99.049 Y34.581 E4.41778
;WIPE_START
G1 F8640.000
G1 X99.159 Y34.410 E-0.08039
G1 X100.876 Y34.410 E-0.67961
;WIPE_END
G1 E-0.04000 F3600.000
G1 Z0.800 F10800.000
G1 X100.150 Y35.515
G1 Z0.200
G1 E0.80000 F3600.000
;TYPE:Perimeter
G1 F1200.000
G1 X148.340 Y35.515 E1.51097
G1 X148.340 Y174.485 E4.35728
M73 Q3 S118
G1 X100.150 Y174.485 E1.51097
G1 X100.150 Y35.575 E4.35540
;WIPE_START
G1 F8640.000
G1 X102.070 Y35.573 E-0.76000
;WIPE_END
G1 E-0.04000 F3600.000
G1 Z0.800 F10800.000
G1 X147.963 Y77.829
G1 Z0.200
G1 E0.80000 F3600.000
;TYPE:External perimeter
G1 F1200.000
G1 X147.963 Y174.107 E3.01876
M73 P4 R117
G1 X100.527 Y174.107 E1.48733
G1 X100.527 Y35.893 E4.33363
M73 P4 R116
M73 Q4 S118
G1 X147.963 Y35.893 E1.48733
G1 X147.963 Y77.769 E1.31299
G1 X148.351 Y77.924 F10800.000
;WIPE_START
G1 F8640.000
G1 X147.963 Y79.689 E-0.76000
;WIPE_END
G1 E-0.04000 F3600.000
G1 Z0.800 F10800.000
G1 X99.824 Y149.352
G1 Z0.200
G1 E0.80000 F3600.000
;TYPE:Perimeter
G1 F1200.000
G1 X99.824 Y35.186 E3.57960
G1 X150.176 Y35.186 E1.57872
G1 X150.176 Y174.814 E4.37795
G1 X99.824 Y174.814 E1.57872
G1 X99.824 Y149.412 E0.79647
G1 X99.447 Y149.412 F10800.000
;TYPE:External perimeter
G1 F1200.000
G1 X99.447 Y34.809 E3.59331
G1 X150.553 Y34.809 E1.60237
G1 X150.553 Y175.191 E4.40160
M73 Q4 S117
G1 X99.447 Y175.191 E1.60237
G1 X99.447 Y149.472 E0.80641
G1 X99.699 Y149.101 F10800.000
;WIPE_START
G1 F8640.000
G1 X99.447 Y147.552 E-0.76000
;WIPE_END
G1 E-0.04000 F3600.000
G1 Z0.800 F10800.000
G1 X150.062 Y36.063
G1 Z0.200
G1 E0.80000 F3600.000
;TYPE:Solid infill
;WIDTH:0.420812
G1 F1200.000
G1 X149.468 Y35.469 E0.02641
G1 X148.934 Y35.469 E0.01679
G1 X149.893 Y36.428 E0.04262
G1 X149.893 Y36.962 E0.01679
G1 X148.623 Y35.692 E0.05643
G1 X148.623 Y36.227 E0.01679
G1 X149.893 Y37.496 E0.05643
G1 X149.893 Y38.031 E0.01679
G1 X148.623 Y36.761 E0.05643
G1 X148.623 Y37.295 E0.01679
G1 X149.893 Y38.565 E0.05643
G1 X149.893 Y39.100 E0.01679
G1 X148.623 Y37.830 E0.05643
G1 X148.623 Y38.364 E0.01679
G1 X149.893 Y39.634 E0.05643
G1 X149.893 Y40.169 E0.01679
G1 X148.623 Y38.899 E0.05643
G1 X148.623 Y39.433 E0.01679
G1 X149.893 Y40.703 E0.05643
G1 X149.893 Y41.237 E0.01679
G1 X148.623 Y39.968 E0.05643
G1 X148.623 Y40.502 E0.01679
G1 X149.893 Y41.772 E0.05643
G1 X149.893 Y42.306 E0.01679
G1 X148.623 Y41.036 E0.05643
G1 X148.623 Y41.571 E0.01679
G1 X149.893 Y42.841 E0.05643
G1 X149.893 Y43.375 E0.01679
G1 X148.623 Y42.105 E0.05643
G1 X148.623 Y42.640 E0.01679
G1 X149.893 Y43.909 E0.05643
G1 X149.893 Y44.444 E0.01679
G1 X148.623 Y43.174 E0.05643
G1 X148.623 Y43.708 E0.01679
G1 X149.893 Y44.978 E0.05643
G1 X149.893 Y45.513 E0.01679
G1 X148.623 Y44.243 E0.05643
G1 X148.623 Y44.777 E0.01679
G1 X149.893 Y46.047 E0.05643
G1 X149.893 Y46.582 E0.01679
G1 X148.623 Y45.312 E0.05643
G1 X148.623 Y45.846 E0.01679
G1 X149.893 Y47.116 E0.05643
G1 X149.893 Y47.650 E0.01679
G1 X148.623 Y46.381 E0.05643
G1 X148.623 Y46.915 E0.01679
G1 X149.893 Y48.185 E0.05643
G1 X149.893 Y48.719 E0.01679
G1 X148.623 Y47.449 E0.05643
G1 X148.623 Y47.984 E0.01679
G1 X149.893 Y49.254 E0.05643
G1 X149.893 Y49.788 E0.01679
G1 X148.623 Y48.518 E0.05643
G1 X148.623 Y49.053 E0.01679
G1 X149.893 Y50.323 E0.05643
G1 X149.893 Y50.857 E0.01679
G1 X148.623 Y49.587 E0.05643
G1 X148.623 Y50.122 E0.01679
G1 X149.893 Y51.391 E0.05643
G1 X149.893 Y51.926 E0.01679
G1 X148.623 Y50.656 E0.05643
G1 X148.623 Y51.190 E0.01679
G1 X149.893 Y52.460 E0.05643
G1 X149.893 Y52.995 E0.01679
G1 X148.623 Y51.725 E0.05643
G1 X148.623 Y52.259 E0.01679
G1 X149.893 Y53.529 E0.05643
G1 X149.893 Y54.063 E0.01679
G1 X148.623 Y52.794 E0.05643
G1 X148.623 Y53.328 E0.01679
G1 X149.893 Y54.598 E0.05643
G1 X149.893 Y55.132 E0.01679
G1 X148.623 Y53.862 E0.05643
G1 X148.623 Y54.397 E0.01679
G1 X149.893 Y55.667 E0.05643
G1 X149.893 Y56.201 E0.01679
G1 X148.623 Y54.931 E0.05643
G1 X148.623 Y55.466 E0.01679
G1 X149.893 Y56.736 E0.05643
G1 X149.893 Y57.270 E0.01679
G1 X148.623 Y56.000 E0.05643
G1 X148.623 Y56.535 E0.01679
G1 X149.893 Y57.804 E0.05643
G1 X149.893 Y58.339 E0.01679
G1 X148.623 Y57.069 E0.05643
G1 X148.623 Y57.603 E0.01679
G1 X149.893 Y58.873 E0.05643
G1 X149.893 Y59.408 E0.01679
G1 X148.623 Y58.138 E0.05643
G1 X148.623 Y58.672 E0.01679
G1 X149.893 Y59.942 E0.05643
G1 X149.893 Y60.476 E0.01679
G1 X148.623 Y59.207 E0.05643
G1 X148.623 Y59.741 E0.01679
G1 X149.893 Y61.011 E0.05643
G1 X149.893 Y61.545 E0.01679
G1 X148.623 Y60.275 E0.05643
G1 X148.623 Y60.810 E0.01679
G1 X149.893 Y62.080 E0.05643
G1 X149.893 Y62.614 E0.01679
G1 X148.623 Y61.344 E0.05643
G1 X148.623 Y61.879 E0.01679
G1 X149.893 Y63.149 E0.05643
G1 X149.893 Y63.683 E0.01679
G1 X148.623 Y62.413 E0.05643
G1 X148.623 Y62.948 E0.01679
G1 X149.893 Y64.217 E0.05643
G1 X149.893 Y64.752 E0.01679
G1 X148.623 Y63.482 E0.05643
G1 X148.623 Y64.016 E0.01679
G1 X149.893 Y65.286 E0.05643
G1 X149.893 Y65.821 E0.01679
G1 X148.623 Y64.551 E0.05643
G1 X148.623 Y65.085 E0.01679
G1 X149.893 Y66.355 E0.05643
G1 X149.893 Y66.890 E0.01679
G1 X148.623 Y65.620 E0.05643
G1 X148.623 Y66.154 E0.01679
G1 X149.893 Y67.424 E0.05643
G1 X149.893 Y67.958 E0.01679
G1 X148.623 Y66.689 E0.05643
G1 X148.623 Y67.223 E0.01679
G1 X149.893 Y68.493 E0.05643
G1 X149.893 Y69.027 E0.01679
G1 X148.623 Y67.757 E0.05643
G1 X148.623 Y68.292 E0.01679
G1 X149.893 Y69.562 E0.05643
G1 X149.893 Y70.096 E0.01679
G1 X148.623 Y68.826 E0.05643
G1 X148.623 Y69.361 E0.01679
G1 X149.893 Y70.630 E0.05643
G1 X149.893 Y71.165 E0.01679
G1 X148.623 Y69.895 E0.05643
G1 X148.623 Y70.429 E0.01679
G1 X149.893 Y71.699 E0.05643
