; generated by PrusaSlicer 2.3.1+win64 on 2021-08-18 at 16:50:23 UTC

; 

; external perimeters extrusion width = 0.45mm
; perimeters extrusion width = 0.45mm
; infill extrusion width = 0.45mm
; solid infill extrusion width = 0.45mm
; top infill extrusion width = 0.40mm
; support material extrusion width = 0.35mm
; first layer extrusion width = 0.42mm

M73 P0 R18
M73 Q0 S18
M201 X1000 Y1000 Z1000 E5000 ; sets maximum accelerations, mm/sec^2
M203 X200 Y200 Z12 E120 ; sets maximum feedrates, mm/sec
M204 P1250 R1250 T1250 ; sets acceleration (P, T) and retract acceleration (R), mm/sec^2
M205 X8.00 Y8.00 Z0.40 E1.50 ; sets the jerk limits, mm/sec
M205 S0 T0 ; sets the minimum extruding and travel feed rate, mm/sec
M107
;TYPE:Custom
M862.3 P "MK3S" ; printer model check
M862.1 P0.4 ; nozzle diameter check
M115 U3.8.0 ; tell printer latest fw version
G90 ; use absolute coordinates
M83 ; extruder relative mode
M104 S215 ; set extruder temp
M140 S60 ; set bed temp
M190 S60 ; wait for bed temp
M109 S215 ; wait for extruder temp
G28 W ; home all without mesh bed level
G80 ; mesh bed leveling
G1 Y-3.0 F1000.0 ; go outside print area
G92 E0.0
G1 X60.0 E9.0 F1000.0 ; intro line
M73 P0 R17
G1 X100.0 E12.5 F1000.0 ; intro line
G92 E0.0
M221 S95
G21 ; set units to millimeters
G90 ; use absolute coordinates
M83 ; use relative distances for extrusion
M900 K0.05 ; Filament gcode LA 1.5
M900 K30 ; Filament gcode LA 1.0
;LAYER_CHANGE
;Z:0.2
;HEIGHT:0.2
;BEFORE_LAYER_CHANGE
G92 E0.0
;0.2


M73 Q0 S17
G1 E-0.80000 F2100.000
G1 Z0.600 F10800.000
;AFTER_LAYER_CHANGE
;0.2
G1 X135.661 Y110.381
G1 Z0.200
G1 E0.80000 F2100.000
M204 S1000
;TYPE:External perimeter
;WIDTH:0.42
G1 F1200.000
G1 X135.713 Y110.908 E0.01662
G1 X135.661 Y111.437 E0.01666
G1 X135.507 Y111.945 E0.01666
G1 X135.256 Y112.414 E0.01666
G1 X134.919 Y112.825 E0.01666
G1 X134.509 Y113.162 E0.01666
G1 X134.040 Y113.413 E0.01666
G1 X133.531 Y113.567 E0.01666
G1 X133.002 Y113.619 E0.01666
G1 X132.473 Y113.567 E0.01666
G1 X131.965 Y113.413 E0.01666
G1 X131.496 Y113.162 E0.01666
G1 X131.085 Y112.825 E0.01666
G1 X130.748 Y112.414 E0.01666
G1 X130.498 Y111.945 E0.01666
G1 X130.343 Y111.437 E0.01666
G1 X130.291 Y110.908 E0.01666
G1 X130.343 Y110.379 E0.01666
G1 X130.498 Y109.871 E0.01666
G1 X130.748 Y109.402 E0.01666
G1 X131.085 Y108.991 E0.01666
G1 X131.496 Y108.654 E0.01666
G1 X131.965 Y108.403 E0.01666
G1 X132.473 Y108.249 E0.01666
G1 X132.977 Y108.199 E0.01586
G1 X133.530 Y108.249 E0.01742
G1 X134.040 Y108.403 E0.01669
G1 X134.509 Y108.654 E0.01666
G1 X134.919 Y108.991 E0.01666
G1 X135.256 Y109.402 E0.01666
G1 X135.507 Y109.871 E0.01666
G1 X135.644 Y110.323 E0.01483
G1 X136.040 Y110.509 F10800.000
G1 E-0.80000 F2100.000
G1 Z0.800 F10800.000
G1 X135.680 Y102.734
G1 Z0.200
G1 E0.80000 F2100.000
G1 F1200.000
G1 X135.661 Y102.922 E0.00591
G1 X135.507 Y103.430 E0.01666
G1 X135.256 Y103.899 E0.01666
G1 X134.919 Y104.310 E0.01666
G1 X134.509 Y104.647 E0.01666
G1 X134.040 Y104.898 E0.01666
G1 X133.531 Y105.052 E0.01666
G1 X133.002 Y105.104 E0.01666
G1 X132.473 Y105.052 E0.01666
G1 X131.965 Y104.898 E0.01666
G1 X131.496 Y104.647 E0.01666
G1 X131.085 Y104.310 E0.01666
G1 X130.748 Y103.899 E0.01666
G1 X130.498 Y103.430 E0.01666
G1 X130.343 Y102.922 E0.01666
G1 X130.291 Y102.393 E0.01666
G1 X130.343 Y101.864 E0.01666
G1 X130.498 Y101.356 E0.01666
G1 X130.748 Y100.887 E0.01666
G1 X131.085 Y100.476 E0.01666
G1 X131.496 Y100.139 E0.01666
G1 X131.965 Y99.888 E0.01666
G1 X132.473 Y99.734 E0.01666
G1 X132.977 Y99.685 E0.01586
G1 X133.530 Y99.734 E0.01742
G1 X134.040 Y99.888 E0.01669
G1 X134.509 Y100.139 E0.01666
G1 X134.919 Y100.476 E0.01666
G1 X135.256 Y100.887 E0.01666
G1 X135.507 Y101.356 E0.01666
G1 X135.661 Y101.864 E0.01666
G1 X135.713 Y102.393 E0.01666
G1 X135.686 Y102.675 E0.00887
G1 X135.837 Y102.838 F10800.000
G1 E-0.80000 F2100.000
G1 Z0.800 F10800.000
G1 X123.087 Y101.368
G1 Z0.200
G1 E0.80000 F2100.000
;TYPE:Perimeter
G1 F1200.000
G1 X123.087 Y94.291 E0.22189
M73 Q1 S17
G1 X120.047 Y94.291 E0.09532
G1 X120.088 Y93.878 E0.01301
G1 X120.047 Y93.465 E0.01301
G1 X123.087 Y93.465 E0.09532
M73 P1 R17
G1 X123.087 Y66.038 E0.85997
G1 X126.913 Y66.038 E0.11996
G1 X126.913 Y93.465 E0.85997
G1 X129.953 Y93.465 E0.09532
G1 X129.912 Y93.878 E0.01301
G1 X129.953 Y94.291 E0.01301
G1 X126.913 Y94.291 E0.09532
G1 X126.913 Y101.980 E0.24109
G1 X129.953 Y101.980 E0.09532
G1 X129.912 Y102.393 E0.01301
G1 X129.953 Y102.806 E0.01301
G1 X126.913 Y102.806 E0.09532
G1 X126.913 Y110.495 E0.24109
G1 X129.953 Y110.495 E0.09532
G1 X129.912 Y110.908 E0.01301
G1 X129.953 Y111.321 E0.01301
G1 X126.913 Y111.321 E0.09532
G1 X126.913 Y119.010 E0.24109
G1 X129.953 Y119.010 E0.09532
G1 X129.912 Y119.423 E0.01301
G1 X129.953 Y119.836 E0.01301
G1 X126.913 Y119.836 E0.09532
G1 X126.913 Y127.525 E0.24109
G1 X129.945 Y127.525 E0.09508
G1 X129.905 Y127.938 E0.01301
G1 X129.945 Y128.351 E0.01301
G1 X126.913 Y128.351 E0.09508
G1 X126.913 Y135.136 E0.21276
G1 X137.413 Y135.136 E0.32922
G1 X137.413 Y143.962 E0.27673
G1 X112.587 Y143.962 E0.77840
G1 X112.587 Y135.136 E0.27673
G1 X123.087 Y135.136 E0.32922
G1 X123.087 Y128.351 E0.21276
M73 Q2 S17
G1 X120.055 Y128.351 E0.09508
G1 X120.095 Y127.938 E0.01301
G1 X120.055 Y127.525 E0.01301
M73 P2 R17
G1 X123.087 Y127.525 E0.09508
G1 X123.087 Y119.836 E0.24109
G1 X120.047 Y119.836 E0.09532
G1 X120.088 Y119.423 E0.01301
G1 X120.047 Y119.010 E0.01301
G1 X123.087 Y119.010 E0.09532
G1 X123.087 Y111.321 E0.24109
G1 X120.047 Y111.321 E0.09532
G1 X120.088 Y110.908 E0.01301
G1 X120.047 Y110.495 E0.01301
G1 X123.087 Y110.495 E0.09532
G1 X123.087 Y102.806 E0.24109
G1 X120.047 Y102.806 E0.09532
G1 X120.088 Y102.393 E0.01301
G1 X120.047 Y101.980 E0.01301
G1 X123.087 Y101.980 E0.09532
G1 X123.087 Y101.428 E0.01731
G1 E-0.80000 F2100.000
G1 Z0.800 F10800.000
G1 X130.748 Y95.384
G1 Z0.200
G1 E0.80000 F2100.000
;TYPE:External perimeter
G1 F1200.000
G1 X130.498 Y94.916 E0.01666
G1 X130.343 Y94.407 E0.01666
G1 X130.291 Y93.878 E0.01666
G1 X130.343 Y93.349 E0.01666
G1 X130.498 Y92.841 E0.01666
G1 X130.748 Y92.372 E0.01666
G1 X131.085 Y91.961 E0.01666
G1 X131.496 Y91.624 E0.01666
G1 X131.965 Y91.373 E0.01666
G1 X132.473 Y91.219 E0.01666
G1 X132.977 Y91.170 E0.01586
G1 X133.530 Y91.219 E0.01742
G1 X134.040 Y91.373 E0.01669
G1 X134.509 Y91.624 E0.01666
G1 X134.919 Y91.961 E0.01666
G1 X135.256 Y92.372 E0.01666
G1 X135.507 Y92.841 E0.01666
G1 X135.661 Y93.349 E0.01666
G1 X135.713 Y93.878 E0.01666
G1 X135.661 Y94.407 E0.01666
G1 X135.507 Y94.916 E0.01666
G1 X135.256 Y95.384 E0.01666
G1 X134.919 Y95.795 E0.01666
G1 X134.509 Y96.132 E0.01666
G1 X134.040 Y96.383 E0.01666
G1 X133.531 Y96.537 E0.01666
G1 X133.002 Y96.589 E0.01666
G1 X132.473 Y96.537 E0.01666
G1 X131.965 Y96.383 E0.01666
G1 X131.496 Y96.132 E0.01666
G1 X131.085 Y95.795 E0.01666
G1 X130.786 Y95.431 E0.01478
G1 X130.349 Y95.410 F10800.000
G1 E-0.80000 F2100.000
G1 Z0.800 F10800.000
G1 X114.688 Y92.476
G1 Z0.200
G1 E0.80000 F2100.000
G1 F1200.000
G1 X114.744 Y92.372 E0.00369
G1 X115.081 Y91.961 E0.01666
G1 X115.491 Y91.624 E0.01666
G1 X115.961 Y91.373 E0.01669
G1 X116.494 Y91.217 E0.01742
G1 X116.998 Y91.167 E0.01586
G1 X117.527 Y91.219 E0.01666
G1 X118.035 Y91.373 E0.01666
G1 X118.504 Y91.624 E0.01666
G1 X118.915 Y91.961 E0.01666
G1 X119.252 Y92.372 E0.01666
G1 X119.502 Y92.841 E0.01666
G1 X119.657 Y93.349 E0.01666
G1 X119.709 Y93.878 E0.01666
G1 X119.657 Y94.407 E0.01666
G1 X119.502 Y94.916 E0.01666
G1 X119.252 Y95.384 E0.01666
G1 X118.915 Y95.795 E0.01666
G1 X118.504 Y96.132 E0.01666
G1 X118.035 Y96.383 E0.01666
G1 X117.527 Y96.537 E0.01666
G1 X116.998 Y96.589 E0.01666
G1 X116.469 Y96.537 E0.01666
G1 X115.960 Y96.383 E0.01666
G1 X115.491 Y96.132 E0.01666
G1 X115.081 Y95.795 E0.01666
G1 X114.744 Y95.384 E0.01666
G1 X114.493 Y94.916 E0.01666
G1 X114.339 Y94.407 E0.01666
G1 X114.287 Y93.878 E0.01666
G1 X114.339 Y93.349 E0.01666
G1 X114.493 Y92.841 E0.01666
G1 X114.660 Y92.529 E0.01109
G1 X114.622 Y92.378 F10800.000
G1 E-0.80000 F2100.000
G1 Z0.800 F10800.000
G1 X119.571 Y101.581
G1 Z0.200
G1 E0.80000 F2100.000
G1 F1200.000
G1 X119.657 Y101.864 E0.00929
G1 X119.709 Y102.393 E0.01666
G1 X119.657 Y102.922 E0.01666
G1 X119.502 Y103.430 E0.01666
G1 X119.252 Y103.899 E0.01666
G1 X118.915 Y104.310 E0.01666
G1 X118.504 Y104.647 E0.01666
G1 X118.035 Y104.898 E0.01666
G1 X117.527 Y105.052 E0.01666
G1 X116.998 Y105.104 E0.01666
G1 X116.469 Y105.052 E0.01666
G1 X115.960 Y104.898 E0.01666
G1 X115.491 Y104.647 E0.01666
G1 X115.081 Y104.310 E0.01666
G1 X114.744 Y103.899 E0.01666
G1 X114.493 Y103.430 E0.01666
G1 X114.339 Y102.922 E0.01666
G1 X114.287 Y102.393 E0.01666
G1 X114.339 Y101.864 E0.01666
G1 X114.493 Y101.356 E0.01666
G1 X114.744 Y100.887 E0.01666
G1 X115.081 Y100.476 E0.01666
G1 X115.491 Y100.139 E0.01666
G1 X115.961 Y99.888 E0.01669
G1 X116.494 Y99.732 E0.01742
G1 X116.998 Y99.682 E0.01586
G1 X117.527 Y99.734 E0.01666
G1 X118.035 Y99.888 E0.01666
G1 X118.504 Y100.139 E0.01666
G1 X118.915 Y100.476 E0.01666
G1 X119.252 Y100.887 E0.01666
G1 X119.502 Y101.356 E0.01666
G1 X119.553 Y101.523 E0.00549
G1 X119.862 Y101.635 F10800.000
G1 E-0.80000 F2100.000
G1 Z0.800 F10800.000
G1 X119.289 Y109.472
G1 Z0.200
G1 E0.80000 F2100.000
G1 F1200.000
G1 X119.502 Y109.871 E0.01416
G1 X119.657 Y110.379 E0.01666
G1 X119.709 Y110.908 E0.01666
G1 X119.657 Y111.437 E0.01666
G1 X119.502 Y111.945 E0.01666
G1 X119.252 Y112.414 E0.01666
G1 X118.915 Y112.825 E0.01666
G1 X118.504 Y113.162 E0.01666
G1 X118.035 Y113.413 E0.01666
G1 X117.527 Y113.567 E0.01666
G1 X116.998 Y113.619 E0.01666
G1 X116.469 Y113.567 E0.01666
G1 X115.960 Y113.413 E0.01666
G1 X115.491 Y113.162 E0.01666
G1 X115.081 Y112.825 E0.01666
G1 X114.744 Y112.414 E0.01666
G1 X114.493 Y111.945 E0.01666
G1 X114.339 Y111.437 E0.01666
G1 X114.287 Y110.908 E0.01666
G1 X114.339 Y110.379 E0.01666
G1 X114.493 Y109.871 E0.01666
G1 X114.744 Y109.402 E0.01666
G1 X115.081 Y108.991 E0.01666
G1 X115.491 Y108.654 E0.01666
G1 X115.961 Y108.403 E0.01669
G1 X116.494 Y108.247 E0.01742
G1 X116.998 Y108.197 E0.01586
G1 X117.527 Y108.249 E0.01666
G1 X118.035 Y108.403 E0.01666
G1 X118.504 Y108.654 E0.01666
G1 X118.915 Y108.991 E0.01666
G1 X119.261 Y109.419 E0.01728
G1 X119.689 Y109.449 F10800.000
G1 E-0.80000 F2100.000
G1 Z0.800 F10800.000
G1 X118.342 Y121.763
G1 Z0.200
G1 E0.80000 F2100.000
G1 F1200.000
G1 X118.035 Y121.928 E0.01092
G1 X117.527 Y122.082 E0.01666
G1 X116.998 Y122.134 E0.01666
G1 X116.469 Y122.082 E0.01666
G1 X115.960 Y121.928 E0.01666
G1 X115.491 Y121.677 E0.01666
G1 X115.081 Y121.340 E0.01666
G1 X114.744 Y120.929 E0.01666
G1 X114.493 Y120.460 E0.01666
G1 X114.339 Y119.952 E0.01666
G1 X114.287 Y119.423 E0.01666
G1 X114.339 Y118.894 E0.01666
G1 X114.493 Y118.385 E0.01666
G1 X114.744 Y117.917 E0.01666
G1 X115.081 Y117.506 E0.01666
G1 X115.491 Y117.169 E0.01666
G1 X115.961 Y116.918 E0.01669
G1 X116.494 Y116.762 E0.01742
G1 X116.998 Y116.712 E0.01586
G1 X117.527 Y116.764 E0.01666
G1 X118.035 Y116.918 E0.01666
G1 X118.504 Y117.169 E0.01666
G1 X118.915 Y117.506 E0.01666
G1 X119.252 Y117.917 E0.01666
G1 X119.502 Y118.385 E0.01666
G1 X119.657 Y118.894 E0.01666
G1 X119.709 Y119.423 E0.01666
G1 X119.657 Y119.952 E0.01666
G1 X119.502 Y120.460 E0.01666
G1 X119.252 Y120.929 E0.01666
G1 X118.915 Y121.340 E0.01666
G1 X118.504 Y121.677 E0.01666
G1 X118.395 Y121.735 E0.00387
G1 X118.348 Y122.112 F10800.000
G1 E-0.80000 F2100.000
G1 Z0.800 F10800.000
G1 X114.933 Y126.211
G1 Z0.200
G1 E0.80000 F2100.000
G1 F1200.000
G1 X115.089 Y126.021 E0.00769
G1 X115.499 Y125.684 E0.01666
G1 X115.969 Y125.433 E0.01669
G1 X116.502 Y125.276 E0.01742
G1 X117.006 Y125.227 E0.01586
G1 X117.534 Y125.279 E0.01666
G1 X118.043 Y125.433 E0.01666
G1 X118.512 Y125.684 E0.01666
G1 X118.923 Y126.021 E0.01666
G1 X119.260 Y126.432 E0.01666
G1 X119.510 Y126.900 E0.01666
G1 X119.664 Y127.409 E0.01666
G1 X119.717 Y127.938 E0.01666
G1 X119.664 Y128.467 E0.01666
G1 X119.510 Y128.975 E0.01666
G1 X119.260 Y129.444 E0.01666
G1 X118.923 Y129.855 E0.01666
G1 X118.512 Y130.192 E0.01666
G1 X118.043 Y130.443 E0.01666
G1 X117.534 Y130.597 E0.01666
G1 X117.006 Y130.649 E0.01666
G1 X116.477 Y130.597 E0.01666
G1 X115.968 Y130.443 E0.01666
G1 X115.499 Y130.192 E0.01666
G1 X115.089 Y129.855 E0.01666
G1 X114.751 Y129.444 E0.01666
G1 X114.501 Y128.975 E0.01666
G1 X114.347 Y128.467 E0.01666
G1 X114.295 Y127.938 E0.01666
G1 X114.347 Y127.409 E0.01666
G1 X114.501 Y126.900 E0.01666
M73 Q3 S17
G1 X114.751 Y126.432 E0.01666
G1 X114.895 Y126.257 E0.00709
G1 X114.837 Y125.985 F10800.000
G1 E-0.80000 F2100.000
G1 Z0.800 F10800.000
G1 X132.273 Y130.538
M73 P3 R17
G1 Z0.200
G1 E0.80000 F2100.000
G1 F1200.000
G1 X131.957 Y130.443 E0.01035
G1 X131.488 Y130.192 E0.01666
G1 X131.077 Y129.855 E0.01666
G1 X130.740 Y129.444 E0.01666
G1 X130.490 Y128.975 E0.01666
G1 X130.336 Y128.467 E0.01666
G1 X130.283 Y127.938 E0.01666
G1 X130.336 Y127.409 E0.01666
G1 X130.490 Y126.900 E0.01666
G1 X130.740 Y126.432 E0.01666
G1 X131.077 Y126.021 E0.01666
G1 X131.488 Y125.684 E0.01666
G1 X131.957 Y125.433 E0.01666
G1 X132.466 Y125.279 E0.01666
G1 X132.969 Y125.229 E0.01586
G1 X133.522 Y125.279 E0.01742
G1 X134.032 Y125.433 E0.01669
G1 X134.501 Y125.684 E0.01666
G1 X134.911 Y126.021 E0.01666
G1 X135.249 Y126.432 E0.01666
G1 X135.499 Y126.900 E0.01666
G1 X135.653 Y127.409 E0.01666
G1 X135.705 Y127.938 E0.01666
G1 X135.653 Y128.467 E0.01666
G1 X135.499 Y128.975 E0.01666
G1 X135.249 Y129.444 E0.01666
G1 X134.911 Y129.855 E0.01666
G1 X134.501 Y130.192 E0.01666
G1 X134.032 Y130.443 E0.01666
G1 X133.523 Y130.597 E0.01666
G1 X132.994 Y130.649 E0.01666
G1 X132.466 Y130.597 E0.01666
G1 X132.330 Y130.556 E0.00443
G1 X132.043 Y130.775 F10800.000
G1 E-0.80000 F2100.000
G1 Z0.800 F10800.000
G1 X132.961 Y116.716
G1 Z0.200
G1 E0.80000 F2100.000
G1 F1200.000
G1 X133.530 Y116.764 E0.01793
G1 X134.040 Y116.918 E0.01669
G1 X134.509 Y117.169 E0.01666
G1 X134.919 Y117.506 E0.01666
G1 X135.256 Y117.917 E0.01666
G1 X135.507 Y118.385 E0.01666
G1 X135.661 Y118.894 E0.01666
G1 X135.713 Y119.423 E0.01666
G1 X135.661 Y119.952 E0.01666
G1 X135.507 Y120.460 E0.01666
G1 X135.256 Y120.929 E0.01666
G1 X134.919 Y121.340 E0.01666
G1 X134.509 Y121.677 E0.01666
G1 X134.040 Y121.928 E0.01666
G1 X133.531 Y122.082 E0.01666
G1 X133.002 Y122.134 E0.01666
G1 X132.473 Y122.082 E0.01666
G1 X131.965 Y121.928 E0.01666
G1 X131.496 Y121.677 E0.01666
G1 X131.085 Y121.340 E0.01666
G1 X130.748 Y120.929 E0.01666
G1 X130.498 Y120.460 E0.01666
G1 X130.343 Y119.952 E0.01666
G1 X130.291 Y119.423 E0.01666
G1 X130.343 Y118.894 E0.01666
G1 X130.498 Y118.385 E0.01666
G1 X130.748 Y117.917 E0.01666
G1 X131.085 Y117.506 E0.01666
G1 X131.496 Y117.169 E0.01666
G1 X131.965 Y116.918 E0.01666
G1 X132.473 Y116.764 E0.01666
G1 X132.901 Y116.722 E0.01346
G1 X133.157 Y116.367 F10800.000
G1 E-0.80000 F2100.000
G1 Z0.800 F10800.000
G1 X127.290 Y91.024
G1 Z0.200
G1 E0.80000 F2100.000
G1 F1200.000
G1 X127.290 Y93.088 E0.06473
G1 X129.822 Y93.088 E0.07938
G1 X129.964 Y92.619 E0.01535
G1 X130.268 Y92.051 E0.02022
G1 X130.677 Y91.552 E0.02022
G1 X131.175 Y91.143 E0.02022
G1 X131.744 Y90.839 E0.02022
G1 X132.361 Y90.652 E0.02022
G1 X133.002 Y90.589 E0.02022
G1 X133.644 Y90.652 E0.02022
G1 X134.261 Y90.839 E0.02022
G1 X134.830 Y91.143 E0.02022
G1 X135.328 Y91.552 E0.02022
G1 X135.737 Y92.051 E0.02022
G1 X136.041 Y92.619 E0.02022
G1 X136.228 Y93.236 E0.02022
G1 X136.291 Y93.878 E0.02022
G1 X136.228 Y94.520 E0.02022
G1 X136.041 Y95.137 E0.02022
G1 X135.737 Y95.705 E0.02022
G1 X135.328 Y96.204 E0.02022
G1 X134.830 Y96.613 E0.02022
G1 X134.261 Y96.917 E0.02022
G1 X133.644 Y97.104 E0.02022
G1 X133.002 Y97.167 E0.02022
G1 X132.361 Y97.104 E0.02022
G1 X131.744 Y96.917 E0.02022
G1 X131.175 Y96.613 E0.02022
G1 X130.677 Y96.204 E0.02022
G1 X130.268 Y95.705 E0.02022
G1 X129.964 Y95.137 E0.02022
G1 X129.822 Y94.668 E0.01536
G1 X127.290 Y94.668 E0.07938
G1 X127.290 Y101.603 E0.21744
G1 X129.822 Y101.603 E0.07938
G1 X129.964 Y101.134 E0.01536
G1 X130.268 Y100.566 E0.02022
G1 X130.677 Y100.067 E0.02022
G1 X131.175 Y99.658 E0.02022
G1 X131.744 Y99.354 E0.02022
G1 X132.361 Y99.167 E0.02022
