; generated by PrusaSlicer 2.3.1+win64 on 2021-09-20 at 16:05:32 UTC

; 

; external perimeters extrusion width = 0.45mm
; perimeters extrusion width = 0.45mm
; infill extrusion width = 0.45mm
; solid infill extrusion width = 0.45mm
; top infill extrusion width = 0.40mm
; support material extrusion width = 0.35mm
; first layer extrusion width = 0.42mm

M73 P0 R17
M73 Q0 S17
M201 X1000 Y1000 Z1000 E5000 ; sets maximum accelerations, mm/sec^2
M203 X200 Y200 Z12 E120 ; sets maximum feedrates, mm/sec
M204 P1250 R1250 T1250 ; sets acceleration (P, T) and retract acceleration (R), mm/sec^2
M205 X8.00 Y8.00 Z0.40 E1.50 ; sets the jerk limits, mm/sec
M205 S0 T0 ; sets the minimum extruding and travel feed rate, mm/sec
M107
;TYPE:Custom
M862.3 P "MK3S" ; printer model check
M862.1 P0.4 ; nozzle diameter check
M115 U3.8.0 ; tell printer latest fw version
G90 ; use absolute coordinates
M83 ; extruder relative mode
M104 S215 ; set extruder temp
M140 S60 ; set bed temp
M190 S60 ; wait for bed temp
M109 S215 ; wait for extruder temp
G28 W ; home all without mesh bed level
G80 ; mesh bed leveling
G1 Y-3.0 F1000.0 ; go outside print area
G92 E0.0
G1 X60.0 E9.0 F1000.0 ; intro line
G1 X100.0 E12.5 F1000.0 ; intro line
G92 E0.0
M221 S95
G21 ; set units to millimeters
G90 ; use absolute coordinates
M83 ; use relative distances for extrusion
M900 K0.05 ; Filament gcode LA 1.5
M900 K30 ; Filament gcode LA 1.0
;LAYER_CHANGE
;Z:0.2
;HEIGHT:0.2
;BEFORE_LAYER_CHANGE
G92 E0.0
;0.2


G1 E-0.80000 F2100.000
G1 Z0.600 F10800.000
;AFTER_LAYER_CHANGE
;0.2
G1 X129.941 Y109.965
G1 Z0.200
G1 E0.80000 F2100.000
M204 S1000
;TYPE:External perimeter
;WIDTH:0.42
G1 F1200.000
G1 X130.029 Y109.676 E0.00947
G1 X130.326 Y109.120 E0.01978
G1 X130.726 Y108.632 E0.01978
G1 X131.214 Y108.232 E0.01978
G1 X131.771 Y107.934 E0.01978
G1 X132.374 Y107.751 E0.01978
G1 X132.972 Y107.692 E0.01883
G1 X133.629 Y107.751 E0.02069
G1 X134.234 Y107.934 E0.01982
G1 X134.791 Y108.232 E0.01978
G1 X135.278 Y108.632 E0.01978
G1 X135.679 Y109.120 E0.01978
G1 X135.976 Y109.676 E0.01978
G1 X136.159 Y110.280 E0.01978
G1 X136.221 Y110.908 E0.01978
G1 X136.159 Y111.536 E0.01978
G1 X135.976 Y112.140 E0.01978
G1 X135.679 Y112.696 E0.01978
G1 X135.278 Y113.184 E0.01978
G1 X134.791 Y113.584 E0.01978
G1 X134.234 Y113.882 E0.01978
G1 X133.630 Y114.065 E0.01978
G1 X133.002 Y114.127 E0.01978
G1 X132.374 Y114.065 E0.01978
G1 X131.771 Y113.882 E0.01978
G1 X131.214 Y113.584 E0.01978
G1 X130.726 Y113.184 E0.01978
G1 X130.326 Y112.696 E0.01978
G1 X130.029 Y112.140 E0.01978
G1 X129.845 Y111.536 E0.01978
G1 X129.784 Y110.908 E0.01978
G1 X129.845 Y110.280 E0.01978
G1 X129.923 Y110.023 E0.00844
G1 X129.725 Y109.754 F10800.000
G1 E-0.80000 F2100.000
G1 Z0.800 F10800.000
G1 X131.222 Y105.065
G1 Z0.200
G1 E0.80000 F2100.000
G1 F1200.000
G1 X130.732 Y104.664 E0.01987
G1 X130.333 Y104.177 E0.01974
G1 X130.036 Y103.622 E0.01974
G1 X129.853 Y103.019 E0.01974
G1 X129.791 Y102.393 E0.01974
G1 X129.853 Y101.767 E0.01974
G1 X130.036 Y101.164 E0.01974
G1 X130.333 Y100.609 E0.01974
G1 X130.732 Y100.122 E0.01974
G1 X131.218 Y99.723 E0.01974
G1 X131.774 Y99.426 E0.01974
G1 X132.376 Y99.244 E0.01974
G1 X132.972 Y99.185 E0.01878
G1 X133.628 Y99.243 E0.02064
G1 X134.231 Y99.426 E0.01977
G1 X134.786 Y99.723 E0.01974
G1 X135.273 Y100.122 E0.01974
G1 X135.672 Y100.609 E0.01974
G1 X135.969 Y101.164 E0.01974
G1 X136.152 Y101.767 E0.01974
G1 X136.213 Y102.393 E0.01974
G1 X136.152 Y103.019 E0.01974
G1 X135.969 Y103.622 E0.01974
G1 X135.672 Y104.177 E0.01974
G1 X135.273 Y104.664 E0.01974
G1 X134.786 Y105.063 E0.01974
G1 X134.231 Y105.360 E0.01974
G1 X133.629 Y105.542 E0.01974
G1 X133.002 Y105.604 E0.01974
G1 X132.376 Y105.542 E0.01974
G1 X131.774 Y105.360 E0.01974
G1 X131.275 Y105.093 E0.01772
G1 X130.864 Y105.242 F10800.000
G1 E-0.80000 F2100.000
M73 Q1 S17
G1 Z0.800 F10800.000
G1 X123.087 Y101.226
G1 Z0.200
G1 E0.80000 F2100.000
;TYPE:Perimeter
M73 P1 R17
G1 F1200.000
G1 X123.087 Y94.291 E0.21745
G1 X120.547 Y94.291 E0.07965
G1 X120.588 Y93.878 E0.01301
G1 X120.547 Y93.465 E0.01301
G1 X123.087 Y93.465 E0.07965
G1 X123.087 Y66.038 E0.85997
G1 X126.913 Y66.038 E0.11996
G1 X126.913 Y93.465 E0.85997
G1 X129.453 Y93.465 E0.07965
G1 X129.412 Y93.878 E0.01301
G1 X129.453 Y94.291 E0.01301
G1 X126.913 Y94.291 E0.07965
G1 X126.913 Y101.980 E0.24109
M73 P1 R16
G1 X129.453 Y101.980 E0.07965
G1 X129.412 Y102.393 E0.01301
G1 X129.453 Y102.806 E0.01301
G1 X126.913 Y102.806 E0.07965
G1 X126.913 Y110.495 E0.24109
G1 X129.445 Y110.495 E0.07940
G1 X129.405 Y110.908 E0.01301
G1 X129.445 Y111.321 E0.01301
G1 X126.913 Y111.321 E0.07940
G1 X126.913 Y119.010 E0.24109
G1 X129.453 Y119.010 E0.07965
G1 X129.412 Y119.423 E0.01301
G1 X129.453 Y119.836 E0.01301
G1 X126.913 Y119.836 E0.07965
G1 X126.913 Y127.525 E0.24109
G1 X129.445 Y127.525 E0.07940
G1 X129.405 Y127.938 E0.01301
G1 X129.445 Y128.351 E0.01301
G1 X126.913 Y128.351 E0.07940
G1 X126.913 Y135.136 E0.21276
G1 X137.413 Y135.136 E0.32922
G1 X137.413 Y143.962 E0.27673
M73 Q1 S16
G1 X112.587 Y143.962 E0.77840
G1 X112.587 Y135.136 E0.27673
M73 Q2 S16
G1 X123.087 Y135.136 E0.32922
M73 P2 R16
G1 X123.087 Y128.351 E0.21276
G1 X120.555 Y128.351 E0.07940
G1 X120.595 Y127.938 E0.01301
G1 X120.555 Y127.525 E0.01301
G1 X123.087 Y127.525 E0.07940
G1 X123.087 Y119.836 E0.24109
G1 X120.547 Y119.836 E0.07965
G1 X120.588 Y119.423 E0.01301
G1 X120.547 Y119.010 E0.01301
G1 X123.087 Y119.010 E0.07965
G1 X123.087 Y111.321 E0.24109
G1 X120.555 Y111.321 E0.07940
G1 X120.595 Y110.908 E0.01301
G1 X120.555 Y110.495 E0.01301
G1 X123.087 Y110.495 E0.07940
G1 X123.087 Y102.806 E0.24109
G1 X120.547 Y102.806 E0.07965
G1 X120.588 Y102.393 E0.01301
G1 X120.547 Y101.980 E0.01301
G1 X123.087 Y101.980 E0.07965
G1 X123.087 Y101.286 E0.02175
G1 E-0.80000 F2100.000
G1 Z0.800 F10800.000
G1 X130.333 Y95.662
G1 Z0.200
G1 E0.80000 F2100.000
;TYPE:External perimeter
G1 F1200.000
G1 X130.036 Y95.107 E0.01974
G1 X129.853 Y94.504 E0.01974
G1 X129.791 Y93.878 E0.01974
G1 X129.853 Y93.252 E0.01974
G1 X130.036 Y92.649 E0.01974
G1 X130.333 Y92.094 E0.01974
G1 X130.732 Y91.608 E0.01974
G1 X131.218 Y91.208 E0.01974
G1 X131.774 Y90.911 E0.01974
G1 X132.376 Y90.729 E0.01974
G1 X132.972 Y90.670 E0.01878
G1 X133.628 Y90.728 E0.02064
G1 X134.231 Y90.911 E0.01977
G1 X134.786 Y91.208 E0.01974
G1 X135.273 Y91.608 E0.01974
G1 X135.672 Y92.094 E0.01974
G1 X135.969 Y92.649 E0.01974
G1 X136.152 Y93.252 E0.01974
G1 X136.213 Y93.878 E0.01974
G1 X136.152 Y94.504 E0.01974
G1 X135.969 Y95.107 E0.01974
G1 X135.672 Y95.662 E0.01974
G1 X135.273 Y96.149 E0.01974
G1 X134.786 Y96.548 E0.01974
G1 X134.231 Y96.845 E0.01974
G1 X133.629 Y97.027 E0.01974
G1 X133.002 Y97.089 E0.01974
G1 X132.376 Y97.027 E0.01974
G1 X131.774 Y96.845 E0.01974
G1 X131.218 Y96.548 E0.01974
G1 X130.732 Y96.149 E0.01974
G1 X130.371 Y95.708 E0.01786
G1 X129.933 Y95.688 F10800.000
G1 E-0.80000 F2100.000
G1 Z0.800 F10800.000
G1 X116.280 Y97.000
G1 Z0.200
G1 E0.80000 F2100.000
G1 F1200.000
G1 X115.769 Y96.845 E0.01674
G1 X115.214 Y96.548 E0.01974
G1 X114.727 Y96.149 E0.01974
G1 X114.328 Y95.662 E0.01974
G1 X114.031 Y95.107 E0.01974
G1 X113.848 Y94.504 E0.01974
G1 X113.787 Y93.878 E0.01974
G1 X113.848 Y93.252 E0.01974
G1 X114.031 Y92.649 E0.01974
G1 X114.328 Y92.094 E0.01974
G1 X114.727 Y91.608 E0.01974
G1 X115.214 Y91.208 E0.01974
G1 X115.770 Y90.911 E0.01977
G1 X116.401 Y90.726 E0.02064
G1 X116.998 Y90.667 E0.01878
G1 X117.624 Y90.729 E0.01974
G1 X118.226 Y90.911 E0.01974
G1 X118.782 Y91.208 E0.01974
G1 X119.268 Y91.608 E0.01974
G1 X119.667 Y92.094 E0.01974
G1 X119.964 Y92.649 E0.01974
G1 X120.147 Y93.252 E0.01974
G1 X120.209 Y93.878 E0.01974
G1 X120.147 Y94.504 E0.01974
G1 X119.964 Y95.107 E0.01974
G1 X119.667 Y95.662 E0.01974
G1 X119.268 Y96.149 E0.01974
G1 X118.782 Y96.548 E0.01974
G1 X118.226 Y96.845 E0.01974
G1 X117.624 Y97.027 E0.01974
G1 X116.998 Y97.089 E0.01974
G1 X116.337 Y97.017 E0.02083
G1 X116.014 Y97.299 F10800.000
G1 E-0.80000 F2100.000
G1 Z0.800 F10800.000
G1 X119.647 Y104.202
G1 Z0.200
G1 E0.80000 F2100.000
G1 F1200.000
G1 X119.268 Y104.664 E0.01871
G1 X118.782 Y105.063 E0.01974
G1 X118.226 Y105.360 E0.01974
G1 X117.624 Y105.542 E0.01974
G1 X116.998 Y105.604 E0.01974
G1 X116.371 Y105.542 E0.01974
G1 X115.769 Y105.360 E0.01974
G1 X115.214 Y105.063 E0.01974
G1 X114.727 Y104.664 E0.01974
G1 X114.328 Y104.177 E0.01974
G1 X114.031 Y103.622 E0.01974
G1 X113.848 Y103.019 E0.01974
G1 X113.787 Y102.393 E0.01974
G1 X113.848 Y101.767 E0.01974
G1 X114.031 Y101.164 E0.01974
G1 X114.328 Y100.609 E0.01974
G1 X114.727 Y100.122 E0.01974
G1 X115.214 Y99.723 E0.01974
G1 X115.770 Y99.426 E0.01977
G1 X116.401 Y99.241 E0.02064
G1 X116.998 Y99.182 E0.01878
G1 X117.624 Y99.244 E0.01974
G1 X118.226 Y99.426 E0.01974
G1 X118.782 Y99.723 E0.01974
G1 X119.268 Y100.122 E0.01974
G1 X119.667 Y100.609 E0.01974
G1 X119.964 Y101.164 E0.01974
G1 X120.147 Y101.767 E0.01974
G1 X120.209 Y102.393 E0.01974
G1 X120.147 Y103.019 E0.01974
G1 X119.964 Y103.622 E0.01974
G1 X119.680 Y104.153 E0.01889
G1 X119.823 Y104.562 F10800.000
G1 E-0.80000 F2100.000
G1 Z0.800 F10800.000
G1 X119.652 Y109.093
G1 Z0.200
G1 E0.80000 F2100.000
G1 F1200.000
G1 X119.971 Y109.676 E0.02086
G1 X120.155 Y110.280 E0.01978
G1 X120.216 Y110.908 E0.01978
G1 X120.155 Y111.536 E0.01978
G1 X119.971 Y112.140 E0.01978
G1 X119.674 Y112.696 E0.01978
G1 X119.274 Y113.184 E0.01978
G1 X118.786 Y113.584 E0.01978
G1 X118.229 Y113.882 E0.01978
G1 X117.626 Y114.065 E0.01978
G1 X116.998 Y114.127 E0.01978
G1 X116.370 Y114.065 E0.01978
G1 X115.766 Y113.882 E0.01978
G1 X115.209 Y113.584 E0.01978
G1 X114.722 Y113.184 E0.01978
G1 X114.321 Y112.696 E0.01978
G1 X114.024 Y112.140 E0.01978
G1 X113.841 Y111.536 E0.01978
G1 X113.779 Y110.908 E0.01978
G1 X113.841 Y110.280 E0.01978
G1 X114.024 Y109.676 E0.01978
G1 X114.321 Y109.120 E0.01978
G1 X114.722 Y108.632 E0.01978
G1 X115.209 Y108.232 E0.01978
G1 X115.767 Y107.934 E0.01982
G1 X116.400 Y107.748 E0.02069
G1 X116.998 Y107.689 E0.01883
G1 X117.626 Y107.751 E0.01978
G1 X118.229 Y107.934 E0.01978
G1 X118.786 Y108.232 E0.01978
G1 X119.274 Y108.632 E0.01978
G1 X119.614 Y109.046 E0.01681
G1 X120.051 Y109.064 F10800.000
G1 E-0.80000 F2100.000
G1 Z0.800 F10800.000
G1 X113.910 Y120.254
G1 Z0.200
G1 E0.80000 F2100.000
G1 F1200.000
G1 X113.848 Y120.049 E0.00670
G1 X113.787 Y119.423 E0.01974
G1 X113.848 Y118.796 E0.01974
G1 X114.031 Y118.194 E0.01974
G1 X114.328 Y117.639 E0.01974
G1 X114.727 Y117.152 E0.01974
G1 X115.214 Y116.753 E0.01974
G1 X115.770 Y116.456 E0.01977
G1 X116.401 Y116.271 E0.02064
G1 X116.998 Y116.212 E0.01878
G1 X117.624 Y116.274 E0.01974
G1 X118.226 Y116.456 E0.01974
G1 X118.782 Y116.753 E0.01974
M73 Q3 S16
G1 X119.268 Y117.152 E0.01974
G1 X119.667 Y117.639 E0.01974
G1 X119.964 Y118.194 E0.01974
G1 X120.147 Y118.796 E0.01974
G1 X120.209 Y119.423 E0.01974
G1 X120.147 Y120.049 E0.01974
G1 X119.964 Y120.652 E0.01974
G1 X119.667 Y121.207 E0.01974
G1 X119.268 Y121.693 E0.01974
G1 X118.782 Y122.093 E0.01974
M73 P3 R16
G1 X118.226 Y122.390 E0.01974
G1 X117.624 Y122.572 E0.01974
G1 X116.998 Y122.634 E0.01974
G1 X116.371 Y122.572 E0.01974
G1 X115.769 Y122.390 E0.01974
G1 X115.214 Y122.093 E0.01974
G1 X114.727 Y121.693 E0.01974
G1 X114.328 Y121.207 E0.01974
G1 X114.031 Y120.652 E0.01974
G1 X113.928 Y120.311 E0.01116
G1 X113.701 Y120.213 F10800.000
G1 E-0.80000 F2100.000
G1 Z0.800 F10800.000
G1 X116.497 Y131.099
G1 Z0.200
G1 E0.80000 F2100.000
G1 F1200.000
G1 X116.379 Y131.087 E0.00371
G1 X115.777 Y130.904 E0.01974
G1 X115.222 Y130.608 E0.01974
G1 X114.735 Y130.208 E0.01974
G1 X114.336 Y129.722 E0.01974
G1 X114.039 Y129.167 E0.01974
G1 X113.856 Y128.564 E0.01974
G1 X113.795 Y127.938 E0.01974
G1 X113.856 Y127.311 E0.01974
G1 X114.039 Y126.709 E0.01974
G1 X114.336 Y126.154 E0.01974
G1 X114.735 Y125.667 E0.01974
G1 X115.222 Y125.268 E0.01974
G1 X115.778 Y124.971 E0.01977
G1 X116.409 Y124.786 E0.02064
G1 X117.006 Y124.727 E0.01878
G1 X117.632 Y124.789 E0.01974
G1 X118.234 Y124.971 E0.01974
G1 X118.789 Y125.268 E0.01974
G1 X119.276 Y125.667 E0.01974
G1 X119.675 Y126.154 E0.01974
G1 X119.972 Y126.709 E0.01974
G1 X120.155 Y127.311 E0.01974
G1 X120.217 Y127.938 E0.01974
G1 X120.155 Y128.564 E0.01974
G1 X119.972 Y129.167 E0.01974
G1 X119.675 Y129.722 E0.01974
G1 X119.276 Y130.208 E0.01974
G1 X118.789 Y130.608 E0.01974
G1 X118.234 Y130.904 E0.01974
G1 X117.632 Y131.087 E0.01974
G1 X117.006 Y131.149 E0.01974
G1 X116.557 Y131.105 E0.01415
G1 X116.431 Y131.197 F10800.000
G1 E-0.80000 F2100.000
G1 Z0.800 F10800.000
G1 X130.709 Y125.685
G1 Z0.200
G1 E0.80000 F2100.000
G1 F1200.000
G1 X131.211 Y125.268 E0.02046
G1 X131.766 Y124.971 E0.01974
G1 X132.368 Y124.789 E0.01974
G1 X132.964 Y124.730 E0.01878
G1 X133.620 Y124.788 E0.02064
G1 X134.223 Y124.971 E0.01977
G1 X134.778 Y125.268 E0.01974
G1 X135.265 Y125.667 E0.01974
G1 X135.664 Y126.154 E0.01974
G1 X135.961 Y126.709 E0.01974
G1 X136.144 Y127.311 E0.01974
G1 X136.205 Y127.938 E0.01974
G1 X136.144 Y128.564 E0.01974
G1 X135.961 Y129.167 E0.01974
G1 X135.664 Y129.722 E0.01974
G1 X135.265 Y130.208 E0.01974
G1 X134.778 Y130.608 E0.01974
G1 X134.223 Y130.904 E0.01974
G1 X133.621 Y131.087 E0.01974
G1 X132.994 Y131.149 E0.01974
G1 X132.368 Y131.087 E0.01974
G1 X131.766 Y130.904 E0.01974
G1 X131.211 Y130.608 E0.01974
G1 X130.724 Y130.208 E0.01974
G1 X130.325 Y129.722 E0.01974
G1 X130.028 Y129.167 E0.01974
G1 X129.845 Y128.564 E0.01974
G1 X129.783 Y127.938 E0.01974
G1 X129.845 Y127.311 E0.01974
G1 X130.028 Y126.709 E0.01974
G1 X130.325 Y126.154 E0.01974
G1 X130.671 Y125.732 E0.01712
G1 X130.604 Y125.300 F10800.000
G1 E-0.80000 F2100.000
G1 Z0.800 F10800.000
G1 X136.110 Y118.659
G1 Z0.200
G1 E0.80000 F2100.000
G1 F1200.000
G1 X136.152 Y118.796 E0.00449
G1 X136.213 Y119.423 E0.01974
G1 X136.152 Y120.049 E0.01974
G1 X135.969 Y120.652 E0.01974
G1 X135.672 Y121.207 E0.01974
G1 X135.273 Y121.693 E0.01974
G1 X134.786 Y122.093 E0.01974
G1 X134.231 Y122.390 E0.01974
G1 X133.629 Y122.572 E0.01974
G1 X133.002 Y122.634 E0.01974
G1 X132.376 Y122.572 E0.01974
G1 X131.774 Y122.390 E0.01974
G1 X131.218 Y122.093 E0.01974
G1 X130.732 Y121.693 E0.01974
G1 X130.333 Y121.207 E0.01974
G1 X130.036 Y120.652 E0.01974
G1 X129.853 Y120.049 E0.01974
G1 X129.791 Y119.423 E0.01974
G1 X129.853 Y118.796 E0.01974
G1 X130.036 Y118.194 E0.01974
G1 X130.333 Y117.639 E0.01974
G1 X130.732 Y117.152 E0.01974
G1 X131.218 Y116.753 E0.01974
G1 X131.774 Y116.456 E0.01974
G1 X132.376 Y116.274 E0.01974
G1 X132.972 Y116.215 E0.01878
G1 X133.628 Y116.273 E0.02064
G1 X134.231 Y116.456 E0.01977
G1 X134.786 Y116.753 E0.01974
G1 X135.273 Y117.152 E0.01974
G1 X135.672 Y117.639 E0.01974
G1 X135.969 Y118.194 E0.01974
G1 X136.093 Y118.602 E0.01336
G1 X136.251 Y118.687 F10800.000
G1 E-0.80000 F2100.000
G1 Z0.800 F10800.000
G1 X130.622 Y113.167
G1 Z0.200
G1 E0.80000 F2100.000
G1 F1200.000
G1 X130.268 Y112.735 E0.01750
G1 X129.964 Y112.167 E0.02022
G1 X129.822 Y111.698 E0.01536
G1 X127.290 Y111.698 E0.07938
G1 X127.290 Y118.633 E0.21744
G1 X129.822 Y118.633 E0.07938
G1 X129.964 Y118.164 E0.01536
G1 X130.268 Y117.596 E0.02022
G1 X130.677 Y117.097 E0.02022
G1 X131.175 Y116.688 E0.02022
G1 X131.744 Y116.384 E0.02022
G1 X132.361 Y116.197 E0.02022
G1 X133.002 Y116.134 E0.02022
G1 X133.644 Y116.197 E0.02022
G1 X134.261 Y116.384 E0.02022
G1 X134.829 Y116.688 E0.02018
G1 X135.349 Y117.123 E0.02127
G1 X135.737 Y117.596 E0.01917
G1 X136.041 Y118.164 E0.02022
G1 X136.228 Y118.781 E0.02022
G1 X136.291 Y119.423 E0.02022
G1 X136.228 Y120.065 E0.02022
G1 X136.041 Y120.682 E0.02022
G1 X135.737 Y121.250 E0.02022
G1 X135.328 Y121.749 E0.02022
G1 X134.830 Y122.158 E0.02022
G1 X134.261 Y122.462 E0.02022
G1 X133.644 Y122.649 E0.02022
G1 X133.002 Y122.712 E0.02022
G1 X132.361 Y122.649 E0.02022
G1 X131.744 Y122.462 E0.02022
G1 X131.175 Y122.158 E0.02022
G1 X130.677 Y121.749 E0.02022
G1 X130.268 Y121.250 E0.02022
G1 X129.964 Y120.682 E0.02022
G1 X129.822 Y120.213 E0.01536
G1 X127.290 Y120.213 E0.07938
G1 X127.290 Y127.148 E0.21744
G1 X129.814 Y127.148 E0.07913
G1 X129.956 Y126.679 E0.01536
G1 X130.260 Y126.111 E0.02022
G1 X130.669 Y125.612 E0.02022
