; generated by PrusaSlicer 2.2.0+win64 on 2020-10-02 at 21:35:09 UTC

; 

; external perimeters extrusion width = 0.60mm
; perimeters extrusion width = 0.50mm
; infill extrusion width = 0.50mm
; solid infill extrusion width = 0.50mm
; top infill extrusion width = 0.45mm
; first layer extrusion width = 0.42mm

M73 P0 R62
M73 Q0 S62
M201 X1000 Y1000 Z1000 E5000 ; sets maximum accelerations, mm/sec^2
M203 X200 Y200 Z12 E120 ; sets maximum feedrates, mm/sec
M204 P1250 R1250 T1250 ; sets acceleration (P, T) and retract acceleration (R), mm/sec^2
M205 X8.00 Y8.00 Z0.40 E1.50 ; sets the jerk limits, mm/sec
M205 S0 T0 ; sets the minimum extruding and travel feed rate, mm/sec
M107
M862.3 P "MK3S" ; printer model check
M862.1 P0.4 ; nozzle diameter check
M115 U3.8.0 ; tell printer latest fw version
G90 ; use absolute coordinates
M83 ; extruder relative mode
M104 S215 ; set extruder temp
M140 S60 ; set bed temp
M190 S60 ; wait for bed temp
M109 S215 ; wait for extruder temp
G28 W ; home all without mesh bed level
G80 ; mesh bed leveling
G1 Y-3.0 F1000.0 ; go outside print area
G92 E0.0
G1 X60.0 E9.0 F1000.0 ; intro line
M73 Q0 S62
M73 P0 R62
G1 X100.0 E12.5 F1000.0 ; intro line
G92 E0.0
M221 S95
G21 ; set units to millimeters
G90 ; use absolute coordinates
M83 ; use relative distances for extrusion
M900 K0.06 ; Filament gcode LA 1.5
M900 K30 ; Filament gcode LA 1.0
;BEFORE_LAYER_CHANGE
G92 E0.0
;0.2


G1 E-0.80000 F2100.00000
G1 Z0.600 F10800.000
;AFTER_LAYER_CHANGE
;0.2
G1 X78.003 Y51.063
G1 Z0.200
G1 E0.80000 F2100.00000
M204 S1000
G1 F1200.000
G1 X78.599 Y50.432 E0.02720
G1 X100.642 Y34.568 E0.85151
G1 X101.099 Y34.312 E0.01645
G1 X101.598 Y34.162 E0.01633
G1 X170.004 Y34.123 E2.14481
G1 X170.906 Y34.302 E0.02884
G1 X171.670 Y34.808 E0.02872
G1 X172.187 Y35.569 E0.02884
G1 X172.377 Y36.468 E0.02884
G1 X172.377 Y173.508 E4.29677
G1 X172.279 Y174.176 E0.02119
G1 X171.997 Y174.790 E0.02119
G1 X171.618 Y175.241 E0.01846
G1 X171.144 Y175.584 E0.01835
G1 X170.596 Y175.801 E0.01846
G1 X170.016 Y175.877 E0.01835
G1 X79.989 Y175.877 E2.82276
G1 X79.324 Y175.779 E0.02107
G1 X78.710 Y175.497 E0.02119
G1 X78.259 Y175.118 E0.01846
G1 X77.914 Y174.640 E0.01846
G1 X77.699 Y174.096 E0.01835
G1 X77.623 Y173.512 E0.01846
G1 X77.623 Y52.345 E3.79912
G1 X77.721 Y51.677 E0.02119
G1 X77.978 Y51.117 E0.01931
G1 E-0.80000 F2100.00000
G1 Z0.800 F10800.000
G1 X128.787 Y124.642
G1 Z0.200
G1 E0.80000 F2100.00000
G1 F1200.000
G1 X150.814 Y124.717 E0.69066
G1 X150.814 Y108.787 E0.49947
G1 X169.213 Y108.787 E0.57687
G1 X169.213 Y142.454 E1.05559
G1 X164.714 Y146.987 E0.20026
G1 X161.750 Y146.987 E0.09293
G1 X161.566 Y159.037 E0.37786
G1 X169.213 Y159.037 E0.23975
G1 X169.213 Y172.713 E0.42880
G1 X128.787 Y172.713 E1.26752
G1 X128.787 Y124.702 E1.50533
G1 E-0.80000 F2100.00000
G1 Z0.800 F10800.000
G1 X162.121 Y147.364
G1 Z0.200
G1 E0.80000 F2100.00000
G1 F1200.000
G1 X161.949 Y158.660 E0.35421
G1 X169.590 Y158.660 E0.23957
G1 X169.590 Y173.090 E0.45244
G1 X128.410 Y173.090 E1.29117
G1 X128.410 Y124.264 E1.53090
G1 X150.437 Y124.339 E0.69066
G1 X150.437 Y108.410 E0.49943
G1 X169.590 Y108.410 E0.60052
G1 X169.590 Y142.609 E1.07228
G1 X164.871 Y147.364 E0.21005
G1 X162.181 Y147.364 E0.08433
G1 X161.728 Y147.435 F10800.000
G1 E-0.80000 F2100.00000
G1 Z0.800 F10800.000
G1 X169.100 Y159.510
G1 Z0.200
G1 E0.80000 F2100.00000
G1 F1200.000
G1 X168.910 Y159.320 E0.00847
G1 X168.374 Y159.320 E0.01689
G1 X168.930 Y159.876 E0.02479
G1 X168.930 Y160.412 E0.01689
G1 X167.838 Y159.320 E0.04868
G1 X167.302 Y159.320 E0.01689
G1 X168.930 Y160.948 E0.07256
G1 X168.930 Y161.484 E0.01689
G1 X166.766 Y159.320 E0.09644
G1 X166.230 Y159.320 E0.01689
G1 X168.930 Y162.020 E0.12033
G1 X168.930 Y162.556 E0.01689
G1 X165.694 Y159.320 E0.14421
G1 X165.158 Y159.320 E0.01689
G1 X168.930 Y163.092 E0.16810
G1 X168.930 Y163.628 E0.01689
G1 X164.622 Y159.320 E0.19198
G1 X164.086 Y159.320 E0.01689
G1 X168.930 Y164.164 E0.21587
G1 X168.930 Y164.700 E0.01689
G1 X163.550 Y159.320 E0.23975
G1 X163.014 Y159.320 E0.01689
G1 X168.930 Y165.236 E0.26363
G1 X168.930 Y165.772 E0.01689
G1 X162.478 Y159.320 E0.28752
G1 X161.942 Y159.320 E0.01689
G1 X168.930 Y166.308 E0.31140
G1 X168.930 Y166.843 E0.01689
G1 X129.070 Y126.983 E1.77635
G1 X129.070 Y126.447 E0.01689
G1 X161.289 Y158.667 E1.43583
G1 X161.297 Y158.139 E0.01664
M73 Q1 S61
G1 X129.070 Y125.911 E1.43619
M73 P1 R61
G1 X129.070 Y125.375 E0.01689
G1 X161.305 Y157.611 E1.43655
G1 X161.313 Y157.083 E0.01664
G1 X129.157 Y124.927 E1.43303
G1 X129.695 Y124.928 E0.01695
G1 X161.321 Y156.555 E1.40942
G1 X161.329 Y156.027 E0.01664
G1 X130.232 Y124.930 E1.38582
G1 X130.770 Y124.932 E0.01695
G1 X161.337 Y155.499 E1.36221
G1 X161.345 Y154.971 E0.01664
G1 X131.308 Y124.934 E1.33860
G1 X131.846 Y124.936 E0.01695
G1 X161.354 Y154.443 E1.31500
G1 X161.362 Y153.915 E0.01664
G1 X132.384 Y124.937 E1.29139
G1 X132.921 Y124.939 E0.01695
G1 X161.370 Y153.388 E1.26778
G1 X161.378 Y152.860 E0.01664
G1 X133.459 Y124.941 E1.24418
G1 X133.997 Y124.943 E0.01695
G1 X161.386 Y152.332 E1.22057
G1 X161.394 Y151.804 E0.01664
G1 X134.535 Y124.945 E1.19696
G1 X135.072 Y124.947 E0.01695
G1 X161.402 Y151.276 E1.17336
G1 X161.410 Y150.748 E0.01664
G1 X135.610 Y124.948 E1.14975
G1 X136.148 Y124.950 E0.01695
G1 X161.418 Y150.220 E1.12614
G1 X161.426 Y149.692 E0.01664
G1 X136.686 Y124.952 E1.10254
G1 X137.223 Y124.954 E0.01695
G1 X161.434 Y149.164 E1.07893
G1 X161.442 Y148.636 E0.01664
G1 X137.761 Y124.956 E1.05532
G1 X138.299 Y124.957 E0.01695
G1 X161.450 Y148.109 E1.03172
G1 X161.458 Y147.581 E0.01664
G1 X138.837 Y124.959 E1.00811
G1 X139.375 Y124.961 E0.01695
G1 X161.466 Y147.053 E0.98450
G1 X161.472 Y146.704 E0.01098
G1 X161.654 Y146.704 E0.00574
G1 X139.912 Y124.963 E0.96889
G1 X140.450 Y124.965 E0.01695
G1 X162.190 Y146.704 E0.96881
G1 X162.726 Y146.704 E0.01689
G1 X140.988 Y124.966 E0.96873
G1 X141.526 Y124.968 E0.01695
G1 X163.262 Y146.704 E0.96865
G1 X163.798 Y146.704 E0.01689
G1 X142.063 Y124.970 E0.96857
G1 X142.601 Y124.972 E0.01695
G1 X164.333 Y146.704 E0.96849
G1 X164.596 Y146.704 E0.00828
G1 X164.732 Y146.567 E0.00609
G1 X143.139 Y124.974 E0.96230
G1 X143.677 Y124.976 E0.01695
G1 X164.999 Y146.298 E0.95023
G1 X165.266 Y146.029 E0.01194
G1 X144.214 Y124.977 E0.93816
G1 X144.752 Y124.979 E0.01695
G1 X165.533 Y145.760 E0.92609
G1 X165.800 Y145.491 E0.01194
G1 X145.290 Y124.981 E0.91402
M73 Q3 S60
G1 X145.828 Y124.983 E0.01695
G1 X166.067 Y145.222 E0.90195
G1 X166.334 Y144.953 E0.01194
G1 X146.365 Y124.985 E0.88989
M73 P3 R60
G1 X146.903 Y124.986 E0.01695
G1 X166.601 Y144.684 E0.87782
G1 X166.868 Y144.415 E0.01194
G1 X147.441 Y124.988 E0.86575
G1 X147.979 Y124.990 E0.01695
G1 X167.135 Y144.146 E0.85368
G1 X167.402 Y143.877 E0.01194
G1 X148.517 Y124.992 E0.84161
G1 X149.054 Y124.994 E0.01695
G1 X167.669 Y143.608 E0.82954
G1 X167.936 Y143.339 E0.01194
G1 X149.592 Y124.996 E0.81747
G1 X150.130 Y124.997 E0.01695
G1 X168.203 Y143.070 E0.80540
G1 X168.470 Y142.801 E0.01194
G1 X150.668 Y124.999 E0.79333
G1 X151.097 Y125.001 E0.01354
G1 X151.097 Y124.893 E0.00340
G1 X168.737 Y142.532 E0.78609
G1 X168.930 Y142.337 E0.00866
G1 X168.930 Y142.190 E0.00464
G1 X151.097 Y124.357 E0.79471
G1 X151.097 Y123.821 E0.01689
G1 X168.930 Y141.654 E0.79471
G1 X168.930 Y141.118 E0.01689
G1 X151.097 Y123.285 E0.79471
G1 X151.097 Y122.749 E0.01689
G1 X168.930 Y140.582 E0.79471
G1 X168.930 Y140.046 E0.01689
G1 X151.097 Y122.213 E0.79471
G1 X151.097 Y121.677 E0.01689
G1 X168.930 Y139.510 E0.79471
G1 X168.930 Y138.974 E0.01689
G1 X151.097 Y121.141 E0.79471
G1 X151.097 Y120.605 E0.01689
G1 X168.930 Y138.438 E0.79471
G1 X168.930 Y137.902 E0.01689
G1 X151.097 Y120.069 E0.79471
G1 X151.097 Y119.533 E0.01689
G1 X168.930 Y137.366 E0.79471
G1 X168.930 Y136.830 E0.01689
G1 X151.097 Y118.997 E0.79471
G1 X151.097 Y118.461 E0.01689
G1 X168.930 Y136.294 E0.79471
G1 X168.930 Y135.758 E0.01689
G1 X151.097 Y117.925 E0.79471
G1 X151.097 Y117.390 E0.01689
G1 X168.930 Y135.222 E0.79471
G1 X168.930 Y134.686 E0.01689
G1 X151.097 Y116.854 E0.79471
G1 X151.097 Y116.318 E0.01689
G1 X168.930 Y134.151 E0.79471
G1 X168.930 Y133.615 E0.01689
G1 X151.097 Y115.782 E0.79471
G1 X151.097 Y115.246 E0.01689
G1 X168.930 Y133.079 E0.79471
G1 X168.930 Y132.543 E0.01689
G1 X151.097 Y114.710 E0.79471
G1 X151.097 Y114.174 E0.01689
G1 X168.930 Y132.007 E0.79471
G1 X168.930 Y131.471 E0.01689
G1 X151.097 Y113.638 E0.79471
G1 X151.097 Y113.102 E0.01689
G1 X168.930 Y130.935 E0.79471
G1 X168.930 Y130.399 E0.01689
G1 X151.097 Y112.566 E0.79471
G1 X151.097 Y112.030 E0.01689
G1 X168.930 Y129.863 E0.79471
G1 X168.930 Y129.327 E0.01689
G1 X151.097 Y111.494 E0.79471
G1 X151.097 Y110.958 E0.01689
G1 X168.930 Y128.791 E0.79471
G1 X168.930 Y128.255 E0.01689
G1 X151.097 Y110.422 E0.79471
G1 X151.097 Y109.886 E0.01689
G1 X168.930 Y127.719 E0.79471
G1 X168.930 Y127.183 E0.01689
G1 X151.097 Y109.350 E0.79471
G1 X151.097 Y109.070 E0.00884
G1 X151.353 Y109.070 E0.00805
G1 X168.930 Y126.647 E0.78332
G1 X168.930 Y126.111 E0.01689
G1 X151.889 Y109.070 E0.75944
G1 X152.425 Y109.070 E0.01689
G1 X168.930 Y125.575 E0.73555
G1 X168.930 Y125.039 E0.01689
G1 X152.961 Y109.070 E0.71167
G1 X153.497 Y109.070 E0.01689
G1 X168.930 Y124.503 E0.68779
G1 X168.930 Y123.967 E0.01689
G1 X154.033 Y109.070 E0.66390
G1 X154.568 Y109.070 E0.01689
G1 X168.930 Y123.432 E0.64002
M73 Q4 S59
G1 X168.930 Y122.896 E0.01689
G1 X155.104 Y109.070 E0.61613
G1 X155.640 Y109.070 E0.01689
G1 X168.930 Y122.360 E0.59225
G1 X168.930 Y121.824 E0.01689
M73 P5 R59
G1 X156.176 Y109.070 E0.56836
G1 X156.712 Y109.070 E0.01689
G1 X168.930 Y121.288 E0.54448
G1 X168.930 Y120.752 E0.01689
G1 X157.248 Y109.070 E0.52060
G1 X157.784 Y109.070 E0.01689
G1 X168.930 Y120.216 E0.49671
G1 X168.930 Y119.680 E0.01689
G1 X158.320 Y109.070 E0.47283
G1 X158.856 Y109.070 E0.01689
G1 X168.930 Y119.144 E0.44894
G1 X168.930 Y118.608 E0.01689
G1 X159.392 Y109.070 E0.42506
G1 X159.928 Y109.070 E0.01689
G1 X168.930 Y118.072 E0.40117
G1 X168.930 Y117.536 E0.01689
G1 X160.464 Y109.070 E0.37729
G1 X161.000 Y109.070 E0.01689
G1 X168.930 Y117.000 E0.35341
G1 X168.930 Y116.464 E0.01689
G1 X161.536 Y109.070 E0.32952
G1 X162.072 Y109.070 E0.01689
G1 X168.930 Y115.928 E0.30564
G1 X168.930 Y115.392 E0.01689
G1 X162.608 Y109.070 E0.28175
G1 X163.144 Y109.070 E0.01689
G1 X168.930 Y114.856 E0.25787
G1 X168.930 Y114.320 E0.01689
G1 X163.680 Y109.070 E0.23398
G1 X164.216 Y109.070 E0.01689
G1 X168.930 Y113.784 E0.21010
G1 X168.930 Y113.248 E0.01689
G1 X164.752 Y109.070 E0.18622
G1 X165.287 Y109.070 E0.01689
G1 X168.930 Y112.713 E0.16233
G1 X168.930 Y112.177 E0.01689
G1 X165.823 Y109.070 E0.13845
G1 X166.359 Y109.070 E0.01689
G1 X168.930 Y111.641 E0.11456
G1 X168.930 Y111.105 E0.01689
G1 X166.895 Y109.070 E0.09068
G1 X167.431 Y109.070 E0.01689
G1 X168.930 Y110.569 E0.06679
G1 X168.930 Y110.033 E0.01689
G1 X167.967 Y109.070 E0.04291
G1 X168.503 Y109.070 E0.01689
G1 X169.100 Y109.666 E0.02659
G1 E-0.80000 F2100.00000
G1 Z0.800 F10800.000
G1 X169.100 Y167.549
G1 Z0.200
G1 E0.80000 F2100.00000
G1 F1200.000
G1 X129.070 Y127.519 E1.78391
G1 X129.070 Y128.055 E0.01689
G1 X168.930 Y167.915 E1.77635
G1 X168.930 Y168.451 E0.01689
G1 X129.070 Y128.591 E1.77635
G1 X129.070 Y129.127 E0.01689
G1 X168.930 Y168.987 E1.77635
G1 X168.930 Y169.523 E0.01689
G1 X129.070 Y129.663 E1.77635
G1 X129.070 Y130.199 E0.01689
G1 X168.930 Y170.059 E1.77635
G1 X168.930 Y170.595 E0.01689
G1 X129.070 Y130.735 E1.77635
G1 X129.070 Y131.271 E0.01689
G1 X168.930 Y171.131 E1.77635
G1 X168.930 Y171.667 E0.01689
G1 X129.070 Y131.807 E1.77635
G1 X129.070 Y132.343 E0.01689
G1 X168.930 Y172.203 E1.77635
G1 X168.930 Y172.430 E0.00716
G1 X168.621 Y172.430 E0.00973
G1 X129.070 Y132.879 E1.76259
G1 X129.070 Y133.415 E0.01689
G1 X168.085 Y172.430 E1.73870
G1 X167.549 Y172.430 E0.01689
G1 X129.070 Y133.951 E1.71482
G1 X129.070 Y134.487 E0.01689
G1 X167.013 Y172.430 E1.69093
G1 X166.477 Y172.430 E0.01689
G1 X129.070 Y135.023 E1.66705
G1 X129.070 Y135.558 E0.01689
G1 X165.942 Y172.430 E1.64316
G1 X165.406 Y172.430 E0.01689
M73 Q6 S58
G1 X129.070 Y136.094 E1.61928
M73 P6 R58
G1 X129.070 Y136.630 E0.01689
G1 X164.870 Y172.430 E1.59540
G1 X164.334 Y172.430 E0.01689
G1 X129.070 Y137.166 E1.57151
G1 X129.070 Y137.702 E0.01689
G1 X163.798 Y172.430 E1.54763
G1 X163.262 Y172.430 E0.01689
G1 X129.070 Y138.238 E1.52374
G1 X129.070 Y138.774 E0.01689
G1 X162.726 Y172.430 E1.49986
G1 X162.190 Y172.430 E0.01689
G1 X129.070 Y139.310 E1.47597
G1 X129.070 Y139.846 E0.01689
G1 X161.654 Y172.430 E1.45209
G1 X161.118 Y172.430 E0.01689
G1 X129.070 Y140.382 E1.42820
G1 X129.070 Y140.918 E0.01689
G1 X160.582 Y172.430 E1.40432
G1 X160.046 Y172.430 E0.01689
G1 X129.070 Y141.454 E1.38044
G1 X129.070 Y141.990 E0.01689
G1 X159.510 Y172.430 E1.35655
G1 X158.974 Y172.430 E0.01689
G1 X129.070 Y142.526 E1.33267
G1 X129.070 Y143.062 E0.01689
G1 X158.438 Y172.430 E1.30878
G1 X157.902 Y172.430 E0.01689
G1 X129.070 Y143.598 E1.28490
G1 X129.070 Y144.134 E0.01689
G1 X157.366 Y172.430 E1.26101
G1 X156.830 Y172.430 E0.01689
G1 X129.070 Y144.670 E1.23713
G1 X129.070 Y145.206 E0.01689
G1 X156.294 Y172.430 E1.21325
G1 X155.758 Y172.430 E0.01689
G1 X129.070 Y145.742 E1.18936
G1 X129.070 Y146.277 E0.01689
G1 X155.223 Y172.430 E1.16548
G1 X154.687 Y172.430 E0.01689
G1 X129.070 Y146.813 E1.14159
G1 X129.070 Y147.349 E0.01689
G1 X154.151 Y172.430 E1.11771
G1 X153.615 Y172.430 E0.01689
G1 X129.070 Y147.885 E1.09382
G1 X129.070 Y148.421 E0.01689
G1 X153.079 Y172.430 E1.06994
G1 X152.543 Y172.430 E0.01689
G1 X129.070 Y148.957 E1.04606
G1 X129.070 Y149.493 E0.01689
G1 X152.007 Y172.430 E1.02217
G1 X151.471 Y172.430 E0.01689
G1 X129.070 Y150.029 E0.99829
G1 X129.070 Y150.565 E0.01689
G1 X150.935 Y172.430 E0.97440
G1 X150.399 Y172.430 E0.01689
G1 X129.070 Y151.101 E0.95052
M73 Q8 S57
G1 X129.070 Y151.637 E0.01689
G1 X149.863 Y172.430 E0.92663
G1 X149.327 Y172.430 E0.01689
G1 X129.070 Y152.173 E0.90275
M73 P8 R57
G1 X129.070 Y152.709 E0.01689
G1 X148.791 Y172.430 E0.87887
G1 X148.255 Y172.430 E0.01689
G1 X129.070 Y153.245 E0.85498
G1 X129.070 Y153.781 E0.01689
G1 X147.719 Y172.430 E0.83110
G1 X147.183 Y172.430 E0.01689
G1 X129.070 Y154.317 E0.80721
G1 X129.070 Y154.853 E0.01689
G1 X146.647 Y172.430 E0.78333
G1 X146.111 Y172.430 E0.01689
G1 X129.070 Y155.389 E0.75944
G1 X129.070 Y155.925 E0.01689
G1 X145.575 Y172.430 E0.73556
G1 X145.039 Y172.430 E0.01689
G1 X129.070 Y156.461 E0.71168
G1 X129.070 Y156.996 E0.01689
G1 X144.504 Y172.430 E0.68779
G1 X143.968 Y172.430 E0.01689
G1 X129.070 Y157.532 E0.66391
G1 X129.070 Y158.068 E0.01689
G1 X143.432 Y172.430 E0.64002
G1 X142.896 Y172.430 E0.01689
G1 X129.070 Y158.604 E0.61614
G1 X129.070 Y159.140 E0.01689
G1 X142.360 Y172.430 E0.59225
G1 X141.824 Y172.430 E0.01689
G1 X129.070 Y159.676 E0.56837
G1 X129.070 Y160.212 E0.01689
G1 X141.288 Y172.430 E0.54449
G1 X140.752 Y172.430 E0.01689
G1 X129.070 Y160.748 E0.52060
G1 X129.070 Y161.284 E0.01689
G1 X140.216 Y172.430 E0.49672
G1 X139.680 Y172.430 E0.01689
G1 X129.070 Y161.820 E0.47283
G1 X129.070 Y162.356 E0.01689
G1 X139.144 Y172.430 E0.44895
G1 X138.608 Y172.430 E0.01689
G1 X129.070 Y162.892 E0.42506
G1 X129.070 Y163.428 E0.01689
G1 X138.072 Y172.430 E0.40118
G1 X137.536 Y172.430 E0.01689
G1 X129.070 Y163.964 E0.37730
G1 X129.070 Y164.500 E0.01689
G1 X137.000 Y172.430 E0.35341
G1 X136.464 Y172.430 E0.01689
G1 X129.070 Y165.036 E0.32953
G1 X129.070 Y165.572 E0.01689
G1 X135.928 Y172.430 E0.30564
G1 X135.392 Y172.430 E0.01689
G1 X129.070 Y166.108 E0.28176
G1 X129.070 Y166.644 E0.01689
G1 X134.856 Y172.430 E0.25787
G1 X134.320 Y172.430 E0.01689
G1 X129.070 Y167.180 E0.23399
G1 X129.070 Y167.715 E0.01689
G1 X133.785 Y172.430 E0.21011
G1 X133.249 Y172.430 E0.01689
G1 X129.070 Y168.251 E0.18622
G1 X129.070 Y168.787 E0.01689
G1 X132.713 Y172.430 E0.16234
G1 X132.177 Y172.430 E0.01689
G1 X129.070 Y169.323 E0.13845
G1 X129.070 Y169.859 E0.01689
G1 X131.641 Y172.430 E0.11457
G1 X131.105 Y172.430 E0.01689
G1 X129.070 Y170.395 E0.09068
G1 X129.070 Y170.931 E0.01689
G1 X130.569 Y172.430 E0.06680
G1 X130.033 Y172.430 E0.01689
G1 X129.070 Y171.467 E0.04292
