; generated by PrusaSlicer 2.2.0+win64 on 2020-10-15 at 19:15:38 UTC

; 

; external perimeters extrusion width = 0.45mm
; perimeters extrusion width = 0.45mm
; infill extrusion width = 0.45mm
; solid infill extrusion width = 0.45mm
; top infill extrusion width = 0.40mm
; first layer extrusion width = 0.42mm

M73 P0 R15
M73 Q0 S15
M201 X1000 Y1000 Z1000 E5000 ; sets maximum accelerations, mm/sec^2
M203 X200 Y200 Z12 E120 ; sets maximum feedrates, mm/sec
M204 P1250 R1250 T1250 ; sets acceleration (P, T) and retract acceleration (R), mm/sec^2
M205 X8.00 Y8.00 Z0.40 E1.50 ; sets the jerk limits, mm/sec
M205 S0 T0 ; sets the minimum extruding and travel feed rate, mm/sec
M107
M862.3 P "MK3S" ; printer model check
M862.1 P0.4 ; nozzle diameter check
M115 U3.8.0 ; tell printer latest fw version
G90 ; use absolute coordinates
M83 ; extruder relative mode
M104 S215 ; set extruder temp
M140 S60 ; set bed temp
M190 S60 ; wait for bed temp
M109 S215 ; wait for extruder temp
G28 W ; home all without mesh bed level
G80 ; mesh bed leveling
G1 Y-3.0 F1000.0 ; go outside print area
G92 E0.0
G1 X60.0 E9.0 F1000.0 ; intro line
M73 Q0 S15
M73 P0 R14
G1 X100.0 E12.5 F1000.0 ; intro line
G92 E0.0
M221 S95
G21 ; set units to millimeters
G90 ; use absolute coordinates
M83 ; use relative distances for extrusion
M900 K0.05 ; Filament gcode LA 1.5
M900 K30 ; Filament gcode LA 1.0
;BEFORE_LAYER_CHANGE
G92 E0.0
;0.2


G1 E-0.80000 F2100.00000
G1 Z0.600 F10800.000
;AFTER_LAYER_CHANGE
;0.2
G1 X104.683 Y91.706
G1 Z0.200
G1 E0.80000 F2100.00000
M204 S1000
G1 F1200.000
G1 X103.713 Y91.511 E0.04978
G1 X103.177 Y91.410 E0.02519
G1 X103.059 Y91.282 E0.00740
G1 X102.940 Y91.154 E0.00697
G1 E-0.80000 F2100.00000
G1 Z0.800 F10800.000
G1 X104.122 Y87.175
G1 Z0.200
G1 E0.80000 F2100.00000
G1 F1200.000
G1 X104.461 Y87.104 E0.01533
G1 X104.899 Y87.333 E0.02337
G1 X105.750 Y87.766 E0.04862
G1 E-0.80000 F2100.00000
G1 Z0.800 F10800.000
G1 X111.563 Y100.641
G1 Z0.200
G1 E0.80000 F2100.00000
G1 F1200.000
G1 X110.505 Y100.597 E0.03320
G1 X110.501 Y100.643 E0.00147
G1 X110.246 Y100.586 E0.00819
G1 X109.988 Y100.575 E0.00812
G1 X109.994 Y100.528 E0.00146
G1 X109.034 Y100.311 E0.03085
G1 X108.213 Y100.041 E0.02710
G1 X107.421 Y99.695 E0.02710
G1 X106.666 Y99.275 E0.02710
G1 X105.646 Y98.575 E0.03880
G1 X104.722 Y97.660 E0.04077
G1 X104.122 Y96.927 E0.02970
G1 X103.601 Y96.136 E0.02970
G1 X103.164 Y95.296 E0.02970
G1 X102.818 Y94.414 E0.02970
G1 X102.564 Y93.502 E0.02970
G1 X102.407 Y92.568 E0.02970
G1 X102.299 Y90.866 E0.05346
G1 X102.377 Y90.884 E0.00249
G1 X102.440 Y90.215 E0.02107
G1 X102.608 Y89.350 E0.02762
G1 X102.859 Y88.506 E0.02762
G1 X103.190 Y87.690 E0.02762
G1 X103.727 Y86.662 E0.03637
G1 X104.435 Y85.712 E0.03715
G1 X105.051 Y85.038 E0.02861
G1 X105.730 Y84.429 E0.02861
G1 X106.467 Y83.892 E0.02861
G1 X107.856 Y83.078 E0.05046
G1 X108.370 Y84.635 E0.05142
G1 X108.464 Y85.074 E0.01406
G1 X108.674 Y85.042 E0.00667
G1 X108.614 Y84.367 E0.02123
G1 X108.376 Y82.895 E0.04676
G1 X109.789 Y82.554 E0.04557
G1 X110.720 Y82.429 E0.02946
G1 X111.614 Y82.402 E0.02804
G1 X112.595 Y82.468 E0.03083
G1 X113.522 Y82.633 E0.02951
G1 X114.425 Y82.891 E0.02946
G1 X115.986 Y83.518 E0.05272
G1 X115.180 Y84.572 E0.04161
G1 X114.670 Y85.328 E0.02859
G1 X114.177 Y86.174 E0.03071
G1 X113.694 Y87.133 E0.03368
G1 X113.210 Y88.239 E0.03785
G1 X112.869 Y89.146 E0.03038
G1 X113.061 Y89.234 E0.00662
G1 X113.788 Y87.900 E0.04763
G1 X114.402 Y86.935 E0.03587
G1 X115.045 Y86.050 E0.03431
G1 X115.755 Y85.204 E0.03462
G1 X116.830 Y84.085 E0.04867
G1 X117.971 Y85.124 E0.04838
G1 X118.635 Y85.877 E0.03147
G1 X119.211 Y86.698 E0.03147
G1 X119.694 Y87.578 E0.03147
G1 X120.303 Y89.052 E0.04999
G1 X118.830 Y89.560 E0.04887
G1 X117.808 Y89.831 E0.03314
G1 X116.757 Y90.026 E0.03352
G1 X115.685 Y90.143 E0.03380
G1 X114.600 Y90.181 E0.03404
G1 X113.731 Y90.147 E0.02726
G1 X113.706 Y90.354 E0.00654
G1 X115.200 Y90.608 E0.04752
G1 X116.371 Y90.726 E0.03690
G1 X117.554 Y90.770 E0.03711
G1 X118.743 Y90.741 E0.03728
G1 X120.595 Y90.580 E0.05828
G1 X120.568 Y92.145 E0.04907
G1 X120.455 Y93.083 E0.02961
G1 X120.245 Y94.004 E0.02961
G1 X119.941 Y94.898 E0.02961
G1 X119.547 Y95.756 E0.02961
G1 X119.066 Y96.568 E0.02961
G1 X118.503 Y97.327 E0.02961
G1 X117.491 Y98.431 E0.04694
G1 X115.958 Y97.044 E0.06483
G1 X115.009 Y96.307 E0.03766
G1 X113.966 Y95.599 E0.03955
G1 X113.614 Y95.391 E0.01281
G1 X113.494 Y95.563 E0.00658
G1 X114.209 Y96.148 E0.02897
G1 X114.964 Y96.866 E0.03268
G1 X115.675 Y97.657 E0.03336
G1 X116.740 Y99.037 E0.05464
G1 X115.299 Y99.799 E0.05111
G1 X114.404 Y100.157 E0.03023
G1 X113.476 Y100.418 E0.03023
G1 X112.525 Y100.580 E0.03023
G1 X111.623 Y100.638 E0.02835
G1 E-0.80000 F2100.00000
G1 Z0.800 F10800.000
G1 X117.466 Y97.900
G1 Z0.200
G1 E0.80000 F2100.00000
G1 F1200.000
G1 X116.200 Y96.755 E0.05352
G1 X115.231 Y96.002 E0.03849
G1 X114.168 Y95.280 E0.04029
G1 X113.006 Y94.592 E0.04233
G1 X111.624 Y93.878 E0.04877
G1 X112.271 Y91.994 E0.06247
G1 X112.845 Y90.563 E0.04833
G1 X113.968 Y90.793 E0.03596
G1 X115.152 Y90.982 E0.03757
G1 X116.345 Y91.102 E0.03761
G1 X117.552 Y91.148 E0.03785
G1 X118.764 Y91.118 E0.03801
G1 X120.211 Y90.992 E0.04554
G1 X120.192 Y92.119 E0.03535
G1 X120.083 Y93.018 E0.02839
G1 X119.882 Y93.901 E0.02839
G1 X119.591 Y94.758 E0.02839
G1 X119.212 Y95.580 E0.02839
G1 X118.751 Y96.359 E0.02839
G1 X118.212 Y97.086 E0.02839
G1 X117.507 Y97.855 E0.03270
G1 X117.202 Y98.200 F10800.000
G1 E-0.80000 F2100.00000
G1 Z0.800 F10800.000
G1 X111.162 Y93.662
G1 Z0.200
G1 E0.80000 F2100.00000
G1 F1200.000
G1 X109.651 Y93.039 E0.05125
G1 X108.167 Y92.503 E0.04947
G1 X108.550 Y90.876 E0.05241
G1 X108.847 Y89.315 E0.04983
G1 X110.442 Y89.888 E0.05315
G1 X112.042 Y90.368 E0.05236
G1 X111.576 Y91.990 E0.05290
G1 X111.176 Y93.604 E0.05216
G1 X111.025 Y94.039 F10800.000
G1 E-0.80000 F2100.00000
G1 Z0.800 F10800.000
G1 X111.559 Y100.264
G1 Z0.200
G1 E0.80000 F2100.00000
G1 F1200.000
G1 X110.417 Y100.215 E0.03585
G1 X110.788 Y97.483 E0.08645
G1 X111.046 Y96.224 E0.04029
G1 X111.425 Y94.582 E0.05284
G1 X112.349 Y95.192 E0.03470
G1 X113.192 Y95.803 E0.03265
G1 X113.959 Y96.431 E0.03107
G1 X114.693 Y97.129 E0.03178
G1 X115.386 Y97.899 E0.03245
G1 X116.168 Y98.913 E0.04015
G1 X115.140 Y99.456 E0.03645
G1 X114.282 Y99.799 E0.02898
G1 X113.393 Y100.050 E0.02898
G1 X112.482 Y100.205 E0.02898
G1 X111.619 Y100.260 E0.02710
G1 X111.363 Y100.612 F10800.000
G1 E-0.80000 F2100.00000
G1 Z0.800 F10800.000
G1 X113.576 Y89.764
G1 Z0.200
G1 E0.80000 F2100.00000
G1 F1200.000
G1 X113.209 Y89.750 E0.01154
G1 X114.113 Y88.092 E0.05921
G1 X114.714 Y87.147 E0.03510
G1 X115.343 Y86.282 E0.03353
G1 X116.036 Y85.456 E0.03381
G1 X116.848 Y84.611 E0.03676
G1 X117.702 Y85.389 E0.03621
G1 X118.338 Y86.110 E0.03017
G1 X118.891 Y86.898 E0.03017
G1 X119.353 Y87.741 E0.03017
G1 X119.802 Y88.826 E0.03679
G1 X118.720 Y89.199 E0.03589
G1 X117.725 Y89.463 E0.03226
G1 X116.702 Y89.653 E0.03264
G1 X115.658 Y89.766 E0.03292
G1 X114.601 Y89.803 E0.03317
G1 X113.636 Y89.766 E0.03026
G1 X113.384 Y90.078 F10800.000
G1 E-0.80000 F2100.00000
G1 Z0.800 F10800.000
G1 X112.283 Y89.630
G1 Z0.200
G1 E0.80000 F2100.00000
G1 F1200.000
G1 X110.400 Y89.260 E0.06017
G1 X108.911 Y88.863 E0.04833
G1 X109.055 Y87.379 E0.04677
G1 X109.097 Y86.295 E0.03401
G1 X109.074 Y85.277 E0.03191
G1 X108.989 Y84.321 E0.03012
G1 X108.804 Y83.180 E0.03623
G1 X109.859 Y82.926 E0.03400
G1 X110.751 Y82.806 E0.02824
G1 X111.607 Y82.779 E0.02685
G1 X112.550 Y82.843 E0.02961
G1 X113.437 Y83.001 E0.02826
G1 X114.303 Y83.248 E0.02824
G1 X115.385 Y83.683 E0.03656
G1 X114.874 Y84.352 E0.02641
G1 X114.351 Y85.127 E0.02932
G1 X113.845 Y85.994 E0.03146
G1 X113.352 Y86.973 E0.03436
G1 X112.861 Y88.097 E0.03848
G1 X112.305 Y89.574 E0.04947
G1 X112.182 Y90.017 F10800.000
G1 E-0.80000 F2100.00000
G1 Z0.800 F10800.000
G1 X110.166 Y100.181
G1 Z0.200
G1 E0.80000 F2100.00000
G1 F1200.000
G1 X109.135 Y99.947 E0.03315
G1 X108.348 Y99.689 E0.02598
G1 X107.589 Y99.357 E0.02598
G1 X106.865 Y98.954 E0.02598
G1 X105.887 Y98.283 E0.03718
G1 X105.001 Y97.406 E0.03910
G1 X104.426 Y96.703 E0.02847
G1 X103.926 Y95.945 E0.02847
G1 X103.508 Y95.139 E0.02847
G1 X103.176 Y94.294 E0.02847
G1 X102.933 Y93.420 E0.02847
G1 X102.782 Y92.524 E0.02847
G1 X102.708 Y91.348 E0.03697
G1 X102.814 Y90.269 E0.03399
G1 X102.975 Y89.440 E0.02647
G1 X103.215 Y88.631 E0.02647
G1 X103.533 Y87.848 E0.02647
G1 X104.048 Y86.863 E0.03486
G1 X104.726 Y85.952 E0.03562
G1 X105.316 Y85.306 E0.02742
G1 X105.968 Y84.723 E0.02742
G1 X106.674 Y84.207 E0.02742
G1 X107.644 Y83.639 E0.03524
G1 X108.006 Y84.734 E0.03615
G1 X108.161 Y85.460 E0.02328
G1 X108.261 Y86.261 E0.02530
G1 X108.306 Y87.160 E0.02822
G1 X108.281 Y88.665 E0.04721
G1 X107.006 Y88.191 E0.04265
G1 X105.986 Y87.757 E0.03475
G1 X105.893 Y87.954 E0.00684
G1 X106.647 Y88.343 E0.02657
G1 X108.246 Y89.066 E0.05503
G1 X108.042 Y90.729 E0.05255
G1 X107.743 Y92.368 E0.05223
G1 X106.947 Y92.134 E0.02601
G1 X105.602 Y91.790 E0.04353
G1 X104.913 Y91.652 E0.02204
G1 X104.861 Y91.863 E0.00679
G1 X106.051 Y92.213 E0.03891
G1 X107.651 Y92.771 E0.05314
G1 X107.101 Y94.794 E0.06572
G1 X106.616 Y96.275 E0.04889
G1 X105.903 Y98.175 E0.06362
G1 X106.105 Y98.259 E0.00686
G1 X106.370 Y97.675 E0.02011
G1 X106.976 Y96.201 E0.04995
G1 X107.506 Y94.704 E0.04981
G1 X108.053 Y92.926 E0.05832
G1 X109.845 Y93.731 E0.06159
G1 X111.015 Y94.343 E0.04141
G1 X110.558 Y96.866 E0.08037
G1 X110.322 Y98.550 E0.05333
G1 X110.172 Y100.121 E0.04949
G1 X110.092 Y100.574 F10800.000
G1 E-0.80000 F2100.00000
G1 Z0.800 F10800.000
G1 X111.468 Y101.466
G1 Z0.200
G1 E0.80000 F2100.00000
G1 F1200.000
G1 X110.462 Y101.415 E0.03159
G1 X109.466 Y101.263 E0.03159
G1 X108.491 Y101.010 E0.03159
G1 X107.546 Y100.660 E0.03159
G1 X106.758 Y100.274 E0.02751
G1 X105.784 Y99.682 E0.03575
G1 X104.990 Y99.067 E0.03149
G1 X104.259 Y98.373 E0.03159
G1 X103.603 Y97.608 E0.03159
G1 X103.028 Y96.781 E0.03159
G1 X102.539 Y95.900 E0.03159
G1 X102.141 Y94.975 E0.03159
G1 X101.840 Y94.013 E0.03159
G1 X101.637 Y93.026 E0.03159
G1 X101.535 Y92.024 E0.03159
G1 X101.535 Y91.017 E0.03159
G1 X101.637 Y90.014 E0.03159
G1 X101.840 Y89.027 E0.03159
G1 X102.141 Y88.066 E0.03159
G1 X102.539 Y87.140 E0.03159
G1 X103.028 Y86.259 E0.03159
G1 X103.603 Y85.432 E0.03159
G1 X104.259 Y84.668 E0.03159
G1 X104.990 Y83.974 E0.03159
G1 X105.786 Y83.357 E0.03159
G1 X106.641 Y82.824 E0.03159
G1 X107.546 Y82.380 E0.03159
G1 X108.491 Y82.030 E0.03159
G1 X109.466 Y81.778 E0.03159
G1 X110.462 Y81.625 E0.03159
G1 X111.468 Y81.574 E0.03159
G1 X112.344 Y81.619 E0.02751
G1 X113.473 Y81.779 E0.03575
G1 X114.446 Y82.030 E0.03149
G1 X115.390 Y82.380 E0.03159
G1 X116.295 Y82.824 E0.03159
G1 X117.150 Y83.357 E0.03159
G1 X117.947 Y83.974 E0.03159
G1 X118.677 Y84.668 E0.03159
G1 X119.333 Y85.432 E0.03159
G1 X119.909 Y86.259 E0.03159
G1 X120.398 Y87.140 E0.03159
G1 X120.795 Y88.066 E0.03159
G1 X121.097 Y89.027 E0.03159
G1 X121.299 Y90.014 E0.03159
G1 X121.401 Y91.017 E0.03159
G1 X121.401 Y92.024 E0.03159
G1 X121.299 Y93.026 E0.03159
G1 X121.097 Y94.013 E0.03159
G1 X120.795 Y94.975 E0.03159
G1 X120.398 Y95.900 E0.03159
G1 X119.909 Y96.781 E0.03159
G1 X119.333 Y97.608 E0.03159
G1 X118.677 Y98.373 E0.03159
G1 X117.947 Y99.067 E0.03159
G1 X117.150 Y99.684 E0.03159
G1 X116.295 Y100.216 E0.03159
G1 X115.390 Y100.660 E0.03159
G1 X114.446 Y101.010 E0.03159
G1 X113.470 Y101.263 E0.03159
G1 X112.474 Y101.415 E0.03159
G1 X111.528 Y101.463 E0.02971
G1 X111.468 Y101.844 F10800.000
G1 F1200.000
G1 X110.424 Y101.791 E0.03279
G1 X109.390 Y101.632 E0.03279
G1 X108.378 Y101.370 E0.03279
G1 X107.397 Y101.007 E0.03279
G1 X106.577 Y100.605 E0.02864
G1 X105.570 Y99.993 E0.03695
G1 X104.744 Y99.353 E0.03275
G1 X103.986 Y98.633 E0.03279
G1 X103.305 Y97.839 E0.03279
G1 X102.707 Y96.981 E0.03279
G1 X102.200 Y96.067 E0.03279
G1 X101.787 Y95.106 E0.03279
G1 X101.474 Y94.108 E0.03279
G1 X101.264 Y93.084 E0.03279
G1 X101.158 Y92.043 E0.03279
G1 X101.158 Y90.997 E0.03279
G1 X101.264 Y89.957 E0.03279
G1 X101.474 Y88.933 E0.03279
G1 X101.787 Y87.935 E0.03279
G1 X102.200 Y86.974 E0.03279
G1 X102.707 Y86.059 E0.03279
G1 X103.305 Y85.201 E0.03279
G1 X103.986 Y84.408 E0.03279
G1 X104.744 Y83.687 E0.03279
G1 X105.571 Y83.047 E0.03279
G1 X106.458 Y82.494 E0.03279
G1 X107.397 Y82.033 E0.03279
G1 X108.378 Y81.670 E0.03279
G1 X109.390 Y81.408 E0.03279
G1 X110.424 Y81.250 E0.03279
G1 X111.468 Y81.197 E0.03279
G1 X112.381 Y81.243 E0.02864
G1 X113.547 Y81.408 E0.03695
G1 X114.559 Y81.670 E0.03275
G1 X115.539 Y82.033 E0.03279
G1 X116.478 Y82.494 E0.03279
G1 X117.366 Y83.047 E0.03279
G1 X118.193 Y83.687 E0.03279
G1 X118.951 Y84.408 E0.03279
G1 X119.632 Y85.201 E0.03279
G1 X120.229 Y86.059 E0.03279
G1 X120.737 Y86.974 E0.03279
G1 X121.149 Y87.935 E0.03279
G1 X121.462 Y88.933 E0.03279
G1 X121.673 Y89.957 E0.03279
G1 X121.778 Y90.997 E0.03279
G1 X121.778 Y92.043 E0.03279
G1 X121.673 Y93.084 E0.03279
G1 X121.462 Y94.108 E0.03279
G1 X121.149 Y95.106 E0.03279
G1 X120.737 Y96.067 E0.03279
G1 X120.229 Y96.981 E0.03279
G1 X119.632 Y97.839 E0.03279
G1 X118.951 Y98.633 E0.03279
G1 X118.193 Y99.353 E0.03279
G1 X117.366 Y99.993 E0.03279
G1 X116.478 Y100.547 E0.03279
G1 X115.539 Y101.007 E0.03279
G1 X114.559 Y101.370 E0.03279
G1 X113.546 Y101.632 E0.03279
G1 X112.513 Y101.791 E0.03279
G1 X111.528 Y101.841 E0.03091
G1 X111.268 Y101.497 F10800.000
G1 E-0.80000 F2100.00000
G1 Z0.800 F10800.000
G1 X117.134 Y99.238
G1 Z0.200
G1 E0.80000 F2100.00000
G1 F1200.000
G1 X116.092 Y99.851 E0.03708
G1 X115.480 Y100.163 E0.02107
G1 X114.546 Y100.539 E0.03090
G1 X113.554 Y100.819 E0.03161
G1 X112.432 Y101.002 E0.03488
G1 X111.556 Y101.051 E0.02693
G1 X110.835 Y101.022 E0.02213
G1 X110.628 Y101.052 E0.00642
G1 X110.194 Y100.977 E0.01352
G1 X109.765 Y100.935 E0.01322
G1 X109.572 Y100.859 E0.00638
G1 X108.616 Y100.612 E0.03029
G1 X108.078 Y100.424 E0.01747
G1 X107.711 Y100.277 E0.01215
G1 X106.957 Y99.910 E0.02570
G1 X106.463 Y99.623 E0.01755
G1 X106.020 Y99.338 E0.01615
G1 X105.408 Y98.891 E0.02324
G1 X104.561 Y98.086 E0.03585
G1 X103.787 Y97.159 E0.03704
G1 X103.255 Y96.352 E0.02966
G1 X102.913 Y95.717 E0.02214
G1 X102.533 Y94.830 E0.02961
G1 X102.429 Y94.532 E0.00966
G1 X102.170 Y93.601 E0.02966
G1 X102.050 Y92.963 E0.01991
G1 X101.953 Y92.003 E0.02961
G1 X101.922 Y91.036 E0.02967
G1 X101.930 Y90.635 E0.01229
G1 X101.956 Y90.564 E0.00234
G1 X101.982 Y90.492 E0.00258
G1 X102.008 Y90.421 E0.00266
G1 X102.046 Y90.077 E0.01207
G1 X102.213 Y89.242 E0.02969
G1 X102.531 Y88.210 E0.03768
G1 X102.912 Y87.323 E0.03369
G1 X103.371 Y86.473 E0.03371
G1 X103.933 Y85.688 E0.03371
G1 X104.562 Y84.955 E0.03368
G1 X105.261 Y84.290 E0.03368
G1 X105.483 Y84.106 E0.01005
G1 X106.254 Y83.545 E0.03326
G1 X106.844 Y83.189 E0.02406
G1 X107.696 Y82.730 E0.03377
G1 X107.873 Y82.646 E0.00487
G1 X108.026 Y82.612 E0.00389
G1 X108.051 Y82.727 E0.00291
G1 X108.120 Y83.013 E0.00505
G1 X108.299 Y83.746 E0.00559
G1 E-0.80000 F2100.00000
G1 Z0.800 F10800.000
G1 X108.026 Y82.612
G1 Z0.200
G1 E0.80000 F2100.00000
G1 F1200.000
G1 X108.613 Y82.419 E0.01973
G1 X109.550 Y82.185 E0.03085
G1 X110.504 Y82.039 E0.03084
G1 X111.468 Y81.991 E0.03084
G1 X112.305 Y82.033 E0.02676
G1 X112.656 Y82.070 E0.01128
G1 X113.392 Y82.187 E0.02381
G1 X114.321 Y82.428 E0.03066
G1 X115.226 Y82.764 E0.03084
G1 X116.390 Y83.299 E0.04093
G1 E-0.80000 F2100.00000
G1 Z0.800 F10800.000
G1 X120.729 Y89.104
G1 Z0.200
G1 E0.80000 F2100.00000
G1 F1200.000
G1 X120.405 Y88.210 E0.03324
G1 X120.069 Y87.412 E0.03030
G1 X119.554 Y86.470 E0.03753
G1 X118.964 Y85.633 E0.03583
G1 X118.375 Y84.954 E0.03142
G1 X117.675 Y84.290 E0.03376
G1 X116.954 Y83.684 E0.03295
G1 X116.651 Y83.869 F10800.000
G1 F1200.000
G1 X116.496 Y83.714 E0.00742
G1 X116.422 Y83.860 E0.00557
G1 X116.169 Y83.744 E0.00945
G1 X116.074 Y83.868 E0.00530
G1 X116.486 Y84.280 E0.01976
G1 X116.045 Y84.219 F10800.000
G1 F1200.000
G1 X115.787 Y84.521 E0.01780
G1 X115.528 Y84.822 E0.01682
G1 X115.450 Y84.920 E0.00499
G1 X115.215 Y85.230 E0.01482
G1 X114.990 Y85.529 E0.01297
G1 X114.883 Y85.681 E0.00584
G1 X114.776 Y85.833 E0.00535
G1 X114.613 Y86.083 E0.00784
