; generated by PrusaSlicer 2.2.0+win64 on 2020-10-15 at 19:42:25 UTC

; 

; external perimeters extrusion width = 0.45mm
; perimeters extrusion width = 0.45mm
; infill extrusion width = 0.45mm
; solid infill extrusion width = 0.45mm
; top infill extrusion width = 0.40mm
; first layer extrusion width = 0.42mm

M73 P0 R58
M73 Q0 S58
M201 X1000 Y1000 Z1000 E5000 ; sets maximum accelerations, mm/sec^2
M203 X200 Y200 Z12 E120 ; sets maximum feedrates, mm/sec
M204 P1250 R1250 T1250 ; sets acceleration (P, T) and retract acceleration (R), mm/sec^2
M205 X8.00 Y8.00 Z0.40 E1.50 ; sets the jerk limits, mm/sec
M205 S0 T0 ; sets the minimum extruding and travel feed rate, mm/sec
M107
M862.3 P "MK3S" ; printer model check
M862.1 P0.4 ; nozzle diameter check
M115 U3.8.0 ; tell printer latest fw version
G90 ; use absolute coordinates
M83 ; extruder relative mode
M104 S215 ; set extruder temp
M140 S60 ; set bed temp
M190 S60 ; wait for bed temp
M109 S215 ; wait for extruder temp
G28 W ; home all without mesh bed level
G80 ; mesh bed leveling
G1 Y-3.0 F1000.0 ; go outside print area
G92 E0.0
G1 X60.0 E9.0 F1000.0 ; intro line
M73 Q0 S58
M73 P0 R58
G1 X100.0 E12.5 F1000.0 ; intro line
G92 E0.0
M221 S95
G21 ; set units to millimeters
G90 ; use absolute coordinates
M83 ; use relative distances for extrusion
M900 K0.06 ; Filament gcode LA 1.5
M900 K30 ; Filament gcode LA 1.0
;BEFORE_LAYER_CHANGE
G92 E0.0
;0.2


G1 E-0.80000 F2100.00000
G1 Z0.600 F10800.000
;AFTER_LAYER_CHANGE
;0.2
G1 X69.263 Y41.465
G1 Z0.200
G1 E0.80000 F2100.00000
M204 S1000
G1 F1200.000
G1 X69.263 Y49.757 E0.26000
G1 X69.156 Y49.884 E0.00520
G1 X68.263 Y49.884 E0.02801
G1 X68.263 Y51.054 E0.03668
G1 X67.618 Y51.054 E0.02021
G1 X67.442 Y50.054 E0.03184
G1 X67.337 Y50.054 E0.00329
G1 X67.337 Y33.188 E0.52882
G1 X68.978 Y33.188 E0.05146
G1 X68.802 Y32.188 E0.03184
G1 X69.263 Y32.188 E0.01445
G1 X69.263 Y41.405 E0.28898
G1 E-0.80000 F2100.00000
G1 Z0.800 F10800.000
G1 X83.737 Y51.054
G1 Z0.200
G1 E0.80000 F2100.00000
G1 F1200.000
G1 X83.737 Y49.884 E0.03668
G1 X82.844 Y49.884 E0.02801
G1 X82.737 Y49.757 E0.00520
G1 X82.737 Y32.188 E0.55086
G1 X83.198 Y32.188 E0.01445
G1 X83.022 Y33.188 E0.03184
G1 X84.663 Y33.188 E0.05146
G1 X84.663 Y50.054 E0.52882
G1 X84.558 Y50.054 E0.00329
G1 X84.382 Y51.054 E0.03184
G1 X83.797 Y51.054 E0.01832
G1 E-0.80000 F2100.00000
G1 Z0.800 F10800.000
G1 X68.640 Y51.931
G1 Z0.200
G1 E0.80000 F2100.00000
G1 F1200.000
G1 X67.710 Y51.931 E0.02916
G1 X67.710 Y51.431 E0.01568
G1 X67.302 Y51.431 E0.01279
G1 X67.126 Y50.431 E0.03184
G1 X66.960 Y50.431 E0.00520
G1 X66.960 Y32.811 E0.55246
G1 X68.529 Y32.811 E0.04920
G1 X68.353 Y31.811 E0.03184
G1 X83.647 Y31.811 E0.47955
G1 X83.471 Y32.811 E0.03184
G1 X85.040 Y32.811 E0.04920
G1 X85.040 Y50.431 E0.55246
G1 X84.874 Y50.431 E0.00520
G1 X84.698 Y51.431 E0.03184
G1 X84.290 Y51.431 E0.01279
G1 X84.290 Y51.931 E0.01568
G1 X83.360 Y51.931 E0.02916
G1 X83.360 Y50.261 E0.05236
G1 X82.668 Y50.261 E0.02170
G1 X82.360 Y49.894 E0.01502
G1 X82.360 Y32.761 E0.53720
G1 X69.640 Y32.761 E0.39883
G1 X69.640 Y49.894 E0.53720
G1 X69.332 Y50.261 E0.01502
G1 X68.640 Y50.261 E0.02170
G1 X68.640 Y51.871 E0.05048
G1 X68.323 Y51.687 F10800.000
G1 E-0.80000 F2100.00000
G1 Z0.800 F10800.000
G1 X67.927 Y50.865
G1 Z0.200
G1 E0.80000 F2100.00000
G1 F1200.000
G1 X67.824 Y49.695 E0.03605
G1 X67.450 Y48.832 F10800.000
G1 F1200.000
G1 X68.013 Y49.395 E0.02567
G1 X68.287 Y49.371 E0.00884
G1 X68.307 Y49.601 E0.00744
G1 X68.768 Y49.601 E0.01486
G1 X67.620 Y48.453 E0.05232
G1 X67.620 Y47.905 E0.01767
G1 X68.980 Y49.265 E0.06200
G1 X68.980 Y48.717 E0.01767
G1 X67.620 Y47.357 E0.06200
G1 X67.620 Y46.809 E0.01767
G1 X68.980 Y48.169 E0.06200
G1 X68.980 Y47.621 E0.01767
G1 X67.620 Y46.261 E0.06200
G1 X67.620 Y45.712 E0.01767
G1 X68.980 Y47.073 E0.06200
G1 X68.980 Y46.524 E0.01767
G1 X67.620 Y45.164 E0.06200
G1 X67.620 Y44.616 E0.01767
G1 X68.980 Y45.976 E0.06200
G1 X68.980 Y45.428 E0.01767
G1 X67.620 Y44.068 E0.06200
G1 X67.620 Y43.520 E0.01767
G1 X68.980 Y44.880 E0.06200
G1 X68.980 Y44.332 E0.01767
G1 X67.620 Y42.971 E0.06200
G1 X67.620 Y42.423 E0.01767
G1 X68.980 Y43.783 E0.06200
G1 X68.980 Y43.235 E0.01767
G1 X67.620 Y41.875 E0.06200
G1 X67.620 Y41.327 E0.01767
G1 X68.980 Y42.687 E0.06200
G1 X68.980 Y42.139 E0.01767
G1 X67.620 Y40.779 E0.06200
G1 X67.620 Y40.230 E0.01767
G1 X68.980 Y41.591 E0.06200
G1 X68.980 Y41.043 E0.01767
G1 X67.620 Y39.682 E0.06200
G1 X67.620 Y39.134 E0.01767
G1 X68.980 Y40.494 E0.06200
G1 X68.980 Y39.946 E0.01767
G1 X67.620 Y38.586 E0.06200
G1 X67.620 Y38.038 E0.01767
G1 X68.980 Y39.398 E0.06200
G1 X68.980 Y38.850 E0.01767
G1 X67.620 Y37.490 E0.06200
G1 X67.620 Y36.941 E0.01767
G1 X68.980 Y38.302 E0.06200
G1 X68.980 Y37.753 E0.01767
G1 X67.620 Y36.393 E0.06200
G1 X67.620 Y35.845 E0.01767
G1 X68.980 Y37.205 E0.06200
G1 X68.980 Y36.657 E0.01767
G1 X67.620 Y35.297 E0.06200
G1 X67.620 Y34.749 E0.01767
G1 X68.980 Y36.109 E0.06200
G1 X68.980 Y35.561 E0.01767
G1 X67.620 Y34.200 E0.06200
G1 X67.620 Y33.652 E0.01767
G1 X68.980 Y35.013 E0.06200
G1 X68.980 Y34.464 E0.01767
G1 X67.987 Y33.471 E0.04528
G1 X68.535 Y33.471 E0.01767
G1 X69.150 Y34.086 E0.02803
G1 E-0.80000 F2100.00000
G1 Z0.800 F10800.000
G1 X69.451 Y32.286
G1 Z0.200
G1 E0.80000 F2100.00000
G1 F1200.000
G1 X82.549 Y32.286 E0.62393
G1 E-0.80000 F2100.00000
G1 Z0.800 F10800.000
G1 X84.550 Y34.068
G1 Z0.200
G1 E0.80000 F2100.00000
G1 F1200.000
G1 X83.952 Y33.471 E0.02666
G1 X83.416 Y33.471 E0.01693
G1 X84.380 Y34.435 E0.04304
G1 X84.380 Y34.972 E0.01693
G1 X83.020 Y33.612 E0.06069
G1 X83.020 Y34.148 E0.01693
G1 X84.380 Y35.509 E0.06069
G1 X84.380 Y36.045 E0.01693
G1 X83.020 Y34.685 E0.06069
G1 X83.020 Y35.222 E0.01693
G1 X84.380 Y36.582 E0.06069
G1 X84.380 Y37.118 E0.01693
G1 X83.020 Y35.758 E0.06069
G1 X83.020 Y36.295 E0.01693
G1 X84.380 Y37.655 E0.06069
G1 X84.380 Y38.192 E0.01693
G1 X83.020 Y36.831 E0.06069
G1 X83.020 Y37.368 E0.01693
G1 X84.380 Y38.728 E0.06069
G1 X84.380 Y39.265 E0.01693
G1 X83.020 Y37.905 E0.06069
G1 X83.020 Y38.441 E0.01693
G1 X84.380 Y39.801 E0.06069
G1 X84.380 Y40.338 E0.01693
G1 X83.020 Y38.978 E0.06069
G1 X83.020 Y39.514 E0.01693
G1 X84.380 Y40.875 E0.06069
G1 X84.380 Y41.411 E0.01693
G1 X83.020 Y40.051 E0.06069
G1 X83.020 Y40.588 E0.01693
G1 X84.380 Y41.948 E0.06069
G1 X84.380 Y42.485 E0.01693
G1 X83.020 Y41.124 E0.06069
G1 X83.020 Y41.661 E0.01693
G1 X84.380 Y43.021 E0.06069
G1 X84.380 Y43.558 E0.01693
G1 X83.020 Y42.197 E0.06069
G1 X83.020 Y42.734 E0.01693
G1 X84.380 Y44.094 E0.06069
G1 X84.380 Y44.631 E0.01693
G1 X83.020 Y43.271 E0.06069
G1 X83.020 Y43.807 E0.01693
G1 X84.380 Y45.168 E0.06069
G1 X84.380 Y45.704 E0.01693
G1 X83.020 Y44.344 E0.06069
G1 X83.020 Y44.880 E0.01693
G1 X84.380 Y46.241 E0.06069
G1 X84.380 Y46.777 E0.01693
G1 X83.020 Y45.417 E0.06069
G1 X83.020 Y45.954 E0.01693
G1 X84.380 Y47.314 E0.06069
G1 X84.380 Y47.851 E0.01693
G1 X83.020 Y46.490 E0.06069
G1 X83.020 Y47.027 E0.01693
G1 X84.380 Y48.387 E0.06069
G1 X84.380 Y48.924 E0.01693
G1 X83.020 Y47.564 E0.06069
G1 X83.020 Y48.100 E0.01693
G1 X84.346 Y49.426 E0.05918
G1 X83.758 Y49.375 E0.01862
G1 X83.020 Y48.637 E0.03294
G1 X83.020 Y49.173 E0.01693
G1 X83.617 Y49.771 E0.02666
G1 X84.176 Y49.695 F10800.000
G1 F1200.000
G1 X84.142 Y50.085 E0.01497
G1 X84.107 Y50.475 E0.01349
G1 X84.073 Y50.865 E0.01202
G1 E-0.80000 F2100.00000
G1 Z0.800 F10800.000
G1 X92.763 Y51.054
G1 Z0.200
G1 E0.80000 F2100.00000
G1 F1200.000
G1 X92.118 Y51.054 E0.02021
G1 X91.942 Y50.054 E0.03184
G1 X91.837 Y50.054 E0.00329
G1 X91.837 Y33.188 E0.52882
G1 X93.478 Y33.188 E0.05146
G1 X93.302 Y32.188 E0.03184
G1 X93.763 Y32.188 E0.01445
G1 X93.763 Y49.757 E0.55086
G1 X93.656 Y49.884 E0.00520
G1 X92.763 Y49.884 E0.02801
G1 X92.763 Y50.994 E0.03480
G1 E-0.80000 F2100.00000
G1 Z0.800 F10800.000
G1 X108.237 Y51.054
G1 Z0.200
G1 E0.80000 F2100.00000
G1 F1200.000
G1 X108.237 Y49.884 E0.03668
G1 X107.344 Y49.884 E0.02801
G1 X107.237 Y49.757 E0.00520
G1 X107.237 Y32.188 E0.55086
G1 X107.698 Y32.188 E0.01445
G1 X107.522 Y33.188 E0.03184
G1 X109.163 Y33.188 E0.05146
G1 X109.163 Y50.054 E0.52882
G1 X109.058 Y50.054 E0.00329
G1 X108.882 Y51.054 E0.03184
G1 X108.297 Y51.054 E0.01832
G1 E-0.80000 F2100.00000
G1 Z0.800 F10800.000
G1 X93.140 Y51.931
G1 Z0.200
G1 E0.80000 F2100.00000
G1 F1200.000
G1 X92.210 Y51.931 E0.02916
G1 X92.210 Y51.431 E0.01568
G1 X91.802 Y51.431 E0.01279
G1 X91.626 Y50.431 E0.03184
G1 X91.460 Y50.431 E0.00520
G1 X91.460 Y32.811 E0.55246
G1 X93.029 Y32.811 E0.04920
G1 X92.853 Y31.811 E0.03184
G1 X108.147 Y31.811 E0.47955
G1 X107.971 Y32.811 E0.03184
G1 X109.540 Y32.811 E0.04920
G1 X109.540 Y50.431 E0.55246
G1 X109.374 Y50.431 E0.00520
G1 X109.198 Y51.431 E0.03184
G1 X108.790 Y51.431 E0.01279
G1 X108.790 Y51.931 E0.01568
G1 X107.860 Y51.931 E0.02916
G1 X107.860 Y50.261 E0.05236
G1 X107.168 Y50.261 E0.02170
G1 X106.860 Y49.894 E0.01502
G1 X106.860 Y32.761 E0.53720
G1 X94.140 Y32.761 E0.39883
G1 X94.140 Y49.894 E0.53720
G1 X93.832 Y50.261 E0.01502
G1 X93.140 Y50.261 E0.02170
G1 X93.140 Y51.871 E0.05048
G1 X92.823 Y51.687 F10800.000
G1 E-0.80000 F2100.00000
G1 Z0.800 F10800.000
G1 X92.427 Y50.865
G1 Z0.200
G1 E0.80000 F2100.00000
G1 F1200.000
G1 X92.324 Y49.695 E0.03605
G1 X91.950 Y48.832 F10800.000
G1 F1200.000
G1 X92.513 Y49.395 E0.02567
G1 X92.787 Y49.371 E0.00884
G1 X92.807 Y49.601 E0.00744
G1 X93.268 Y49.601 E0.01486
G1 X92.120 Y48.453 E0.05232
G1 X92.120 Y47.905 E0.01767
G1 X93.480 Y49.265 E0.06200
G1 X93.480 Y48.717 E0.01767
G1 X92.120 Y47.357 E0.06200
G1 X92.120 Y46.809 E0.01767
G1 X93.480 Y48.169 E0.06200
G1 X93.480 Y47.621 E0.01767
G1 X92.120 Y46.261 E0.06200
G1 X92.120 Y45.712 E0.01767
G1 X93.480 Y47.073 E0.06200
G1 X93.480 Y46.524 E0.01767
G1 X92.120 Y45.164 E0.06200
G1 X92.120 Y44.616 E0.01767
G1 X93.480 Y45.976 E0.06200
G1 X93.480 Y45.428 E0.01767
G1 X92.120 Y44.068 E0.06200
G1 X92.120 Y43.520 E0.01767
G1 X93.480 Y44.880 E0.06200
G1 X93.480 Y44.332 E0.01767
G1 X92.120 Y42.971 E0.06200
G1 X92.120 Y42.423 E0.01767
G1 X93.480 Y43.783 E0.06200
G1 X93.480 Y43.235 E0.01767
G1 X92.120 Y41.875 E0.06200
G1 X92.120 Y41.327 E0.01767
G1 X93.480 Y42.687 E0.06200
G1 X93.480 Y42.139 E0.01767
G1 X92.120 Y40.779 E0.06200
G1 X92.120 Y40.230 E0.01767
G1 X93.480 Y41.591 E0.06200
G1 X93.480 Y41.043 E0.01767
G1 X92.120 Y39.682 E0.06200
G1 X92.120 Y39.134 E0.01767
G1 X93.480 Y40.494 E0.06200
G1 X93.480 Y39.946 E0.01767
G1 X92.120 Y38.586 E0.06200
G1 X92.120 Y38.038 E0.01767
G1 X93.480 Y39.398 E0.06200
G1 X93.480 Y38.850 E0.01767
G1 X92.120 Y37.490 E0.06200
G1 X92.120 Y36.941 E0.01767
G1 X93.480 Y38.302 E0.06200
G1 X93.480 Y37.753 E0.01767
G1 X92.120 Y36.393 E0.06200
G1 X92.120 Y35.845 E0.01767
G1 X93.480 Y37.205 E0.06200
G1 X93.480 Y36.657 E0.01767
G1 X92.120 Y35.297 E0.06200
G1 X92.120 Y34.749 E0.01767
G1 X93.480 Y36.109 E0.06200
G1 X93.480 Y35.561 E0.01767
G1 X92.120 Y34.200 E0.06200
G1 X92.120 Y33.652 E0.01767
G1 X93.480 Y35.013 E0.06200
G1 X93.480 Y34.464 E0.01767
G1 X92.487 Y33.471 E0.04528
G1 X93.035 Y33.471 E0.01767
G1 X93.650 Y34.086 E0.02803
G1 E-0.80000 F2100.00000
G1 Z0.800 F10800.000
G1 X93.951 Y32.286
G1 Z0.200
G1 E0.80000 F2100.00000
G1 F1200.000
G1 X107.049 Y32.286 E0.62393
G1 E-0.80000 F2100.00000
G1 Z0.800 F10800.000
G1 X109.050 Y34.068
G1 Z0.200
G1 E0.80000 F2100.00000
G1 F1200.000
G1 X108.452 Y33.471 E0.02666
G1 X107.916 Y33.471 E0.01693
G1 X108.880 Y34.435 E0.04304
G1 X108.880 Y34.972 E0.01693
G1 X107.520 Y33.612 E0.06069
G1 X107.520 Y34.148 E0.01693
G1 X108.880 Y35.509 E0.06069
G1 X108.880 Y36.045 E0.01693
G1 X107.520 Y34.685 E0.06069
G1 X107.520 Y35.222 E0.01693
G1 X108.880 Y36.582 E0.06069
G1 X108.880 Y37.118 E0.01693
G1 X107.520 Y35.758 E0.06069
G1 X107.520 Y36.295 E0.01693
G1 X108.880 Y37.655 E0.06069
G1 X108.880 Y38.192 E0.01693
G1 X107.520 Y36.831 E0.06069
G1 X107.520 Y37.368 E0.01693
G1 X108.880 Y38.728 E0.06069
G1 X108.880 Y39.265 E0.01693
G1 X107.520 Y37.905 E0.06069
G1 X107.520 Y38.441 E0.01693
G1 X108.880 Y39.801 E0.06069
G1 X108.880 Y40.338 E0.01693
G1 X107.520 Y38.978 E0.06069
G1 X107.520 Y39.514 E0.01693
G1 X108.880 Y40.875 E0.06069
G1 X108.880 Y41.411 E0.01693
G1 X107.520 Y40.051 E0.06069
G1 X107.520 Y40.588 E0.01693
G1 X108.880 Y41.948 E0.06069
G1 X108.880 Y42.485 E0.01693
G1 X107.520 Y41.124 E0.06069
G1 X107.520 Y41.661 E0.01693
G1 X108.880 Y43.021 E0.06069
G1 X108.880 Y43.558 E0.01693
G1 X107.520 Y42.197 E0.06069
G1 X107.520 Y42.734 E0.01693
G1 X108.880 Y44.094 E0.06069
G1 X108.880 Y44.631 E0.01693
G1 X107.520 Y43.271 E0.06069
G1 X107.520 Y43.807 E0.01693
G1 X108.880 Y45.168 E0.06069
G1 X108.880 Y45.704 E0.01693
G1 X107.520 Y44.344 E0.06069
G1 X107.520 Y44.880 E0.01693
G1 X108.880 Y46.241 E0.06069
G1 X108.880 Y46.777 E0.01693
G1 X107.520 Y45.417 E0.06069
G1 X107.520 Y45.954 E0.01693
G1 X108.880 Y47.314 E0.06069
G1 X108.880 Y47.851 E0.01693
G1 X107.520 Y46.490 E0.06069
G1 X107.520 Y47.027 E0.01693
G1 X108.880 Y48.387 E0.06069
G1 X108.880 Y48.924 E0.01693
G1 X107.520 Y47.564 E0.06069
G1 X107.520 Y48.100 E0.01693
G1 X108.846 Y49.426 E0.05918
G1 X108.258 Y49.375 E0.01862
G1 X107.520 Y48.637 E0.03294
G1 X107.520 Y49.173 E0.01693
G1 X108.117 Y49.771 E0.02666
G1 X108.676 Y49.695 F10800.000
G1 F1200.000
G1 X108.642 Y50.085 E0.01497
G1 X108.607 Y50.475 E0.01349
G1 X108.573 Y50.865 E0.01202
G1 E-0.80000 F2100.00000
G1 Z0.800 F10800.000
G1 X117.263 Y51.054
G1 Z0.200
G1 E0.80000 F2100.00000
G1 F1200.000
G1 X116.618 Y51.054 E0.02021
G1 X116.442 Y50.054 E0.03184
G1 X116.337 Y50.054 E0.00329
G1 X116.337 Y33.188 E0.52882
G1 X117.978 Y33.188 E0.05146
G1 X117.802 Y32.188 E0.03184
G1 X118.263 Y32.188 E0.01445
G1 X118.263 Y49.757 E0.55086
G1 X118.156 Y49.884 E0.00520
G1 X117.263 Y49.884 E0.02801
G1 X117.263 Y50.994 E0.03480
G1 E-0.80000 F2100.00000
G1 Z0.800 F10800.000
G1 X132.737 Y51.054
G1 Z0.200
G1 E0.80000 F2100.00000
G1 F1200.000
G1 X132.737 Y49.884 E0.03668
G1 X131.844 Y49.884 E0.02801
G1 X131.737 Y49.757 E0.00520
G1 X131.737 Y32.188 E0.55086
G1 X132.198 Y32.188 E0.01445
G1 X132.022 Y33.188 E0.03184
G1 X133.663 Y33.188 E0.05146
G1 X133.663 Y50.054 E0.52882
G1 X133.558 Y50.054 E0.00329
G1 X133.382 Y51.054 E0.03184
G1 X132.797 Y51.054 E0.01832
G1 E-0.80000 F2100.00000
G1 Z0.800 F10800.000
G1 X117.640 Y51.931
G1 Z0.200
G1 E0.80000 F2100.00000
G1 F1200.000
G1 X116.710 Y51.931 E0.02916
G1 X116.710 Y51.431 E0.01568
G1 X116.302 Y51.431 E0.01279
G1 X116.126 Y50.431 E0.03184
G1 X115.960 Y50.431 E0.00520
G1 X115.960 Y32.811 E0.55246
G1 X117.529 Y32.811 E0.04920
G1 X117.353 Y31.811 E0.03184
G1 X132.647 Y31.811 E0.47955
G1 X132.471 Y32.811 E0.03184
G1 X134.040 Y32.811 E0.04920
G1 X134.040 Y50.431 E0.55246
G1 X133.874 Y50.431 E0.00520
G1 X133.698 Y51.431 E0.03184
G1 X133.290 Y51.431 E0.01279
G1 X133.290 Y51.931 E0.01568
G1 X132.360 Y51.931 E0.02916
G1 X132.360 Y50.261 E0.05236
G1 X131.668 Y50.261 E0.02170
G1 X131.360 Y49.894 E0.01502
G1 X131.360 Y32.761 E0.53720
G1 X118.640 Y32.761 E0.39883
G1 X118.640 Y49.894 E0.53720
G1 X118.332 Y50.261 E0.01502
G1 X117.640 Y50.261 E0.02170
G1 X117.640 Y51.871 E0.05048
G1 X117.323 Y51.687 F10800.000
G1 E-0.80000 F2100.00000
G1 Z0.800 F10800.000
G1 X116.927 Y50.865
G1 Z0.200
G1 E0.80000 F2100.00000
G1 F1200.000
G1 X116.824 Y49.695 E0.03605
G1 X116.450 Y48.832 F10800.000
G1 F1200.000
G1 X117.013 Y49.395 E0.02567
G1 X117.287 Y49.371 E0.00884
G1 X117.307 Y49.601 E0.00744
G1 X117.768 Y49.601 E0.01486
G1 X116.620 Y48.453 E0.05232
G1 X116.620 Y47.905 E0.01767
G1 X117.980 Y49.265 E0.06200
G1 X117.980 Y48.717 E0.01767
G1 X116.620 Y47.357 E0.06200
G1 X116.620 Y46.809 E0.01767
G1 X117.980 Y48.169 E0.06200
G1 X117.980 Y47.621 E0.01767
G1 X116.620 Y46.261 E0.06200
G1 X116.620 Y45.712 E0.01767
G1 X117.980 Y47.073 E0.06200
G1 X117.980 Y46.524 E0.01767
G1 X116.620 Y45.164 E0.06200
G1 X116.620 Y44.616 E0.01767
G1 X117.980 Y45.976 E0.06200
G1 X117.980 Y45.428 E0.01767
G1 X116.620 Y44.068 E0.06200
G1 X116.620 Y43.520 E0.01767
G1 X117.980 Y44.880 E0.06200
G1 X117.980 Y44.332 E0.01767
G1 X116.620 Y42.971 E0.06200
G1 X116.620 Y42.423 E0.01767
G1 X117.980 Y43.783 E0.06200
G1 X117.980 Y43.235 E0.01767
G1 X116.620 Y41.875 E0.06200
G1 X116.620 Y41.327 E0.01767
