; generated by PrusaSlicer 2.4.2+win64 on 2022-09-01 at 21:39:18 UTC

; 

; external perimeters extrusion width = 0.45mm
; perimeters extrusion width = 0.45mm
; infill extrusion width = 0.45mm
; solid infill extrusion width = 0.45mm
; top infill extrusion width = 0.40mm
; support material extrusion width = 0.35mm
; first layer extrusion width = 0.42mm

; external perimeters extrusion width = 0.45mm
; perimeters extrusion width = 0.45mm
; infill extrusion width = 0.45mm
; solid infill extrusion width = 0.45mm
; top infill extrusion width = 0.40mm
; support material extrusion width = 0.35mm
; first layer extrusion width = 0.42mm

M73 P0 R84
M73 Q0 S85
M107
;TYPE:Custom
M862.3 P "MK3S" ; printer model check
M862.1 P0.4 ; nozzle diameter check
M115 U3.8.0 ; tell printer latest fw version
G90 ; use absolute coordinates
M83 ; extruder relative mode
M104 S215 ; set extruder temp
M140 S60 ; set bed temp
M190 S60 ; wait for bed temp
M109 S215 ; wait for extruder temp
G28 W ; home all without mesh bed level
G80 ; mesh bed leveling
G1 Y-3.0 F1000.0 ; go outside print area
G92 E0.0
G1 X60.0 E9.0 F1000.0 ; intro line
G1 X100.0 E12.5 F1000.0 ; intro line
G92 E0.0
M221 S95
G21 ; set units to millimeters
G90 ; use absolute coordinates
M83 ; use relative distances for extrusion
M900 K0.05 ; Filament gcode LA 1.5
M900 K30 ; Filament gcode LA 1.0
M107
;LAYER_CHANGE
;Z:0.2
;HEIGHT:0.2
;BEFORE_LAYER_CHANGE
G92 E0.0
;0.2


G1 E-.8 F2100
G1 Z.6 F10800
;AFTER_LAYER_CHANGE
;0.2
G1 X86.104 Y72.261
G1 Z.2
G1 E.8 F2100
M204 S1000
;TYPE:Skirt/Brim
;WIDTH:0.42
G1 F1200
G1 X86.638 Y71.777 E.02261
G1 X87.234 Y71.396 E.02216
G1 X88.031 Y71.071 E.02699
G1 X118.888 Y62.201 E1.00669
G1 X157.556 Y56.345 E1.22622
G1 X158.953 Y56.288 E.04385
G1 X159.996 Y56.412 E.03292
G1 X161.192 Y56.738 E.0389
G1 X161.941 Y57.055 E.02546
G1 X162.851 Y57.577 E.03292
G1 X163.809 Y58.334 E.03828
G1 X164.389 Y58.931 E.02608
G1 X165.022 Y59.768 E.03292
G1 X165.615 Y60.858 E.0389
G1 X165.905 Y61.616 E.02546
G1 X166.182 Y62.762 E.03697
G1 X168.121 Y75.681 E.4096
G1 X168.138 Y109.108 E1.04808
G1 X167.956 Y142.892 E1.05928
G1 X167.831 Y145.069 E.06837
G1 X167.594 Y147.172 E.06636
G1 X167.223 Y149.35 E.06928
G1 X166.855 Y150.459 E.03663
G1 X166.057 Y151.73 E.04705
G1 X165.016 Y152.691 E.04444
G1 X163.686 Y153.387 E.04705
G1 X162.893 Y153.608 E.02581
G1 X161.975 Y153.714 E.02898
G1 X118.093 Y153.719 E1.3759
G1 X117.046 Y153.596 E.03304
G1 X116.241 Y153.339 E.02651
G1 X115.453 Y152.923 E.02794
G1 X114.88 Y152.49 E.02252
G1 X83.342 Y124.528 E1.32154
G1 X82.698 Y123.832 E.02974
G1 X82.221 Y123.006 E.0299
G1 X81.949 Y122.151 E.02815
G1 X81.86 Y121.281 E.02741
G1 X81.931 Y101.326 E.62566
G1 X82.029 Y81.441 E.6235
G1 X82.149 Y80.45 E.0313
G1 X82.423 Y79.658 E.02626
G1 X85.659 Y72.828 E.23697
G1 X86.067 Y72.308 E.02073
; printing object mount-v3.STL id:2 copy 2
M73 Q0 S84
G1 E-.8 F2100
G1 Z.8 F10800
G1 X88.411 Y114.114
G1 Z.2
G1 E.8 F2100
;TYPE:Perimeter
G1 F1200
G1 X88.561 Y114.023 E.0055
G1 X88.838 Y113.927 E.0092
G1 X89.13 Y113.904 E.00919
G1 X90.581 Y114.171 E.04626
G1 X91.868 Y114.356 E.04076
G1 X93.162 Y114.48 E.04076
G1 X94.463 Y114.542 E.04083
G1 X96.086 Y114.53 E.05088
G1 X97.705 Y114.426 E.05088
G1 X99 Y114.271 E.04088
G1 X101.104 Y113.905 E.06697
G1 X101.384 Y113.927 E.0088
G1 X101.661 Y114.023 E.0092
G1 X101.811 Y114.114 E.0055
G1 X101.944 Y114.229 E.0055
G1 X102.128 Y114.473 E.0096
G1 X105.08 Y120.789 E.2186
G1 X105.157 Y121 E.00704
G1 X105.196 Y121.276 E.00874
G1 X105.161 Y121.566 E.00915
G1 X105.086 Y121.773 E.00691
G1 X105.001 Y121.919 E.00531
G1 X104.867 Y122.078 E.00651
G1 X104.718 Y122.203 E.0061
G1 X104.55 Y122.3 E.0061
G1 X104.345 Y122.374 E.00683
G1 X102.965 Y122.712 E.04452
G1 X102.267 Y122.861 E.0224
G1 X100.854 Y123.118 E.04502
G1 X99.421 Y123.321 E.04539
G1 X97.988 Y123.464 E.04515
G1 X96.551 Y123.551 E.04516
G1 X95.111 Y123.58 E.04515
G1 X93.671 Y123.551 E.04515
G1 X92.233 Y123.464 E.04516
G1 X90.8 Y123.321 E.04515
G1 X89.374 Y123.12 E.04516
G1 X87.954 Y122.861 E.04525
G1 X87.256 Y122.712 E.02239
G1 X85.774 Y122.343 E.0479
G1 X85.585 Y122.255 E.00651
G1 X85.426 Y122.144 E.0061
G1 X85.288 Y122.006 E.0061
G1 X85.176 Y121.847 E.0061
G1 X85.094 Y121.671 E.0061
G1 X85.043 Y121.483 E.0061
G1 X85.026 Y121.289 E.0061
G1 X85.043 Y121.095 E.0061
G1 X85.094 Y120.907 E.0061
G1 X88.093 Y114.473 E.22259
G1 X88.278 Y114.229 E.00959
G1 X88.365 Y114.153 E.00362
G1 X88.76 Y113.555 F10800
;TYPE:External perimeter
G1 F1200
G1 X89.139 Y113.525 E.01195
G1 X89.401 Y113.559 E.00828
G1 X90.644 Y113.799 E.03968
G1 X91.913 Y113.982 E.0402
G1 X93.189 Y114.104 E.0402
G1 X94.47 Y114.165 E.04022
G1 X96.072 Y114.153 E.05022
G1 X97.67 Y114.05 E.05022
G1 X98.945 Y113.898 E.04024
G1 X101.086 Y113.525 E.06815
G1 X101.462 Y113.555 E.01181
G1 X101.822 Y113.68 E.01195
G1 X102.033 Y113.808 E.00775
G1 X102.22 Y113.97 E.00775
G1 X102.453 Y114.277 E.01209
G1 X105.429 Y120.645 E.22037
G1 X105.523 Y120.902 E.0086
G1 X105.574 Y121.284 E.0121
G1 X105.524 Y121.672 E.01224
G1 X105.431 Y121.925 E.00846
G1 X105.306 Y122.143 E.00789
G1 X105.135 Y122.346 E.00832
G1 X104.935 Y122.513 E.00817
G1 X104.709 Y122.643 E.00817
G1 X104.454 Y122.736 E.0085
G1 X103.05 Y123.08 E.04533
G1 X102.34 Y123.231 E.02275
G1 X100.914 Y123.491 E.04543
G1 X99.466 Y123.695 E.04586
G1 X98.018 Y123.84 E.04563
G1 X96.566 Y123.928 E.04563
G1 X95.111 Y123.957 E.04563
G1 X93.656 Y123.928 E.04563
G1 X92.203 Y123.84 E.04563
G1 X90.755 Y123.695 E.04563
G1 X89.314 Y123.492 E.04563
G1 X87.881 Y123.231 E.04566
G1 X87.172 Y123.08 E.02275
G1 X85.763 Y122.735 E.04548
G1 X85.397 Y122.583 E.01242
G1 X85.183 Y122.434 E.00817
G1 X84.998 Y122.25 E.00817
G1 X84.849 Y122.037 E.00817
G1 X84.738 Y121.8 E.00817
G1 X84.671 Y121.549 E.00817
G1 X84.648 Y121.289 E.00817
G1 X84.67 Y121.029 E.00817
G1 X84.738 Y120.778 E.00817
G1 X87.769 Y114.277 E.22488
G1 X88.001 Y113.97 E.01209
G1 X88.188 Y113.808 E.00775
G1 X88.399 Y113.68 E.00775
G1 X88.703 Y113.575 E.01007
G1 X89.01 Y113.843 F10800
G1 E-.8 F2100
G1 Z.8 F10800
G1 X102.195 Y114.882
G1 Z.2
G1 E.8 F2100
;TYPE:Solid infill
;WIDTH:0.422649
G1 F1200
G1 X101.732 Y114.419 E.02068
G1 X101.54 Y114.281 E.00747
G1 X101.325 Y114.206 E.00718
G1 X101.117 Y114.189 E.0066
G1 X100.987 Y114.212 E.00415
G1 X102.314 Y115.539 E.05925
G1 X102.785 Y116.547 E.03514
G1 X100.53 Y114.292 E.10072
G1 X100.072 Y114.371 E.01466
G1 X103.257 Y117.555 E.14219
G1 X103.728 Y118.564 E.03514
G1 X99.615 Y114.451 E.18365
G1 X99.158 Y114.531 E.01466
G1 X104.199 Y119.572 E.22512
G1 X104.67 Y120.58 E.03514
G1 X98.684 Y114.594 E.26732
G1 X98.204 Y114.651 E.01525
G1 X104.902 Y121.349 E.2991
G1 X104.884 Y121.5 E.00477
G1 X104.77 Y121.754 E.00881
G1 X97.724 Y114.708 E.31461
G1 X97.22 Y114.741 E.01596
G1 X104.488 Y122.009 E.32456
G1 X104.43 Y122.043 E.00212
G1 X104.088 Y122.146 E.01129
G1 X96.715 Y114.773 E.32921
G1 X96.211 Y114.806 E.01596
G1 X103.657 Y122.252 E.33248
G1 X103.225 Y122.357 E.01402
G1 X95.684 Y114.816 E.33673
G1 X95.151 Y114.82 E.01684
G1 X102.791 Y122.46 E.34115
G1 X102.348 Y122.554 E.01429
G1 X94.618 Y114.824 E.3452
G1 X94.063 Y114.806 E.01752
G1 X101.898 Y122.641 E.34984
G1 X101.443 Y122.723 E.01458
G1 X93.499 Y114.779 E.35474
G1 X92.924 Y114.741 E.01819
G1 X100.989 Y122.806 E.36012
G1 X100.525 Y122.879 E.01483
G1 X92.33 Y114.685 E.36592
G1 X91.731 Y114.622 E.01903
G1 X100.054 Y122.946 E.37167
G1 X99.584 Y123.012 E.01501
G1 X91.104 Y114.532 E.37867
G1 X90.473 Y114.438 E.02014
G1 X99.103 Y123.068 E.38537
M73 P0 R83
G1 X98.615 Y123.117 E.01549
G1 X89.807 Y114.31 E.3933
G1 X89.153 Y114.192 E.021
G1 X98.127 Y123.166 E.40074
G1 X97.627 Y123.203 E.01584
G1 X88.699 Y114.275 E.39867
G1 X88.577 Y114.344 E.0044
G1 X88.485 Y114.423 E.00384
G1 X88.41 Y114.523 E.00396
G1 X97.12 Y123.233 E.38894
G1 X96.614 Y123.264 E.01602
G1 X88.22 Y114.87 E.3748
G1 X88.049 Y115.237 E.01276
G1 X96.09 Y123.277 E.35904
G1 X95.564 Y123.288 E.01663
G1 X87.879 Y115.603 E.34316
G1 X87.708 Y115.969 E.01276
G1 X95.034 Y123.295 E.32714
G1 X94.486 Y123.284 E.01731
G1 X87.537 Y116.335 E.3103
G1 X87.366 Y116.702 E.01276
G1 X93.938 Y123.273 E.29345
G1 X93.378 Y123.25 E.01771
G1 X87.196 Y117.068 E.27605
G1 X87.025 Y117.434 E.01276
G1 X92.806 Y123.216 E.25816
G1 X92.234 Y123.18 E.0181
G1 X86.854 Y117.8 E.24023
G1 X86.683 Y118.167 E.01276
G1 X91.637 Y123.12 E.2212
G1 X91.04 Y123.06 E.01894
G1 X86.512 Y118.533 E.20217
G1 X86.342 Y118.899 E.01276
G1 X90.425 Y122.982 E.18231
G1 X89.799 Y122.894 E.01994
G1 X86.171 Y119.265 E.16202
G1 X86 Y119.632 E.01276
G1 X89.162 Y122.793 E.14118
G1 X88.505 Y122.674 E.02107
G1 X85.829 Y119.998 E.11949
G1 X85.659 Y120.364 E.01276
G1 X87.842 Y122.548 E.09751
G1 X87.153 Y122.396 E.02229
G1 X85.488 Y120.73 E.07435
G1 X85.36 Y121.004 E.00953
G1 X85.332 Y121.111 E.0035
G1 X86.442 Y122.221 E.04958
G1 X85.953 Y122.102 E.0159
G1 X85.722 Y122.006 E.00788
G1 X85.613 Y121.93 E.00419
G1 X85.158 Y121.475 E.02031
; stop printing object mount-v3.STL id:2 copy 2
; printing object mount-v3.STL id:2 copy 1
G1 E-.8 F2100
G1 Z.8 F10800
G1 X88.523 Y103
G1 Z.2
G1 E.8 F2100
;TYPE:Perimeter
;WIDTH:0.42
G1 F1200
G1 X87.327 Y102.761 E.03824
G1 X85.935 Y102.42 E.04492
G1 X85.657 Y102.304 E.00947
G1 X85.497 Y102.193 E.0061
G1 X85.359 Y102.055 E.0061
G1 X85.247 Y101.896 E.0061
G1 X85.165 Y101.719 E.0061
G1 X85.115 Y101.532 E.0061
G1 X85.098 Y101.338 E.0061
G1 X85.114 Y101.144 E.0061
G1 X85.165 Y100.956 E.0061
G1 X88.165 Y94.522 E.22259
G1 X88.349 Y94.278 E.00959
M73 P1 R83
M73 Q1 S84
G1 X88.482 Y94.163 E.0055
G1 X88.632 Y94.072 E.0055
G1 X88.909 Y93.976 E.0092
G1 X89.201 Y93.952 E.00919
G1 X89.412 Y93.98 E.00667
G1 X90.652 Y94.22 E.03961
G1 X91.939 Y94.405 E.04076
G1 X93.233 Y94.529 E.04076
G1 X94.534 Y94.591 E.04083
G1 X96.157 Y94.579 E.05088
G1 X97.776 Y94.475 E.05088
G1 X99.071 Y94.32 E.04088
G1 X101.175 Y93.953 E.06697
G1 X101.455 Y93.976 E.0088
G1 X101.732 Y94.072 E.0092
G1 X101.882 Y94.163 E.0055
G1 X102.015 Y94.278 E.0055
G1 X102.199 Y94.522 E.0096
G1 X105.151 Y100.838 E.2186
G1 X105.228 Y101.049 E.00704
G1 X105.264 Y101.253 E.0065
G1 X105.232 Y101.614 E.01138
G1 X105.118 Y101.897 E.00955
G1 X104.939 Y102.127 E.00915
G1 X104.789 Y102.252 E.0061
G1 X104.621 Y102.349 E.0061
G1 X104.416 Y102.423 E.00683
G1 X103.037 Y102.761 E.04452
G1 X102.338 Y102.91 E.0224
G1 X100.926 Y103.167 E.04502
G1 X99.492 Y103.369 E.04539
G1 X98.059 Y103.513 E.04515
G1 X96.622 Y103.6 E.04516
G1 X95.182 Y103.628 E.04515
G1 X93.742 Y103.6 E.04515
G1 X92.304 Y103.513 E.04516
G1 X90.872 Y103.369 E.04515
G1 X89.445 Y103.168 E.04516
G1 X88.582 Y103.011 E.02752
G1 X88.455 Y103.371 F10800
;TYPE:External perimeter
G1 F1200
G1 X87.243 Y103.128 E.03877
G1 X85.834 Y102.783 E.04548
G1 X85.468 Y102.632 E.01242
G1 X85.254 Y102.483 E.00817
G1 X85.07 Y102.299 E.00817
G1 X84.92 Y102.085 E.00817
G1 X84.809 Y101.849 E.00817
G1 X84.742 Y101.597 E.00817
G1 X84.719 Y101.338 E.00817
G1 X84.742 Y101.078 E.00817
G1 X84.809 Y100.826 E.00817
G1 X87.84 Y94.326 E.22488
G1 X88.072 Y94.018 E.01209
G1 X88.259 Y93.857 E.00775
G1 X88.471 Y93.729 E.00775
G1 X88.831 Y93.604 E.01195
G1 X89.211 Y93.573 E.01195
G1 X89.472 Y93.608 E.00828
G1 X90.715 Y93.848 E.03968
G1 X91.984 Y94.03 E.0402
G1 X93.26 Y94.152 E.0402
G1 X94.542 Y94.214 E.04022
G1 X96.143 Y94.202 E.05022
G1 X97.742 Y94.099 E.05022
G1 X99.016 Y93.947 E.04024
G1 X101.157 Y93.574 E.06815
G1 X101.533 Y93.604 E.01181
G1 X101.893 Y93.729 E.01195
G1 X102.105 Y93.857 E.00775
G1 X102.292 Y94.018 E.00775
G1 X102.524 Y94.326 E.01209
G1 X105.5 Y100.693 E.22037
G1 X105.594 Y100.951 E.0086
G1 X105.64 Y101.212 E.00832
G1 X105.622 Y101.602 E.01224
G1 X105.595 Y101.72 E.0038
G1 X105.444 Y102.086 E.01239
G1 X105.206 Y102.395 E.01224
G1 X105.006 Y102.562 E.00817
G1 X104.78 Y102.692 E.00817
G1 X104.525 Y102.784 E.0085
G1 X103.121 Y103.128 E.04533
G1 X102.411 Y103.28 E.02275
G1 X100.986 Y103.539 E.04543
G1 X99.537 Y103.744 E.04586
G1 X98.089 Y103.889 E.04563
G1 X96.637 Y103.977 E.04563
G1 X95.182 Y104.006 E.04563
G1 X93.727 Y103.977 E.04563
G1 X92.274 Y103.889 E.04563
G1 X90.826 Y103.744 E.04563
G1 X89.385 Y103.541 E.04563
G1 X88.514 Y103.382 E.02776
G1 X88.322 Y102.994 F10800
G1 E-.8 F2100
G1 Z.8 F10800
G1 X102.266 Y94.931
G1 Z.2
G1 E.8 F2100
;TYPE:Solid infill
;WIDTH:0.422649
G1 F1200
G1 X101.803 Y94.468 E.02068
G1 X101.611 Y94.329 E.00747
G1 X101.396 Y94.255 E.00718
G1 X101.188 Y94.238 E.0066
G1 X101.058 Y94.261 E.00415
G1 X102.385 Y95.588 E.05925
G1 X102.857 Y96.596 E.03514
G1 X100.601 Y94.34 E.10072
G1 X100.144 Y94.42 E.01466
G1 X103.328 Y97.604 E.14219
G1 X103.799 Y98.612 E.03514
G1 X99.686 Y94.5 E.18365
G1 X99.229 Y94.579 E.01466
G1 X104.27 Y99.621 E.22512
G1 X104.742 Y100.629 E.03514
G1 X98.755 Y94.642 E.26732
G1 X98.275 Y94.7 E.01525
G1 X104.974 Y101.398 E.2991
G1 X104.956 Y101.548 E.00477
G1 X104.841 Y101.803 E.00881
G1 X97.795 Y94.757 E.31461
G1 X97.291 Y94.789 E.01596
G1 X104.559 Y102.058 E.32456
G1 X104.501 Y102.091 E.00212
G1 X104.159 Y102.195 E.01129
G1 X96.786 Y94.822 E.32921
G1 X96.282 Y94.854 E.01596
G1 X103.728 Y102.3 E.33248
G1 X103.296 Y102.406 E.01402
G1 X95.755 Y94.865 E.33673
G1 X95.222 Y94.869 E.01684
G1 X102.862 Y102.509 E.34115
G1 X102.42 Y102.603 E.01429
G1 X94.689 Y94.872 E.3452
G1 X94.134 Y94.855 E.01752
G1 X101.969 Y102.689 E.34984
G1 X101.515 Y102.772 E.01458
G1 X93.57 Y94.828 E.35474
G1 X92.995 Y94.79 E.01819
G1 X101.06 Y102.855 E.36012
G1 X100.596 Y102.928 E.01483
G1 X92.402 Y94.733 E.36592
G1 X91.802 Y94.671 E.01903
G1 X100.126 Y102.994 E.37167
G1 X99.655 Y103.061 E.01501
G1 X91.175 Y94.581 E.37867
G1 X90.544 Y94.487 E.02014
G1 X99.174 Y103.117 E.38537
G1 X98.686 Y103.166 E.01549
G1 X89.879 Y94.358 E.3933
G1 X89.224 Y94.241 E.021
G1 X98.198 Y103.215 E.40074
G1 X97.698 Y103.252 E.01584
G1 X88.77 Y94.323 E.39867
G1 X88.649 Y94.392 E.0044
G1 X88.557 Y94.472 E.00384
G1 X88.481 Y94.572 E.00396
G1 X97.191 Y103.282 E.38894
G1 X96.685 Y103.313 E.01602
G1 X88.291 Y94.919 E.3748
G1 X88.121 Y95.285 E.01276
G1 X96.161 Y103.326 E.35904
G1 X95.635 Y103.337 E.01663
G1 X87.95 Y95.652 E.34316
G1 X87.779 Y96.018 E.01276
G1 X95.105 Y103.344 E.32714
G1 X94.557 Y103.333 E.01731
G1 X87.608 Y96.384 E.3103
G1 X87.437 Y96.75 E.01276
G1 X94.009 Y103.322 E.29345
G1 X93.449 Y103.299 E.01771
G1 X87.267 Y97.117 E.27605
G1 X87.096 Y97.483 E.01276
G1 X92.877 Y103.264 E.25816
G1 X92.305 Y103.229 E.0181
G1 X86.925 Y97.849 E.24023
G1 X86.754 Y98.215 E.01276
G1 X91.708 Y103.169 E.2212
G1 X91.111 Y103.109 E.01894
G1 X86.584 Y98.582 E.20217
G1 X86.413 Y98.948 E.01276
G1 X90.496 Y103.031 E.18231
G1 X89.871 Y102.943 E.01994
G1 X86.242 Y99.314 E.16202
G1 X86.071 Y99.68 E.01276
G1 X89.233 Y102.842 E.14118
G1 X88.577 Y102.723 E.02107
G1 X85.901 Y100.047 E.11949
G1 X85.73 Y100.413 E.01276
G1 X87.914 Y102.597 E.09751
G1 X87.224 Y102.444 E.02229
G1 X85.559 Y100.779 E.07435
G1 X85.432 Y101.053 E.00953
G1 X85.403 Y101.16 E.0035
G1 X86.513 Y102.27 E.04958
G1 X86.024 Y102.15 E.0159
G1 X85.793 Y102.055 E.00788
G1 X85.684 Y101.979 E.00419
G1 X85.23 Y101.524 E.02031
; stop printing object mount-v3.STL id:2 copy 1
; printing object mount-v3.STL id:2 copy 0
G1 E-.8 F2100
G1 Z.8 F10800
G1 X88.583 Y83.108
G1 Z.2
G1 E.8 F2100
;TYPE:Perimeter
;WIDTH:0.42
G1 F1200
G1 X87.425 Y82.875 E.03703
G1 X86.034 Y82.535 E.04492
G1 X85.755 Y82.419 E.00947
G1 X85.595 Y82.307 E.0061
G1 X85.458 Y82.17 E.0061
G1 X85.346 Y82.011 E.0061
G1 X85.263 Y81.834 E.0061
G1 X85.213 Y81.646 E.0061
G1 X85.196 Y81.452 E.0061
G1 X85.213 Y81.258 E.0061
G1 X85.263 Y81.07 E.0061
G1 X88.263 Y74.636 E.22259
G1 X88.447 Y74.392 E.00959
G1 X88.58 Y74.277 E.0055
G1 X88.73 Y74.187 E.0055
G1 X89.007 Y74.091 E.0092
G1 X89.299 Y74.067 E.00919
G1 X89.51 Y74.095 E.00667
G1 X90.751 Y74.334 E.03961
G1 X92.037 Y74.52 E.04076
G1 X93.331 Y74.643 E.04076
G1 X94.632 Y74.705 E.04083
G1 X96.255 Y74.694 E.05088
G1 X97.875 Y74.589 E.05088
G1 X99.169 Y74.434 E.04088
G1 X101.273 Y74.068 E.06697
G1 X101.553 Y74.091 E.0088
G1 X101.83 Y74.187 E.0092
G1 X101.98 Y74.277 E.0055
G1 X102.113 Y74.392 E.0055
G1 X102.298 Y74.636 E.0096
G1 X105.25 Y80.953 E.2186
G1 X105.327 Y81.164 E.00704
G1 X105.363 Y81.368 E.0065
G1 X105.331 Y81.729 E.01138
G1 X105.216 Y82.011 E.00955
