; generated by PrusaSlicer 2.1.1+win64 on 2020-06-24 at 17:38:29 UTC

; 

; external perimeters extrusion width = 0.45mm
; perimeters extrusion width = 0.45mm
; infill extrusion width = 0.45mm
; solid infill extrusion width = 0.45mm
; top infill extrusion width = 0.40mm
; support material extrusion width = 0.35mm
; first layer extrusion width = 0.42mm

M73 P0 R19
M73 Q0 S19
M201 X1000 Y1000 Z1000 E5000 ; sets maximum accelerations, mm/sec^2
M203 X200 Y200 Z12 E120 ; sets maximum feedrates, mm/sec
M204 P1250 R1250 T1250 ; sets acceleration (P, T) and retract acceleration (R), mm/sec^2
M205 X8.00 Y8.00 Z0.40 E1.50 ; sets the jerk limits, mm/sec
M205 S0 T0 ; sets the minimum extruding and travel feed rate, mm/sec
M107
M862.3 P "MK3S" ; printer model check
M862.1 P0.4 ; nozzle diameter check
M115 U3.8.0 ; tell printer latest fw version
G90 ; use absolute coordinates
M83 ; extruder relative mode
M104 S215 ; set extruder temp
M140 S60 ; set bed temp
M190 S60 ; wait for bed temp
M109 S215 ; wait for extruder temp
G28 W ; home all without mesh bed level
G80 ; mesh bed leveling
G1 Y-3.0 F1000.0 ; go outside print area
G92 E0.0
G1 X60.0 E9.0 F1000.0 ; intro line
M73 Q0 S19
M73 P0 R19
G1 X100.0 E12.5 F1000.0 ; intro line
G92 E0.0
M221 S95
G21 ; set units to millimeters
G90 ; use absolute coordinates
M83 ; use relative distances for extrusion
M900 K30 ; Filament gcode
;BEFORE_LAYER_CHANGE
G92 E0.0
;0.2


G1 E-0.80000 F2100.00000
G1 Z0.600 F10800.000
;AFTER_LAYER_CHANGE
;0.2
G1 X124.995 Y130.330
G1 Z0.200
G1 E0.80000 F2100.00000
M204 S1000
G1 F1200
G1 X123.790 Y130.090 E0.03853
G1 X122.768 Y129.408 E0.03853
G1 X122.085 Y128.386 E0.03853
G1 X121.846 Y127.181 E0.03853
G1 X122.085 Y125.976 E0.03853
G1 X122.769 Y124.952 E0.03860
G1 X123.813 Y124.267 E0.03916
G1 X124.995 Y124.032 E0.03776
G1 X126.200 Y124.271 E0.03853
G1 X127.221 Y124.954 E0.03853
G1 X127.904 Y125.976 E0.03853
G1 X128.144 Y127.181 E0.03853
G1 X127.904 Y128.386 E0.03853
G1 X127.221 Y129.408 E0.03853
G1 X126.200 Y130.090 E0.03853
G1 X125.053 Y130.318 E0.03664
G1 X124.995 Y129.945 F10800.000
G1 F1200
G1 X123.937 Y129.735 E0.03382
G1 X123.040 Y129.136 E0.03382
G1 X122.440 Y128.239 E0.03382
G1 X122.230 Y127.181 E0.03382
G1 X122.440 Y126.123 E0.03382
G1 X123.040 Y125.225 E0.03385
G1 X123.959 Y124.622 E0.03445
G1 X124.995 Y124.416 E0.03311
G1 X126.053 Y124.627 E0.03382
G1 X126.950 Y125.226 E0.03382
G1 X127.549 Y126.123 E0.03382
G1 X127.759 Y127.181 E0.03382
G1 X127.549 Y128.239 E0.03382
G1 X126.950 Y129.136 E0.03382
G1 X126.053 Y129.735 E0.03382
G1 X125.053 Y129.934 E0.03194
G1 X124.795 Y130.292 F10800.000
G1 E-0.80000 F2100.00000
G1 Z0.800 F10800.000
G1 X124.995 Y115.862
G1 Z0.200
G1 E0.80000 F2100.00000
G1 F1200
G1 X123.790 Y115.622 E0.03853
G1 X122.768 Y114.939 E0.03853
G1 X122.085 Y113.918 E0.03853
G1 X121.846 Y112.712 E0.03853
G1 X122.085 Y111.507 E0.03853
G1 X122.769 Y110.484 E0.03860
G1 X123.813 Y109.798 E0.03916
G1 X124.995 Y109.563 E0.03776
G1 X126.200 Y109.803 E0.03853
G1 X127.221 Y110.486 E0.03853
G1 X127.904 Y111.507 E0.03853
G1 X128.144 Y112.712 E0.03853
G1 X127.904 Y113.918 E0.03853
G1 X127.221 Y114.939 E0.03853
G1 X126.200 Y115.622 E0.03853
G1 X125.053 Y115.850 E0.03664
G1 X124.995 Y115.477 F10800.000
G1 F1200
G1 X123.937 Y115.267 E0.03382
G1 X123.040 Y114.667 E0.03382
G1 X122.440 Y113.770 E0.03382
G1 X122.230 Y112.712 E0.03382
G1 X122.440 Y111.654 E0.03382
G1 X123.040 Y110.757 E0.03385
G1 X123.959 Y110.154 E0.03445
G1 X124.995 Y109.948 E0.03311
G1 X126.053 Y110.158 E0.03382
G1 X126.950 Y110.758 E0.03382
G1 X127.549 Y111.654 E0.03382
G1 X127.759 Y112.712 E0.03382
G1 X127.549 Y113.770 E0.03382
G1 X126.950 Y114.667 E0.03382
G1 X126.053 Y115.267 E0.03382
G1 X125.053 Y115.465 E0.03194
G1 X124.795 Y115.823 F10800.000
G1 E-0.80000 F2100.00000
G1 Z0.800 F10800.000
G1 X124.995 Y91.160
G1 Z0.200
G1 E0.80000 F2100.00000
G1 F1200
G1 X123.790 Y90.921 E0.03853
G1 X122.768 Y90.238 E0.03853
G1 X122.085 Y89.216 E0.03853
G1 X121.846 Y88.011 E0.03853
G1 X122.085 Y86.806 E0.03853
G1 X122.768 Y85.784 E0.03853
G1 X123.790 Y85.102 E0.03853
G1 X124.995 Y84.862 E0.03853
G1 X126.200 Y85.102 E0.03853
G1 X127.221 Y85.784 E0.03853
G1 X127.904 Y86.806 E0.03853
G1 X128.144 Y88.011 E0.03853
G1 X127.904 Y89.216 E0.03853
G1 X127.221 Y90.238 E0.03853
G1 X126.200 Y90.921 E0.03853
G1 X125.053 Y91.149 E0.03664
G1 X124.995 Y90.776 F10800.000
G1 F1200
G1 X123.937 Y90.565 E0.03382
G1 X123.040 Y89.966 E0.03382
G1 X122.440 Y89.069 E0.03382
G1 X122.230 Y88.011 E0.03382
G1 X122.440 Y86.953 E0.03382
G1 X123.040 Y86.056 E0.03382
G1 X123.937 Y85.457 E0.03382
G1 X124.995 Y85.247 E0.03382
G1 X126.053 Y85.457 E0.03382
G1 X126.950 Y86.056 E0.03382
G1 X127.549 Y86.953 E0.03382
G1 X127.759 Y88.011 E0.03382
G1 X127.549 Y89.069 E0.03382
G1 X126.950 Y89.966 E0.03382
G1 X126.053 Y90.565 E0.03382
G1 X125.053 Y90.764 E0.03194
G1 X124.795 Y91.122 F10800.000
G1 E-0.80000 F2100.00000
G1 Z0.800 F10800.000
G1 X125.000 Y134.413
G1 Z0.200
G1 E0.80000 F2100.00000
G1 F1200
G1 X116.587 Y134.413 E0.26378
G1 X116.587 Y75.587 E1.84444
G1 X133.413 Y75.587 E0.52756
G1 X133.413 Y134.413 E1.84444
G1 X125.060 Y134.413 E0.26190
G1 X125.000 Y134.790 F10800.000
G1 F1200
G1 X116.210 Y134.790 E0.27560
G1 X116.210 Y75.210 E1.86809
G1 X133.790 Y75.210 E0.55121
G1 X133.790 Y134.790 E1.86809
G1 X125.060 Y134.790 E0.27372
G1 X124.664 Y134.573 F10800.000
G1 E-0.80000 F2100.00000
G1 Z0.800 F10800.000
G1 X126.539 Y134.300
G1 Z0.200
G1 E0.80000 F2100.00000
G1 F1200
G1 X116.870 Y124.631 E0.42922
G1 X116.870 Y125.165 E0.01676
G1 X125.835 Y134.130 E0.39798
G1 X125.301 Y134.130 E0.01676
G1 X116.870 Y125.699 E0.37429
G1 X116.870 Y126.232 E0.01676
G1 X124.768 Y134.130 E0.35059
G1 X124.234 Y134.130 E0.01676
G1 X116.870 Y126.766 E0.32689
G1 X116.870 Y127.300 E0.01676
G1 X123.700 Y134.130 E0.30319
G1 X123.166 Y134.130 E0.01676
G1 X116.870 Y127.834 E0.27949
G1 X116.870 Y128.368 E0.01676
G1 X122.632 Y134.130 E0.25579
G1 X122.098 Y134.130 E0.01676
G1 X116.870 Y128.902 E0.23209
G1 X116.870 Y129.436 E0.01676
G1 X121.564 Y134.130 E0.20840
G1 X121.031 Y134.130 E0.01676
G1 X116.870 Y129.969 E0.18470
G1 X116.870 Y130.503 E0.01676
G1 X120.497 Y134.130 E0.16100
G1 X119.963 Y134.130 E0.01676
G1 X116.870 Y131.037 E0.13730
G1 X116.870 Y131.571 E0.01676
G1 X119.429 Y134.130 E0.11360
G1 X118.895 Y134.130 E0.01676
G1 X116.870 Y132.105 E0.08990
G1 X116.870 Y132.639 E0.01676
G1 X118.361 Y134.130 E0.06620
G1 X117.827 Y134.130 E0.01676
G1 X116.870 Y133.173 E0.04251
G1 X116.870 Y133.706 E0.01676
G1 X117.463 Y134.300 E0.02634
G1 E-0.80000 F2100.00000
G1 Z0.800 F10800.000
G1 X133.300 Y126.646
G1 Z0.200
G1 E0.80000 F2100.00000
G1 F1200
G1 X116.870 Y110.216 E0.72934
G1 X116.870 Y110.750 E0.01676
G1 X133.130 Y127.011 E0.72181
G1 X133.130 Y127.544 E0.01676
G1 X116.870 Y111.284 E0.72181
G1 X116.870 Y111.818 E0.01676
G1 X133.130 Y128.078 E0.72181
G1 X133.130 Y128.612 E0.01676
G1 X116.870 Y112.352 E0.72181
G1 X116.870 Y112.886 E0.01676
G1 X133.130 Y129.146 E0.72181
G1 X133.130 Y129.680 E0.01676
G1 X116.870 Y113.420 E0.72181
G1 X116.870 Y113.954 E0.01676
G1 X133.130 Y130.214 E0.72181
G1 X133.130 Y130.748 E0.01676
G1 X128.015 Y125.632 E0.22708
G1 X128.170 Y125.865 E0.00880
G1 X128.284 Y126.435 E0.01824
G1 X133.130 Y131.282 E0.21514
G1 X133.130 Y131.815 E0.01676
G1 X128.416 Y127.102 E0.20925
G1 X128.432 Y127.181 E0.00253
G1 X128.354 Y127.573 E0.01256
G1 X133.130 Y132.349 E0.21202
G1 X133.130 Y132.883 E0.01676
G1 X128.265 Y128.018 E0.21595
G1 X128.177 Y128.464 E0.01425
G1 X133.130 Y133.417 E0.21988
G1 X133.130 Y133.951 E0.01676
G1 X127.972 Y128.793 E0.22897
G1 X127.758 Y129.113 E0.01208
G1 X132.776 Y134.130 E0.22272
G1 X132.242 Y134.130 E0.01676
G1 X127.545 Y129.433 E0.20851
G1 X127.425 Y129.611 E0.00674
G1 X127.284 Y129.706 E0.00534
G1 X131.708 Y134.130 E0.19639
G1 X131.174 Y134.130 E0.01676
G1 X126.964 Y129.920 E0.18690
G1 X126.644 Y130.134 E0.01208
G1 X130.640 Y134.130 E0.17741
G1 X130.106 Y134.130 E0.01676
G1 X126.324 Y130.347 E0.16791
G1 X125.884 Y130.441 E0.01412
G1 X129.572 Y134.130 E0.16375
G1 X129.039 Y134.130 E0.01676
G1 X125.438 Y130.530 E0.15981
G1 X124.992 Y130.618 E0.01427
G1 X128.505 Y134.130 E0.15592
G1 X127.971 Y134.130 E0.01676
G1 X124.326 Y130.485 E0.16180
G1 X123.679 Y130.357 E0.02070
G1 X123.631 Y130.325 E0.00180
G1 X127.437 Y134.130 E0.16893
G1 X126.903 Y134.130 E0.01676
G1 X116.870 Y124.097 E0.44538
G1 X116.870 Y123.563 E0.01676
G1 X121.851 Y128.544 E0.22110
G1 X121.819 Y128.496 E0.00180
G1 X121.690 Y127.850 E0.02070
G1 X116.870 Y123.029 E0.21398
G1 X116.870 Y122.495 E0.01676
G1 X121.558 Y127.183 E0.20810
G1 X121.645 Y126.737 E0.01427
G1 X116.870 Y121.961 E0.21199
G1 X116.870 Y121.428 E0.01676
G1 X121.734 Y126.292 E0.21592
G1 X121.828 Y125.852 E0.01412
G1 X116.870 Y120.894 E0.22009
G1 X116.870 Y120.360 E0.01676
G1 X122.042 Y125.532 E0.22958
G1 X122.256 Y125.212 E0.01208
G1 X116.870 Y119.826 E0.23908
G1 X116.870 Y119.292 E0.01676
G1 X122.469 Y124.892 E0.24857
G1 X122.566 Y124.747 E0.00546
G1 X122.743 Y124.631 E0.00663
G1 X116.870 Y118.758 E0.26070
G1 X116.870 Y118.224 E0.01676
G1 X123.065 Y124.420 E0.27501
G1 X123.387 Y124.208 E0.01210
G1 X116.870 Y117.691 E0.28931
G1 X116.870 Y117.157 E0.01676
G1 X123.712 Y123.999 E0.30371
G1 X124.157 Y123.910 E0.01425
G1 X116.870 Y116.623 E0.32348
G1 X116.870 Y116.089 E0.01676
G1 X124.602 Y123.821 E0.34325
G1 X124.995 Y123.743 E0.01256
G1 X125.074 Y123.759 E0.00253
G1 X116.870 Y115.555 E0.36418
G1 X116.870 Y115.021 E0.01676
G1 X125.740 Y123.892 E0.39376
G1 X126.310 Y124.005 E0.01824
G1 X126.543 Y124.161 E0.00880
G1 X116.700 Y114.318 E0.43694
G1 E-0.80000 F2100.00000
G1 Z0.800 F10800.000
G1 X133.300 Y116.503
G1 Z0.200
G1 E0.80000 F2100.00000
M73 Q5 S18
G1 F1200
G1 X128.123 Y111.327 E0.22979
G1 X128.170 Y111.397 E0.00266
G1 X128.297 Y112.034 E0.02040
M73 P5 R18
G1 X133.130 Y116.867 E0.21454
G1 X133.130 Y117.401 E0.01676
G1 X128.430 Y112.701 E0.20866
G1 X128.345 Y113.150 E0.01435
G1 X133.130 Y117.935 E0.21241
G1 X133.130 Y118.469 E0.01676
G1 X128.256 Y113.595 E0.21635
G1 X128.164 Y114.037 E0.01416
G1 X133.130 Y119.003 E0.22043
G1 X133.130 Y119.537 E0.01676
G1 X127.951 Y114.357 E0.22993
G1 X127.737 Y114.677 E0.01208
G1 X133.130 Y120.070 E0.23942
G1 X133.130 Y120.604 E0.01676
G1 X127.523 Y114.997 E0.24891
G1 X127.425 Y115.143 E0.00551
G1 X127.251 Y115.259 E0.00657
G1 X133.130 Y121.138 E0.26097
G1 X133.130 Y121.672 E0.01676
G1 X126.931 Y115.473 E0.27517
G1 X126.611 Y115.687 E0.01208
G1 X133.130 Y122.206 E0.28938
G1 X133.130 Y122.740 E0.01676
G1 X126.284 Y115.893 E0.30391
G1 X125.839 Y115.982 E0.01425
G1 X133.130 Y123.274 E0.32368
G1 X133.130 Y123.807 E0.01676
G1 X125.393 Y116.071 E0.34345
G1 X124.995 Y116.150 E0.01276
G1 X124.925 Y116.136 E0.00223
G1 X133.130 Y124.341 E0.36424
G1 X133.130 Y124.875 E0.01676
G1 X124.258 Y116.003 E0.39382
G1 X123.679 Y115.888 E0.01854
G1 X123.469 Y115.748 E0.00795
G1 X133.130 Y125.409 E0.42888
G1 X133.130 Y125.943 E0.01676
G1 X116.870 Y109.683 E0.72181
G1 X116.870 Y109.149 E0.01676
G1 X121.960 Y114.238 E0.22593
G1 X121.819 Y114.028 E0.00795
G1 X121.704 Y113.449 E0.01854
G1 X116.870 Y108.615 E0.21458
G1 X116.870 Y108.081 E0.01676
G1 X121.571 Y112.782 E0.20869
G1 X121.557 Y112.712 E0.00223
G1 X121.636 Y112.314 E0.01276
G1 X116.870 Y107.547 E0.21159
G1 X116.870 Y107.013 E0.01676
G1 X121.725 Y111.869 E0.21553
G1 X121.814 Y111.423 E0.01425
G1 X116.870 Y106.479 E0.21946
G1 X116.870 Y105.946 E0.01676
G1 X122.020 Y111.096 E0.22862
G1 X122.234 Y110.776 E0.01208
G1 X116.870 Y105.412 E0.23812
G1 X116.870 Y104.878 E0.01676
G1 X122.448 Y110.456 E0.24761
G1 X122.566 Y110.279 E0.00668
G1 X122.710 Y110.184 E0.00541
G1 X116.870 Y104.344 E0.25925
G1 X116.870 Y103.810 E0.01676
G1 X123.032 Y109.973 E0.27356
G1 X123.355 Y109.761 E0.01210
G1 X116.870 Y103.276 E0.28787
G1 X116.870 Y102.742 E0.01676
G1 X123.677 Y109.550 E0.30217
G1 X124.112 Y109.451 E0.01400
G1 X116.870 Y102.209 E0.32148
G1 X116.870 Y101.675 E0.01676
G1 X124.557 Y109.362 E0.34125
G1 X125.006 Y109.277 E0.01435
G1 X116.870 Y101.141 E0.36119
G1 X116.870 Y100.607 E0.01676
G1 X125.673 Y109.410 E0.39077
G1 X126.310 Y109.537 E0.02040
G1 X126.380 Y109.584 E0.00266
G1 X116.870 Y100.073 E0.42218
G1 X116.870 Y99.539 E0.01676
G1 X133.130 Y115.800 E0.72181
G1 X133.130 Y115.266 E0.01676
G1 X116.870 Y99.005 E0.72181
G1 X116.870 Y98.472 E0.01676
G1 X133.130 Y114.732 E0.72181
G1 X133.130 Y114.198 E0.01676
G1 X116.870 Y97.938 E0.72181
G1 X116.870 Y97.404 E0.01676
G1 X133.130 Y113.664 E0.72181
G1 X133.130 Y113.130 E0.01676
G1 X116.870 Y96.870 E0.72181
G1 X116.870 Y96.336 E0.01676
G1 X133.130 Y112.596 E0.72181
G1 X133.130 Y112.062 E0.01676
G1 X116.870 Y95.802 E0.72181
G1 X116.870 Y95.268 E0.01676
G1 X133.130 Y111.529 E0.72181
G1 X133.130 Y110.995 E0.01676
G1 X116.870 Y94.734 E0.72181
G1 X116.870 Y94.201 E0.01676
G1 X133.130 Y110.461 E0.72181
G1 X133.130 Y109.927 E0.01676
G1 X116.870 Y93.667 E0.72181
G1 X116.870 Y93.133 E0.01676
G1 X133.130 Y109.393 E0.72181
G1 X133.130 Y108.859 E0.01676
G1 X116.870 Y92.599 E0.72181
G1 X116.870 Y92.065 E0.01676
G1 X133.130 Y108.325 E0.72181
G1 X133.130 Y107.792 E0.01676
G1 X116.870 Y91.531 E0.72181
G1 X116.870 Y90.997 E0.01676
G1 X133.130 Y107.258 E0.72181
G1 X133.130 Y106.724 E0.01676
G1 X116.870 Y90.464 E0.72181
G1 X116.870 Y89.930 E0.01676
G1 X133.130 Y106.190 E0.72181
G1 X133.130 Y105.656 E0.01676
G1 X116.870 Y89.396 E0.72181
G1 X116.870 Y88.862 E0.01676
G1 X133.130 Y105.122 E0.72181
G1 X133.130 Y104.588 E0.01676
G1 X116.870 Y88.328 E0.72181
G1 X116.870 Y87.794 E0.01676
G1 X133.130 Y104.055 E0.72181
G1 X133.130 Y103.521 E0.01676
G1 X116.870 Y87.260 E0.72181
G1 X116.870 Y86.727 E0.01676
G1 X133.130 Y102.987 E0.72181
G1 X133.130 Y102.453 E0.01676
G1 X116.870 Y86.193 E0.72181
G1 X116.870 Y85.659 E0.01676
G1 X133.130 Y101.919 E0.72181
G1 X133.130 Y101.385 E0.01676
G1 X116.870 Y85.125 E0.72181
G1 X116.870 Y84.591 E0.01676
G1 X133.300 Y101.021 E0.72934
G1 E-0.80000 F2100.00000
G1 Z0.800 F10800.000
G1 X133.300 Y91.945
G1 Z0.200
G1 E0.80000 F2100.00000
G1 F1200
G1 X128.200 Y86.846 E0.22637
G1 X128.333 Y87.512 E0.02133
G1 X133.130 Y92.310 E0.21296
G1 X133.130 Y92.843 E0.01676
G1 X128.410 Y88.123 E0.20954
G1 X128.321 Y88.568 E0.01425
G1 X133.130 Y93.377 E0.21347
G1 X133.130 Y93.911 E0.01676
G1 X128.233 Y89.014 E0.21740
G1 X128.170 Y89.327 E0.01002
G1 X128.107 Y89.422 E0.00359
G1 X133.130 Y94.445 E0.22299
G1 X133.130 Y94.979 E0.01676
G1 X127.893 Y89.742 E0.23248
G1 X127.679 Y90.062 E0.01208
G1 X133.130 Y95.513 E0.24197
G1 X133.130 Y96.047 E0.01676
G1 X127.465 Y90.382 E0.25146
G1 X127.425 Y90.442 E0.00226
G1 X127.165 Y90.616 E0.00982
G1 X133.130 Y96.580 E0.26479
G1 X133.130 Y97.114 E0.01676
G1 X126.845 Y90.829 E0.27899
G1 X126.525 Y91.043 E0.01208
G1 X133.130 Y97.648 E0.29320
G1 X133.130 Y98.182 E0.01676
G1 X126.164 Y91.216 E0.30923
G1 X125.719 Y91.305 E0.01425
G1 X133.130 Y98.716 E0.32900
G1 X133.130 Y99.250 E0.01676
G1 X125.274 Y91.393 E0.34876
G1 X124.995 Y91.449 E0.00893
G1 X124.746 Y91.399 E0.00797
G1 X133.130 Y99.784 E0.37220
M73 Q10 S17
M73 P10 R17
G1 X133.130 Y100.317 E0.01676
G1 X123.863 Y91.051 E0.41137
G1 E-0.80000 F2100.00000
G1 Z0.800 F10800.000
G1 X121.955 Y89.143
G1 Z0.200
G1 E0.80000 F2100.00000
G1 F1200
G1 X116.870 Y84.057 E0.22575
G1 X116.870 Y83.523 E0.01676
G1 X121.607 Y88.260 E0.21027
G1 X121.557 Y88.011 E0.00797
G1 X121.613 Y87.732 E0.00893
G1 X116.870 Y82.989 E0.21054
G1 X116.870 Y82.456 E0.01676
G1 X121.701 Y87.287 E0.21447
G1 X121.790 Y86.842 E0.01425
G1 X116.870 Y81.922 E0.21840
G1 X116.870 Y81.388 E0.01676
G1 X121.963 Y86.481 E0.22607
G1 X122.176 Y86.161 E0.01208
G1 X116.870 Y80.854 E0.23556
G1 X116.870 Y80.320 E0.01676
G1 X122.390 Y85.841 E0.24505
G1 X122.564 Y85.581 E0.00982
G1 X122.624 Y85.540 E0.00226
G1 X116.870 Y79.786 E0.25543
G1 X116.870 Y79.252 E0.01676
G1 X122.944 Y85.327 E0.26964
G1 X123.264 Y85.113 E0.01208
G1 X116.870 Y78.719 E0.28384
G1 X116.870 Y78.185 E0.01676
G1 X123.584 Y84.899 E0.29805
G1 X123.679 Y84.835 E0.00359
G1 X123.992 Y84.773 E0.01002
G1 X116.870 Y77.651 E0.31616
G1 X116.870 Y77.117 E0.01676
G1 X124.437 Y84.685 E0.33593
G1 X124.883 Y84.596 E0.01425
G1 X116.870 Y76.583 E0.35570
