; generated by PrusaSlicer 2.5.0-rc2+win64 on 2022-09-23 at 16:59:01 UTC

; 

; external perimeters extrusion width = 0.45mm
; perimeters extrusion width = 0.45mm
; infill extrusion width = 0.45mm
; solid infill extrusion width = 0.45mm
; top infill extrusion width = 0.45mm
; first layer extrusion width = 0.42mm

M73 P0 R234
M73 C199
M107
;TYPE:Custom
M862.3 P "MK2S" ; printer model check
M862.1 P0.4 ; nozzle diameter check
G90 ; use absolute coordinates
M83 ; extruder relative mode
M204 S2000 T1500 ; MK2 firmware only supports the old M204 format
M104 S215 ; set extruder temp
M140 S60 ; set bed temp
M190 S60 ; wait for bed temp
M109 S215 ; wait for extruder temp
G28 W ; home all without mesh bed level
G80 ; mesh bed leveling
G1 Y-3.0 F1000.0 ; go outside print area
G92 E0.0
G1 X60.0 E9.0  F1000.0 ; intro line
G1 X100.0 E12.5 F1000.0 ; intro line
G92 E0.0
G21 ; set units to millimeters
G90 ; use absolute coordinates
M83 ; use relative distances for extrusion
M900 K0.05 ; Filament gcode LA 1.5
M900 K30 ; Filament gcode LA 1.0
M107
;LAYER_CHANGE
;Z:0.2
;HEIGHT:0.2
;BEFORE_LAYER_CHANGE
G92 E0.0
;0.2


G1 E-.8 F2100
G1 Z.4 F720
;AFTER_LAYER_CHANGE
;0.2
G1 X12.477 Y23.389 F10800
G1 Z.2 F720
G1 E.8 F2100
M204 S800
;TYPE:Skirt/Brim
;WIDTH:0.42
G1 F1200
G1 X13.417 Y23.196 E.03008
G1 X236.583 Y23.196 E6.9972
G1 X237.89 Y23.587 E.04278
G1 X238.766 Y24.633 E.04278
G1 X238.96 Y25.573 E.03008
G1 X238.96 Y184.875 E4.9948
G1 X238.568 Y186.182 E.04278
M73 C198
G1 X237.523 Y187.058 E.04278
G1 X236.583 Y187.252 E.03008
G1 X13.417 Y187.252 E6.9972
G1 X12.11 Y186.86 E.04278
M73 P0 R233
G1 X11.234 Y185.815 E.04278
G1 X11.04 Y184.875 E.03008
G1 X11.04 Y25.573 E4.9948
G1 X11.432 Y24.266 E.04278
G1 X12.432 Y23.428 E.0409
M204 S1000
; printing object Base.stl id:0 copy 5
;WIPE_START
G1 F8640
G1 X13.417 Y23.196 E-.23384
G1 X15.696 Y23.196 E-.52616
;WIPE_END
G1 E-.04 F2100
G1 Z.6 F720
G1 X211.149 Y116.436 F10800
G1 Z.2 F720
G1 E.8 F2100
M204 S800
;TYPE:Perimeter
;WIDTH:0.419999
G1 F1200
G1 X211.137 Y158.131 E1.30732
G1 X211.22 Y158.426 E.00959
G1 X211.428 Y158.626 E.00904
G1 X211.702 Y158.697 E.00891
G1 X235.393 Y158.697 E.7428
G1 X235.796 Y158.359 E.01648
G1 X235.796 Y184.088 E.8067
G1 X166.981 Y184.088 E2.15762
G1 X166.981 Y158.359 E.8067
G1 X167.384 Y158.697 E.01648
G1 X191.075 Y158.697 E.74281
G1 X191.349 Y158.626 E.00891
G1 X191.557 Y158.426 E.00904
G1 X191.64 Y158.131 E.00959
G1 X191.64 Y116.51 E1.30501
G1 X191.609 Y116.323 E.00593
G1 X191.524 Y116.166 E.00561
G1 X191.284 Y115.984 E.00942
G1 X191.075 Y115.944 E.00669
G1 X167.384 Y115.944 E.74281
G1 X166.981 Y116.347 E.01785
G1 X166.981 Y109.274 E.22174
G1 X195.081 Y109.274 E.88104
G1 X195.081 Y146.094 E1.15446
G1 X195.089 Y146.192 E.00308
G1 X195.17 Y146.399 E.00694
G1 X195.319 Y146.556 E.00681
G1 X195.647 Y146.66 E.01077
G1 X207.13 Y146.66 E.36007
G1 X207.458 Y146.556 E.01077
G1 X207.607 Y146.399 E.00681
G1 X207.665 Y146.278 E.00421
G1 X207.696 Y146.094 E.00583
G1 X207.696 Y109.274 E1.15446
G1 X235.796 Y109.274 E.88104
G1 X235.796 Y116.347 E.22174
G1 X235.393 Y115.944 E.01785
G1 X211.702 Y115.944 E.7428
G1 X211.493 Y115.984 E.00669
G1 X211.253 Y116.166 E.00942
G1 X211.168 Y116.323 E.00561
G1 X211.159 Y116.377 E.00171
M204 S1000
;WIPE_START
G1 F8640
G1 X211.158 Y119.669 E-.76
;WIPE_END
G1 E-.04 F2100
G1 Z.6 F720
G1 X207.319 Y146.094 F10800
G1 Z.2 F720
G1 E.8 F2100
M204 S800
;TYPE:External perimeter
G1 F1200
G1 X207.319 Y108.897 E1.16629
G1 X236.173 Y108.897 E.90469
G1 X236.173 Y112.609 E.11638
G1 X236.173 Y115.542 E.09194
;WIDTH:0.455654
G1 X236.155 Y115.864 E.01109
;WIDTH:0.491308
G1 X236.137 Y116.187 E.01205
;WIDTH:0.526962
G1 X236.119 Y116.51 E.01301
G1 X236.119 Y158.131 E1.6752
;WIDTH:0.530629
G1 X236.136 Y158.51 E.01538
;WIDTH:0.493753
G1 X236.154 Y158.805 E.01107
;WIDTH:0.456876
G1 X236.173 Y159.099 E.01016
;WIDTH:0.419999
G1 X236.173 Y184.465 E.79531
G1 X166.604 Y184.465 E2.18127
G1 X166.604 Y159.099 E.79531
;WIDTH:0.455654
M73 C197
G1 X166.622 Y158.777 E.01109
;WIDTH:0.491308
G1 X166.64 Y158.454 E.01205
;WIDTH:0.526962
G1 X166.658 Y158.131 E.01301
G1 X166.658 Y116.51 E1.6752
G1 X166.64 Y116.187 E.01301
;WIDTH:0.491308
G1 X166.622 Y115.864 E.01205
;WIDTH:0.455654
G1 X166.604 Y115.542 E.01109
;WIDTH:0.419999
G1 X166.604 Y108.897 E.20833
G1 X195.458 Y108.897 E.90469
G1 X195.458 Y146.094 E1.16629
G1 X195.488 Y146.196 E.00331
G1 X195.647 Y146.283 E.00568
G1 X207.13 Y146.283 E.36007
G1 X207.163 Y146.28 E.00103
G1 X207.289 Y146.196 E.00476
G1 X207.302 Y146.152 E.00143
M204 S1000
G1 X207.702 Y145.98 F10800
;WIPE_START
G1 F8640
G1 X207.304 Y142.861 E-.76
;WIPE_END
G1 E-.04 F2100
G1 Z.6 F720
G1 X191.075 Y116.321 F10800
G1 Z.2 F720
G1 E.8 F2100
M204 S800
G1 F1200
G1 X191.224 Y116.395 E.00523
G1 X191.263 Y116.51 E.00379
G1 X191.263 Y158.131 E1.30501
G1 X191.193 Y158.278 E.00511
G1 X191.075 Y158.32 E.00393
G1 X167.384 Y158.32 E.74281
;WIDTH:0.456876
G1 X167.304 Y158.271 E.00323
;WIDTH:0.493753
M73 P0 R232
G1 X167.224 Y158.222 E.00351
;WIDTH:0.53063
G1 X167.144 Y158.174 E.0038
G1 X167.142 Y158.131 E.00171
;WIDTH:0.526962
G1 X167.142 Y116.51 E1.6752
G1 X167.222 Y116.447 E.00412
;WIDTH:0.491308
G1 X167.303 Y116.384 E.00381
;WIDTH:0.455654
G1 X167.384 Y116.321 E.00351
;WIDTH:0.419999
G1 X191.015 Y116.321 E.74092
M204 S1000
;WIPE_START
G1 F8640
G1 X191.224 Y116.395 E-.05134
G1 X191.263 Y116.51 E-.02795
G1 X191.263 Y119.458 E-.68072
;WIPE_END
G1 E-.04 F2100
G1 Z.6 F720
G1 X208.047 Y148.21 F10800
G1 Z.2 F720
G1 E.8 F2100
M204 S800
;TYPE:Perimeter
G1 F1200
G1 X208.193 Y148.239 E.00467
G1 X208.311 Y148.304 E.00421
G1 X208.476 Y148.491 E.00783
G1 X208.546 Y148.763 E.0088
G1 X208.546 Y157.213 E.26497
G1 X208.481 Y157.476 E.00849
G1 X208.271 Y157.699 E.00959
G1 X207.994 Y157.779 E.00904
G1 X194.797 Y157.779 E.41379
G1 X194.586 Y157.738 E.00674
G1 X194.403 Y157.62 E.00681
G1 X194.296 Y157.476 E.00563
G1 X194.231 Y157.213 E.00849
G1 X194.231 Y148.763 E.26497
G1 X194.301 Y148.491 E.0088
G1 X194.466 Y148.304 E.00783
G1 X194.584 Y148.239 E.00421
G1 X194.797 Y148.197 E.00681
G1 X207.988 Y148.198 E.41362
M204 S1000
G1 X207.98 Y148.574 F10800
M204 S800
;TYPE:External perimeter
G1 F1200
G1 X208.091 Y148.61 E.00363
G1 X208.169 Y148.763 E.00539
G1 X208.169 Y157.213 E.26497
G1 X208.111 Y157.349 E.00462
G1 X207.98 Y157.402 E.00443
G1 X194.797 Y157.402 E.41337
G1 X194.666 Y157.349 E.00443
G1 X194.608 Y157.213 E.00462
G1 X194.608 Y148.763 E.26497
G1 X194.686 Y148.61 E.00539
G1 X194.797 Y148.574 E.00363
G1 X207.92 Y148.574 E.41149
M204 S1000
G1 X208.058 Y148.488 F10800
;WIPE_START
G1 F8640
G1 X208.091 Y148.61 E-.04014
G1 X208.169 Y148.763 E-.0397
G1 X208.169 Y151.708 E-.68017
;WIPE_END
G1 E-.04 F2100
G1 Z.6 F720
G1 X211.514 Y116.51 F10800
G1 Z.2 F720
G1 E.8 F2100
M204 S800
G1 F1200
G1 X211.591 Y116.357 E.00536
G1 X211.702 Y116.321 E.00366
G1 X235.393 Y116.321 E.7428
;WIDTH:0.455654
G1 X235.474 Y116.384 E.00351
;WIDTH:0.491308
G1 X235.555 Y116.447 E.00381
;WIDTH:0.526962
G1 X235.635 Y116.51 E.00412
G1 X235.635 Y158.131 E1.6752
;WIDTH:0.530629
G1 X235.633 Y158.174 E.00171
G1 X235.553 Y158.222 E.0038
;WIDTH:0.493753
G1 X235.473 Y158.271 E.00351
;WIDTH:0.456876
G1 X235.393 Y158.32 E.00323
;WIDTH:0.419999
G1 X211.702 Y158.32 E.7428
G1 X211.559 Y158.254 E.00496
G1 X211.514 Y158.131 E.00408
G1 X211.514 Y116.57 E1.30313
M204 S1000
G1 X211.399 Y116.383 F10800
;WIPE_START
G1 F8640
G1 X211.591 Y116.357 E-.05219
G1 X211.702 Y116.321 E-.02698
G1 X214.651 Y116.321 E-.68083
;WIPE_END
G1 E-.04 F2100
G1 Z.6 F720
G1 X235.683 Y110.152 F10800
G1 Z.2 F720
G1 E.8 F2100
M204 S800
;TYPE:Solid infill
;WIDTH:0.42088
G1 F1200
G1 X235.088 Y109.557 E.02642
G1 X234.554 Y109.557 E.0168
G1 X235.513 Y110.517 E.04264
G1 X235.513 Y111.051 E.0168
G1 X234.019 Y109.557 E.06639
G1 X233.485 Y109.557 E.0168
G1 X235.513 Y111.586 E.09015
G1 X235.513 Y112.12 E.0168
G1 X232.95 Y109.557 E.11391
G1 X232.416 Y109.557 E.0168
G1 X235.513 Y112.655 E.13766
G1 X235.513 Y113.189 E.0168
G1 X231.881 Y109.557 E.16142
G1 X231.346 Y109.557 E.0168
G1 X235.513 Y113.724 E.18518
G1 X235.513 Y114.258 E.0168
G1 X230.812 Y109.557 E.20893
G1 X230.277 Y109.557 E.0168
G1 X235.513 Y114.793 E.23269
G1 X235.513 Y115.327 E.0168
G1 X229.743 Y109.557 E.25645
G1 X229.208 Y109.557 E.0168
G1 X235.313 Y115.661 E.2713
G1 X234.778 Y115.661 E.0168
G1 X228.674 Y109.557 E.2713
G1 X228.139 Y109.557 E.0168
G1 X234.244 Y115.661 E.2713
G1 X233.709 Y115.661 E.0168
G1 X227.605 Y109.557 E.2713
G1 X227.07 Y109.557 E.0168
G1 X233.174 Y115.661 E.2713
G1 X232.64 Y115.661 E.0168
G1 X226.536 Y109.557 E.2713
G1 X226.001 Y109.557 E.0168
G1 X232.105 Y115.661 E.2713
G1 X231.571 Y115.661 E.0168
G1 X225.467 Y109.557 E.2713
G1 X224.932 Y109.557 E.0168
G1 X231.036 Y115.661 E.2713
G1 X230.502 Y115.661 E.0168
G1 X224.398 Y109.557 E.2713
G1 X223.863 Y109.557 E.0168
G1 X229.967 Y115.661 E.2713
G1 X229.433 Y115.661 E.0168
G1 X223.329 Y109.557 E.2713
G1 X222.794 Y109.557 E.0168
G1 X228.898 Y115.661 E.2713
G1 X228.364 Y115.661 E.0168
G1 X222.26 Y109.557 E.2713
G1 X221.725 Y109.557 E.0168
G1 X227.829 Y115.661 E.2713
G1 X227.295 Y115.661 E.0168
G1 X221.191 Y109.557 E.2713
G1 X220.656 Y109.557 E.0168
G1 X226.76 Y115.661 E.2713
G1 X226.226 Y115.661 E.0168
G1 X220.122 Y109.557 E.2713
G1 X219.587 Y109.557 E.0168
G1 X225.691 Y115.661 E.2713
G1 X225.157 Y115.661 E.0168
G1 X219.053 Y109.557 E.2713
G1 X218.518 Y109.557 E.0168
G1 X224.622 Y115.661 E.2713
G1 X224.088 Y115.661 E.0168
G1 X217.984 Y109.557 E.2713
G1 X217.449 Y109.557 E.0168
G1 X223.553 Y115.661 E.2713
G1 X223.019 Y115.661 E.0168
G1 X216.915 Y109.557 E.2713
G1 X216.38 Y109.557 E.0168
G1 X222.484 Y115.661 E.2713
G1 X221.95 Y115.661 E.0168
G1 X215.846 Y109.557 E.2713
G1 X215.311 Y109.557 E.0168
G1 X221.415 Y115.661 E.2713
G1 X220.881 Y115.661 E.0168
G1 X214.776 Y109.557 E.2713
G1 X214.242 Y109.557 E.0168
G1 X220.346 Y115.661 E.2713
G1 X219.812 Y115.661 E.0168
G1 X213.707 Y109.557 E.2713
G1 X213.173 Y109.557 E.0168
G1 X219.277 Y115.661 E.2713
G1 X218.743 Y115.661 E.0168
G1 X212.638 Y109.557 E.2713
G1 X212.104 Y109.557 E.0168
G1 X218.208 Y115.661 E.2713
G1 X217.674 Y115.661 E.0168
G1 X211.569 Y109.557 E.2713
G1 X211.035 Y109.557 E.0168
G1 X217.139 Y115.661 E.2713
G1 X216.604 Y115.661 E.0168
G1 X210.5 Y109.557 E.2713
G1 X209.966 Y109.557 E.0168
G1 X216.07 Y115.661 E.2713
G1 X215.535 Y115.661 E.0168
G1 X209.431 Y109.557 E.2713
G1 X208.897 Y109.557 E.0168
G1 X215.001 Y115.661 E.2713
G1 X214.466 Y115.661 E.0168
G1 X208.362 Y109.557 E.2713
G1 X207.979 Y109.557 E.01205
G1 X207.979 Y109.708 E.00475
G1 X213.932 Y115.661 E.26459
G1 X213.397 Y115.661 E.0168
G1 X207.979 Y110.243 E.24083
G1 X207.979 Y110.777 E.0168
G1 X212.863 Y115.661 E.21707
G1 X212.328 Y115.661 E.0168
G1 X207.979 Y111.312 E.19332
G1 X207.979 Y111.846 E.0168
G1 X211.794 Y115.661 E.16956
G1 X211.562 Y115.673 E.0073
G1 X211.344 Y115.746 E.00724
G1 X207.979 Y112.381 E.14954
G1 X207.979 Y112.915 E.0168
G1 X211.043 Y115.979 E.13617
G1 X210.9 Y116.23 E.00907
G1 X210.88 Y116.351 E.00384
G1 X207.979 Y113.45 E.12893
G1 X207.979 Y113.984 E.0168
G1 X210.854 Y116.86 E.12779
G1 X210.854 Y117.394 E.0168
G1 X207.979 Y114.519 E.12779
G1 X207.979 Y115.053 E.0168
G1 X210.854 Y117.929 E.12779
G1 X210.854 Y118.463 E.0168
G1 X207.979 Y115.588 E.12779
G1 X207.979 Y116.123 E.0168
G1 X210.854 Y118.998 E.12779
G1 X210.854 Y119.532 E.0168
G1 X207.979 Y116.657 E.12779
G1 X207.979 Y117.192 E.0168
G1 X210.854 Y120.067 E.12779
G1 X210.854 Y120.601 E.0168
G1 X207.979 Y117.726 E.12779
G1 X207.979 Y118.261 E.0168
G1 X210.854 Y121.136 E.12779
G1 X210.854 Y121.67 E.0168
G1 X207.979 Y118.795 E.12779
G1 X207.979 Y119.33 E.0168
G1 X210.854 Y122.205 E.12779
G1 X210.854 Y122.739 E.0168
G1 X207.979 Y119.864 E.12779
G1 X207.979 Y120.399 E.0168
G1 X210.854 Y123.274 E.12779
G1 X210.854 Y123.808 E.0168
G1 X207.979 Y120.933 E.12779
G1 X207.979 Y121.468 E.0168
G1 X210.854 Y124.343 E.12779
G1 X210.854 Y124.877 E.0168
G1 X207.979 Y122.002 E.12779
G1 X207.979 Y122.537 E.0168
G1 X210.854 Y125.412 E.12779
G1 X210.854 Y125.946 E.0168
G1 X207.979 Y123.071 E.12779
G1 X207.979 Y123.606 E.0168
G1 X210.854 Y126.481 E.12779
G1 X210.854 Y127.016 E.0168
G1 X207.979 Y124.14 E.12779
G1 X207.979 Y124.675 E.0168
G1 X210.854 Y127.55 E.12779
G1 X210.854 Y128.085 E.0168
G1 X207.979 Y125.209 E.12779
G1 X207.979 Y125.744 E.0168
G1 X210.854 Y128.619 E.12779
G1 X210.854 Y129.154 E.0168
G1 X207.979 Y126.278 E.12779
G1 X207.979 Y126.813 E.0168
G1 X210.854 Y129.688 E.12779
G1 X210.854 Y130.223 E.0168
G1 X207.979 Y127.347 E.12779
G1 X207.979 Y127.882 E.0168
G1 X210.854 Y130.757 E.12779
G1 X210.854 Y131.292 E.0168
G1 X207.979 Y128.416 E.12779
G1 X207.979 Y128.951 E.0168
M73 C196
G1 X210.854 Y131.826 E.12779
G1 X210.854 Y132.361 E.0168
M73 P1 R232
G1 X207.979 Y129.485 E.12779
G1 X207.979 Y130.02 E.0168
G1 X210.854 Y132.895 E.12779
G1 X210.854 Y133.43 E.0168
G1 X207.979 Y130.554 E.12779
G1 X207.979 Y131.089 E.0168
G1 X210.854 Y133.964 E.12779
G1 X210.854 Y134.499 E.0168
G1 X207.979 Y131.623 E.12779
G1 X207.979 Y132.158 E.0168
G1 X210.854 Y135.033 E.12779
G1 X210.854 Y135.568 E.0168
G1 X207.979 Y132.693 E.12779
G1 X207.979 Y133.227 E.0168
G1 X210.854 Y136.102 E.12779
G1 X210.854 Y136.637 E.0168
G1 X207.979 Y133.762 E.12779
G1 X207.979 Y134.296 E.0168
G1 X210.854 Y137.171 E.12779
G1 X210.854 Y137.706 E.0168
G1 X207.979 Y134.831 E.12779
G1 X207.979 Y135.365 E.0168
G1 X210.854 Y138.24 E.12779
G1 X210.854 Y138.775 E.0168
G1 X207.979 Y135.9 E.12779
G1 X207.979 Y136.434 E.0168
G1 X210.854 Y139.309 E.12779
G1 X210.854 Y139.844 E.0168
G1 X207.979 Y136.969 E.12779
G1 X207.979 Y137.503 E.0168
G1 X210.854 Y140.378 E.12779
G1 X210.854 Y140.913 E.0168
G1 X207.979 Y138.038 E.12779
G1 X207.979 Y138.572 E.0168
G1 X210.854 Y141.447 E.12779
G1 X210.854 Y141.982 E.0168
G1 X207.979 Y139.107 E.12779
G1 X207.979 Y139.641 E.0168
G1 X210.854 Y142.516 E.12779
G1 X210.854 Y143.051 E.0168
G1 X207.979 Y140.176 E.12779
G1 X207.979 Y140.71 E.0168
G1 X210.854 Y143.586 E.12779
G1 X210.854 Y144.12 E.0168
G1 X207.979 Y141.245 E.12779
G1 X207.979 Y141.779 E.0168
G1 X210.854 Y144.655 E.12779
G1 X210.854 Y145.189 E.0168
G1 X207.979 Y142.314 E.12779
G1 X207.979 Y142.848 E.0168
G1 X210.854 Y145.724 E.12779
G1 X210.854 Y146.258 E.0168
G1 X207.979 Y143.383 E.12779
G1 X207.979 Y143.917 E.0168
G1 X210.854 Y146.793 E.12779
G1 X210.854 Y147.327 E.0168
G1 X207.979 Y144.452 E.12779
G1 X207.979 Y144.986 E.0168
G1 X210.854 Y147.862 E.12779
G1 X210.854 Y148.396 E.0168
G1 X207.979 Y145.521 E.12779
G1 X207.979 Y146.055 E.0168
G1 X210.854 Y148.931 E.12779
G1 X210.854 Y149.465 E.0168
G1 X207.877 Y146.488 E.13233
G1 X207.845 Y146.554 E.00232
G1 X207.632 Y146.778 E.00969
G1 X210.854 Y150 E.1432
G1 X210.854 Y150.534 E.0168
G1 X207.252 Y146.933 E.16007
G1 X206.728 Y146.943 E.01648
G1 X207.699 Y147.914 E.04317
G1 X207.165 Y147.914 E.0168
G1 X206.194 Y146.943 E.04317
G1 X205.659 Y146.943 E.0168
G1 X206.63 Y147.914 E.04317
G1 X206.096 Y147.914 E.0168
G1 X205.125 Y146.943 E.04317
G1 X204.59 Y146.943 E.0168
G1 X205.561 Y147.914 E.04317
G1 X205.027 Y147.914 E.0168
G1 X204.056 Y146.943 E.04317
G1 X203.521 Y146.943 E.0168
G1 X204.492 Y147.914 E.04317
G1 X203.958 Y147.914 E.0168
G1 X202.987 Y146.943 E.04317
G1 X202.452 Y146.943 E.0168
G1 X203.423 Y147.914 E.04317
G1 X202.889 Y147.914 E.0168
G1 X201.918 Y146.943 E.04317
G1 X201.383 Y146.943 E.0168
G1 X202.354 Y147.914 E.04317
G1 X201.82 Y147.914 E.0168
G1 X200.849 Y146.943 E.04317
G1 X200.314 Y146.943 E.0168
G1 X201.285 Y147.914 E.04317
G1 X200.751 Y147.914 E.0168
G1 X199.78 Y146.943 E.04317
G1 X199.245 Y146.943 E.0168
G1 X200.216 Y147.914 E.04317
G1 X199.682 Y147.914 E.0168
G1 X198.71 Y146.943 E.04317
G1 X198.176 Y146.943 E.0168
G1 X199.147 Y147.914 E.04317
G1 X198.613 Y147.914 E.0168
G1 X197.641 Y146.943 E.04317
G1 X197.107 Y146.943 E.0168
G1 X198.078 Y147.914 E.04317
G1 X197.544 Y147.914 E.0168
G1 X196.572 Y146.943 E.04317
G1 X196.038 Y146.943 E.0168
G1 X197.179 Y148.084 E.05071
M204 S1000
;WIPE_START
G1 F8640
G1 X196.038 Y146.943 E-.37257
G1 X196.572 Y146.943 E-.12342
G1 X197.381 Y147.751 E-.26401
;WIPE_END
G1 E-.04 F2100
G1 Z.6 F720
G1 X208.659 Y148.874 F10800
G1 Z.2 F720
G1 E.8 F2100
