; generated by PrusaSlicer 2.5.0-rc2+win64 on 2022-09-23 at 16:58:53 UTC

; 

; external perimeters extrusion width = 0.45mm
; perimeters extrusion width = 0.45mm
; infill extrusion width = 0.45mm
; solid infill extrusion width = 0.45mm
; top infill extrusion width = 0.45mm
; first layer extrusion width = 0.42mm

M73 P0 R117
M73 C100
M107
;TYPE:Custom
M862.3 P "MK2S" ; printer model check
M862.1 P0.4 ; nozzle diameter check
G90 ; use absolute coordinates
M83 ; extruder relative mode
M204 S2000 T1500 ; MK2 firmware only supports the old M204 format
M104 S215 ; set extruder temp
M140 S60 ; set bed temp
M190 S60 ; wait for bed temp
M109 S215 ; wait for extruder temp
G28 W ; home all without mesh bed level
G80 ; mesh bed leveling
G1 Y-3.0 F1000.0 ; go outside print area
G92 E0.0
G1 X60.0 E9.0  F1000.0 ; intro line
G1 X100.0 E12.5 F1000.0 ; intro line
G92 E0.0
G21 ; set units to millimeters
G90 ; use absolute coordinates
M83 ; use relative distances for extrusion
M900 K0.05 ; Filament gcode LA 1.5
M900 K30 ; Filament gcode LA 1.0
M107
;LAYER_CHANGE
;Z:0.2
;HEIGHT:0.2
;BEFORE_LAYER_CHANGE
G92 E0.0
;0.2


M73 C99
G1 E-.8 F2100
G1 Z.4 F720
;AFTER_LAYER_CHANGE
;0.2
G1 X49.626 Y24.266 F10800
G1 Z.2 F720
G1 E.8 F2100
M204 S800
;TYPE:Skirt/Brim
;WIDTH:0.42
G1 F1200
G1 X50.672 Y23.389 E.04278
G1 X51.611 Y23.196 E.03008
G1 X198.389 Y23.196 E4.60209
G1 X199.696 Y23.587 E.04278
G1 X200.572 Y24.633 E.04278
G1 X200.766 Y25.573 E.03008
G1 X200.766 Y102 E2.39632
G1 X200.547 Y102.995 E.03194
G1 X162.353 Y185.87 E2.86116
G1 X161.45 Y186.893 E.04278
G1 X160.194 Y187.252 E.04096
G1 X89.806 Y187.252 E2.20698
G1 X88.499 Y186.86 E.04278
G1 X87.647 Y185.87 E.04096
G1 X49.453 Y102.995 E2.86116
G1 X49.234 Y102 E.03194
G1 X49.234 Y25.573 E2.39632
G1 X49.609 Y24.323 E.0409
M204 S1000
; printing object Base.stl id:0 copy 2
;WIPE_START
G1 F8640
G1 X50.672 Y23.389 E-.32671
G1 X51.611 Y23.196 E-.22155
G1 X52.529 Y23.196 E-.21174
;WIPE_END
G1 E-.04 F2100
G1 Z.6 F720
G1 X134.761 Y116.436 F10800
G1 Z.2 F720
G1 E.8 F2100
M204 S800
;TYPE:Perimeter
;WIDTH:0.419999
G1 F1200
G1 X134.748 Y158.131 E1.30732
G1 X134.831 Y158.426 E.00959
G1 X135.039 Y158.626 E.00904
G1 X135.314 Y158.697 E.00891
G1 X159.005 Y158.697 E.7428
G1 X159.407 Y158.359 E.01648
G1 X159.407 Y184.088 E.8067
G1 X90.593 Y184.088 E2.15762
G1 X90.593 Y158.359 E.8067
M73 P0 R116
G1 X90.995 Y158.697 E.01648
G1 X114.686 Y158.697 E.74281
G1 X114.961 Y158.626 E.00891
G1 X115.169 Y158.426 E.00904
G1 X115.252 Y158.131 E.00959
G1 X115.252 Y116.51 E1.30501
G1 X115.22 Y116.323 E.00593
G1 X115.135 Y116.166 E.00561
G1 X114.896 Y115.984 E.00942
G1 X114.686 Y115.944 E.00669
G1 X90.995 Y115.944 E.74281
G1 X90.593 Y116.347 E.01785
G1 X90.593 Y109.274 E.22174
G1 X118.692 Y109.274 E.88104
G1 X118.692 Y146.094 E1.15446
G1 X118.701 Y146.192 E.00308
G1 X118.781 Y146.399 E.00694
G1 X118.931 Y146.556 E.00681
G1 X119.258 Y146.66 E.01077
G1 X130.742 Y146.66 E.36007
G1 X131.069 Y146.556 E.01077
G1 X131.219 Y146.399 E.00681
G1 X131.277 Y146.278 E.00421
G1 X131.308 Y146.094 E.00583
G1 X131.308 Y109.274 E1.15446
G1 X159.407 Y109.274 E.88104
G1 X159.407 Y116.347 E.22174
G1 X159.005 Y115.944 E.01785
G1 X135.314 Y115.944 E.7428
G1 X135.104 Y115.984 E.00669
G1 X134.865 Y116.166 E.00942
G1 X134.78 Y116.323 E.00561
G1 X134.771 Y116.377 E.00171
M204 S1000
;WIPE_START
G1 F8640
G1 X134.769 Y119.669 E-.76
;WIPE_END
G1 E-.04 F2100
G1 Z.6 F720
G1 X130.93 Y146.094 F10800
G1 Z.2 F720
G1 E.8 F2100
M204 S800
;TYPE:External perimeter
G1 F1200
G1 X130.93 Y108.897 E1.16629
G1 X159.784 Y108.897 E.90469
G1 X159.784 Y112.609 E.11638
M73 C98
G1 X159.784 Y115.542 E.09194
;WIDTH:0.455654
G1 X159.766 Y115.864 E.01109
;WIDTH:0.491308
G1 X159.749 Y116.187 E.01205
;WIDTH:0.526962
G1 X159.731 Y116.51 E.01301
G1 X159.731 Y158.131 E1.6752
;WIDTH:0.530629
G1 X159.747 Y158.51 E.01538
;WIDTH:0.493753
G1 X159.766 Y158.805 E.01107
;WIDTH:0.456876
G1 X159.784 Y159.099 E.01016
;WIDTH:0.419999
G1 X159.784 Y184.465 E.79531
G1 X90.216 Y184.465 E2.18127
G1 X90.216 Y159.099 E.79531
;WIDTH:0.455654
G1 X90.234 Y158.777 E.01109
;WIDTH:0.491308
M73 P1 R116
G1 X90.251 Y158.454 E.01205
;WIDTH:0.526962
G1 X90.269 Y158.131 E.01301
G1 X90.269 Y116.51 E1.6752
G1 X90.251 Y116.187 E.01301
;WIDTH:0.491308
G1 X90.234 Y115.864 E.01205
;WIDTH:0.455654
G1 X90.216 Y115.542 E.01109
;WIDTH:0.419999
G1 X90.216 Y108.897 E.20833
G1 X119.07 Y108.897 E.90469
G1 X119.07 Y146.094 E1.16629
G1 X119.099 Y146.196 E.00331
G1 X119.258 Y146.283 E.00568
G1 X130.742 Y146.283 E.36007
G1 X130.774 Y146.28 E.00103
G1 X130.901 Y146.196 E.00476
G1 X130.914 Y146.152 E.00143
M204 S1000
G1 X131.314 Y145.98 F10800
;WIPE_START
G1 F8640
G1 X130.915 Y142.861 E-.76
;WIPE_END
G1 E-.04 F2100
G1 Z.6 F720
G1 X114.686 Y116.321 F10800
G1 Z.2 F720
G1 E.8 F2100
M204 S800
G1 F1200
G1 X114.836 Y116.395 E.00523
G1 X114.875 Y116.51 E.00379
G1 X114.875 Y158.131 E1.30501
G1 X114.804 Y158.278 E.00511
G1 X114.686 Y158.32 E.00393
G1 X90.995 Y158.32 E.74281
;WIDTH:0.456876
G1 X90.915 Y158.271 E.00323
;WIDTH:0.493753
G1 X90.835 Y158.222 E.00351
;WIDTH:0.53063
G1 X90.755 Y158.174 E.0038
G1 X90.753 Y158.131 E.00171
;WIDTH:0.526962
G1 X90.753 Y116.51 E1.6752
G1 X90.834 Y116.447 E.00412
;WIDTH:0.491308
G1 X90.915 Y116.384 E.00381
;WIDTH:0.455654
G1 X90.995 Y116.321 E.00351
;WIDTH:0.419999
G1 X114.626 Y116.321 E.74092
M204 S1000
;WIPE_START
G1 F8640
G1 X114.836 Y116.395 E-.05134
G1 X114.875 Y116.51 E-.02795
G1 X114.875 Y119.458 E-.68072
;WIPE_END
G1 E-.04 F2100
G1 Z.6 F720
G1 X131.659 Y148.21 F10800
G1 Z.2 F720
G1 E.8 F2100
M204 S800
;TYPE:Perimeter
G1 F1200
G1 X131.805 Y148.239 E.00467
G1 X131.922 Y148.304 E.00421
G1 X132.088 Y148.491 E.00783
G1 X132.158 Y148.763 E.0088
G1 X132.158 Y157.213 E.26497
G1 X132.093 Y157.476 E.00849
G1 X131.882 Y157.699 E.00959
G1 X131.605 Y157.779 E.00904
G1 X118.408 Y157.779 E.41379
G1 X118.197 Y157.738 E.00674
G1 X118.015 Y157.62 E.00681
G1 X117.907 Y157.476 E.00563
G1 X117.842 Y157.213 E.00849
G1 X117.842 Y148.763 E.26497
G1 X117.912 Y148.491 E.0088
G1 X118.078 Y148.304 E.00783
G1 X118.195 Y148.239 E.00421
G1 X118.408 Y148.197 E.00681
G1 X131.6 Y148.198 E.41362
M204 S1000
G1 X131.592 Y148.574 F10800
M204 S800
;TYPE:External perimeter
G1 F1200
G1 X131.702 Y148.61 E.00363
G1 X131.78 Y148.763 E.00539
G1 X131.78 Y157.213 E.26497
G1 X131.723 Y157.349 E.00462
G1 X131.592 Y157.402 E.00443
G1 X118.408 Y157.402 E.41337
G1 X118.277 Y157.349 E.00443
G1 X118.22 Y157.213 E.00462
G1 X118.22 Y148.763 E.26497
G1 X118.298 Y148.61 E.00539
G1 X118.408 Y148.574 E.00363
G1 X131.532 Y148.574 E.41149
M204 S1000
G1 X131.669 Y148.488 F10800
;WIPE_START
G1 F8640
G1 X131.702 Y148.61 E-.04014
G1 X131.78 Y148.763 E-.0397
G1 X131.78 Y151.708 E-.68017
;WIPE_END
G1 E-.04 F2100
G1 Z.6 F720
G1 X135.125 Y116.51 F10800
G1 Z.2 F720
G1 E.8 F2100
M204 S800
G1 F1200
G1 X135.203 Y116.357 E.00536
G1 X135.314 Y116.321 E.00366
G1 X159.005 Y116.321 E.7428
;WIDTH:0.455654
G1 X159.085 Y116.384 E.00351
;WIDTH:0.491308
G1 X159.166 Y116.447 E.00381
;WIDTH:0.526962
G1 X159.247 Y116.51 E.00412
G1 X159.247 Y158.131 E1.6752
;WIDTH:0.530629
G1 X159.245 Y158.174 E.00171
G1 X159.165 Y158.222 E.0038
;WIDTH:0.493753
G1 X159.085 Y158.271 E.00351
;WIDTH:0.456876
G1 X159.005 Y158.32 E.00323
;WIDTH:0.419999
G1 X135.314 Y158.32 E.7428
G1 X135.17 Y158.254 E.00496
G1 X135.125 Y158.131 E.00408
G1 X135.125 Y116.57 E1.30313
M204 S1000
G1 X135.011 Y116.383 F10800
;WIPE_START
G1 F8640
G1 X135.203 Y116.357 E-.05219
G1 X135.314 Y116.321 E-.02698
G1 X138.263 Y116.321 E-.68083
;WIPE_END
G1 E-.04 F2100
G1 Z.6 F720
G1 X159.294 Y110.152 F10800
G1 Z.2 F720
G1 E.8 F2100
M204 S800
;TYPE:Solid infill
;WIDTH:0.42088
G1 F1200
G1 X158.7 Y109.557 E.02642
G1 X158.165 Y109.557 E.0168
G1 X159.124 Y110.517 E.04264
G1 X159.124 Y111.051 E.0168
G1 X157.631 Y109.557 E.06639
G1 X157.096 Y109.557 E.0168
G1 X159.124 Y111.586 E.09015
G1 X159.124 Y112.12 E.0168
G1 X156.562 Y109.557 E.11391
G1 X156.027 Y109.557 E.0168
G1 X159.124 Y112.655 E.13766
G1 X159.124 Y113.189 E.0168
G1 X155.493 Y109.557 E.16142
G1 X154.958 Y109.557 E.0168
G1 X159.124 Y113.724 E.18518
G1 X159.124 Y114.258 E.0168
G1 X154.423 Y109.557 E.20893
G1 X153.889 Y109.557 E.0168
G1 X159.124 Y114.793 E.23269
G1 X159.124 Y115.327 E.0168
G1 X153.354 Y109.557 E.25645
G1 X152.82 Y109.557 E.0168
G1 X158.924 Y115.661 E.2713
G1 X158.39 Y115.661 E.0168
G1 X152.285 Y109.557 E.2713
G1 X151.751 Y109.557 E.0168
G1 X157.855 Y115.661 E.2713
M73 P1 R115
G1 X157.32 Y115.661 E.0168
G1 X151.216 Y109.557 E.2713
G1 X150.682 Y109.557 E.0168
G1 X156.786 Y115.661 E.2713
G1 X156.251 Y115.661 E.0168
G1 X150.147 Y109.557 E.2713
G1 X149.613 Y109.557 E.0168
G1 X155.717 Y115.661 E.2713
G1 X155.182 Y115.661 E.0168
G1 X149.078 Y109.557 E.2713
G1 X148.544 Y109.557 E.0168
G1 X154.648 Y115.661 E.2713
G1 X154.113 Y115.661 E.0168
G1 X148.009 Y109.557 E.2713
G1 X147.475 Y109.557 E.0168
G1 X153.579 Y115.661 E.2713
G1 X153.044 Y115.661 E.0168
G1 X146.94 Y109.557 E.2713
G1 X146.406 Y109.557 E.0168
G1 X152.51 Y115.661 E.2713
G1 X151.975 Y115.661 E.0168
G1 X145.871 Y109.557 E.2713
G1 X145.337 Y109.557 E.0168
G1 X151.441 Y115.661 E.2713
G1 X150.906 Y115.661 E.0168
G1 X144.802 Y109.557 E.2713
G1 X144.268 Y109.557 E.0168
G1 X150.372 Y115.661 E.2713
G1 X149.837 Y115.661 E.0168
G1 X143.733 Y109.557 E.2713
G1 X143.199 Y109.557 E.0168
G1 X149.303 Y115.661 E.2713
G1 X148.768 Y115.661 E.0168
G1 X142.664 Y109.557 E.2713
G1 X142.13 Y109.557 E.0168
G1 X148.234 Y115.661 E.2713
G1 X147.699 Y115.661 E.0168
G1 X141.595 Y109.557 E.2713
G1 X141.061 Y109.557 E.0168
G1 X147.165 Y115.661 E.2713
G1 X146.63 Y115.661 E.0168
G1 X140.526 Y109.557 E.2713
G1 X139.992 Y109.557 E.0168
G1 X146.096 Y115.661 E.2713
G1 X145.561 Y115.661 E.0168
G1 X139.457 Y109.557 E.2713
G1 X138.923 Y109.557 E.0168
G1 X145.027 Y115.661 E.2713
G1 X144.492 Y115.661 E.0168
G1 X138.388 Y109.557 E.2713
G1 X137.853 Y109.557 E.0168
G1 X143.958 Y115.661 E.2713
G1 X143.423 Y115.661 E.0168
G1 X137.319 Y109.557 E.2713
G1 X136.784 Y109.557 E.0168
G1 X142.889 Y115.661 E.2713
G1 X142.354 Y115.661 E.0168
G1 X136.25 Y109.557 E.2713
G1 X135.715 Y109.557 E.0168
G1 X141.82 Y115.661 E.2713
G1 X141.285 Y115.661 E.0168
G1 X135.181 Y109.557 E.2713
G1 X134.646 Y109.557 E.0168
G1 X140.75 Y115.661 E.2713
G1 X140.216 Y115.661 E.0168
G1 X134.112 Y109.557 E.2713
G1 X133.577 Y109.557 E.0168
G1 X139.681 Y115.661 E.2713
G1 X139.147 Y115.661 E.0168
G1 X133.043 Y109.557 E.2713
G1 X132.508 Y109.557 E.0168
G1 X138.612 Y115.661 E.2713
G1 X138.078 Y115.661 E.0168
G1 X131.974 Y109.557 E.2713
G1 X131.59 Y109.557 E.01205
G1 X131.59 Y109.708 E.00475
G1 X137.543 Y115.661 E.26459
G1 X137.009 Y115.661 E.0168
G1 X131.59 Y110.243 E.24083
G1 X131.59 Y110.777 E.0168
G1 X136.474 Y115.661 E.21707
G1 X135.94 Y115.661 E.0168
G1 X131.59 Y111.312 E.19332
G1 X131.59 Y111.846 E.0168
G1 X135.405 Y115.661 E.16956
G1 X135.173 Y115.673 E.0073
G1 X134.955 Y115.746 E.00724
G1 X131.59 Y112.381 E.14954
G1 X131.59 Y112.915 E.0168
G1 X134.654 Y115.979 E.13617
G1 X134.512 Y116.23 E.00907
G1 X134.491 Y116.351 E.00384
G1 X131.59 Y113.45 E.12893
G1 X131.59 Y113.984 E.0168
G1 X134.466 Y116.86 E.12779
G1 X134.466 Y117.394 E.0168
M73 C97
G1 X131.59 Y114.519 E.12779
G1 X131.59 Y115.053 E.0168
G1 X134.466 Y117.929 E.12779
G1 X134.466 Y118.463 E.0168
G1 X131.59 Y115.588 E.12779
G1 X131.59 Y116.123 E.0168
G1 X134.466 Y118.998 E.12779
G1 X134.466 Y119.532 E.0168
G1 X131.59 Y116.657 E.12779
G1 X131.59 Y117.192 E.0168
G1 X134.466 Y120.067 E.12779
G1 X134.466 Y120.601 E.0168
G1 X131.59 Y117.726 E.12779
G1 X131.59 Y118.261 E.0168
G1 X134.466 Y121.136 E.12779
G1 X134.466 Y121.67 E.0168
G1 X131.59 Y118.795 E.12779
G1 X131.59 Y119.33 E.0168
G1 X134.466 Y122.205 E.12779
G1 X134.466 Y122.739 E.0168
G1 X131.59 Y119.864 E.12779
G1 X131.59 Y120.399 E.0168
G1 X134.466 Y123.274 E.12779
G1 X134.466 Y123.808 E.0168
G1 X131.59 Y120.933 E.12779
G1 X131.59 Y121.468 E.0168
G1 X134.466 Y124.343 E.12779
G1 X134.466 Y124.877 E.0168
G1 X131.59 Y122.002 E.12779
G1 X131.59 Y122.537 E.0168
G1 X134.466 Y125.412 E.12779
G1 X134.466 Y125.946 E.0168
G1 X131.59 Y123.071 E.12779
G1 X131.59 Y123.606 E.0168
G1 X134.466 Y126.481 E.12779
G1 X134.466 Y127.015 E.0168
G1 X131.59 Y124.14 E.12779
G1 X131.59 Y124.675 E.0168
G1 X134.466 Y127.55 E.12779
G1 X134.466 Y128.085 E.0168
G1 X131.59 Y125.209 E.12779
G1 X131.59 Y125.744 E.0168
G1 X134.466 Y128.619 E.12779
G1 X134.466 Y129.154 E.0168
G1 X131.59 Y126.278 E.12779
G1 X131.59 Y126.813 E.0168
G1 X134.466 Y129.688 E.12779
G1 X134.466 Y130.223 E.0168
G1 X131.59 Y127.347 E.12779
G1 X131.59 Y127.882 E.0168
G1 X134.466 Y130.757 E.12779
G1 X134.466 Y131.292 E.0168
G1 X131.59 Y128.416 E.12779
G1 X131.59 Y128.951 E.0168
G1 X134.466 Y131.826 E.12779
G1 X134.466 Y132.361 E.0168
G1 X131.59 Y129.485 E.12779
G1 X131.59 Y130.02 E.0168
G1 X134.466 Y132.895 E.12779
G1 X134.466 Y133.43 E.0168
G1 X131.59 Y130.554 E.12779
G1 X131.59 Y131.089 E.0168
G1 X134.466 Y133.964 E.12779
G1 X134.466 Y134.499 E.0168
G1 X131.59 Y131.623 E.12779
G1 X131.59 Y132.158 E.0168
G1 X134.466 Y135.033 E.12779
G1 X134.466 Y135.568 E.0168
G1 X131.59 Y132.693 E.12779
G1 X131.59 Y133.227 E.0168
G1 X134.466 Y136.102 E.12779
G1 X134.466 Y136.637 E.0168
G1 X131.59 Y133.762 E.12779
G1 X131.59 Y134.296 E.0168
G1 X134.466 Y137.171 E.12779
G1 X134.466 Y137.706 E.0168
G1 X131.59 Y134.831 E.12779
G1 X131.59 Y135.365 E.0168
G1 X134.466 Y138.24 E.12779
G1 X134.466 Y138.775 E.0168
G1 X131.59 Y135.9 E.12779
G1 X131.59 Y136.434 E.0168
G1 X134.466 Y139.309 E.12779
G1 X134.466 Y139.844 E.0168
G1 X131.59 Y136.969 E.12779
G1 X131.59 Y137.503 E.0168
G1 X134.466 Y140.378 E.12779
G1 X134.466 Y140.913 E.0168
G1 X131.59 Y138.038 E.12779
G1 X131.59 Y138.572 E.0168
G1 X134.466 Y141.447 E.12779
G1 X134.466 Y141.982 E.0168
G1 X131.59 Y139.107 E.12779
G1 X131.59 Y139.641 E.0168
G1 X134.466 Y142.516 E.12779
G1 X134.466 Y143.051 E.0168
G1 X131.59 Y140.176 E.12779
G1 X131.59 Y140.71 E.0168
G1 X134.466 Y143.586 E.12779
G1 X134.466 Y144.12 E.0168
G1 X131.59 Y141.245 E.12779
G1 X131.59 Y141.779 E.0168
G1 X134.466 Y144.655 E.12779
G1 X134.466 Y145.189 E.0168
G1 X131.59 Y142.314 E.12779
G1 X131.59 Y142.848 E.0168
G1 X134.466 Y145.724 E.12779
G1 X134.466 Y146.258 E.0168
G1 X131.59 Y143.383 E.12779
G1 X131.59 Y143.917 E.0168
G1 X134.466 Y146.793 E.12779
G1 X134.466 Y147.327 E.0168
G1 X131.59 Y144.452 E.12779
G1 X131.59 Y144.986 E.0168
G1 X134.466 Y147.862 E.12779
G1 X134.466 Y148.396 E.0168
G1 X131.59 Y145.521 E.12779
G1 X131.59 Y146.055 E.0168
G1 X134.466 Y148.931 E.12779
G1 X134.466 Y149.465 E.0168
G1 X131.488 Y146.488 E.13233
G1 X131.456 Y146.554 E.00232
G1 X131.244 Y146.778 E.00969
G1 X134.466 Y150 E.1432
G1 X134.466 Y150.534 E.0168
G1 X130.864 Y146.933 E.16007
G1 X130.34 Y146.943 E.01648
G1 X131.311 Y147.914 E.04317
G1 X130.776 Y147.914 E.0168
G1 X129.805 Y146.943 E.04317
G1 X129.271 Y146.943 E.0168
G1 X130.242 Y147.914 E.04317
G1 X129.707 Y147.914 E.0168
G1 X128.736 Y146.943 E.04317
G1 X128.202 Y146.943 E.0168
G1 X129.173 Y147.914 E.04317
G1 X128.638 Y147.914 E.0168
G1 X127.667 Y146.943 E.04317
G1 X127.133 Y146.943 E.0168
G1 X128.104 Y147.914 E.04317
G1 X127.569 Y147.914 E.0168
G1 X126.598 Y146.943 E.04317
G1 X126.064 Y146.943 E.0168
G1 X127.035 Y147.914 E.04317
G1 X126.5 Y147.914 E.0168
G1 X125.529 Y146.943 E.04317
G1 X124.995 Y146.943 E.0168
G1 X125.966 Y147.914 E.04317
G1 X125.431 Y147.914 E.0168
G1 X124.46 Y146.943 E.04317
G1 X123.926 Y146.943 E.0168
G1 X124.897 Y147.914 E.04317
G1 X124.362 Y147.914 E.0168
G1 X123.391 Y146.943 E.04317
G1 X122.856 Y146.943 E.0168
G1 X123.828 Y147.914 E.04317
G1 X123.293 Y147.914 E.0168
G1 X122.322 Y146.943 E.04317
G1 X121.787 Y146.943 E.0168
G1 X122.759 Y147.914 E.04317
G1 X122.224 Y147.914 E.0168
G1 X121.253 Y146.943 E.04317
G1 X120.718 Y146.943 E.0168
G1 X121.69 Y147.914 E.04317
G1 X121.155 Y147.914 E.0168
G1 X120.184 Y146.943 E.04317
G1 X119.649 Y146.943 E.0168
G1 X120.79 Y148.084 E.05071
M204 S1000
;WIPE_START
G1 F8640
G1 X119.649 Y146.943 E-.37257
G1 X120.184 Y146.943 E-.12342
G1 X120.992 Y147.751 E-.26401
;WIPE_END
G1 E-.04 F2100
G1 Z.6 F720
G1 X132.271 Y148.874 F10800
G1 Z.2 F720
G1 E.8 F2100
M204 S800
G1 F1200
