; generated by PrusaSlicer 2.5.0-rc2+win64 on 2022-09-23 at 16:58:45 UTC

; 

; external perimeters extrusion width = 0.45mm
; perimeters extrusion width = 0.45mm
; infill extrusion width = 0.45mm
; solid infill extrusion width = 0.45mm
; top infill extrusion width = 0.45mm
; first layer extrusion width = 0.42mm

M73 P0 R78
M73 C66
M107
;TYPE:Custom
M862.3 P "MK2S" ; printer model check
M862.1 P0.4 ; nozzle diameter check
G90 ; use absolute coordinates
M83 ; extruder relative mode
M204 S2000 T1500 ; MK2 firmware only supports the old M204 format
M104 S215 ; set extruder temp
M140 S60 ; set bed temp
M190 S60 ; wait for bed temp
M109 S215 ; wait for extruder temp
G28 W ; home all without mesh bed level
G80 ; mesh bed leveling
G1 Y-3.0 F1000.0 ; go outside print area
G92 E0.0
G1 X60.0 E9.0  F1000.0 ; intro line
G1 X100.0 E12.5 F1000.0 ; intro line
G92 E0.0
G21 ; set units to millimeters
G90 ; use absolute coordinates
M83 ; use relative distances for extrusion
M900 K0.05 ; Filament gcode LA 1.5
M900 K30 ; Filament gcode LA 1.0
M107
;LAYER_CHANGE
;Z:0.2
;HEIGHT:0.2
;BEFORE_LAYER_CHANGE
G92 E0.0
;0.2


G1 E-.8 F2100
G1 Z.4 F720
;AFTER_LAYER_CHANGE
;0.2
G1 X50.672 Y64.827 F10800
G1 Z.2 F720
G1 E.8 F2100
M204 S800
;TYPE:Skirt/Brim
;WIDTH:0.42
G1 F1200
G1 X51.611 Y64.633 E.03008
G1 X198.389 Y64.633 E4.60209
G1 X199.696 Y65.025 E.04278
G1 X200.572 Y66.07 E.04278
G1 X200.766 Y67.01 E.03008
G1 X200.766 Y143.437 E2.39632
G1 X200.374 Y144.744 E.04278
G1 X199.328 Y145.621 E.04278
G1 X198.389 Y145.814 E.03008
G1 X51.611 Y145.814 E4.60209
G1 X50.304 Y145.423 E.04278
G1 X49.428 Y144.377 E.04278
G1 X49.234 Y143.437 E.03008
G1 X49.234 Y67.01 E2.39632
G1 X49.626 Y65.703 E.04278
G1 X50.626 Y64.865 E.0409
M204 S1000
; printing object Base.stl id:0 copy 0
;WIPE_START
G1 F8640
G1 X51.611 Y64.633 E-.23384
G1 X53.89 Y64.633 E-.52616
;WIPE_END
G1 E-.04 F2100
G1 Z.6 F720
G1 X172.955 Y74.999 F10800
G1 Z.2 F720
G1 E.8 F2100
M204 S800
;TYPE:Perimeter
;WIDTH:0.419999
G1 F1200
G1 X172.943 Y116.694 E1.30732
G1 X173.025 Y116.989 E.00959
G1 X173.233 Y117.188 E.00904
G1 X173.508 Y117.26 E.00891
G1 X197.199 Y117.26 E.7428
G1 X197.601 Y116.922 E.01648
G1 X197.601 Y142.65 E.8067
G1 X128.787 Y142.65 E2.15762
G1 X128.787 Y116.922 E.8067
M73 P0 R77
G1 X129.19 Y117.26 E.01648
G1 X152.88 Y117.26 E.74281
G1 X153.155 Y117.188 E.00891
G1 X153.363 Y116.989 E.00904
G1 X153.446 Y116.694 E.00959
G1 X153.446 Y75.072 E1.30501
G1 X153.414 Y74.886 E.00593
G1 X153.329 Y74.729 E.00561
G1 X153.09 Y74.547 E.00942
G1 X152.88 Y74.507 E.00669
G1 X129.19 Y74.507 E.74281
G1 X128.787 Y74.909 E.01785
G1 X128.787 Y67.837 E.22174
G1 X156.887 Y67.837 E.88104
G1 X156.887 Y104.657 E1.15446
G1 X156.895 Y104.755 E.00308
M73 P1 R77
G1 X156.975 Y104.961 E.00694
G1 X157.125 Y105.118 E.00681
G1 X157.452 Y105.223 E.01077
G1 X168.936 Y105.223 E.36007
G1 X169.263 Y105.118 E.01077
G1 X169.413 Y104.961 E.00681
G1 X169.471 Y104.84 E.00421
G1 X169.502 Y104.657 E.00583
G1 X169.502 Y67.837 E1.15446
G1 X197.601 Y67.837 E.88104
M73 C65
G1 X197.601 Y74.909 E.22174
G1 X197.199 Y74.507 E.01785
G1 X173.508 Y74.507 E.7428
G1 X173.299 Y74.547 E.00669
G1 X173.059 Y74.729 E.00942
G1 X172.974 Y74.886 E.00561
G1 X172.965 Y74.94 E.00171
M204 S1000
;WIPE_START
G1 F8640
G1 X172.963 Y78.231 E-.76
;WIPE_END
G1 E-.04 F2100
G1 Z.6 F720
G1 X169.125 Y104.657 F10800
G1 Z.2 F720
G1 E.8 F2100
M204 S800
;TYPE:External perimeter
G1 F1200
G1 X169.125 Y67.46 E1.16629
G1 X197.979 Y67.46 E.90469
G1 X197.979 Y71.172 E.11638
G1 X197.979 Y74.104 E.09194
;WIDTH:0.455654
G1 X197.961 Y74.427 E.01109
;WIDTH:0.491308
G1 X197.943 Y74.75 E.01205
;WIDTH:0.526962
G1 X197.925 Y75.072 E.01301
G1 X197.925 Y116.694 E1.6752
;WIDTH:0.530629
G1 X197.942 Y117.073 E.01538
;WIDTH:0.493753
G1 X197.96 Y117.367 E.01107
;WIDTH:0.456876
G1 X197.979 Y117.662 E.01016
;WIDTH:0.419999
G1 X197.979 Y143.027 E.79531
G1 X128.41 Y143.027 E2.18127
G1 X128.41 Y117.662 E.79531
;WIDTH:0.455654
G1 X128.428 Y117.339 E.01109
;WIDTH:0.491308
G1 X128.446 Y117.017 E.01205
;WIDTH:0.526962
G1 X128.463 Y116.694 E.01301
G1 X128.463 Y75.072 E1.6752
G1 X128.446 Y74.75 E.01301
;WIDTH:0.491308
G1 X128.428 Y74.427 E.01205
;WIDTH:0.455654
G1 X128.41 Y74.104 E.01109
;WIDTH:0.419999
G1 X128.41 Y67.46 E.20833
G1 X157.264 Y67.46 E.90469
G1 X157.264 Y104.657 E1.16629
G1 X157.293 Y104.758 E.00331
G1 X157.452 Y104.846 E.00568
G1 X168.936 Y104.846 E.36007
G1 X168.969 Y104.843 E.00103
G1 X169.095 Y104.758 E.00476
G1 X169.108 Y104.715 E.00143
M204 S1000
G1 X169.508 Y104.542 F10800
;WIPE_START
G1 F8640
G1 X169.109 Y101.423 E-.76
;WIPE_END
G1 E-.04 F2100
G1 Z.6 F720
G1 X152.88 Y74.884 F10800
G1 Z.2 F720
G1 E.8 F2100
M204 S800
G1 F1200
G1 X153.03 Y74.958 E.00523
G1 X153.069 Y75.072 E.00379
G1 X153.069 Y116.694 E1.30501
G1 X152.998 Y116.841 E.00511
G1 X152.88 Y116.883 E.00393
G1 X129.19 Y116.883 E.74281
;WIDTH:0.456876
G1 X129.109 Y116.834 E.00323
;WIDTH:0.493753
G1 X129.029 Y116.785 E.00351
;WIDTH:0.53063
G1 X128.949 Y116.736 E.0038
G1 X128.948 Y116.694 E.00171
;WIDTH:0.526962
G1 X128.948 Y75.072 E1.6752
G1 X129.028 Y75.01 E.00412
;WIDTH:0.491308
G1 X129.109 Y74.947 E.00381
;WIDTH:0.455654
G1 X129.19 Y74.884 E.00351
;WIDTH:0.419999
G1 X152.82 Y74.884 E.74092
M204 S1000
;WIPE_START
G1 F8640
G1 X153.03 Y74.958 E-.05134
G1 X153.069 Y75.072 E-.02795
G1 X153.069 Y78.02 E-.68072
;WIPE_END
G1 E-.04 F2100
G1 Z.6 F720
G1 X169.853 Y106.773 F10800
G1 Z.2 F720
G1 E.8 F2100
M204 S800
;TYPE:Perimeter
G1 F1200
G1 X169.999 Y106.801 E.00467
G1 X170.117 Y106.866 E.00421
G1 X170.282 Y107.053 E.00783
G1 X170.352 Y107.325 E.0088
G1 X170.352 Y115.776 E.26497
G1 X170.287 Y116.039 E.00849
G1 X170.077 Y116.261 E.00959
G1 X169.8 Y116.341 E.00904
G1 X156.602 Y116.342 E.41379
G1 X156.391 Y116.301 E.00674
G1 X156.209 Y116.183 E.00681
G1 X156.102 Y116.039 E.00563
G1 X156.037 Y115.776 E.00849
G1 X156.037 Y107.325 E.26497
G1 X156.106 Y107.053 E.0088
G1 X156.272 Y106.866 E.00783
G1 X156.389 Y106.801 E.00421
G1 X156.602 Y106.76 E.00681
G1 X169.794 Y106.761 E.41362
M204 S1000
G1 X169.786 Y107.137 F10800
M204 S800
;TYPE:External perimeter
G1 F1200
G1 X169.896 Y107.172 E.00363
G1 X169.975 Y107.325 E.00539
G1 X169.975 Y115.776 E.26497
G1 X169.917 Y115.912 E.00462
G1 X169.786 Y115.965 E.00443
G1 X156.602 Y115.965 E.41337
G1 X156.471 Y115.912 E.00443
G1 X156.414 Y115.776 E.00462
G1 X156.414 Y107.325 E.26497
G1 X156.492 Y107.172 E.00539
G1 X156.602 Y107.137 E.00363
G1 X169.726 Y107.137 E.41149
M204 S1000
G1 X169.863 Y107.05 F10800
;WIPE_START
G1 F8640
G1 X169.896 Y107.172 E-.04014
G1 X169.975 Y107.325 E-.0397
G1 X169.975 Y110.271 E-.68017
;WIPE_END
G1 E-.04 F2100
G1 Z.6 F720
G1 X173.32 Y75.072 F10800
G1 Z.2 F720
G1 E.8 F2100
M204 S800
G1 F1200
G1 X173.397 Y74.92 E.00536
G1 X173.508 Y74.884 E.00366
G1 X197.199 Y74.884 E.7428
;WIDTH:0.455654
G1 X197.28 Y74.947 E.00351
;WIDTH:0.491308
G1 X197.36 Y75.01 E.00381
;WIDTH:0.526962
G1 X197.441 Y75.072 E.00412
G1 X197.441 Y116.694 E1.6752
;WIDTH:0.530629
G1 X197.439 Y116.736 E.00171
G1 X197.359 Y116.785 E.0038
;WIDTH:0.493753
G1 X197.279 Y116.834 E.00351
;WIDTH:0.456876
G1 X197.199 Y116.883 E.00323
;WIDTH:0.419999
G1 X173.508 Y116.883 E.7428
G1 X173.365 Y116.816 E.00496
G1 X173.32 Y116.694 E.00408
G1 X173.32 Y75.132 E1.30313
M204 S1000
G1 X173.205 Y74.946 F10800
;WIPE_START
G1 F8640
G1 X173.397 Y74.92 E-.05219
G1 X173.508 Y74.884 E-.02698
G1 X176.457 Y74.884 E-.68083
;WIPE_END
G1 E-.04 F2100
G1 Z.6 F720
G1 X197.488 Y68.714 F10800
G1 Z.2 F720
G1 E.8 F2100
M204 S800
;TYPE:Solid infill
;WIDTH:0.42088
G1 F1200
G1 X196.894 Y68.12 E.02642
G1 X196.359 Y68.12 E.0168
G1 X197.319 Y69.079 E.04264
G1 X197.319 Y69.614 E.0168
G1 X195.825 Y68.12 E.06639
G1 X195.29 Y68.12 E.0168
G1 X197.319 Y70.148 E.09015
G1 X197.319 Y70.683 E.0168
G1 X194.756 Y68.12 E.11391
G1 X194.221 Y68.12 E.0168
G1 X197.319 Y71.217 E.13766
G1 X197.319 Y71.752 E.0168
G1 X193.687 Y68.12 E.16142
G1 X193.152 Y68.12 E.0168
M73 P2 R77
G1 X197.319 Y72.286 E.18518
G1 X197.319 Y72.821 E.0168
G1 X192.618 Y68.12 E.20893
G1 X192.083 Y68.12 E.0168
G1 X197.319 Y73.355 E.23269
G1 X197.319 Y73.89 E.0168
G1 X191.549 Y68.12 E.25645
G1 X191.014 Y68.12 E.0168
G1 X197.118 Y74.224 E.2713
G1 X196.584 Y74.224 E.0168
G1 X190.48 Y68.12 E.2713
G1 X189.945 Y68.12 E.0168
M73 P2 R76
G1 X196.049 Y74.224 E.2713
G1 X195.515 Y74.224 E.0168
G1 X189.411 Y68.12 E.2713
G1 X188.876 Y68.12 E.0168
G1 X194.98 Y74.224 E.2713
G1 X194.446 Y74.224 E.0168
G1 X188.342 Y68.12 E.2713
G1 X187.807 Y68.12 E.0168
G1 X193.911 Y74.224 E.2713
G1 X193.377 Y74.224 E.0168
G1 X187.273 Y68.12 E.2713
G1 X186.738 Y68.12 E.0168
G1 X192.842 Y74.224 E.2713
G1 X192.308 Y74.224 E.0168
G1 X186.204 Y68.12 E.2713
G1 X185.669 Y68.12 E.0168
G1 X191.773 Y74.224 E.2713
G1 X191.239 Y74.224 E.0168
G1 X185.135 Y68.12 E.2713
G1 X184.6 Y68.12 E.0168
G1 X190.704 Y74.224 E.2713
G1 X190.17 Y74.224 E.0168
G1 X184.065 Y68.12 E.2713
G1 X183.531 Y68.12 E.0168
G1 X189.635 Y74.224 E.2713
G1 X189.101 Y74.224 E.0168
G1 X182.996 Y68.12 E.2713
G1 X182.462 Y68.12 E.0168
G1 X188.566 Y74.224 E.2713
G1 X188.032 Y74.224 E.0168
G1 X181.927 Y68.12 E.2713
G1 X181.393 Y68.12 E.0168
G1 X187.497 Y74.224 E.2713
G1 X186.962 Y74.224 E.0168
G1 X180.858 Y68.12 E.2713
G1 X180.324 Y68.12 E.0168
G1 X186.428 Y74.224 E.2713
G1 X185.893 Y74.224 E.0168
G1 X179.789 Y68.12 E.2713
G1 X179.255 Y68.12 E.0168
G1 X185.359 Y74.224 E.2713
G1 X184.824 Y74.224 E.0168
G1 X178.72 Y68.12 E.2713
G1 X178.186 Y68.12 E.0168
G1 X184.29 Y74.224 E.2713
G1 X183.755 Y74.224 E.0168
G1 X177.651 Y68.12 E.2713
G1 X177.117 Y68.12 E.0168
G1 X183.221 Y74.224 E.2713
G1 X182.686 Y74.224 E.0168
G1 X176.582 Y68.12 E.2713
G1 X176.048 Y68.12 E.0168
G1 X182.152 Y74.224 E.2713
G1 X181.617 Y74.224 E.0168
G1 X175.513 Y68.12 E.2713
G1 X174.979 Y68.12 E.0168
M73 C64
G1 X181.083 Y74.224 E.2713
G1 X180.548 Y74.224 E.0168
G1 X174.444 Y68.12 E.2713
G1 X173.91 Y68.12 E.0168
G1 X180.014 Y74.224 E.2713
G1 X179.479 Y74.224 E.0168
G1 X173.375 Y68.12 E.2713
G1 X172.841 Y68.12 E.0168
G1 X178.945 Y74.224 E.2713
G1 X178.41 Y74.224 E.0168
G1 X172.306 Y68.12 E.2713
G1 X171.772 Y68.12 E.0168
G1 X177.876 Y74.224 E.2713
G1 X177.341 Y74.224 E.0168
G1 X171.237 Y68.12 E.2713
G1 X170.703 Y68.12 E.0168
G1 X176.807 Y74.224 E.2713
G1 X176.272 Y74.224 E.0168
G1 X170.168 Y68.12 E.2713
G1 X169.785 Y68.12 E.01205
G1 X169.785 Y68.271 E.00475
G1 X175.738 Y74.224 E.26459
G1 X175.203 Y74.224 E.0168
G1 X169.785 Y68.805 E.24083
G1 X169.785 Y69.34 E.0168
G1 X174.669 Y74.224 E.21707
G1 X174.134 Y74.224 E.0168
G1 X169.785 Y69.874 E.19332
G1 X169.785 Y70.409 E.0168
G1 X173.6 Y74.224 E.16956
G1 X173.368 Y74.235 E.0073
G1 X173.149 Y74.308 E.00724
G1 X169.785 Y70.944 E.14954
G1 X169.785 Y71.478 E.0168
G1 X172.848 Y74.542 E.13617
G1 X172.706 Y74.793 E.00907
G1 X172.685 Y74.913 E.00384
G1 X169.785 Y72.013 E.12893
G1 X169.785 Y72.547 E.0168
G1 X172.66 Y75.422 E.12779
G1 X172.66 Y75.957 E.0168
G1 X169.785 Y73.082 E.12779
G1 X169.785 Y73.616 E.0168
G1 X172.66 Y76.491 E.12779
G1 X172.66 Y77.026 E.0168
G1 X169.785 Y74.151 E.12779
G1 X169.785 Y74.685 E.0168
G1 X172.66 Y77.56 E.12779
G1 X172.66 Y78.095 E.0168
G1 X169.785 Y75.22 E.12779
G1 X169.785 Y75.754 E.0168
G1 X172.66 Y78.629 E.12779
G1 X172.66 Y79.164 E.0168
G1 X169.785 Y76.289 E.12779
G1 X169.785 Y76.823 E.0168
G1 X172.66 Y79.698 E.12779
G1 X172.66 Y80.233 E.0168
G1 X169.785 Y77.358 E.12779
G1 X169.785 Y77.892 E.0168
G1 X172.66 Y80.767 E.12779
G1 X172.66 Y81.302 E.0168
G1 X169.785 Y78.427 E.12779
G1 X169.785 Y78.961 E.0168
G1 X172.66 Y81.836 E.12779
G1 X172.66 Y82.371 E.0168
G1 X169.785 Y79.496 E.12779
G1 X169.785 Y80.03 E.0168
G1 X172.66 Y82.906 E.12779
G1 X172.66 Y83.44 E.0168
G1 X169.785 Y80.565 E.12779
G1 X169.785 Y81.099 E.0168
G1 X172.66 Y83.975 E.12779
G1 X172.66 Y84.509 E.0168
G1 X169.785 Y81.634 E.12779
G1 X169.785 Y82.168 E.0168
G1 X172.66 Y85.044 E.12779
G1 X172.66 Y85.578 E.0168
G1 X169.785 Y82.703 E.12779
G1 X169.785 Y83.237 E.0168
G1 X172.66 Y86.113 E.12779
G1 X172.66 Y86.647 E.0168
G1 X169.785 Y83.772 E.12779
G1 X169.785 Y84.306 E.0168
G1 X172.66 Y87.182 E.12779
G1 X172.66 Y87.716 E.0168
G1 X169.785 Y84.841 E.12779
G1 X169.785 Y85.375 E.0168
G1 X172.66 Y88.251 E.12779
G1 X172.66 Y88.785 E.0168
G1 X169.785 Y85.91 E.12779
G1 X169.785 Y86.444 E.0168
G1 X172.66 Y89.32 E.12779
G1 X172.66 Y89.854 E.0168
G1 X169.785 Y86.979 E.12779
G1 X169.785 Y87.514 E.0168
G1 X172.66 Y90.389 E.12779
G1 X172.66 Y90.923 E.0168
G1 X169.785 Y88.048 E.12779
G1 X169.785 Y88.583 E.0168
G1 X172.66 Y91.458 E.12779
G1 X172.66 Y91.992 E.0168
G1 X169.785 Y89.117 E.12779
G1 X169.785 Y89.652 E.0168
G1 X172.66 Y92.527 E.12779
G1 X172.66 Y93.061 E.0168
G1 X169.785 Y90.186 E.12779
G1 X169.785 Y90.721 E.0168
G1 X172.66 Y93.596 E.12779
G1 X172.66 Y94.13 E.0168
G1 X169.785 Y91.255 E.12779
G1 X169.785 Y91.79 E.0168
G1 X172.66 Y94.665 E.12779
G1 X172.66 Y95.199 E.0168
G1 X169.785 Y92.324 E.12779
G1 X169.785 Y92.859 E.0168
G1 X172.66 Y95.734 E.12779
G1 X172.66 Y96.268 E.0168
G1 X169.785 Y93.393 E.12779
G1 X169.785 Y93.928 E.0168
G1 X172.66 Y96.803 E.12779
G1 X172.66 Y97.337 E.0168
G1 X169.785 Y94.462 E.12779
G1 X169.785 Y94.997 E.0168
G1 X172.66 Y97.872 E.12779
G1 X172.66 Y98.406 E.0168
G1 X169.785 Y95.531 E.12779
G1 X169.785 Y96.066 E.0168
G1 X172.66 Y98.941 E.12779
G1 X172.66 Y99.476 E.0168
G1 X169.785 Y96.6 E.12779
G1 X169.785 Y97.135 E.0168
G1 X172.66 Y100.01 E.12779
G1 X172.66 Y100.545 E.0168
G1 X169.785 Y97.669 E.12779
G1 X169.785 Y98.204 E.0168
G1 X172.66 Y101.079 E.12779
G1 X172.66 Y101.614 E.0168
G1 X169.785 Y98.738 E.12779
G1 X169.785 Y99.273 E.0168
G1 X172.66 Y102.148 E.12779
G1 X172.66 Y102.683 E.0168
G1 X169.785 Y99.807 E.12779
G1 X169.785 Y100.342 E.0168
G1 X172.66 Y103.217 E.12779
G1 X172.66 Y103.752 E.0168
G1 X169.785 Y100.876 E.12779
G1 X169.785 Y101.411 E.0168
G1 X172.66 Y104.286 E.12779
G1 X172.66 Y104.821 E.0168
G1 X169.785 Y101.945 E.12779
G1 X169.785 Y102.48 E.0168
G1 X172.66 Y105.355 E.12779
G1 X172.66 Y105.89 E.0168
G1 X169.785 Y103.014 E.12779
G1 X169.785 Y103.549 E.0168
G1 X172.66 Y106.424 E.12779
G1 X172.66 Y106.959 E.0168
G1 X169.785 Y104.084 E.12779
G1 X169.785 Y104.618 E.0168
G1 X172.66 Y107.493 E.12779
G1 X172.66 Y108.028 E.0168
G1 X169.682 Y105.05 E.13233
G1 X169.65 Y105.117 E.00232
G1 X169.438 Y105.34 E.00969
G1 X172.66 Y108.562 E.1432
G1 X172.66 Y109.097 E.0168
G1 X169.058 Y105.495 E.16007
G1 X168.534 Y105.505 E.01648
G1 X169.505 Y106.477 E.04317
G1 X168.971 Y106.477 E.0168
G1 X167.999 Y105.505 E.04317
G1 X167.465 Y105.505 E.0168
G1 X168.436 Y106.477 E.04317
G1 X167.902 Y106.477 E.0168
G1 X166.93 Y105.505 E.04317
G1 X166.396 Y105.505 E.0168
G1 X167.367 Y106.477 E.04317
G1 X166.833 Y106.477 E.0168
G1 X165.861 Y105.505 E.04317
G1 X165.327 Y105.505 E.0168
G1 X166.298 Y106.477 E.04317
G1 X165.764 Y106.477 E.0168
G1 X164.792 Y105.505 E.04317
G1 X164.258 Y105.505 E.0168
G1 X165.229 Y106.477 E.04317
G1 X164.695 Y106.477 E.0168
G1 X163.723 Y105.505 E.04317
G1 X163.189 Y105.505 E.0168
G1 X164.16 Y106.477 E.04317
G1 X163.626 Y106.477 E.0168
G1 X162.654 Y105.505 E.04317
G1 X162.12 Y105.505 E.0168
G1 X163.091 Y106.477 E.04317
G1 X162.557 Y106.477 E.0168
G1 X161.585 Y105.505 E.04317
G1 X161.051 Y105.505 E.0168
G1 X162.022 Y106.477 E.04317
G1 X161.487 Y106.477 E.0168
G1 X160.516 Y105.505 E.04317
G1 X159.982 Y105.505 E.0168
G1 X160.953 Y106.477 E.04317
G1 X160.418 Y106.477 E.0168
G1 X159.447 Y105.505 E.04317
G1 X158.913 Y105.505 E.0168
G1 X159.884 Y106.477 E.04317
G1 X159.349 Y106.477 E.0168
G1 X158.378 Y105.505 E.04317
G1 X157.844 Y105.505 E.0168
G1 X158.985 Y106.646 E.05071
M204 S1000
;WIPE_START
G1 F8640
G1 X157.844 Y105.505 E-.37257
G1 X158.378 Y105.505 E-.12342
G1 X159.187 Y106.314 E-.26401
;WIPE_END
G1 E-.04 F2100
G1 Z.6 F720
G1 X170.465 Y107.436 F10800
G1 Z.2 F720
G1 E.8 F2100
M204 S800
G1 F1200
G1 X172.66 Y109.631 E.09755
G1 X172.66 Y110.166 E.0168
G1 X170.635 Y108.141 E.09001
G1 X170.635 Y108.675 E.0168
G1 X172.66 Y110.7 E.09001
G1 X172.66 Y111.235 E.0168
G1 X170.635 Y109.21 E.09001
G1 X170.635 Y109.744 E.0168
G1 X172.66 Y111.769 E.09001
G1 X172.66 Y112.304 E.0168
G1 X170.635 Y110.279 E.09001
G1 X170.635 Y110.813 E.0168
G1 X172.66 Y112.838 E.09001
