; generated by PrusaSlicer 2.5.0-rc2+win64 on 2022-09-21 at 22:52:02 UTC

; 

; external perimeters extrusion width = 0.45mm
; perimeters extrusion width = 0.45mm
; infill extrusion width = 0.45mm
; solid infill extrusion width = 0.45mm
; top infill extrusion width = 0.40mm
; first layer extrusion width = 0.42mm

M73 P0 R32
M73 C18
M73 Q0 S33
M73 D18
M107
;TYPE:Custom
M862.3 P "MK3S" ; printer model check
M862.1 P0.4 ; nozzle diameter check
G90 ; use absolute coordinates
M83 ; extruder relative mode
M104 S215 ; set extruder temp
M140 S60 ; set bed temp
M190 S60 ; wait for bed temp
M109 S215 ; wait for extruder temp
G28 W ; home all without mesh bed level
G80 ; mesh bed leveling
G1 Y-3.0 F1000.0 ; go outside print area
G92 E0.0
G1 X60.0 E9.0 F1000.0 ; intro line
G1 X100.0 E12.5 F1000.0 ; intro line
G92 E0.0
M221 S95

; Don't change E values below. Excessive value can damage the printer.
M907 E430 ; set extruder motor current
G21 ; set units to millimeters
G90 ; use absolute coordinates
M83 ; use relative distances for extrusion
M900 K0.05 ; Filament gcode LA 1.5
M900 K30 ; Filament gcode LA 1.0
M107
;LAYER_CHANGE
;Z:0.2
;HEIGHT:0.2
;BEFORE_LAYER_CHANGE
G92 E0.0
;0.2


M73 Q0 S32
G1 E-1 F2100
G1 Z.6 F720
;AFTER_LAYER_CHANGE
;0.2
G1 X92.375 Y80.916 F10800
G1 Z.2 F720
G1 E1 F2100
M204 S800
;TYPE:Skirt/Brim
;WIDTH:0.42
G1 F1200
G1 X94.899 Y78.392 E.1119
G1 X96.579 Y77.696 E.05704
G1 X153.421 Y77.696 E1.78222
G1 X155.101 Y78.392 E.05704
G1 X157.625 Y80.916 E.1119
G1 X158.321 Y82.597 E.05704
G1 X158.321 Y127.403 E1.40487
G1 X157.625 Y129.084 E.05704
G1 X155.101 Y131.608 E.1119
G1 X153.421 Y132.304 E.05704
G1 X96.579 Y132.304 E1.78222
G1 X94.899 Y131.608 E.05704
G1 X92.375 Y129.084 E.1119
G1 X91.679 Y127.403 E.05704
G1 X91.679 Y82.597 E1.40487
G1 X92.352 Y80.972 E.05516
M204 S1000
; printing object Sign.stl id:0 copy 0
;WIPE_START
G1 F8640
G1 X94.899 Y78.392 E-.8369
G1 X95.351 Y78.205 E-.1131
;WIPE_END
G1 E-.05 F2100
G1 Z.8 F720
G1 X155.157 Y89.841 F10800
G1 Z.2 F720
M73 Q1 S32
G1 E1 F2100
M204 S800
;TYPE:Perimeter
;WIDTH:0.419999
G1 F1200
G1 X153.095 Y91.904 E.09146
G1 X96.905 Y91.904 E1.76177
G1 X94.843 Y89.841 E.09146
M73 P1 R32
G1 X94.843 Y82.923 E.21692
G1 X96.905 Y80.86 E.09146
G1 X153.095 Y80.86 E1.76177
G1 X155.157 Y82.923 E.09146
G1 X155.157 Y89.781 E.21504
M204 S1000
G1 X155.534 Y89.998 F10800
M204 S800
;TYPE:External perimeter
G1 F1200
G1 X153.251 Y92.281 E.10125
G1 X96.749 Y92.281 E1.77156
G1 X94.466 Y89.998 E.10125
G1 X94.466 Y82.767 E.22672
G1 X96.749 Y80.483 E.10125
G1 X153.251 Y80.483 E1.77156
G1 X155.534 Y82.767 E.10125
G1 X155.534 Y89.938 E.22484
M204 S1000
G1 X155.135 Y90.029 F10800
;WIPE_START
G1 F8640
G1 X153.251 Y92.281 E-.75552
G1 X152.409 Y92.281 E-.19448
;WIPE_END
G1 E-.05 F2100
G1 Z.8 F720
G1 X155.044 Y83.211 F10800
G1 Z.2 F720
G1 E1 F2100
M204 S800
;TYPE:Solid infill
;WIDTH:0.421738
G1 F1200
G1 X152.976 Y81.143 E.09212
G1 X152.44 Y81.143 E.01687
G1 X154.874 Y83.577 E.10842
G1 X154.874 Y84.113 E.01687
G1 X151.905 Y81.143 E.13229
G1 X151.369 Y81.143 E.01687
G1 X154.874 Y84.649 E.15615
G1 X154.874 Y85.184 E.01687
G1 X150.833 Y81.143 E.18002
G1 X150.297 Y81.143 E.01687
G1 X154.874 Y85.72 E.20388
G1 X154.874 Y86.256 E.01687
M73 C17
G1 X149.762 Y81.143 E.22775
G1 X149.226 Y81.143 E.01687
G1 X154.874 Y86.791 E.25161
G1 X154.874 Y87.327 E.01687
G1 X148.69 Y81.143 E.27548
G1 X148.155 Y81.143 E.01687
G1 X154.874 Y87.863 E.29934
G1 X154.874 Y88.399 E.01687
G1 X147.619 Y81.143 E.32321
G1 X147.083 Y81.143 E.01687
G1 X154.874 Y88.934 E.34707
G1 X154.874 Y89.47 E.01687
G1 X146.547 Y81.143 E.37093
G1 X146.012 Y81.143 E.01687
M73 Q2 S32
G1 X154.734 Y89.865 E.38853
G1 X154.466 Y90.133 E.01193
M73 P2 R32
M73 D17
G1 X145.476 Y81.143 E.40046
G1 X144.94 Y81.143 E.01687
G1 X154.198 Y90.401 E.41239
G1 X153.93 Y90.669 E.01193
G1 X144.404 Y81.143 E.42432
G1 X143.869 Y81.143 E.01687
G1 X153.662 Y90.937 E.43626
G1 X153.394 Y91.204 E.01193
G1 X143.333 Y81.143 E.44819
G1 X142.797 Y81.143 E.01687
G1 X153.126 Y91.472 E.46012
G1 X152.977 Y91.621 E.00664
G1 X152.74 Y91.621 E.00749
G1 X142.262 Y81.143 E.46676
G1 X141.726 Y81.143 E.01687
G1 X152.204 Y91.621 E.46676
G1 X151.668 Y91.621 E.01687
G1 X141.19 Y81.143 E.46676
G1 X140.654 Y81.143 E.01687
G1 X151.132 Y91.621 E.46676
G1 X150.597 Y91.621 E.01687
G1 X140.119 Y81.143 E.46676
G1 X139.583 Y81.143 E.01687
G1 X150.061 Y91.621 E.46676
G1 X149.525 Y91.621 E.01687
G1 X139.047 Y81.143 E.46676
G1 X138.511 Y81.143 E.01687
G1 X148.99 Y91.621 E.46676
G1 X148.454 Y91.621 E.01687
G1 X137.976 Y81.143 E.46676
G1 X137.44 Y81.143 E.01687
G1 X147.918 Y91.621 E.46676
G1 X147.382 Y91.621 E.01687
M73 P2 R31
G1 X136.904 Y81.143 E.46676
G1 X136.369 Y81.143 E.01687
G1 X146.847 Y91.621 E.46676
G1 X146.311 Y91.621 E.01687
G1 X135.833 Y81.143 E.46676
G1 X135.297 Y81.143 E.01687
G1 X145.775 Y91.621 E.46676
G1 X145.239 Y91.621 E.01687
G1 X134.761 Y81.143 E.46676
G1 X134.226 Y81.143 E.01687
G1 X144.704 Y91.621 E.46676
G1 X144.168 Y91.621 E.01687
G1 X133.69 Y81.143 E.46676
G1 X133.154 Y81.143 E.01687
G1 X143.632 Y91.621 E.46676
G1 X143.096 Y91.621 E.01687
G1 X132.618 Y81.143 E.46676
G1 X132.083 Y81.143 E.01687
M73 P3 R31
M73 Q3 S32
G1 X142.561 Y91.621 E.46676
G1 X142.025 Y91.621 E.01687
G1 X131.547 Y81.143 E.46676
G1 X131.011 Y81.143 E.01687
G1 X141.489 Y91.621 E.46676
G1 X140.954 Y91.621 E.01687
M73 Q3 S31
G1 X130.476 Y81.143 E.46676
G1 X129.94 Y81.143 E.01687
G1 X140.418 Y91.621 E.46676
G1 X139.882 Y91.621 E.01687
G1 X129.404 Y81.143 E.46676
G1 X128.868 Y81.143 E.01687
G1 X139.346 Y91.621 E.46676
G1 X138.811 Y91.621 E.01687
G1 X128.333 Y81.143 E.46676
G1 X127.797 Y81.143 E.01687
G1 X138.275 Y91.621 E.46676
G1 X137.739 Y91.621 E.01687
G1 X127.261 Y81.143 E.46676
G1 X126.725 Y81.143 E.01687
G1 X137.203 Y91.621 E.46676
G1 X136.668 Y91.621 E.01687
G1 X126.19 Y81.143 E.46676
G1 X125.654 Y81.143 E.01687
G1 X136.132 Y91.621 E.46676
G1 X135.596 Y91.621 E.01687
G1 X125.118 Y81.143 E.46676
G1 X124.582 Y81.143 E.01687
G1 X135.061 Y91.621 E.46676
G1 X134.525 Y91.621 E.01687
G1 X124.047 Y81.143 E.46676
G1 X123.511 Y81.143 E.01687
G1 X133.989 Y91.621 E.46676
G1 X133.453 Y91.621 E.01687
G1 X122.975 Y81.143 E.46676
G1 X122.44 Y81.143 E.01687
G1 X132.918 Y91.621 E.46676
G1 X132.382 Y91.621 E.01687
G1 X121.904 Y81.143 E.46676
G1 X121.368 Y81.143 E.01687
G1 X131.846 Y91.621 E.46676
G1 X131.31 Y91.621 E.01687
G1 X120.832 Y81.143 E.46676
G1 X120.297 Y81.143 E.01687
G1 X130.775 Y91.621 E.46676
G1 X130.239 Y91.621 E.01687
G1 X119.761 Y81.143 E.46676
G1 X119.225 Y81.143 E.01687
G1 X129.703 Y91.621 E.46676
G1 X129.168 Y91.621 E.01687
G1 X118.689 Y81.143 E.46676
G1 X118.154 Y81.143 E.01687
M73 P4 R31
M73 Q4 S31
G1 X128.632 Y91.621 E.46676
G1 X128.096 Y91.621 E.01687
G1 X117.618 Y81.143 E.46676
G1 X117.082 Y81.143 E.01687
G1 X127.56 Y91.621 E.46676
G1 X127.025 Y91.621 E.01687
G1 X116.547 Y81.143 E.46676
G1 X116.011 Y81.143 E.01687
G1 X126.489 Y91.621 E.46676
G1 X125.953 Y91.621 E.01687
G1 X115.475 Y81.143 E.46676
G1 X114.939 Y81.143 E.01687
G1 X125.417 Y91.621 E.46676
G1 X124.882 Y91.621 E.01687
G1 X114.404 Y81.143 E.46676
G1 X113.868 Y81.143 E.01687
G1 X124.346 Y91.621 E.46676
G1 X123.81 Y91.621 E.01687
G1 X113.332 Y81.143 E.46676
G1 X112.796 Y81.143 E.01687
G1 X123.274 Y91.621 E.46676
G1 X122.739 Y91.621 E.01687
G1 X112.261 Y81.143 E.46676
G1 X111.725 Y81.143 E.01687
G1 X122.203 Y91.621 E.46676
G1 X121.667 Y91.621 E.01687
G1 X111.189 Y81.143 E.46676
G1 X110.654 Y81.143 E.01687
G1 X121.132 Y91.621 E.46676
G1 X120.596 Y91.621 E.01687
G1 X110.118 Y81.143 E.46676
G1 X109.582 Y81.143 E.01687
G1 X120.06 Y91.621 E.46676
G1 X119.524 Y91.621 E.01687
G1 X109.046 Y81.143 E.46676
G1 X108.511 Y81.143 E.01687
G1 X118.989 Y91.621 E.46676
G1 X118.453 Y91.621 E.01687
G1 X107.975 Y81.143 E.46676
G1 X107.439 Y81.143 E.01687
G1 X117.917 Y91.621 E.46676
G1 X117.381 Y91.621 E.01687
M73 C16
G1 X106.903 Y81.143 E.46676
G1 X106.368 Y81.143 E.01687
G1 X116.846 Y91.621 E.46676
G1 X116.31 Y91.621 E.01687
G1 X105.832 Y81.143 E.46676
G1 X105.296 Y81.143 E.01687
G1 X115.774 Y91.621 E.46676
G1 X115.239 Y91.621 E.01687
M73 P5 R31
M73 Q5 S31
G1 X104.76 Y81.143 E.46676
G1 X104.225 Y81.143 E.01687
M73 D16
G1 X114.703 Y91.621 E.46676
G1 X114.167 Y91.621 E.01687
G1 X103.689 Y81.143 E.46676
G1 X103.153 Y81.143 E.01687
G1 X113.631 Y91.621 E.46676
G1 X113.096 Y91.621 E.01687
G1 X102.618 Y81.143 E.46676
G1 X102.082 Y81.143 E.01687
G1 X112.56 Y91.621 E.46676
G1 X112.024 Y91.621 E.01687
G1 X101.546 Y81.143 E.46676
G1 X101.01 Y81.143 E.01687
G1 X111.488 Y91.621 E.46676
G1 X110.953 Y91.621 E.01687
G1 X100.475 Y81.143 E.46676
G1 X99.939 Y81.143 E.01687
G1 X110.417 Y91.621 E.46676
G1 X109.881 Y91.621 E.01687
G1 X99.403 Y81.143 E.46676
G1 X98.867 Y81.143 E.01687
G1 X109.346 Y91.621 E.46676
G1 X108.81 Y91.621 E.01687
G1 X98.332 Y81.143 E.46676
G1 X97.796 Y81.143 E.01687
G1 X108.274 Y91.621 E.46676
G1 X107.738 Y91.621 E.01687
G1 X97.26 Y81.143 E.46676
G1 X97.023 Y81.143 E.00749
G1 X96.874 Y81.292 E.00664
G1 X107.203 Y91.621 E.46012
G1 X106.667 Y91.621 E.01687
G1 X96.606 Y81.56 E.44819
G1 X96.338 Y81.828 E.01193
M73 P5 R30
G1 X106.131 Y91.621 E.43625
G1 X105.595 Y91.621 E.01687
G1 X96.07 Y82.096 E.42432
G1 X95.802 Y82.364 E.01193
G1 X105.06 Y91.621 E.41239
G1 X104.524 Y91.621 E.01687
G1 X95.534 Y82.631 E.40046
G1 X95.266 Y82.899 E.01193
G1 X103.988 Y91.621 E.38853
G1 X103.453 Y91.621 E.01687
G1 X95.126 Y83.294 E.37093
G1 X95.126 Y83.83 E.01687
G1 X102.917 Y91.621 E.34707
G1 X102.381 Y91.621 E.01687
G1 X95.126 Y84.366 E.3232
G1 X95.126 Y84.902 E.01687
G1 X101.845 Y91.621 E.29934
G1 X101.31 Y91.621 E.01687
G1 X95.126 Y85.437 E.27547
G1 X95.126 Y85.973 E.01687
M73 P6 R30
M73 Q6 S31
G1 X100.774 Y91.621 E.25161
G1 X100.238 Y91.621 E.01687
G1 X95.126 Y86.509 E.22774
G1 X95.126 Y87.044 E.01687
G1 X99.702 Y91.621 E.20388
G1 X99.167 Y91.621 E.01687
G1 X95.126 Y87.58 E.18001
G1 X95.126 Y88.116 E.01687
G1 X98.631 Y91.621 E.15615
G1 X98.095 Y91.621 E.01687
G1 X95.126 Y88.652 E.13228
G1 X95.126 Y89.187 E.01687
G1 X97.559 Y91.621 E.10842
G1 X97.024 Y91.621 E.01687
G1 X94.956 Y89.553 E.09211
M204 S1000
; stop printing object Sign.stl id:0 copy 0
; printing object Sign.stl id:0 copy 1
;WIPE_START
G1 F8640
G1 X97.024 Y91.621 E-.67523
G1 X97.559 Y91.621 E-.1237
G1 X97.097 Y91.159 E-.15107
;WIPE_END
G1 E-.05 F2100
G1 Z.8 F720
G1 X155.157 Y108.459 F10800
G1 Z.2 F720
M73 Q6 S30
G1 E1 F2100
M204 S800
;TYPE:Perimeter
;WIDTH:0.419999
G1 F1200
G1 X153.095 Y110.522 E.09146
G1 X96.905 Y110.522 E1.76177
G1 X94.843 Y108.459 E.09146
G1 X94.843 Y101.541 E.21692
G1 X96.905 Y99.478 E.09146
G1 X153.095 Y99.478 E1.76177
G1 X155.157 Y101.541 E.09146
G1 X155.157 Y108.399 E.21504
M204 S1000
G1 X155.534 Y108.615 F10800
M204 S800
;TYPE:External perimeter
G1 F1200
G1 X153.251 Y110.899 E.10125
G1 X96.749 Y110.899 E1.77156
G1 X94.466 Y108.615 E.10125
G1 X94.466 Y101.385 E.22672
G1 X96.749 Y99.101 E.10125
G1 X153.251 Y99.101 E1.77156
G1 X155.534 Y101.385 E.10125
G1 X155.534 Y108.555 E.22484
M204 S1000
G1 X155.135 Y108.647 F10800
;WIPE_START
G1 F8640
G1 X153.251 Y110.899 E-.75552
G1 X152.409 Y110.899 E-.19448
;WIPE_END
G1 E-.05 F2100
G1 Z.8 F720
G1 X155.044 Y101.829 F10800
G1 Z.2 F720
G1 E1 F2100
M204 S800
;TYPE:Solid infill
;WIDTH:0.421738
G1 F1200
G1 X152.976 Y99.761 E.09212
G1 X152.44 Y99.761 E.01687
G1 X154.874 Y102.195 E.10842
G1 X154.874 Y102.731 E.01687
G1 X151.905 Y99.761 E.13229
G1 X151.369 Y99.761 E.01687
G1 X154.874 Y103.266 E.15615
G1 X154.874 Y103.802 E.01687
G1 X150.833 Y99.761 E.18002
G1 X150.297 Y99.761 E.01687
G1 X154.874 Y104.338 E.20388
G1 X154.874 Y104.874 E.01687
M73 P7 R30
G1 X149.762 Y99.761 E.22775
M73 Q7 S30
G1 X149.226 Y99.761 E.01687
G1 X154.874 Y105.409 E.25161
G1 X154.874 Y105.945 E.01687
G1 X148.69 Y99.761 E.27548
G1 X148.155 Y99.761 E.01687
G1 X154.874 Y106.481 E.29934
G1 X154.874 Y107.016 E.01687
G1 X147.619 Y99.761 E.32321
G1 X147.083 Y99.761 E.01687
G1 X154.874 Y107.552 E.34707
G1 X154.874 Y108.088 E.01687
G1 X146.547 Y99.761 E.37093
G1 X146.012 Y99.761 E.01687
G1 X154.734 Y108.483 E.38853
G1 X154.466 Y108.751 E.01193
G1 X145.476 Y99.761 E.40046
G1 X144.94 Y99.761 E.01687
G1 X154.198 Y109.019 E.41239
G1 X153.93 Y109.286 E.01193
G1 X144.404 Y99.761 E.42432
G1 X143.869 Y99.761 E.01687
G1 X153.662 Y109.554 E.43626
G1 X153.394 Y109.822 E.01193
G1 X143.333 Y99.761 E.44819
G1 X142.797 Y99.761 E.01687
G1 X153.126 Y110.09 E.46012
G1 X152.977 Y110.239 E.00664
G1 X152.74 Y110.239 E.00749
G1 X142.262 Y99.761 E.46676
G1 X141.726 Y99.761 E.01687
G1 X152.204 Y110.239 E.46676
G1 X151.668 Y110.239 E.01687
G1 X141.19 Y99.761 E.46676
G1 X140.654 Y99.761 E.01687
G1 X151.132 Y110.239 E.46676
G1 X150.597 Y110.239 E.01687
G1 X140.119 Y99.761 E.46676
G1 X139.583 Y99.761 E.01687
G1 X150.061 Y110.239 E.46676
G1 X149.525 Y110.239 E.01687
G1 X139.047 Y99.761 E.46676
G1 X138.511 Y99.761 E.01687
G1 X148.99 Y110.239 E.46676
G1 X148.454 Y110.239 E.01687
G1 X137.976 Y99.761 E.46676
G1 X137.44 Y99.761 E.01687
G1 X147.918 Y110.239 E.46676
G1 X147.382 Y110.239 E.01687
G1 X136.904 Y99.761 E.46676
G1 X136.369 Y99.761 E.01687
G1 X146.847 Y110.239 E.46676
G1 X146.311 Y110.239 E.01687
M73 C15
G1 X135.833 Y99.761 E.46676
G1 X135.297 Y99.761 E.01687
G1 X145.775 Y110.239 E.46676
G1 X145.239 Y110.239 E.01687
G1 X134.761 Y99.761 E.46676
G1 X134.226 Y99.761 E.01687
M73 P8 R30
M73 Q8 S30
G1 X144.704 Y110.239 E.46676
G1 X144.168 Y110.239 E.01687
G1 X133.69 Y99.761 E.46676
G1 X133.154 Y99.761 E.01687
M73 D15
G1 X143.632 Y110.239 E.46676
G1 X143.096 Y110.239 E.01687
G1 X132.618 Y99.761 E.46676
G1 X132.083 Y99.761 E.01687
G1 X142.561 Y110.239 E.46676
G1 X142.025 Y110.239 E.01687
G1 X131.547 Y99.761 E.46676
G1 X131.011 Y99.761 E.01687
G1 X141.489 Y110.239 E.46676
G1 X140.954 Y110.239 E.01687
G1 X130.476 Y99.761 E.46676
G1 X129.94 Y99.761 E.01687
G1 X140.418 Y110.239 E.46676
G1 X139.882 Y110.239 E.01687
G1 X129.404 Y99.761 E.46676
G1 X128.868 Y99.761 E.01687
G1 X139.346 Y110.239 E.46676
G1 X138.811 Y110.239 E.01687
G1 X128.333 Y99.761 E.46676
G1 X127.797 Y99.761 E.01687
G1 X138.275 Y110.239 E.46676
G1 X137.739 Y110.239 E.01687
G1 X127.261 Y99.761 E.46676
G1 X126.725 Y99.761 E.01687
G1 X137.203 Y110.239 E.46676
G1 X136.668 Y110.239 E.01687
G1 X126.19 Y99.761 E.46676
G1 X125.654 Y99.761 E.01687
G1 X136.132 Y110.239 E.46676
G1 X135.596 Y110.239 E.01687
M73 P8 R29
G1 X125.118 Y99.761 E.46676
G1 X124.582 Y99.761 E.01687
G1 X135.061 Y110.239 E.46676
G1 X134.525 Y110.239 E.01687
G1 X124.047 Y99.761 E.46676
G1 X123.511 Y99.761 E.01687
G1 X133.989 Y110.239 E.46676
G1 X133.453 Y110.239 E.01687
G1 X122.975 Y99.761 E.46676
G1 X122.44 Y99.761 E.01687
G1 X132.918 Y110.239 E.46676
G1 X132.382 Y110.239 E.01687
G1 X121.904 Y99.761 E.46676
G1 X121.368 Y99.761 E.01687
G1 X131.846 Y110.239 E.46676
G1 X131.31 Y110.239 E.01687
M73 P9 R29
M73 Q9 S30
G1 X120.832 Y99.761 E.46676
G1 X120.297 Y99.761 E.01687
G1 X130.775 Y110.239 E.46676
G1 X130.239 Y110.239 E.01687
G1 X119.761 Y99.761 E.46676
G1 X119.225 Y99.761 E.01687
G1 X129.703 Y110.239 E.46676
G1 X129.168 Y110.239 E.01687
G1 X118.689 Y99.761 E.46676
G1 X118.154 Y99.761 E.01687
M73 Q9 S29
G1 X128.632 Y110.239 E.46676
G1 X128.096 Y110.239 E.01687
G1 X117.618 Y99.761 E.46676
G1 X117.082 Y99.761 E.01687
G1 X127.56 Y110.239 E.46676
G1 X127.025 Y110.239 E.01687
G1 X116.547 Y99.761 E.46676
G1 X116.011 Y99.761 E.01687
G1 X126.489 Y110.239 E.46676
G1 X125.953 Y110.239 E.01687
G1 X115.475 Y99.761 E.46676
G1 X114.939 Y99.761 E.01687
G1 X125.417 Y110.239 E.46676
G1 X124.882 Y110.239 E.01687
G1 X114.404 Y99.761 E.46676
G1 X113.868 Y99.761 E.01687
G1 X124.346 Y110.239 E.46676
G1 X123.81 Y110.239 E.01687
G1 X113.332 Y99.761 E.46676
G1 X112.796 Y99.761 E.01687
G1 X123.274 Y110.239 E.46676
G1 X122.739 Y110.239 E.01687
G1 X112.261 Y99.761 E.46676
G1 X111.725 Y99.761 E.01687
G1 X122.203 Y110.239 E.46676
G1 X121.667 Y110.239 E.01687
G1 X111.189 Y99.761 E.46676
G1 X110.654 Y99.761 E.01687
G1 X121.132 Y110.239 E.46676
G1 X120.596 Y110.239 E.01687
G1 X110.118 Y99.761 E.46676
G1 X109.582 Y99.761 E.01687
G1 X120.06 Y110.239 E.46676
G1 X119.524 Y110.239 E.01687
G1 X109.046 Y99.761 E.46676
G1 X108.511 Y99.761 E.01687
