; generated by PrusaSlicer 2.5.0-rc2+win64 on 2022-09-22 at 16:07:15 UTC

; 

; external perimeters extrusion width = 0.45mm
; perimeters extrusion width = 0.45mm
; infill extrusion width = 0.45mm
; solid infill extrusion width = 0.45mm
; top infill extrusion width = 0.40mm
; first layer extrusion width = 0.42mm

M73 P0 R31
M73 C22
M73 Q0 S31
M73 D22
M107
;TYPE:Custom
M862.3 P "MK3S" ; printer model check
M862.1 P0.4 ; nozzle diameter check
G90 ; use absolute coordinates
M83 ; extruder relative mode
M104 S190 ; set extruder temp
M140 S60 ; set bed temp
M190 S60 ; wait for bed temp
M109 S190 ; wait for extruder temp
G28 W ; home all without mesh bed level
G80 ; mesh bed leveling
G1 Y-3.0 F1000.0 ; go outside print area
G92 E0.0
G1 X60.0 E9.0 F1000.0 ; intro line
G1 X100.0 E12.5 F1000.0 ; intro line
G92 E0.0
M221 S95

; Don't change E values below. Excessive value can damage the printer.
M907 E430 ; set extruder motor current
G21 ; set units to millimeters
G90 ; use absolute coordinates
M83 ; use relative distances for extrusion
M900 K0.05 ; Filament gcode LA 1.5
M900 K30 ; Filament gcode LA 1.0
M107
;LAYER_CHANGE
;Z:0.2
;HEIGHT:0.2
;BEFORE_LAYER_CHANGE
G92 E0.0
;0.2


M73 P0 R30
G1 E-.8 F2100
G1 Z.4 F720
;AFTER_LAYER_CHANGE
;0.2
G1 X88.381 Y54.646 F10800
G1 Z.2 F720
G1 E.8 F2100
M204 S800
;TYPE:Skirt/Brim
;WIDTH:0.42
G1 F1200
G1 X89.427 Y53.77 E.04278
G1 X90.367 Y53.576 E.03008
G1 X159.633 Y53.576 E2.1718
G1 X160.94 Y53.968 E.04278
M73 Q0 S30
G1 X161.817 Y55.014 E.04278
G1 X162.01 Y55.953 E.03008
G1 X162.01 Y154.047 E3.07565
G1 X161.619 Y155.354 E.04278
G1 X160.573 Y156.23 E.04278
G1 X159.633 Y156.424 E.03008
G1 X90.367 Y156.424 E2.1718
G1 X89.06 Y156.032 E.04278
M73 P1 R30
M73 C21
M73 Q1 S30
M73 D21
G1 X88.183 Y154.986 E.04278
G1 X87.99 Y154.047 E.03008
G1 X87.99 Y55.953 E3.07565
G1 X88.364 Y54.704 E.0409
M204 S1000
; printing object Windows.stl id:0 copy 0
;WIPE_START
G1 F8640
G1 X89.427 Y53.77 E-.32671
G1 X90.367 Y53.576 E-.22155
G1 X91.284 Y53.576 E-.21174
;WIPE_END
G1 E-.04 F2100
G1 Z.6 F720
G1 X158.846 Y101.213 F10800
G1 Z.2 F720
G1 E.8 F2100
M204 S800
;TYPE:Perimeter
;WIDTH:0.419999
G1 F1200
G1 X91.154 Y101.213 E2.12244
G1 X91.154 Y56.74 E1.3944
G1 X158.846 Y56.74 E2.12244
G1 X158.846 Y101.153 E1.39252
M204 S1000
G1 X159.223 Y101.59 F10800
M204 S800
;TYPE:External perimeter
G1 F1200
G1 X90.777 Y101.59 E2.14609
G1 X90.777 Y56.363 E1.41805
M73 P2 R30
M73 Q2 S30
G1 X159.223 Y56.363 E2.14609
G1 X159.223 Y101.53 E1.41617
M204 S1000
G1 X158.831 Y101.513 F10800
;WIPE_START
G1 F8640
G1 X155.932 Y101.533 E-.76
;WIPE_END
G1 E-.04 F2100
G1 Z.6 F720
G1 X157.968 Y56.854 F10800
G1 Z.2 F720
G1 E.8 F2100
M204 S800
;TYPE:Solid infill
;WIDTH:0.42113
G1 F1200
G1 X158.563 Y57.449 E.02646
G1 X158.563 Y57.983 E.01682
G1 X157.603 Y57.023 E.0427
G1 X157.068 Y57.023 E.01682
G1 X158.563 Y58.518 E.06649
G1 X158.563 Y59.053 E.01682
G1 X156.533 Y57.023 E.09028
G1 X155.999 Y57.023 E.01682
G1 X158.563 Y59.588 E.11407
G1 X158.563 Y60.123 E.01682
G1 X155.464 Y57.023 E.13786
G1 X154.929 Y57.023 E.01682
G1 X158.563 Y60.658 E.16164
G1 X158.563 Y61.193 E.01682
G1 X154.394 Y57.023 E.18543
G1 X153.859 Y57.023 E.01682
G1 X158.563 Y61.727 E.20922
G1 X158.563 Y62.262 E.01682
G1 X153.324 Y57.023 E.23301
G1 X152.789 Y57.023 E.01682
G1 X158.563 Y62.797 E.2568
G1 X158.563 Y63.332 E.01682
G1 X152.255 Y57.023 E.28058
G1 X151.72 Y57.023 E.01682
G1 X158.563 Y63.867 E.30437
G1 X158.563 Y64.402 E.01682
G1 X151.185 Y57.023 E.32816
G1 X150.65 Y57.023 E.01682
G1 X158.563 Y64.937 E.35195
G1 X158.563 Y65.472 E.01682
G1 X150.115 Y57.023 E.37574
G1 X149.58 Y57.023 E.01682
G1 X158.563 Y66.006 E.39952
G1 X158.563 Y66.541 E.01682
G1 X149.045 Y57.023 E.42331
G1 X148.51 Y57.023 E.01682
M73 Q3 S30
G1 X158.563 Y67.076 E.4471
G1 X158.563 Y67.611 E.01682
M73 P3 R30
G1 X147.976 Y57.023 E.47089
G1 X147.441 Y57.023 E.01682
G1 X158.563 Y68.146 E.49468
G1 X158.563 Y68.681 E.01682
G1 X146.906 Y57.023 E.51847
G1 X146.371 Y57.023 E.01682
G1 X158.563 Y69.216 E.54225
G1 X158.563 Y69.751 E.01682
G1 X145.836 Y57.023 E.56604
G1 X145.301 Y57.023 E.01682
G1 X158.563 Y70.285 E.58983
G1 X158.563 Y70.82 E.01682
G1 X144.766 Y57.023 E.61362
G1 X144.231 Y57.023 E.01682
M73 P3 R29
G1 X158.563 Y71.355 E.63741
G1 X158.563 Y71.89 E.01682
G1 X143.697 Y57.023 E.66119
G1 X143.162 Y57.023 E.01682
G1 X158.563 Y72.425 E.68498
G1 X158.563 Y72.96 E.01682
G1 X142.627 Y57.023 E.70877
G1 X142.092 Y57.023 E.01682
M73 Q3 S29
G1 X158.563 Y73.495 E.73256
G1 X158.563 Y74.029 E.01682
G1 X141.557 Y57.023 E.75635
G1 X141.022 Y57.023 E.01682
G1 X158.563 Y74.564 E.78013
G1 X158.563 Y75.099 E.01682
G1 X140.487 Y57.023 E.80392
G1 X139.953 Y57.023 E.01682
G1 X158.563 Y75.634 E.82771
G1 X158.563 Y76.169 E.01682
G1 X139.418 Y57.023 E.8515
G1 X138.883 Y57.023 E.01682
M73 P4 R29
M73 Q4 S29
G1 X158.563 Y76.704 E.87529
G1 X158.563 Y77.239 E.01682
G1 X138.348 Y57.023 E.89908
G1 X137.813 Y57.023 E.01682
M73 C20
G1 X158.563 Y77.774 E.92286
G1 X158.563 Y78.308 E.01682
M73 D20
G1 X137.278 Y57.023 E.94665
G1 X136.743 Y57.023 E.01682
G1 X158.563 Y78.843 E.97044
G1 X158.563 Y79.378 E.01682
G1 X136.208 Y57.023 E.99423
G1 X135.674 Y57.023 E.01682
G1 X158.563 Y79.913 E1.01802
G1 X158.563 Y80.448 E.01682
G1 X135.139 Y57.023 E1.0418
G1 X134.604 Y57.023 E.01682
G1 X158.563 Y80.983 E1.06559
G1 X158.563 Y81.518 E.01682
G1 X134.069 Y57.023 E1.08938
G1 X133.534 Y57.023 E.01682
G1 X158.563 Y82.053 E1.11317
G1 X158.563 Y82.587 E.01682
M73 Q5 S29
G1 X132.999 Y57.023 E1.13696
G1 X132.464 Y57.023 E.01682
M73 P5 R29
G1 X158.563 Y83.122 E1.16074
G1 X158.563 Y83.657 E.01682
G1 X131.929 Y57.023 E1.18453
G1 X131.395 Y57.023 E.01682
G1 X158.563 Y84.192 E1.20832
G1 X158.563 Y84.727 E.01682
G1 X130.86 Y57.023 E1.23211
G1 X130.325 Y57.023 E.01682
G1 X158.563 Y85.262 E1.2559
G1 X158.563 Y85.797 E.01682
G1 X129.79 Y57.023 E1.27969
G1 X129.255 Y57.023 E.01682
G1 X158.563 Y86.331 E1.30347
G1 X158.563 Y86.866 E.01682
G1 X128.72 Y57.023 E1.32726
G1 X128.185 Y57.023 E.01682
G1 X158.563 Y87.401 E1.35105
G1 X158.563 Y87.936 E.01682
M73 P6 R29
M73 Q6 S29
G1 X127.651 Y57.023 E1.37484
G1 X127.116 Y57.023 E.01682
G1 X158.563 Y88.471 E1.39863
G1 X158.563 Y89.006 E.01682
G1 X126.581 Y57.023 E1.42241
G1 X126.046 Y57.023 E.01682
G1 X158.563 Y89.541 E1.4462
G1 X158.563 Y90.076 E.01682
G1 X125.511 Y57.023 E1.46999
G1 X124.976 Y57.023 E.01682
M73 P6 R28
G1 X158.563 Y90.61 E1.49378
G1 X158.563 Y91.145 E.01682
M73 Q6 S28
G1 X124.441 Y57.023 E1.51757
G1 X123.906 Y57.023 E.01682
G1 X158.563 Y91.68 E1.54135
G1 X158.563 Y92.215 E.01682
M73 P7 R28
M73 Q7 S28
G1 X123.372 Y57.023 E1.56514
G1 X122.837 Y57.023 E.01682
G1 X158.563 Y92.75 E1.58893
G1 X158.563 Y93.285 E.01682
G1 X122.302 Y57.023 E1.61272
G1 X121.767 Y57.023 E.01682
M73 C19
M73 D19
G1 X158.563 Y93.82 E1.63651
G1 X158.563 Y94.355 E.01682
G1 X121.232 Y57.023 E1.66029
G1 X120.697 Y57.023 E.01682
G1 X158.563 Y94.889 E1.68408
G1 X158.563 Y95.424 E.01682
G1 X120.162 Y57.023 E1.70787
G1 X119.627 Y57.023 E.01682
M73 P8 R28
M73 Q8 S28
G1 X158.563 Y95.959 E1.73166
G1 X158.563 Y96.494 E.01682
G1 X119.093 Y57.023 E1.75545
G1 X118.558 Y57.023 E.01682
G1 X158.563 Y97.029 E1.77924
G1 X158.563 Y97.564 E.01682
G1 X118.023 Y57.023 E1.80302
G1 X117.488 Y57.023 E.01682
G1 X158.563 Y98.099 E1.82681
G1 X158.563 Y98.633 E.01682
G1 X116.953 Y57.023 E1.8506
G1 X116.418 Y57.023 E.01682
M73 P9 R28
M73 Q9 S28
G1 X158.563 Y99.168 E1.87439
G1 X158.563 Y99.703 E.01682
G1 X115.883 Y57.023 E1.89818
G1 X115.348 Y57.023 E.01682
G1 X158.563 Y100.238 E1.92196
G1 X158.563 Y100.773 E.01682
G1 X114.814 Y57.023 E1.94575
G1 X114.279 Y57.023 E.01682
G1 X158.186 Y100.93 E1.95274
G1 X157.651 Y100.93 E.01682
M73 P9 R27
G1 X113.744 Y57.023 E1.95274
G1 X113.209 Y57.023 E.01682
M73 P10 R27
M73 Q10 S28
G1 X157.116 Y100.93 E1.95274
G1 X156.581 Y100.93 E.01682
M73 Q10 S27
G1 X112.674 Y57.023 E1.95274
G1 X112.139 Y57.023 E.01682
G1 X156.046 Y100.93 E1.95274
G1 X155.511 Y100.93 E.01682
G1 X111.604 Y57.023 E1.95274
G1 X111.07 Y57.023 E.01682
M73 C18
M73 D18
G1 X154.976 Y100.93 E1.95274
G1 X154.442 Y100.93 E.01682
G1 X110.535 Y57.023 E1.95274
G1 X110 Y57.023 E.01682
M73 P11 R27
M73 Q11 S27
G1 X153.907 Y100.93 E1.95274
G1 X153.372 Y100.93 E.01682
G1 X109.465 Y57.023 E1.95274
G1 X108.93 Y57.023 E.01682
G1 X152.837 Y100.93 E1.95274
G1 X152.302 Y100.93 E.01682
G1 X108.395 Y57.023 E1.95274
G1 X107.86 Y57.023 E.01682
G1 X151.767 Y100.93 E1.95274
G1 X151.232 Y100.93 E.01682
G1 X107.325 Y57.023 E1.95274
G1 X106.791 Y57.023 E.01682
M73 P12 R27
M73 Q12 S27
G1 X150.697 Y100.93 E1.95274
G1 X150.163 Y100.93 E.01682
G1 X106.256 Y57.023 E1.95274
G1 X105.721 Y57.023 E.01682
G1 X149.628 Y100.93 E1.95274
G1 X149.093 Y100.93 E.01682
G1 X105.186 Y57.023 E1.95274
G1 X104.651 Y57.023 E.01682
G1 X148.558 Y100.93 E1.95274
G1 X148.023 Y100.93 E.01682
G1 X104.116 Y57.023 E1.95274
G1 X103.581 Y57.023 E.01682
M73 P13 R26
M73 Q13 S27
G1 X147.488 Y100.93 E1.95274
G1 X146.953 Y100.93 E.01682
G1 X103.046 Y57.023 E1.95274
G1 X102.512 Y57.023 E.01682
M73 Q13 S26
G1 X146.419 Y100.93 E1.95274
G1 X145.884 Y100.93 E.01682
G1 X101.977 Y57.023 E1.95274
G1 X101.442 Y57.023 E.01682
G1 X145.349 Y100.93 E1.95274
G1 X144.814 Y100.93 E.01682
M73 C17
M73 D17
G1 X100.907 Y57.023 E1.95274
G1 X100.372 Y57.023 E.01682
M73 P14 R26
M73 Q14 S26
G1 X144.279 Y100.93 E1.95274
G1 X143.744 Y100.93 E.01682
G1 X99.837 Y57.023 E1.95274
G1 X99.302 Y57.023 E.01682
G1 X143.209 Y100.93 E1.95274
G1 X142.674 Y100.93 E.01682
G1 X98.768 Y57.023 E1.95274
G1 X98.233 Y57.023 E.01682
G1 X142.14 Y100.93 E1.95274
G1 X141.605 Y100.93 E.01682
G1 X97.698 Y57.023 E1.95274
G1 X97.163 Y57.023 E.01682
M73 P15 R26
M73 Q15 S26
G1 X141.07 Y100.93 E1.95274
G1 X140.535 Y100.93 E.01682
G1 X96.628 Y57.023 E1.95274
G1 X96.093 Y57.023 E.01682
G1 X140 Y100.93 E1.95274
G1 X139.465 Y100.93 E.01682
G1 X95.558 Y57.023 E1.95274
G1 X95.023 Y57.023 E.01682
G1 X138.93 Y100.93 E1.95274
G1 X138.395 Y100.93 E.01682
G1 X94.489 Y57.023 E1.95274
G1 X93.954 Y57.023 E.01682
M73 P16 R26
M73 Q16 S26
G1 X137.861 Y100.93 E1.95274
G1 X137.326 Y100.93 E.01682
M73 P16 R25
G1 X93.419 Y57.023 E1.95274
G1 X92.884 Y57.023 E.01682
G1 X136.791 Y100.93 E1.95274
G1 X136.256 Y100.93 E.01682
M73 Q16 S25
G1 X92.349 Y57.023 E1.95274
G1 X91.814 Y57.023 E.01682
G1 X135.721 Y100.93 E1.95274
G1 X135.186 Y100.93 E.01682
G1 X91.437 Y57.18 E1.94575
G1 X91.437 Y57.715 E.01682
M73 P17 R25
M73 C16
M73 Q17 S25
M73 D16
G1 X134.651 Y100.93 E1.92196
G1 X134.117 Y100.93 E.01682
G1 X91.437 Y58.25 E1.89817
G1 X91.437 Y58.785 E.01682
G1 X133.582 Y100.93 E1.87438
G1 X133.047 Y100.93 E.01682
G1 X91.437 Y59.32 E1.8506
G1 X91.437 Y59.855 E.01682
G1 X132.512 Y100.93 E1.82681
G1 X131.977 Y100.93 E.01682
G1 X91.437 Y60.39 E1.80302
G1 X91.437 Y60.925 E.01682
M73 P18 R25
M73 Q18 S25
G1 X131.442 Y100.93 E1.77923
G1 X130.907 Y100.93 E.01682
G1 X91.437 Y61.459 E1.75544
G1 X91.437 Y61.994 E.01682
G1 X130.372 Y100.93 E1.73166
G1 X129.838 Y100.93 E.01682
G1 X91.437 Y62.529 E1.70787
G1 X91.437 Y63.064 E.01682
G1 X129.303 Y100.93 E1.68408
G1 X128.768 Y100.93 E.01682
G1 X91.437 Y63.599 E1.66029
G1 X91.437 Y64.134 E.01682
G1 X128.233 Y100.93 E1.6365
G1 X127.698 Y100.93 E.01682
M73 P19 R25
M73 Q19 S25
G1 X91.437 Y64.669 E1.61271
G1 X91.437 Y65.204 E.01682
G1 X127.163 Y100.93 E1.58893
G1 X126.628 Y100.93 E.01682
G1 X91.437 Y65.738 E1.56514
G1 X91.437 Y66.273 E.01682
M73 P19 R24
G1 X126.093 Y100.93 E1.54135
G1 X125.559 Y100.93 E.01682
G1 X91.437 Y66.808 E1.51756
G1 X91.437 Y67.343 E.01682
M73 Q19 S24
G1 X125.024 Y100.93 E1.49377
G1 X124.489 Y100.93 E.01682
G1 X91.437 Y67.878 E1.46999
G1 X91.437 Y68.413 E.01682
M73 P20 R24
M73 Q20 S24
G1 X123.954 Y100.93 E1.4462
G1 X123.419 Y100.93 E.01682
G1 X91.437 Y68.948 E1.42241
G1 X91.437 Y69.482 E.01682
M73 C15
G1 X122.884 Y100.93 E1.39862
G1 X122.349 Y100.93 E.01682
M73 D15
G1 X91.437 Y70.017 E1.37483
G1 X91.437 Y70.552 E.01682
G1 X121.815 Y100.93 E1.35105
G1 X121.28 Y100.93 E.01682
G1 X91.437 Y71.087 E1.32726
G1 X91.437 Y71.622 E.01682
G1 X120.745 Y100.93 E1.30347
G1 X120.21 Y100.93 E.01682
G1 X91.437 Y72.157 E1.27968
G1 X91.437 Y72.692 E.01682
G1 X119.675 Y100.93 E1.25589
G1 X119.14 Y100.93 E.01682
M73 P21 R24
M73 Q21 S24
G1 X91.437 Y73.227 E1.2321
G1 X91.437 Y73.761 E.01682
G1 X118.605 Y100.93 E1.20832
G1 X118.07 Y100.93 E.01682
G1 X91.437 Y74.296 E1.18453
G1 X91.437 Y74.831 E.01682
G1 X117.536 Y100.93 E1.16074
G1 X117.001 Y100.93 E.01682
G1 X91.437 Y75.366 E1.13695
G1 X91.437 Y75.901 E.01682
G1 X116.466 Y100.93 E1.11316
G1 X115.931 Y100.93 E.01682
G1 X91.437 Y76.436 E1.08938
G1 X91.437 Y76.971 E.01682
G1 X115.396 Y100.93 E1.06559
G1 X114.861 Y100.93 E.01682
G1 X91.437 Y77.506 E1.0418
G1 X91.437 Y78.04 E.01682
G1 X114.326 Y100.93 E1.01801
G1 X113.791 Y100.93 E.01682
M73 P22 R24
M73 Q22 S24
G1 X91.437 Y78.575 E.99422
G1 X91.437 Y79.11 E.01682
G1 X113.257 Y100.93 E.97044
G1 X112.722 Y100.93 E.01682
G1 X91.437 Y79.645 E.94665
G1 X91.437 Y80.18 E.01682
G1 X112.187 Y100.93 E.92286
G1 X111.652 Y100.93 E.01682
G1 X91.437 Y80.715 E.89907
G1 X91.437 Y81.25 E.01682
G1 X111.117 Y100.93 E.87528
G1 X110.582 Y100.93 E.01682
G1 X91.437 Y81.784 E.85149
G1 X91.437 Y82.319 E.01682
G1 X110.047 Y100.93 E.82771
G1 X109.513 Y100.93 E.01682
M73 P22 R23
G1 X91.437 Y82.854 E.80392
G1 X91.437 Y83.389 E.01682
G1 X108.978 Y100.93 E.78013
G1 X108.443 Y100.93 E.01682
G1 X91.437 Y83.924 E.75634
G1 X91.437 Y84.459 E.01682
M73 Q22 S23
G1 X107.908 Y100.93 E.73255
G1 X107.373 Y100.93 E.01682
G1 X91.437 Y84.994 E.70877
G1 X91.437 Y85.529 E.01682
M73 P23 R23
M73 Q23 S23
G1 X106.838 Y100.93 E.68498
G1 X106.303 Y100.93 E.01682
G1 X91.437 Y86.063 E.66119
G1 X91.437 Y86.598 E.01682
G1 X105.768 Y100.93 E.6374
G1 X105.234 Y100.93 E.01682
G1 X91.437 Y87.133 E.61361
G1 X91.437 Y87.668 E.01682
G1 X104.699 Y100.93 E.58983
G1 X104.164 Y100.93 E.01682
G1 X91.437 Y88.203 E.56604
G1 X91.437 Y88.738 E.01682
G1 X103.629 Y100.93 E.54225
G1 X103.094 Y100.93 E.01682
G1 X91.437 Y89.273 E.51846
G1 X91.437 Y89.808 E.01682
G1 X102.559 Y100.93 E.49467
G1 X102.024 Y100.93 E.01682
M73 C14
G1 X91.437 Y90.342 E.47088
G1 X91.437 Y90.877 E.01682
M73 D14
G1 X101.489 Y100.93 E.4471
G1 X100.955 Y100.93 E.01682
G1 X91.437 Y91.412 E.42331
G1 X91.437 Y91.947 E.01682
G1 X100.42 Y100.93 E.39952
G1 X99.885 Y100.93 E.01682
G1 X91.437 Y92.482 E.37573
G1 X91.437 Y93.017 E.01682
G1 X99.35 Y100.93 E.35194
G1 X98.815 Y100.93 E.01682
G1 X91.437 Y93.552 E.32816
G1 X91.437 Y94.086 E.01682
G1 X98.28 Y100.93 E.30437
G1 X97.745 Y100.93 E.01682
G1 X91.437 Y94.621 E.28058
G1 X91.437 Y95.156 E.01682
G1 X97.211 Y100.93 E.25679
G1 X96.676 Y100.93 E.01682
G1 X91.437 Y95.691 E.233
G1 X91.437 Y96.226 E.01682
G1 X96.141 Y100.93 E.20922
G1 X95.606 Y100.93 E.01682
G1 X91.437 Y96.761 E.18543
G1 X91.437 Y97.296 E.01682
G1 X95.071 Y100.93 E.16164
G1 X94.536 Y100.93 E.01682
G1 X91.437 Y97.831 E.13785
G1 X91.437 Y98.365 E.01682
G1 X94.001 Y100.93 E.11406
G1 X93.466 Y100.93 E.01682
G1 X91.437 Y98.9 E.09027
G1 X91.437 Y99.435 E.01682
G1 X92.932 Y100.93 E.06649
G1 X92.397 Y100.93 E.01682
G1 X91.437 Y99.97 E.0427
G1 X91.437 Y100.505 E.01682
G1 X92.032 Y101.1 E.02646
M204 S1000
; stop printing object Windows.stl id:0 copy 0
; printing object Windows.stl id:0 copy 1
;WIPE_START
G1 F8640
G1 X91.437 Y100.505 E-.19426
G1 X91.437 Y99.97 E-.1235
G1 X92.397 Y100.93 E-.31351
G1 X92.932 Y100.93 E-.1235
M73 P24 R23
G1 X92.916 Y100.914 E-.00523
;WIPE_END
G1 E-.04 F2100
G1 Z.6 F720
G1 X158.846 Y153.26 F10800
G1 Z.2 F720
M73 Q24 S23
G1 E.8 F2100
M204 S800
;TYPE:Perimeter
;WIDTH:0.419999
G1 F1200
G1 X91.154 Y153.26 E2.12244
G1 X91.154 Y108.787 E1.3944
G1 X158.846 Y108.787 E2.12244
G1 X158.846 Y153.2 E1.39252
M204 S1000
G1 X159.223 Y153.637 F10800
M204 S800
;TYPE:External perimeter
G1 F1200
G1 X90.777 Y153.637 E2.14609
G1 X90.777 Y108.41 E1.41805
G1 X159.223 Y108.41 E2.14609
G1 X159.223 Y153.577 E1.41617
M204 S1000
M73 P25 R23
M73 Q25 S23
G1 X158.831 Y153.559 F10800
;WIPE_START
G1 F8640
G1 X155.932 Y153.58 E-.76
;WIPE_END
G1 E-.04 F2100
G1 Z.6 F720
G1 X157.968 Y108.9 F10800
G1 Z.2 F720
G1 E.8 F2100
M204 S800
;TYPE:Solid infill
;WIDTH:0.42113
G1 F1200
G1 X158.563 Y109.495 E.02646
