; generated by PrusaSlicer 2.5.0-rc2+win64 on 2022-09-22 at 16:07:26 UTC

; 

; external perimeters extrusion width = 0.45mm
; perimeters extrusion width = 0.45mm
; infill extrusion width = 0.45mm
; solid infill extrusion width = 0.45mm
; top infill extrusion width = 0.40mm
; first layer extrusion width = 0.42mm

M73 P0 R46
M73 C33
M73 Q0 S46
M73 D33
M107
;TYPE:Custom
M862.3 P "MK3S" ; printer model check
M862.1 P0.4 ; nozzle diameter check
G90 ; use absolute coordinates
M83 ; extruder relative mode
M104 S190 ; set extruder temp
M140 S60 ; set bed temp
M190 S60 ; wait for bed temp
M109 S190 ; wait for extruder temp
G28 W ; home all without mesh bed level
G80 ; mesh bed leveling
G1 Y-3.0 F1000.0 ; go outside print area
G92 E0.0
G1 X60.0 E9.0 F1000.0 ; intro line
G1 X100.0 E12.5 F1000.0 ; intro line
G92 E0.0
M221 S95

; Don't change E values below. Excessive value can damage the printer.
M907 E430 ; set extruder motor current
G21 ; set units to millimeters
G90 ; use absolute coordinates
M83 ; use relative distances for extrusion
M900 K0.05 ; Filament gcode LA 1.5
M900 K30 ; Filament gcode LA 1.0
M107
;LAYER_CHANGE
;Z:0.2
;HEIGHT:0.2
;BEFORE_LAYER_CHANGE
G92 E0.0
;0.2


G1 E-.8 F2100
G1 Z.4 F720
;AFTER_LAYER_CHANGE
;0.2
G1 X50.748 Y54.646 F10800
G1 Z.2 F720
G1 E.8 F2100
M204 S800
;TYPE:Skirt/Brim
;WIDTH:0.42
G1 F1200
G1 X51.794 Y53.77 E.04278
G1 X52.734 Y53.576 E.03008
G1 X122 Y53.576 E2.1718
G1 X122.777 Y53.707 E.0247
G1 X198.043 Y79.73 E2.497
G1 X199.151 Y80.527 E.04278
G1 X199.644 Y81.977 E.048
G1 X199.644 Y128.023 E1.44376
G1 X199.252 Y129.33 E.04278
G1 X198.043 Y130.27 E.048
G1 X122.777 Y156.293 E2.497
G1 X122 Y156.424 E.0247
M73 C32
M73 D32
G1 X52.734 Y156.424 E2.1718
G1 X51.426 Y156.032 E.04278
M73 P0 R45
G1 X50.55 Y154.986 E.04278
G1 X50.356 Y154.047 E.03008
G1 X50.356 Y55.953 E3.07565
G1 X50.731 Y54.704 E.0409
M204 S1000
; printing object Windows.stl id:0 copy 2
;WIPE_START
M73 P1 R45
M73 Q1 S46
G1 F8640
G1 X51.794 Y53.77 E-.32671
G1 X52.734 Y53.576 E-.22155
G1 X53.651 Y53.576 E-.21174
;WIPE_END
G1 E-.04 F2100
G1 Z.6 F720
G1 X196.479 Y127.236 F10800
G1 Z.2 F720
M73 Q1 S45
G1 E.8 F2100
M204 S800
;TYPE:Perimeter
;WIDTH:0.419999
G1 F1200
G1 X128.787 Y127.236 E2.12244
G1 X128.787 Y82.764 E1.3944
G1 X196.479 Y82.764 E2.12244
G1 X196.479 Y127.176 E1.39252
M204 S1000
G1 X196.856 Y127.613 F10800
M204 S800
;TYPE:External perimeter
G1 F1200
G1 X128.41 Y127.613 E2.14609
G1 X128.41 Y82.387 E1.41805
G1 X196.856 Y82.387 E2.14609
G1 X196.856 Y127.553 E1.41617
M204 S1000
G1 X196.464 Y127.536 F10800
;WIPE_START
G1 F8640
G1 X193.565 Y127.556 E-.76
;WIPE_END
G1 E-.04 F2100
G1 Z.6 F720
G1 X195.602 Y82.877 F10800
G1 Z.2 F720
G1 E.8 F2100
M204 S800
;TYPE:Solid infill
;WIDTH:0.42113
G1 F1200
G1 X196.197 Y83.472 E.02646
G1 X196.197 Y84.007 E.01682
G1 X195.236 Y83.047 E.0427
G1 X194.702 Y83.047 E.01682
G1 X196.197 Y84.542 E.06649
G1 X196.197 Y85.076 E.01682
G1 X194.167 Y83.047 E.09028
G1 X193.632 Y83.047 E.01682
G1 X196.197 Y85.611 E.11407
G1 X196.197 Y86.146 E.01682
M73 Q2 S45
G1 X193.097 Y83.047 E.13786
G1 X192.562 Y83.047 E.01682
G1 X196.197 Y86.681 E.16164
G1 X196.197 Y87.216 E.01682
M73 P2 R45
G1 X192.027 Y83.047 E.18543
G1 X191.492 Y83.047 E.01682
G1 X196.197 Y87.751 E.20922
G1 X196.197 Y88.286 E.01682
G1 X190.957 Y83.047 E.23301
G1 X190.423 Y83.047 E.01682
G1 X196.197 Y88.821 E.2568
G1 X196.197 Y89.355 E.01682
G1 X189.888 Y83.047 E.28058
G1 X189.353 Y83.047 E.01682
G1 X196.197 Y89.89 E.30437
G1 X196.197 Y90.425 E.01682
G1 X188.818 Y83.047 E.32816
G1 X188.283 Y83.047 E.01682
G1 X196.197 Y90.96 E.35195
G1 X196.197 Y91.495 E.01682
G1 X187.748 Y83.047 E.37574
G1 X187.213 Y83.047 E.01682
G1 X196.197 Y92.03 E.39952
G1 X196.197 Y92.565 E.01682
G1 X186.679 Y83.047 E.42331
G1 X186.144 Y83.047 E.01682
G1 X196.197 Y93.099 E.4471
G1 X196.197 Y93.634 E.01682
G1 X185.609 Y83.047 E.47089
G1 X185.074 Y83.047 E.01682
G1 X196.197 Y94.169 E.49468
G1 X196.197 Y94.704 E.01682
G1 X184.539 Y83.047 E.51847
G1 X184.004 Y83.047 E.01682
G1 X196.197 Y95.239 E.54225
G1 X196.197 Y95.774 E.01682
G1 X183.469 Y83.047 E.56604
G1 X182.934 Y83.047 E.01682
G1 X196.197 Y96.309 E.58983
G1 X196.197 Y96.844 E.01682
G1 X182.4 Y83.047 E.61362
G1 X181.865 Y83.047 E.01682
G1 X196.197 Y97.378 E.63741
G1 X196.197 Y97.913 E.01682
G1 X181.33 Y83.047 E.66119
G1 X180.795 Y83.047 E.01682
G1 X196.197 Y98.448 E.68498
G1 X196.197 Y98.983 E.01682
G1 X180.26 Y83.047 E.70877
G1 X179.725 Y83.047 E.01682
G1 X196.197 Y99.518 E.73256
G1 X196.197 Y100.053 E.01682
G1 X179.19 Y83.047 E.75635
G1 X178.655 Y83.047 E.01682
G1 X196.197 Y100.588 E.78013
G1 X196.197 Y101.123 E.01682
G1 X178.121 Y83.047 E.80392
G1 X177.586 Y83.047 E.01682
M73 C31
G1 X196.197 Y101.657 E.82771
G1 X196.197 Y102.192 E.01682
M73 D31
G1 X177.051 Y83.047 E.8515
G1 X176.516 Y83.047 E.01682
G1 X196.197 Y102.727 E.87529
G1 X196.197 Y103.262 E.01682
M73 P2 R44
G1 X175.981 Y83.047 E.89908
G1 X175.446 Y83.047 E.01682
M73 P3 R44
M73 Q3 S45
G1 X196.197 Y103.797 E.92286
G1 X196.197 Y104.332 E.01682
G1 X174.911 Y83.047 E.94665
G1 X174.377 Y83.047 E.01682
G1 X196.197 Y104.867 E.97044
G1 X196.197 Y105.402 E.01682
G1 X173.842 Y83.047 E.99423
G1 X173.307 Y83.047 E.01682
G1 X196.197 Y105.936 E1.01802
G1 X196.197 Y106.471 E.01682
M73 Q3 S44
G1 X172.772 Y83.047 E1.0418
G1 X172.237 Y83.047 E.01682
G1 X196.197 Y107.006 E1.06559
G1 X196.197 Y107.541 E.01682
G1 X171.702 Y83.047 E1.08938
G1 X171.167 Y83.047 E.01682
G1 X196.197 Y108.076 E1.11317
G1 X196.197 Y108.611 E.01682
G1 X170.632 Y83.047 E1.13696
G1 X170.098 Y83.047 E.01682
G1 X196.197 Y109.146 E1.16074
G1 X196.197 Y109.68 E.01682
G1 X169.563 Y83.047 E1.18453
G1 X169.028 Y83.047 E.01682
G1 X196.197 Y110.215 E1.20832
G1 X196.197 Y110.75 E.01682
G1 X168.493 Y83.047 E1.23211
G1 X167.958 Y83.047 E.01682
G1 X196.197 Y111.285 E1.2559
G1 X196.197 Y111.82 E.01682
G1 X167.423 Y83.047 E1.27969
G1 X166.888 Y83.047 E.01682
M73 P4 R44
M73 Q4 S44
G1 X196.197 Y112.355 E1.30347
G1 X196.197 Y112.89 E.01682
G1 X166.353 Y83.047 E1.32726
G1 X165.819 Y83.047 E.01682
G1 X196.197 Y113.425 E1.35105
G1 X196.197 Y113.959 E.01682
G1 X165.284 Y83.047 E1.37484
G1 X164.749 Y83.047 E.01682
G1 X196.197 Y114.494 E1.39863
G1 X196.197 Y115.029 E.01682
G1 X164.214 Y83.047 E1.42241
G1 X163.679 Y83.047 E.01682
G1 X196.197 Y115.564 E1.4462
G1 X196.197 Y116.099 E.01682
G1 X163.144 Y83.047 E1.46999
G1 X162.609 Y83.047 E.01682
G1 X196.197 Y116.634 E1.49378
G1 X196.197 Y117.169 E.01682
G1 X162.075 Y83.047 E1.51757
G1 X161.54 Y83.047 E.01682
G1 X196.197 Y117.704 E1.54135
G1 X196.197 Y118.238 E.01682
M73 C30
G1 X161.005 Y83.047 E1.56514
G1 X160.47 Y83.047 E.01682
M73 P5 R44
M73 Q5 S44
M73 D30
G1 X196.197 Y118.773 E1.58893
G1 X196.197 Y119.308 E.01682
M73 P5 R43
G1 X159.935 Y83.047 E1.61272
G1 X159.4 Y83.047 E.01682
G1 X196.197 Y119.843 E1.63651
G1 X196.197 Y120.378 E.01682
G1 X158.865 Y83.047 E1.66029
G1 X158.33 Y83.047 E.01682
G1 X196.197 Y120.913 E1.68408
M73 Q5 S43
G1 X196.197 Y121.448 E.01682
G1 X157.796 Y83.047 E1.70787
G1 X157.261 Y83.047 E.01682
G1 X196.197 Y121.982 E1.73166
G1 X196.197 Y122.517 E.01682
G1 X156.726 Y83.047 E1.75545
G1 X156.191 Y83.047 E.01682
G1 X196.197 Y123.052 E1.77924
G1 X196.197 Y123.587 E.01682
G1 X155.656 Y83.047 E1.80302
G1 X155.121 Y83.047 E.01682
M73 P6 R43
M73 Q6 S43
G1 X196.197 Y124.122 E1.82681
G1 X196.197 Y124.657 E.01682
G1 X154.586 Y83.047 E1.8506
G1 X154.051 Y83.047 E.01682
G1 X196.197 Y125.192 E1.87439
G1 X196.197 Y125.727 E.01682
G1 X153.517 Y83.047 E1.89818
G1 X152.982 Y83.047 E.01682
G1 X196.197 Y126.261 E1.92196
G1 X196.197 Y126.796 E.01682
G1 X152.447 Y83.047 E1.94575
G1 X151.912 Y83.047 E.01682
G1 X195.819 Y126.953 E1.95274
G1 X195.284 Y126.953 E.01682
G1 X151.377 Y83.047 E1.95274
G1 X150.842 Y83.047 E.01682
G1 X194.749 Y126.953 E1.95274
G1 X194.214 Y126.953 E.01682
M73 P7 R43
M73 Q7 S43
G1 X150.307 Y83.047 E1.95274
G1 X149.773 Y83.047 E.01682
M73 C29
G1 X193.679 Y126.953 E1.95274
G1 X193.145 Y126.953 E.01682
M73 D29
G1 X149.238 Y83.047 E1.95274
G1 X148.703 Y83.047 E.01682
M73 P7 R42
G1 X192.61 Y126.953 E1.95274
G1 X192.075 Y126.953 E.01682
G1 X148.168 Y83.047 E1.95274
G1 X147.633 Y83.047 E.01682
M73 Q7 S42
G1 X191.54 Y126.953 E1.95274
G1 X191.005 Y126.953 E.01682
G1 X147.098 Y83.047 E1.95274
G1 X146.563 Y83.047 E.01682
G1 X190.47 Y126.953 E1.95274
G1 X189.935 Y126.953 E.01682
G1 X146.028 Y83.047 E1.95274
G1 X145.494 Y83.047 E.01682
M73 P8 R42
M73 Q8 S42
G1 X189.4 Y126.953 E1.95274
G1 X188.866 Y126.953 E.01682
G1 X144.959 Y83.047 E1.95274
G1 X144.424 Y83.047 E.01682
G1 X188.331 Y126.953 E1.95274
G1 X187.796 Y126.953 E.01682
G1 X143.889 Y83.047 E1.95274
G1 X143.354 Y83.047 E.01682
G1 X187.261 Y126.953 E1.95274
G1 X186.726 Y126.953 E.01682
G1 X142.819 Y83.047 E1.95274
G1 X142.284 Y83.047 E.01682
G1 X186.191 Y126.953 E1.95274
G1 X185.656 Y126.953 E.01682
G1 X141.749 Y83.047 E1.95274
G1 X141.215 Y83.047 E.01682
G1 X185.122 Y126.953 E1.95274
G1 X184.587 Y126.953 E.01682
M73 P9 R42
M73 Q9 S42
G1 X140.68 Y83.047 E1.95274
G1 X140.145 Y83.047 E.01682
G1 X184.052 Y126.953 E1.95274
G1 X183.517 Y126.953 E.01682
M73 C28
G1 X139.61 Y83.047 E1.95274
G1 X139.075 Y83.047 E.01682
M73 D28
G1 X182.982 Y126.953 E1.95274
G1 X182.447 Y126.953 E.01682
M73 P9 R41
G1 X138.54 Y83.047 E1.95274
G1 X138.005 Y83.047 E.01682
G1 X181.912 Y126.953 E1.95274
G1 X181.377 Y126.953 E.01682
M73 Q9 S41
G1 X137.471 Y83.047 E1.95274
G1 X136.936 Y83.047 E.01682
G1 X180.843 Y126.953 E1.95274
G1 X180.308 Y126.953 E.01682
G1 X136.401 Y83.047 E1.95274
G1 X135.866 Y83.047 E.01682
M73 P10 R41
M73 Q10 S41
G1 X179.773 Y126.953 E1.95274
G1 X179.238 Y126.953 E.01682
G1 X135.331 Y83.047 E1.95274
G1 X134.796 Y83.047 E.01682
G1 X178.703 Y126.953 E1.95274
G1 X178.168 Y126.953 E.01682
G1 X134.261 Y83.047 E1.95274
G1 X133.726 Y83.047 E.01682
G1 X177.633 Y126.953 E1.95274
G1 X177.098 Y126.953 E.01682
G1 X133.192 Y83.047 E1.95274
G1 X132.657 Y83.047 E.01682
G1 X176.564 Y126.953 E1.95274
G1 X176.029 Y126.953 E.01682
G1 X132.122 Y83.047 E1.95274
G1 X131.587 Y83.047 E.01682
G1 X175.494 Y126.953 E1.95274
G1 X174.959 Y126.953 E.01682
M73 P11 R41
M73 Q11 S41
G1 X131.052 Y83.047 E1.95274
G1 X130.517 Y83.047 E.01682
G1 X174.424 Y126.953 E1.95274
G1 X173.889 Y126.953 E.01682
G1 X129.982 Y83.047 E1.95274
G1 X129.447 Y83.047 E.01682
M73 C27
G1 X173.354 Y126.953 E1.95274
G1 X172.82 Y126.953 E.01682
M73 D27
G1 X129.07 Y83.204 E1.94575
G1 X129.07 Y83.739 E.01682
M73 P11 R40
G1 X172.285 Y126.953 E1.92196
G1 X171.75 Y126.953 E.01682
G1 X129.07 Y84.274 E1.89817
G1 X129.07 Y84.808 E.01682
G1 X171.215 Y126.953 E1.87438
G1 X170.68 Y126.953 E.01682
M73 Q11 S40
G1 X129.07 Y85.343 E1.8506
G1 X129.07 Y85.878 E.01682
M73 P12 R40
M73 Q12 S40
G1 X170.145 Y126.953 E1.82681
G1 X169.61 Y126.953 E.01682
G1 X129.07 Y86.413 E1.80302
G1 X129.07 Y86.948 E.01682
G1 X169.075 Y126.953 E1.77923
G1 X168.541 Y126.953 E.01682
G1 X129.07 Y87.483 E1.75544
G1 X129.07 Y88.018 E.01682
G1 X168.006 Y126.953 E1.73166
G1 X167.471 Y126.953 E.01682
G1 X129.07 Y88.553 E1.70787
G1 X129.07 Y89.087 E.01682
G1 X166.936 Y126.953 E1.68408
G1 X166.401 Y126.953 E.01682
G1 X129.07 Y89.622 E1.66029
G1 X129.07 Y90.157 E.01682
G1 X165.866 Y126.953 E1.6365
G1 X165.331 Y126.953 E.01682
M73 P13 R40
G1 X129.07 Y90.692 E1.61271
G1 X129.07 Y91.227 E.01682
M73 Q13 S40
G1 X164.796 Y126.953 E1.58893
G1 X164.262 Y126.953 E.01682
G1 X129.07 Y91.762 E1.56514
G1 X129.07 Y92.297 E.01682
G1 X163.727 Y126.953 E1.54135
G1 X163.192 Y126.953 E.01682
G1 X129.07 Y92.831 E1.51756
G1 X129.07 Y93.366 E.01682
G1 X162.657 Y126.953 E1.49377
G1 X162.122 Y126.953 E.01682
G1 X129.07 Y93.901 E1.46999
G1 X129.07 Y94.436 E.01682
M73 C26
G1 X161.587 Y126.953 E1.4462
G1 X161.052 Y126.953 E.01682
M73 D26
G1 X129.07 Y94.971 E1.42241
G1 X129.07 Y95.506 E.01682
M73 P13 R39
G1 X160.518 Y126.953 E1.39862
G1 X159.983 Y126.953 E.01682
G1 X129.07 Y96.041 E1.37483
G1 X129.07 Y96.576 E.01682
G1 X159.448 Y126.953 E1.35105
G1 X158.913 Y126.953 E.01682
M73 P14 R39
M73 Q14 S40
G1 X129.07 Y97.11 E1.32726
G1 X129.07 Y97.645 E.01682
M73 Q14 S39
G1 X158.378 Y126.953 E1.30347
G1 X157.843 Y126.953 E.01682
G1 X129.07 Y98.18 E1.27968
G1 X129.07 Y98.715 E.01682
G1 X157.308 Y126.953 E1.25589
G1 X156.773 Y126.953 E.01682
G1 X129.07 Y99.25 E1.2321
G1 X129.07 Y99.785 E.01682
G1 X156.239 Y126.953 E1.20832
G1 X155.704 Y126.953 E.01682
G1 X129.07 Y100.32 E1.18453
G1 X129.07 Y100.855 E.01682
G1 X155.169 Y126.953 E1.16074
G1 X154.634 Y126.953 E.01682
G1 X129.07 Y101.389 E1.13695
G1 X129.07 Y101.924 E.01682
G1 X154.099 Y126.953 E1.11316
G1 X153.564 Y126.953 E.01682
G1 X129.07 Y102.459 E1.08938
G1 X129.07 Y102.994 E.01682
G1 X153.029 Y126.953 E1.06559
G1 X152.494 Y126.953 E.01682
G1 X129.07 Y103.529 E1.0418
G1 X129.07 Y104.064 E.01682
G1 X151.96 Y126.953 E1.01801
G1 X151.425 Y126.953 E.01682
G1 X129.07 Y104.599 E.99422
G1 X129.07 Y105.133 E.01682
M73 P15 R39
M73 Q15 S39
G1 X150.89 Y126.953 E.97044
G1 X150.355 Y126.953 E.01682
G1 X129.07 Y105.668 E.94665
G1 X129.07 Y106.203 E.01682
G1 X149.82 Y126.953 E.92286
G1 X149.285 Y126.953 E.01682
G1 X129.07 Y106.738 E.89907
G1 X129.07 Y107.273 E.01682
G1 X148.75 Y126.953 E.87528
G1 X148.216 Y126.953 E.01682
G1 X129.07 Y107.808 E.85149
G1 X129.07 Y108.343 E.01682
G1 X147.681 Y126.953 E.82771
G1 X147.146 Y126.953 E.01682
G1 X129.07 Y108.878 E.80392
G1 X129.07 Y109.412 E.01682
G1 X146.611 Y126.953 E.78013
G1 X146.076 Y126.953 E.01682
G1 X129.07 Y109.947 E.75634
G1 X129.07 Y110.482 E.01682
G1 X145.541 Y126.953 E.73255
G1 X145.006 Y126.953 E.01682
G1 X129.07 Y111.017 E.70877
G1 X129.07 Y111.552 E.01682
G1 X144.471 Y126.953 E.68498
G1 X143.937 Y126.953 E.01682
G1 X129.07 Y112.087 E.66119
G1 X129.07 Y112.622 E.01682
G1 X143.402 Y126.953 E.6374
G1 X142.867 Y126.953 E.01682
M73 C25
G1 X129.07 Y113.157 E.61361
G1 X129.07 Y113.691 E.01682
M73 D25
G1 X142.332 Y126.953 E.58983
G1 X141.797 Y126.953 E.01682
G1 X129.07 Y114.226 E.56604
G1 X129.07 Y114.761 E.01682
G1 X141.262 Y126.953 E.54225
G1 X140.727 Y126.953 E.01682
M73 P15 R38
G1 X129.07 Y115.296 E.51846
G1 X129.07 Y115.831 E.01682
G1 X140.192 Y126.953 E.49467
G1 X139.658 Y126.953 E.01682
G1 X129.07 Y116.366 E.47088
G1 X129.07 Y116.901 E.01682
G1 X139.123 Y126.953 E.4471
G1 X138.588 Y126.953 E.01682
M73 P16 R38
G1 X129.07 Y117.435 E.42331
G1 X129.07 Y117.97 E.01682
M73 Q16 S39
G1 X138.053 Y126.953 E.39952
G1 X137.518 Y126.953 E.01682
G1 X129.07 Y118.505 E.37573
G1 X129.07 Y119.04 E.01682
G1 X136.983 Y126.953 E.35194
G1 X136.448 Y126.953 E.01682
G1 X129.07 Y119.575 E.32816
G1 X129.07 Y120.11 E.01682
G1 X135.914 Y126.953 E.30437
G1 X135.379 Y126.953 E.01682
G1 X129.07 Y120.645 E.28058
G1 X129.07 Y121.18 E.01682
G1 X134.844 Y126.953 E.25679
G1 X134.309 Y126.953 E.01682
G1 X129.07 Y121.714 E.233
G1 X129.07 Y122.249 E.01682
G1 X133.774 Y126.953 E.20922
G1 X133.239 Y126.953 E.01682
M73 Q16 S38
G1 X129.07 Y122.784 E.18543
G1 X129.07 Y123.319 E.01682
G1 X132.704 Y126.953 E.16164
G1 X132.169 Y126.953 E.01682
G1 X129.07 Y123.854 E.13785
G1 X129.07 Y124.389 E.01682
G1 X131.635 Y126.953 E.11406
G1 X131.1 Y126.953 E.01682
G1 X129.07 Y124.924 E.09027
G1 X129.07 Y125.459 E.01682
G1 X130.565 Y126.953 E.06649
G1 X130.03 Y126.953 E.01682
G1 X129.07 Y125.993 E.0427
G1 X129.07 Y126.528 E.01682
G1 X129.665 Y127.123 E.02646
M204 S1000
; stop printing object Windows.stl id:0 copy 2
; printing object Windows.stl id:0 copy 0
;WIPE_START
G1 F8640
G1 X129.07 Y126.528 E-.19426
G1 X129.07 Y125.993 E-.1235
G1 X130.03 Y126.953 E-.31351
G1 X130.565 Y126.953 E-.1235
G1 X130.549 Y126.937 E-.00523
;WIPE_END
G1 E-.04 F2100
G1 Z.6 F720
G1 X121.213 Y153.26 F10800
G1 Z.2 F720
G1 E.8 F2100
M204 S800
;TYPE:Perimeter
;WIDTH:0.419999
G1 F1200
G1 X53.521 Y153.26 E2.12244
G1 X53.521 Y108.787 E1.3944
G1 X121.213 Y108.787 E2.12244
G1 X121.213 Y153.2 E1.39252
M204 S1000
G1 X121.59 Y153.637 F10800
M204 S800
;TYPE:External perimeter
G1 F1200
G1 X53.144 Y153.637 E2.14609
G1 X53.144 Y108.41 E1.41805
G1 X121.59 Y108.41 E2.14609
G1 X121.59 Y153.577 E1.41617
M204 S1000
M73 P17 R38
G1 X121.198 Y153.559 F10800
;WIPE_START
M73 Q17 S38
G1 F8640
G1 X118.299 Y153.58 E-.76
;WIPE_END
G1 E-.04 F2100
G1 Z.6 F720
G1 X120.335 Y108.9 F10800
