; generated by PrusaSlicer 2.0.0+ on 2019-06-17 at 09:38:48

; 

; external perimeters extrusion width = 0.45mm
; perimeters extrusion width = 0.45mm
; infill extrusion width = 0.45mm
; solid infill extrusion width = 0.45mm
; top infill extrusion width = 0.40mm
; first layer extrusion width = 0.42mm

M73 P0 R52
M73 Q0 S52
M201 X1000 Y1000 Z1000 E5000 ; sets maximum accelerations, mm/sec^2
M203 X200 Y200 Z12 E120 ; sets maximum feedrates, mm/sec
M204 P1250 R1250 T1250 ; sets acceleration (P, T) and retract acceleration (R), mm/sec^2
M205 X8.00 Y8.00 Z0.40 E1.50 ; sets the jerk limits, mm/sec
M205 S0 T0 ; sets the minimum extruding and travel feed rate, mm/sec
M107
M115 U3.7.1 ; tell printer latest fw version
G90 ; use absolute coordinates
M83 ; extruder relative mode
M104 S200 ; set extruder temp
M140 S60 ; set bed temp
M190 S60 ; wait for bed temp
M109 S200 ; wait for extruder temp
G28 W ; home all without mesh bed level
G80 ; mesh bed leveling
G1 Y-3.0 F1000.0 ; go outside print area
G92 E0.0
G1 X60.0 E9.0 F1000.0 ; intro line
M73 Q0 S52
M73 P0 R52
G1 X100.0 E12.5 F1000.0 ; intro line
G92 E0.0
M221 S95
M900 K30 ; Filament gcode
G21 ; set units to millimeters
G90 ; use absolute coordinates
M83 ; use relative distances for extrusion
;BEFORE_LAYER_CHANGE
G92 E0.0
;0.2


G1 E-0.80000 F2100.00000
G1 Z0.600 F10800.000
;AFTER_LAYER_CHANGE
;0.2
G1 X110.849 Y78.563
G1 Z0.200
G1 E0.80000 F2100.00000
M204 S1000
G1 F1200
G1 X111.291 Y78.176 E0.01839
G1 X111.822 Y77.919 E0.01851
G1 X112.399 Y77.814 E0.01839
G1 X137.504 Y77.811 E0.78713
G1 X138.323 Y77.972 E0.02620
G1 X139.021 Y78.426 E0.02608
G1 X139.498 Y79.107 E0.02608
G1 X139.687 Y79.917 E0.02608
G1 X139.689 Y130.011 E1.57065
G1 X139.632 Y130.493 E0.01521
G1 X139.473 Y130.947 E0.01510
G1 X139.148 Y131.440 E0.01851
G1 X138.700 Y131.830 E0.01862
G1 X138.164 Y132.085 E0.01862
G1 X137.579 Y132.187 E0.01862
G1 X112.482 Y132.188 E0.78691
G1 X112.007 Y132.132 E0.01498
G1 X111.553 Y131.973 E0.01510
G1 X111.052 Y131.641 E0.01885
G1 X110.660 Y131.185 E0.01885
G1 X110.407 Y130.640 E0.01885
G1 X110.312 Y130.042 E0.01896
G1 X110.311 Y79.989 E1.56939
G1 X110.368 Y79.507 E0.01521
G1 X110.527 Y79.053 E0.01510
G1 X110.817 Y78.613 E0.01651
G1 F8640
G1 X111.291 Y78.176 E-0.14886
G1 X111.822 Y77.919 E-0.13630
G1 X112.399 Y77.814 E-0.13546
G1 X113.869 Y77.814 E-0.33938
G1 E-0.04000 F2100.00000
G1 Z0.800 F10800.000
G1 X125.000 Y95.587
G1 Z0.200
G1 E0.80000 F2100.00000
G1 F1200
G1 X119.413 Y95.587 E0.17518
G1 X119.413 Y84.413 E0.35036
G1 X130.587 Y84.413 E0.35036
G1 X130.587 Y95.587 E0.35036
G1 X125.060 Y95.587 E0.17330
G1 X125.000 Y95.210 F10800.000
G1 F1200
G1 X119.790 Y95.210 E0.16336
G1 X119.790 Y84.790 E0.32671
G1 X130.210 Y84.790 E0.32671
G1 X130.210 Y95.210 E0.32671
G1 X125.060 Y95.210 E0.16147
G1 X124.938 Y95.605 F10800.000
G1 F8640
G1 X121.769 Y95.210 E-0.76000
G1 E-0.04000 F2100.00000
G1 Z0.800 F10800.000
G1 X125.000 Y101.413
G1 Z0.200
G1 E0.80000 F2100.00000
G1 F1200
G1 X113.087 Y101.413 E0.37352
G1 X113.087 Y80.587 E0.65298
G1 X136.913 Y80.587 E0.74704
G1 X136.913 Y101.413 E0.65298
G1 X125.060 Y101.413 E0.37164
G1 X125.000 Y101.790 F10800.000
G1 F1200
G1 X112.710 Y101.790 E0.38534
G1 X112.710 Y80.210 E0.67663
G1 X137.290 Y80.210 E0.77069
G1 X137.290 Y101.790 E0.67663
G1 X125.060 Y101.790 E0.38346
G1 X124.693 Y101.533 F10800.000
G1 X124.631 Y101.300
G1 F1200
G1 X113.370 Y90.038 E0.49950
G1 X113.370 Y90.572 E0.01673
G1 X123.928 Y101.130 E0.46831
G1 X123.395 Y101.130 E0.01673
G1 X113.370 Y91.105 E0.44465
G1 X113.370 Y91.639 E0.01673
G1 X122.861 Y101.130 E0.42099
G1 X122.328 Y101.130 E0.01673
G1 X113.370 Y92.172 E0.39733
G1 X113.370 Y92.706 E0.01673
G1 X121.794 Y101.130 E0.37367
G1 X121.261 Y101.130 E0.01673
G1 X113.370 Y93.239 E0.35001
G1 X113.370 Y93.772 E0.01673
G1 X120.728 Y101.130 E0.32635
G1 X120.194 Y101.130 E0.01673
G1 X113.370 Y94.306 E0.30269
G1 X113.370 Y94.839 E0.01673
G1 X119.661 Y101.130 E0.27903
G1 X119.127 Y101.130 E0.01673
G1 X113.370 Y95.373 E0.25537
G1 X113.370 Y95.906 E0.01673
G1 X118.594 Y101.130 E0.23171
G1 X118.060 Y101.130 E0.01673
G1 X113.370 Y96.440 E0.20805
G1 X113.370 Y96.973 E0.01673
G1 X117.527 Y101.130 E0.18439
G1 X116.994 Y101.130 E0.01673
G1 X113.370 Y97.506 E0.16073
G1 X113.370 Y98.040 E0.01673
G1 X116.460 Y101.130 E0.13707
G1 X115.927 Y101.130 E0.01673
G1 X113.370 Y98.573 E0.11341
G1 X113.370 Y99.107 E0.01673
G1 X115.393 Y101.130 E0.08975
G1 X114.860 Y101.130 E0.01673
G1 X113.370 Y99.640 E0.06609
G1 X113.370 Y100.174 E0.01673
G1 X114.326 Y101.130 E0.04243
G1 X113.793 Y101.130 E0.01673
G1 X113.200 Y100.537 E0.02629
G1 F8640
G1 X113.793 Y101.130 E-0.19358
G1 X114.326 Y101.130 E-0.12317
G1 X113.370 Y100.174 E-0.31235
G1 X113.370 Y99.640 E-0.12317
G1 X113.394 Y99.664 E-0.00773
G1 E-0.04000 F2100.00000
G1 Z0.800 F10800.000
G1 X119.300 Y95.435
G1 Z0.200
G1 E0.80000 F2100.00000
G1 F1200
G1 X113.370 Y89.505 E0.26302
G1 X113.370 Y88.972 E0.01673
G1 X119.130 Y94.732 E0.25550
G1 X119.130 Y94.198 E0.01673
G1 X113.370 Y88.438 E0.25550
G1 X113.370 Y87.905 E0.01673
G1 X119.130 Y93.665 E0.25550
G1 X119.130 Y93.132 E0.01673
G1 X113.370 Y87.371 E0.25550
G1 X113.370 Y86.838 E0.01673
G1 X119.130 Y92.598 E0.25550
G1 X119.130 Y92.065 E0.01673
G1 X113.370 Y86.304 E0.25550
G1 X113.370 Y85.771 E0.01673
G1 X119.130 Y91.531 E0.25550
G1 X119.130 Y90.998 E0.01673
G1 X113.370 Y85.238 E0.25550
G1 X113.370 Y84.704 E0.01673
G1 X119.130 Y90.464 E0.25550
G1 X119.130 Y89.931 E0.01673
G1 X113.370 Y84.171 E0.25550
G1 X113.370 Y83.637 E0.01673
G1 X119.130 Y89.398 E0.25550
G1 X119.130 Y88.864 E0.01673
G1 X113.370 Y83.104 E0.25550
G1 X113.370 Y82.570 E0.01673
G1 X119.130 Y88.331 E0.25550
G1 X119.130 Y87.797 E0.01673
G1 X113.370 Y82.037 E0.25550
G1 X113.370 Y81.504 E0.01673
G1 X119.130 Y87.264 E0.25550
G1 X119.130 Y86.730 E0.01673
G1 X113.370 Y80.970 E0.25550
G1 X113.370 Y80.870 E0.00315
G1 X113.803 Y80.870 E0.01358
G1 X119.130 Y86.197 E0.23628
G1 X119.130 Y85.664 E0.01673
G1 X114.336 Y80.870 E0.21262
G1 X114.870 Y80.870 E0.01673
G1 X119.130 Y85.130 E0.18896
G1 X119.130 Y84.597 E0.01673
G1 X115.403 Y80.870 E0.16530
G1 X115.937 Y80.870 E0.01673
G1 X119.197 Y84.130 E0.14461
G1 X119.730 Y84.130 E0.01673
G1 X116.470 Y80.870 E0.14461
G1 X117.004 Y80.870 E0.01673
G1 X120.264 Y84.130 E0.14461
G1 X120.797 Y84.130 E0.01673
G1 X117.537 Y80.870 E0.14461
G1 X118.070 Y80.870 E0.01673
G1 X121.331 Y84.130 E0.14461
G1 X121.864 Y84.130 E0.01673
G1 X118.604 Y80.870 E0.14461
G1 X119.137 Y80.870 E0.01673
G1 X122.398 Y84.130 E0.14461
G1 X122.931 Y84.130 E0.01673
G1 X119.671 Y80.870 E0.14461
G1 X120.204 Y80.870 E0.01673
G1 X123.464 Y84.130 E0.14461
G1 X123.998 Y84.130 E0.01673
G1 X120.738 Y80.870 E0.14461
G1 X121.271 Y80.870 E0.01673
G1 X124.531 Y84.130 E0.14461
G1 X125.065 Y84.130 E0.01673
G1 X121.804 Y80.870 E0.14461
G1 X122.338 Y80.870 E0.01673
G1 X125.598 Y84.130 E0.14461
G1 X126.132 Y84.130 E0.01673
G1 X122.871 Y80.870 E0.14461
G1 X123.405 Y80.870 E0.01673
G1 X126.665 Y84.130 E0.14461
G1 X127.198 Y84.130 E0.01673
G1 X123.938 Y80.870 E0.14461
G1 X124.472 Y80.870 E0.01673
G1 X127.732 Y84.130 E0.14461
G1 X128.265 Y84.130 E0.01673
G1 X125.005 Y80.870 E0.14461
G1 X125.538 Y80.870 E0.01673
G1 X128.799 Y84.130 E0.14461
G1 X129.332 Y84.130 E0.01673
G1 X126.072 Y80.870 E0.14461
G1 X126.605 Y80.870 E0.01673
G1 X129.866 Y84.130 E0.14461
G1 X130.399 Y84.130 E0.01673
G1 X127.139 Y80.870 E0.14461
G1 X127.672 Y80.870 E0.01673
G1 X136.630 Y89.828 E0.39733
G1 X136.630 Y89.294 E0.01673
G1 X128.206 Y80.870 E0.37367
G1 X128.739 Y80.870 E0.01673
G1 X136.630 Y88.761 E0.35001
G1 X136.630 Y88.228 E0.01673
G1 X129.272 Y80.870 E0.32635
G1 X129.806 Y80.870 E0.01673
G1 X136.630 Y87.694 E0.30269
G1 X136.630 Y87.161 E0.01673
G1 X130.339 Y80.870 E0.27903
G1 X130.873 Y80.870 E0.01673
G1 X136.630 Y86.627 E0.25537
G1 X136.630 Y86.094 E0.01673
G1 X131.406 Y80.870 E0.23171
G1 X131.940 Y80.870 E0.01673
G1 X136.630 Y85.560 E0.20805
G1 X136.630 Y85.027 E0.01673
G1 X132.473 Y80.870 E0.18439
G1 X133.006 Y80.870 E0.01673
G1 X136.630 Y84.494 E0.16073
G1 X136.630 Y83.960 E0.01673
G1 X133.540 Y80.870 E0.13707
G1 X134.073 Y80.870 E0.01673
G1 X136.630 Y83.427 E0.11341
G1 X136.630 Y82.893 E0.01673
G1 X134.607 Y80.870 E0.08975
G1 X135.140 Y80.870 E0.01673
G1 X136.630 Y82.360 E0.06609
G1 X136.630 Y81.826 E0.01673
G1 X135.674 Y80.870 E0.04243
G1 X136.207 Y80.870 E0.01673
G1 X136.800 Y81.463 E0.02629
G1 F8640
G1 X136.207 Y80.870 E-0.19358
G1 X135.674 Y80.870 E-0.12317
G1 X136.630 Y81.826 E-0.31236
G1 X136.630 Y82.360 E-0.12317
G1 X136.607 Y82.336 E-0.00771
G1 E-0.04000 F2100.00000
G1 Z0.800 F10800.000
G1 X136.800 Y90.531
G1 Z0.200
G1 E0.80000 F2100.00000
G1 F1200
G1 X130.870 Y84.601 E0.26302
G1 X130.870 Y85.134 E0.01673
G1 X136.630 Y90.895 E0.25550
G1 X136.630 Y91.428 E0.01673
G1 X130.870 Y85.668 E0.25550
G1 X130.870 Y86.201 E0.01673
G1 X136.630 Y91.962 E0.25550
G1 X136.630 Y92.495 E0.01673
G1 X130.870 Y86.735 E0.25550
M73 Q2 S51
G1 X130.870 Y87.268 E0.01673
G1 X136.630 Y93.028 E0.25550
M73 P2 R51
G1 X136.630 Y93.562 E0.01673
G1 X130.870 Y87.802 E0.25550
G1 X130.870 Y88.335 E0.01673
G1 X136.630 Y94.095 E0.25550
G1 X136.630 Y94.629 E0.01673
G1 X130.870 Y88.868 E0.25550
G1 X130.870 Y89.402 E0.01673
G1 X136.630 Y95.162 E0.25550
G1 X136.630 Y95.696 E0.01673
G1 X130.870 Y89.935 E0.25550
G1 X130.870 Y90.469 E0.01673
G1 X136.630 Y96.229 E0.25550
G1 X136.630 Y96.762 E0.01673
G1 X130.870 Y91.002 E0.25550
G1 X130.870 Y91.536 E0.01673
G1 X136.630 Y97.296 E0.25550
G1 X136.630 Y97.829 E0.01673
G1 X130.870 Y92.069 E0.25550
G1 X130.870 Y92.602 E0.01673
G1 X136.630 Y98.363 E0.25550
G1 X136.630 Y98.896 E0.01673
G1 X130.870 Y93.136 E0.25550
G1 X130.870 Y93.669 E0.01673
G1 X136.630 Y99.430 E0.25550
G1 X136.630 Y99.963 E0.01673
G1 X130.870 Y94.203 E0.25550
G1 X130.870 Y94.736 E0.01673
G1 X136.630 Y100.496 E0.25550
G1 X136.630 Y101.030 E0.01673
G1 X130.870 Y95.270 E0.25550
G1 X130.870 Y95.803 E0.01673
G1 X136.197 Y101.130 E0.23628
G1 X135.664 Y101.130 E0.01673
G1 X130.403 Y95.870 E0.23332
G1 X129.870 Y95.870 E0.01673
G1 X135.130 Y101.130 E0.23332
G1 X134.597 Y101.130 E0.01673
G1 X129.336 Y95.870 E0.23332
G1 X128.803 Y95.870 E0.01673
G1 X134.063 Y101.130 E0.23332
G1 X133.530 Y101.130 E0.01673
G1 X128.270 Y95.870 E0.23332
G1 X127.736 Y95.870 E0.01673
G1 X132.996 Y101.130 E0.23332
G1 X132.463 Y101.130 E0.01673
G1 X127.203 Y95.870 E0.23332
G1 X126.669 Y95.870 E0.01673
G1 X131.930 Y101.130 E0.23332
G1 X131.396 Y101.130 E0.01673
G1 X126.136 Y95.870 E0.23332
G1 X125.602 Y95.870 E0.01673
G1 X130.863 Y101.130 E0.23332
G1 X130.329 Y101.130 E0.01673
G1 X125.069 Y95.870 E0.23332
G1 X124.536 Y95.870 E0.01673
G1 X129.796 Y101.130 E0.23332
G1 X129.262 Y101.130 E0.01673
G1 X124.002 Y95.870 E0.23332
G1 X123.469 Y95.870 E0.01673
G1 X128.729 Y101.130 E0.23332
G1 X128.196 Y101.130 E0.01673
G1 X122.935 Y95.870 E0.23332
G1 X122.402 Y95.870 E0.01673
G1 X127.662 Y101.130 E0.23332
G1 X127.129 Y101.130 E0.01673
G1 X121.868 Y95.870 E0.23332
G1 X121.335 Y95.870 E0.01673
G1 X126.595 Y101.130 E0.23332
G1 X126.062 Y101.130 E0.01673
G1 X120.802 Y95.870 E0.23332
G1 X120.268 Y95.870 E0.01673
G1 X125.528 Y101.130 E0.23332
G1 X124.995 Y101.130 E0.01673
G1 X119.565 Y95.700 E0.24084
G1 F8640
G1 X121.892 Y98.028 E-0.76000
G1 E-0.04000 F2100.00000
G1 Z0.800 F10800.000
G1 X125.000 Y123.587
G1 Z0.200
G1 E0.80000 F2100.00000
G1 F1200
G1 X119.413 Y123.587 E0.17518
G1 X119.413 Y112.413 E0.35036
G1 X130.587 Y112.413 E0.35036
G1 X130.587 Y123.587 E0.35036
G1 X125.060 Y123.587 E0.17330
G1 X125.000 Y123.210 F10800.000
G1 F1200
G1 X119.790 Y123.210 E0.16336
G1 X119.790 Y112.790 E0.32671
G1 X130.210 Y112.790 E0.32671
G1 X130.210 Y123.210 E0.32671
G1 X125.060 Y123.210 E0.16147
G1 X124.938 Y123.605 F10800.000
G1 F8640
G1 X121.769 Y123.210 E-0.76000
G1 E-0.04000 F2100.00000
G1 Z0.800 F10800.000
G1 X125.000 Y129.413
G1 Z0.200
G1 E0.80000 F2100.00000
G1 F1200
G1 X113.087 Y129.413 E0.37352
G1 X113.087 Y108.587 E0.65298
G1 X136.913 Y108.587 E0.74704
G1 X136.913 Y129.413 E0.65298
G1 X125.060 Y129.413 E0.37164
G1 X125.000 Y129.790 F10800.000
G1 F1200
G1 X112.710 Y129.790 E0.38534
G1 X112.710 Y108.210 E0.67663
G1 X137.290 Y108.210 E0.77069
G1 X137.290 Y129.790 E0.67663
G1 X125.060 Y129.790 E0.38346
G1 X124.693 Y129.533 F10800.000
G1 X124.631 Y129.300
G1 F1200
G1 X113.370 Y118.038 E0.49950
G1 X113.370 Y118.572 E0.01673
G1 X123.928 Y129.130 E0.46831
G1 X123.395 Y129.130 E0.01673
G1 X113.370 Y119.105 E0.44465
G1 X113.370 Y119.639 E0.01673
G1 X122.861 Y129.130 E0.42099
G1 X122.328 Y129.130 E0.01673
G1 X113.370 Y120.172 E0.39733
G1 X113.370 Y120.706 E0.01673
G1 X121.794 Y129.130 E0.37367
G1 X121.261 Y129.130 E0.01673
G1 X113.370 Y121.239 E0.35001
G1 X113.370 Y121.772 E0.01673
G1 X120.728 Y129.130 E0.32635
G1 X120.194 Y129.130 E0.01673
G1 X113.370 Y122.306 E0.30269
G1 X113.370 Y122.839 E0.01673
G1 X119.661 Y129.130 E0.27903
G1 X119.127 Y129.130 E0.01673
G1 X113.370 Y123.373 E0.25537
G1 X113.370 Y123.906 E0.01673
G1 X118.594 Y129.130 E0.23171
G1 X118.060 Y129.130 E0.01673
G1 X113.370 Y124.440 E0.20805
G1 X113.370 Y124.973 E0.01673
G1 X117.527 Y129.130 E0.18439
G1 X116.994 Y129.130 E0.01673
G1 X113.370 Y125.506 E0.16073
G1 X113.370 Y126.040 E0.01673
G1 X116.460 Y129.130 E0.13707
G1 X115.927 Y129.130 E0.01673
G1 X113.370 Y126.573 E0.11341
G1 X113.370 Y127.107 E0.01673
G1 X115.393 Y129.130 E0.08975
G1 X114.860 Y129.130 E0.01673
G1 X113.370 Y127.640 E0.06609
G1 X113.370 Y128.174 E0.01673
G1 X114.326 Y129.130 E0.04243
G1 X113.793 Y129.130 E0.01673
G1 X113.200 Y128.537 E0.02629
G1 F8640
G1 X113.793 Y129.130 E-0.19358
G1 X114.326 Y129.130 E-0.12317
G1 X113.370 Y128.174 E-0.31235
G1 X113.370 Y127.640 E-0.12317
G1 X113.394 Y127.664 E-0.00773
G1 E-0.04000 F2100.00000
G1 Z0.800 F10800.000
G1 X119.300 Y123.435
G1 Z0.200
G1 E0.80000 F2100.00000
G1 F1200
G1 X113.370 Y117.505 E0.26302
G1 X113.370 Y116.972 E0.01673
G1 X119.130 Y122.732 E0.25550
G1 X119.130 Y122.198 E0.01673
G1 X113.370 Y116.438 E0.25550
G1 X113.370 Y115.905 E0.01673
G1 X119.130 Y121.665 E0.25550
G1 X119.130 Y121.132 E0.01673
G1 X113.370 Y115.371 E0.25550
G1 X113.370 Y114.838 E0.01673
G1 X119.130 Y120.598 E0.25550
G1 X119.130 Y120.065 E0.01673
G1 X113.370 Y114.304 E0.25550
G1 X113.370 Y113.771 E0.01673
G1 X119.130 Y119.531 E0.25550
G1 X119.130 Y118.998 E0.01673
G1 X113.370 Y113.238 E0.25550
G1 X113.370 Y112.704 E0.01673
G1 X119.130 Y118.464 E0.25550
G1 X119.130 Y117.931 E0.01673
G1 X113.370 Y112.171 E0.25550
G1 X113.370 Y111.637 E0.01673
G1 X119.130 Y117.398 E0.25550
G1 X119.130 Y116.864 E0.01673
G1 X113.370 Y111.104 E0.25550
G1 X113.370 Y110.570 E0.01673
G1 X119.130 Y116.331 E0.25550
G1 X119.130 Y115.797 E0.01673
G1 X113.370 Y110.037 E0.25550
G1 X113.370 Y109.504 E0.01673
G1 X119.130 Y115.264 E0.25550
G1 X119.130 Y114.730 E0.01673
G1 X113.370 Y108.970 E0.25550
G1 X113.370 Y108.870 E0.00315
G1 X113.803 Y108.870 E0.01358
G1 X119.130 Y114.197 E0.23628
G1 X119.130 Y113.664 E0.01673
G1 X114.336 Y108.870 E0.21262
G1 X114.870 Y108.870 E0.01673
G1 X119.130 Y113.130 E0.18896
G1 X119.130 Y112.597 E0.01673
G1 X115.403 Y108.870 E0.16530
G1 X115.937 Y108.870 E0.01673
G1 X119.197 Y112.130 E0.14461
G1 X119.730 Y112.130 E0.01673
G1 X116.470 Y108.870 E0.14461
G1 X117.004 Y108.870 E0.01673
G1 X120.264 Y112.130 E0.14461
G1 X120.797 Y112.130 E0.01673
G1 X117.537 Y108.870 E0.14461
G1 X118.070 Y108.870 E0.01673
G1 X121.331 Y112.130 E0.14461
G1 X121.864 Y112.130 E0.01673
G1 X118.604 Y108.870 E0.14461
G1 X119.137 Y108.870 E0.01673
G1 X122.398 Y112.130 E0.14461
G1 X122.931 Y112.130 E0.01673
G1 X119.671 Y108.870 E0.14461
G1 X120.204 Y108.870 E0.01673
G1 X123.464 Y112.130 E0.14461
G1 X123.998 Y112.130 E0.01673
G1 X120.738 Y108.870 E0.14461
G1 X121.271 Y108.870 E0.01673
G1 X124.531 Y112.130 E0.14461
G1 X125.065 Y112.130 E0.01673
G1 X121.804 Y108.870 E0.14461
G1 X122.338 Y108.870 E0.01673
G1 X125.598 Y112.130 E0.14461
G1 X126.132 Y112.130 E0.01673
G1 X122.871 Y108.870 E0.14461
G1 X123.405 Y108.870 E0.01673
G1 X126.665 Y112.130 E0.14461
G1 X127.198 Y112.130 E0.01673
G1 X123.938 Y108.870 E0.14461
G1 X124.472 Y108.870 E0.01673
G1 X127.732 Y112.130 E0.14461
G1 X128.265 Y112.130 E0.01673
