; generated by PrusaSlicer 2.1.0+ on 2019-10-18 at 17:47:43 UTC

; 

; external perimeters extrusion width = 0.45mm
; perimeters extrusion width = 0.45mm
; infill extrusion width = 0.45mm
; solid infill extrusion width = 0.45mm
; top infill extrusion width = 0.40mm
; support material extrusion width = 0.35mm
; first layer extrusion width = 0.42mm

M73 P0 R131
M73 Q0 S132
M201 X1000 Y1000 Z1000 E5000 ; sets maximum accelerations, mm/sec^2
M203 X200 Y200 Z12 E120 ; sets maximum feedrates, mm/sec
M204 P1250 R1250 T1250 ; sets acceleration (P, T) and retract acceleration (R), mm/sec^2
M205 X8.00 Y8.00 Z0.40 E1.50 ; sets the jerk limits, mm/sec
M205 S0 T0 ; sets the minimum extruding and travel feed rate, mm/sec
M107
M862.3 P "MK3S" ; printer model check
M862.1 P0.4 ; nozzle diameter check
M115 U3.8.0 ; tell printer latest fw version
G90 ; use absolute coordinates
M83 ; extruder relative mode
M104 S215 ; set extruder temp
M140 S60 ; set bed temp
M190 S60 ; wait for bed temp
M109 S215 ; wait for extruder temp
G28 W ; home all without mesh bed level
G80 ; mesh bed leveling
G1 Y-3.0 F1000.0 ; go outside print area
G92 E0.0
G1 X60.0 E9.0 F1000.0 ; intro line
M73 Q0 S132
M73 P0 R131
G1 X100.0 E12.5 F1000.0 ; intro line
G92 E0.0
M221 S95
G21 ; set units to millimeters
G90 ; use absolute coordinates
M83 ; use relative distances for extrusion
M900 K30 ; Filament gcode
;BEFORE_LAYER_CHANGE
G92 E0.0
;0.2


G1 E-0.80000 F2100.00000
G1 Z0.600 F10800.000
;AFTER_LAYER_CHANGE
;0.2
G1 X112.520 Y68.943
G1 Z0.200
G1 E0.80000 F2100.00000
M204 S1000
G1 F1200
G1 X112.973 Y68.474 E0.02044
G1 X113.540 Y68.160 E0.02032
G1 X114.174 Y68.026 E0.02032
G1 X137.683 Y68.023 E0.73711
G1 X138.507 Y68.183 E0.02631
G1 X139.209 Y68.642 E0.02631
G1 X139.686 Y69.328 E0.02620
G1 X139.871 Y70.147 E0.02631
G1 X139.872 Y138.605 E2.14647
G1 X139.760 Y139.291 E0.02179
G1 X139.463 Y139.876 E0.02055
G1 X139.009 Y140.343 E0.02044
G1 X138.437 Y140.656 E0.02044
G1 X137.798 Y140.787 E0.02044
G1 X114.293 Y140.790 E0.73699
G1 X113.614 Y140.679 E0.02157
G1 X113.018 Y140.373 E0.02100
G1 X112.543 Y139.901 E0.02100
G1 X112.231 Y139.304 E0.02112
G1 X112.116 Y138.644 E0.02100
G1 X112.116 Y70.207 E2.14579
G1 X112.227 Y69.521 E0.02179
G1 X112.493 Y68.997 E0.01844
G1 E-0.80000 F2100.00000
G1 Z0.800 F10800.000
G1 X116.567 Y84.850
G1 Z0.200
G1 E0.80000 F2100.00000
G1 F1200
G1 X116.567 Y82.404 E0.06244
G1 X117.074 Y82.404 E0.01295
G1 X117.074 Y84.711 E0.05891
G1 X117.581 Y84.711 E0.01295
G1 X117.581 Y82.404 E0.05891
G1 X118.088 Y82.404 E0.01295
G1 X118.088 Y84.711 E0.05891
G1 X118.411 Y84.711 E0.00825
G1 X118.411 Y84.362 E0.00893
G1 X118.595 Y84.178 E0.00664
G1 X118.595 Y82.404 E0.04529
G1 X119.102 Y82.404 E0.01295
G1 X119.102 Y84.074 E0.04264
G1 X119.609 Y84.074 E0.01295
G1 X119.609 Y82.404 E0.04264
G1 X120.116 Y82.404 E0.01295
G1 X120.116 Y84.074 E0.04264
G1 X120.623 Y84.074 E0.01295
G1 X120.623 Y82.404 E0.04264
G1 X121.130 Y82.404 E0.01295
G1 X121.130 Y84.212 E0.04617
G1 E-0.80000 F2100.00000
G1 Z0.800 F10800.000
G1 X117.102 Y82.765
G1 X124.108 Y86.276
G1 Z0.200
G1 E0.80000 F2100.00000
G1 F1200
G1 X124.108 Y87.039 E0.02393
G1 X123.354 Y87.039 E0.02365
G1 X123.354 Y86.445 E0.01861
G1 X122.600 Y86.445 E0.02365
G1 X122.600 Y87.039 E0.01861
G1 X121.846 Y87.039 E0.02365
G1 X121.846 Y86.445 E0.01861
G1 X121.092 Y86.445 E0.02365
G1 X121.092 Y123.555 E1.16353
G1 X121.846 Y123.555 E0.02365
G1 X121.846 Y122.961 E0.01861
G1 X122.600 Y122.961 E0.02365
G1 X122.600 Y123.555 E0.01861
G1 X123.354 Y123.555 E0.02365
G1 X123.354 Y122.961 E0.01861
G1 X124.108 Y122.961 E0.02365
G1 X124.108 Y123.724 E0.02393
G1 E-0.80000 F2100.00000
G1 Z0.800 F10800.000
G1 X132.898 Y127.235
G1 X127.879 Y123.724
G1 Z0.200
G1 E0.80000 F2100.00000
G1 F1200
G1 X127.879 Y122.961 E0.02393
G1 X128.624 Y122.961 E0.02336
G1 X128.624 Y120.967 E0.06252
G1 X128.633 Y123.724 E0.08646
G1 E-0.80000 F2100.00000
G1 Z0.800 F10800.000
G1 X132.898 Y127.235
G1 X131.650 Y123.759
G1 Z0.200
G1 E0.80000 F2100.00000
G1 F1200
G1 X131.650 Y85.053 E1.21359
G1 X132.404 Y85.053 E0.02365
G1 X132.404 Y123.759 E1.21359
G1 E-0.80000 F2100.00000
G1 Z0.800 F10800.000
G1 X132.898 Y127.235
G1 X132.286 Y126.377
G1 Z0.200
G1 E0.80000 F2100.00000
G1 F1200
G1 X132.286 Y123.932 E0.06244
G1 X131.779 Y123.932 E0.01295
G1 X131.779 Y126.239 E0.05891
G1 X131.272 Y126.239 E0.01295
G1 X131.272 Y125.926 E0.00799
G1 X130.765 Y125.926 E0.01295
G1 X130.765 Y126.377 E0.01152
G1 E-0.80000 F2100.00000
G1 Z0.800 F10800.000
G1 X117.102 Y127.235
G1 X121.130 Y126.377
G1 Z0.200
G1 E0.80000 F2100.00000
G1 F1200
G1 X121.130 Y125.926 E0.01152
G1 X120.623 Y125.926 E0.01295
G1 X120.623 Y126.239 E0.00799
G1 X120.116 Y126.239 E0.01295
G1 X120.116 Y125.926 E0.00799
G1 X119.609 Y125.926 E0.01295
G1 X119.609 Y126.239 E0.00799
G1 X119.102 Y126.239 E0.01295
G1 X119.102 Y125.926 E0.00799
G1 X118.699 Y125.926 E0.01030
G1 X118.595 Y125.822 E0.00375
G1 X118.595 Y126.239 E0.01064
G1 X118.088 Y126.239 E0.01295
G1 X118.088 Y123.932 E0.05891
G1 X117.581 Y123.932 E0.01295
G1 X117.581 Y126.239 E0.05891
G1 X117.074 Y126.239 E0.01295
G1 X117.074 Y123.932 E0.05891
G1 X116.567 Y123.932 E0.01295
G1 X116.567 Y126.377 E0.06244
G1 X118.075 Y123.759 F10800.000
G1 F1200
G1 X118.075 Y85.053 E1.21359
G1 X117.321 Y85.053 E0.02365
G1 X117.321 Y123.590 E1.20827
G1 X116.567 Y123.590 E0.02365
G1 X116.567 Y84.884 E1.21359
G1 E-0.80000 F2100.00000
G1 Z0.800 F10800.000
G1 X127.879 Y87.209
G1 Z0.200
G1 E0.80000 F2100.00000
G1 F1200
G1 X127.879 Y86.445 E0.02393
G1 X128.633 Y86.445 E0.02365
G1 X128.633 Y90.153 E0.11625
G1 E-0.80000 F2100.00000
G1 Z0.800 F10800.000
G1 X132.898 Y82.765
G1 X130.765 Y84.212
G1 Z0.200
G1 E0.80000 F2100.00000
G1 F1200
G1 X130.765 Y82.404 E0.04617
G1 X131.272 Y82.404 E0.01295
G1 X131.272 Y84.074 E0.04264
G1 X131.301 Y84.074 E0.00075
G1 X131.589 Y84.362 E0.01039
G1 X131.589 Y84.711 E0.00893
G1 X131.779 Y84.711 E0.00485
G1 X131.779 Y82.404 E0.05891
G1 X132.286 Y82.404 E0.01295
G1 X132.286 Y84.850 E0.06244
G1 X132.404 Y138.602 F10800.000
G1 F1200
G1 X132.404 Y126.581 E0.37690
G1 X131.650 Y126.581 E0.02365
G1 X131.650 Y138.432 E0.37158
G1 X130.896 Y138.432 E0.02365
G1 X130.896 Y126.581 E0.37158
G1 X130.141 Y126.581 E0.02365
G1 X130.141 Y138.432 E0.37158
G1 X129.387 Y138.432 E0.02365
G1 X129.387 Y125.761 E0.39730
G1 X128.633 Y125.761 E0.02365
G1 X128.633 Y138.432 E0.39730
G1 X127.879 Y138.432 E0.02365
G1 X127.879 Y125.761 E0.39730
G1 X127.444 Y125.761 E0.01363
G1 X127.444 Y127.888 E0.06670
G1 X127.125 Y127.888 E0.01001
G1 X127.125 Y138.432 E0.33060
G1 X126.371 Y138.432 E0.02365
G1 X126.371 Y127.888 E0.33060
G1 X125.616 Y127.888 E0.02365
G1 X125.616 Y138.432 E0.33060
G1 X124.862 Y138.432 E0.02365
G1 X124.862 Y127.888 E0.33060
G1 X124.146 Y127.888 E0.02247
G1 X124.146 Y125.761 E0.06670
G1 X124.108 Y125.761 E0.00117
G1 X124.108 Y138.432 E0.39730
G1 X123.354 Y138.432 E0.02365
G1 X123.354 Y125.761 E0.39730
G1 X122.600 Y125.761 E0.02365
G1 X122.600 Y138.432 E0.39730
G1 X121.846 Y138.432 E0.02365
G1 X121.846 Y125.761 E0.39730
G1 X121.523 Y125.761 E0.01012
G1 X121.523 Y126.581 E0.02571
G1 X121.092 Y126.581 E0.01352
G1 X121.092 Y138.432 E0.37158
G1 X120.337 Y138.432 E0.02365
G1 X120.337 Y126.581 E0.37158
G1 X119.583 Y126.581 E0.02365
G1 X119.583 Y138.432 E0.37158
G1 X118.829 Y138.432 E0.02365
G1 X118.829 Y126.581 E0.37158
G1 X118.075 Y126.581 E0.02365
G1 X118.075 Y138.432 E0.37158
G1 X117.321 Y138.432 E0.02365
G1 X117.321 Y126.581 E0.37158
G1 X116.567 Y126.581 E0.02365
G1 X116.567 Y138.432 E0.37158
G1 X115.812 Y138.432 E0.02365
G1 X115.812 Y70.211 E2.13902
G1 X116.567 Y70.211 E0.02365
G1 X116.567 Y82.062 E0.37158
G1 X117.321 Y82.062 E0.02365
G1 X117.321 Y70.211 E0.37158
G1 X118.075 Y70.211 E0.02365
G1 X118.075 Y82.062 E0.37158
G1 X118.829 Y82.062 E0.02365
G1 X118.829 Y70.211 E0.37158
G1 X119.583 Y70.211 E0.02365
G1 X119.583 Y82.062 E0.37158
G1 X120.337 Y82.062 E0.02365
G1 X120.337 Y70.211 E0.37158
G1 X121.092 Y70.211 E0.02365
G1 X121.092 Y82.062 E0.37158
G1 X121.523 Y82.062 E0.01352
G1 X121.523 Y84.239 E0.06826
G1 X121.846 Y84.239 E0.01012
G1 X121.846 Y70.211 E0.43984
G1 X122.600 Y70.211 E0.02365
G1 X122.600 Y84.239 E0.43984
G1 X123.354 Y84.239 E0.02365
G1 X123.354 Y70.211 E0.43984
G1 X124.108 Y70.211 E0.02365
G1 X124.108 Y84.239 E0.43984
G1 X124.146 Y84.239 E0.00118
G1 X124.146 Y80.755 E0.10924
M73 Q0 S131
G1 X124.862 Y80.755 E0.02247
G1 X124.862 Y70.211 E0.33060
M73 P0 R130
G1 X125.616 Y70.211 E0.02365
G1 X125.616 Y80.755 E0.33060
G1 X126.371 Y80.755 E0.02365
G1 X126.371 Y70.211 E0.33060
G1 X127.125 Y70.211 E0.02365
G1 X127.125 Y80.755 E0.33060
G1 X127.444 Y80.755 E0.01001
G1 X127.444 Y84.239 E0.10924
G1 X127.879 Y84.239 E0.01363
G1 X127.879 Y70.211 E0.43984
G1 X128.633 Y70.211 E0.02365
G1 X128.633 Y84.239 E0.43984
G1 X129.387 Y84.239 E0.02365
G1 X129.387 Y70.211 E0.43984
G1 X130.141 Y70.211 E0.02365
G1 X130.141 Y82.062 E0.37158
G1 X130.896 Y82.062 E0.02365
G1 X130.896 Y70.211 E0.37158
G1 X131.650 Y70.211 E0.02365
G1 X131.650 Y82.062 E0.37158
G1 X132.404 Y82.062 E0.02365
G1 X132.404 Y70.211 E0.37158
G1 X133.158 Y70.211 E0.02365
G1 X133.158 Y138.432 E2.13902
G1 X133.912 Y138.432 E0.02365
G1 X133.912 Y70.211 E2.13902
G1 X134.666 Y70.211 E0.02365
G1 X134.666 Y138.432 E2.13902
G1 X135.421 Y138.432 E0.02365
G1 X135.421 Y70.211 E2.13902
G1 X136.175 Y70.211 E0.02365
G1 X136.175 Y138.432 E2.13902
G1 X136.929 Y138.432 E0.02365
G1 X136.929 Y70.211 E2.13902
G1 X137.683 Y70.211 E0.02365
G1 X137.683 Y138.602 E2.14434
G1 X115.058 Y138.602 F10800.000
G1 F1200
G1 X115.058 Y70.211 E2.14434
G1 X114.304 Y70.211 E0.02365
G1 X114.304 Y138.602 E2.14434
G1 E-0.80000 F2100.00000
G1 Z0.800 F10800.000
G1 X125.000 Y124.291
G1 Z0.200
G1 E0.80000 F2100.00000
G1 F1200
G1 X120.046 Y124.291 E0.15532
G1 X120.046 Y85.709 E1.20969
G1 X129.954 Y85.709 E0.31065
G1 X129.954 Y124.291 E1.20969
G1 X125.060 Y124.291 E0.15344
G1 X124.983 Y124.690 F10800.000
G1 X125.000 Y125.025
G1 F1200
G1 X119.312 Y125.025 E0.17834
G1 X119.312 Y84.975 E1.25572
G1 X130.688 Y84.975 E0.35668
G1 X130.688 Y125.025 E1.25572
G1 X125.060 Y125.025 E0.17646
G1 X124.663 Y124.809 F10800.000
G1 X125.000 Y124.658
G1 F1200
G1 X119.858 Y124.658 E0.15269
G1 X119.710 Y124.627 E0.00449
G1 X119.679 Y124.479 E0.00449
G1 X119.679 Y85.521 E1.15677
G1 X119.694 Y85.447 E0.00244
G1 X119.710 Y85.373 E0.00263
G1 X119.858 Y85.342 E0.00449
G1 X130.142 Y85.342 E0.30538
G1 X130.290 Y85.373 E0.00449
G1 X130.321 Y85.521 E0.00449
G1 X130.321 Y124.479 E1.15677
G1 X130.290 Y124.627 E0.00449
G1 X130.142 Y124.658 E0.00449
G1 X125.060 Y124.658 E0.15091
M106 S255
;BEFORE_LAYER_CHANGE
G92 E0.0
;0.3


G1 E-0.80000 F2100.00000
G1 Z0.800 F10800.000
;AFTER_LAYER_CHANGE
;0.3
M104 S210 ; set temperature
G1 X121.130 Y126.377
G1 Z0.300
G1 E0.80000 F2100.00000
G1 F1065
G1 X121.130 Y125.926 E0.00616
G1 X120.623 Y125.926 E0.00693
G1 X120.623 Y126.239 E0.00428
G1 X120.116 Y126.239 E0.00693
G1 X120.116 Y125.926 E0.00428
G1 X119.609 Y125.926 E0.00693
G1 X119.609 Y126.239 E0.00428
G1 X119.102 Y126.239 E0.00693
G1 X119.102 Y125.926 E0.00428
G1 X118.699 Y125.926 E0.00551
G1 X118.595 Y125.822 E0.00200
G1 X118.595 Y126.239 E0.00569
G1 X118.088 Y126.239 E0.00693
G1 X118.088 Y123.932 E0.03151
G1 X117.581 Y123.932 E0.00693
G1 X117.581 Y126.239 E0.03151
G1 X117.074 Y126.239 E0.00693
G1 X117.074 Y123.932 E0.03151
G1 X116.567 Y123.932 E0.00693
G1 X116.567 Y126.377 E0.03340
G1 E-0.80000 F2100.00000
G1 Z0.900 F10800.000
G1 X116.567 Y123.763
G1 Z0.300
G1 E0.80000 F2100.00000
G1 F1065
G1 X116.567 Y84.880 E0.53110
G1 X116.567 Y84.850 F10800.000
G1 F1065
G1 X116.567 Y82.404 E0.03340
G1 X117.074 Y82.404 E0.00693
G1 X117.074 Y84.711 E0.03151
G1 X117.581 Y84.711 E0.00693
G1 X117.581 Y82.404 E0.03151
G1 X118.088 Y82.404 E0.00693
G1 X118.088 Y84.711 E0.03151
G1 X118.411 Y84.711 E0.00441
G1 X118.411 Y84.362 E0.00477
G1 X118.595 Y84.178 E0.00355
G1 X118.595 Y82.404 E0.02423
G1 X119.102 Y82.404 E0.00693
G1 X119.102 Y84.074 E0.02281
G1 X119.609 Y84.074 E0.00693
G1 X119.609 Y82.404 E0.02281
G1 X120.116 Y82.404 E0.00693
G1 X120.116 Y84.074 E0.02281
G1 X120.623 Y84.074 E0.00693
G1 X120.623 Y82.404 E0.02281
G1 X121.130 Y82.404 E0.00693
G1 X121.130 Y84.212 E0.02470
G1 E-0.80000 F2100.00000
G1 Z0.900 F10800.000
G1 X130.765 Y84.212
G1 Z0.300
G1 E0.80000 F2100.00000
M73 Q1 S130
G1 F1065
G1 X130.765 Y82.404 E0.02470
G1 X131.272 Y82.404 E0.00693
G1 X131.272 Y84.074 E0.02281
G1 X131.301 Y84.074 E0.00040
G1 X131.589 Y84.362 E0.00556
G1 X131.589 Y84.711 E0.00477
G1 X131.779 Y84.711 E0.00259
G1 X131.779 Y82.404 E0.03151
M73 P1 R129
G1 X132.286 Y82.404 E0.00693
G1 X132.286 Y84.850 E0.03340
G1 X132.716 Y84.880 F10800.000
G1 F1065
G1 X132.716 Y123.763 E0.53110
G1 E-0.80000 F2100.00000
G1 Z0.900 F10800.000
G1 X132.286 Y126.377
G1 Z0.300
G1 E0.80000 F2100.00000
G1 F1065
G1 X132.286 Y123.932 E0.03340
G1 X131.779 Y123.932 E0.00693
G1 X131.779 Y126.239 E0.03151
G1 X131.272 Y126.239 E0.00693
G1 X131.272 Y125.926 E0.00428
G1 X130.765 Y125.926 E0.00693
G1 X130.765 Y126.377 E0.00616
G1 E-0.80000 F2100.00000
G1 Z0.900 F10800.000
G1 X132.716 Y135.605
G1 Z0.300
G1 E0.80000 F2100.00000
G1 F1065
G1 X132.716 Y126.546 E0.12374
G1 X132.716 Y130.853 E0.05883
G1 X130.409 Y130.853 E0.03151
G1 X130.409 Y135.467 E0.06303
G1 X128.102 Y135.467 E0.03151
G1 X128.102 Y130.853 E0.06303
G1 X125.795 Y130.853 E0.03151
G1 X125.795 Y135.467 E0.06303
G1 X123.488 Y135.467 E0.03151
G1 X123.488 Y130.853 E0.06303
G1 X121.181 Y130.853 E0.03151
G1 X121.181 Y135.467 E0.06303
G1 X118.874 Y135.467 E0.03151
G1 X118.874 Y126.546 E0.12186
G1 X116.567 Y126.546 E0.03151
G1 X116.567 Y135.605 E0.12374
G1 X135.023 Y135.605 F10800.000
G1 F1065
G1 X135.023 Y73.176 E0.85273
G1 X132.716 Y73.176 E0.03151
G1 X132.716 Y82.097 E0.12186
G1 X132.716 Y77.790 E0.05883
G1 X130.409 Y77.790 E0.03151
G1 X130.409 Y73.176 E0.06303
G1 X128.102 Y73.176 E0.03151
G1 X128.102 Y77.790 E0.06303
G1 X125.795 Y77.790 E0.03151
G1 X125.795 Y73.176 E0.06303
G1 X123.488 Y73.176 E0.03151
G1 X123.488 Y77.790 E0.06303
G1 X121.181 Y77.790 E0.03151
G1 X121.181 Y73.176 E0.06303
G1 X118.874 Y73.176 E0.03151
G1 X118.874 Y82.097 E0.12186
G1 X116.567 Y82.097 E0.03151
G1 X116.567 Y73.038 E0.12374
;BEFORE_LAYER_CHANGE
G92 E0.0
;0.4


G1 E-0.80000 F2100.00000
G1 Z0.900 F10800.000
;AFTER_LAYER_CHANGE
;0.4
G1 X112.227 Y69.521
G1 Z0.400
G1 E0.80000 F2100.00000
G1 F1541
G1 X112.520 Y68.943 E0.02032
G1 X112.973 Y68.474 E0.02044
G1 X113.540 Y68.160 E0.02032
G1 X114.174 Y68.026 E0.02032
G1 X137.683 Y68.023 E0.73711
G1 X138.507 Y68.183 E0.02631
G1 X139.209 Y68.642 E0.02631
G1 X139.686 Y69.328 E0.02620
G1 X139.871 Y70.147 E0.02631
G1 X139.872 Y138.605 E2.14647
G1 X139.760 Y139.291 E0.02179
G1 X139.463 Y139.876 E0.02055
G1 X139.009 Y140.343 E0.02044
G1 X138.437 Y140.656 E0.02044
G1 X137.798 Y140.787 E0.02044
G1 X114.293 Y140.790 E0.73699
G1 X113.614 Y140.679 E0.02157
G1 X113.018 Y140.373 E0.02100
G1 X112.543 Y139.901 E0.02100
G1 X112.231 Y139.304 E0.02112
G1 X112.116 Y138.644 E0.02100
G1 X112.116 Y70.207 E2.14579
G1 X112.217 Y69.581 E0.01991
G1 E-0.80000 F2100.00000
G1 Z1.000 F10800.000
G1 X125.000 Y124.306
G1 Z0.400
G1 E0.80000 F2100.00000
M204 S800
G1 F1541
G1 X120.031 Y124.306 E0.16819
G1 X120.031 Y85.694 E1.30694
G1 X129.969 Y85.694 E0.33638
G1 X129.969 Y124.306 E1.30694
G1 X125.060 Y124.306 E0.16616
M204 S1000
G1 X124.983 Y124.705 F10800.000
G1 X125.000 Y125.210
M204 S800
G1 F1541
G1 X119.127 Y125.210 E0.19879
G1 X119.127 Y84.790 E1.36815
G1 X130.873 Y84.790 E0.39759
G1 X130.873 Y125.210 E1.36815
G1 X125.060 Y125.210 E0.19676
M204 S1000
G1 X124.664 Y124.993 F10800.000
G1 X125.000 Y124.758
G1 F1541
G1 X119.828 Y124.758 E0.21379
G1 X119.622 Y124.715 E0.00869
G1 X119.579 Y124.509 E0.00869
G1 X119.579 Y85.491 E1.61277
G1
G1 X119.600 Y85.388 E0.00472
G1
G1 X119.622 Y85.285 E0.00509
G1
G1 X119.828 Y85.242 E0.00869
G1 X130.172 Y85.242 E0.42758
G1 X130.378 Y85.285 E0.00869
G1 X130.421 Y85.491 E0.00869
G1 X130.421 Y124.509 E1.61277
G1 X130.378 Y124.715 E0.00869
G1 X130.172 Y124.758 E0.00869
G1 X125.060 Y124.758 E0.21131
;BEFORE_LAYER_CHANGE
G92 E0.0
;0.5


G1 E-0.80000 F2100.00000
G1 Z1.000 F10800.000
;AFTER_LAYER_CHANGE
;0.5
G1 X121.319 Y126.239
