; generated by PrusaSlicer 2.2.0+win64 on 2020-07-28 at 21:30:32 UTC

; 

; external perimeters extrusion width = 0.45mm
; perimeters extrusion width = 0.45mm
; infill extrusion width = 0.45mm
; solid infill extrusion width = 0.45mm
; top infill extrusion width = 0.40mm
; first layer extrusion width = 0.42mm

M73 P0 R21
M73 Q0 S21
M201 X1000 Y1000 Z1000 E5000 ; sets maximum accelerations, mm/sec^2
M203 X200 Y200 Z12 E120 ; sets maximum feedrates, mm/sec
M204 P1250 R1250 T1250 ; sets acceleration (P, T) and retract acceleration (R), mm/sec^2
M205 X8.00 Y8.00 Z0.40 E1.50 ; sets the jerk limits, mm/sec
M205 S0 T0 ; sets the minimum extruding and travel feed rate, mm/sec
M107
M862.3 P "MK3S" ; printer model check
M862.1 P0.4 ; nozzle diameter check
M115 U3.8.0 ; tell printer latest fw version
G90 ; use absolute coordinates
M83 ; extruder relative mode
M104 S215 ; set extruder temp
M140 S60 ; set bed temp
M190 S60 ; wait for bed temp
M109 S215 ; wait for extruder temp
G28 W ; home all without mesh bed level
G80 ; mesh bed leveling
G1 Y-3.0 F1000.0 ; go outside print area
G92 E0.0
G1 X60.0 E9.0 F1000.0 ; intro line
M73 Q0 S21
M73 P0 R21
G1 X100.0 E12.5 F1000.0 ; intro line
G92 E0.0
M221 S95
G21 ; set units to millimeters
G90 ; use absolute coordinates
M83 ; use relative distances for extrusion
M900 K0.06 ; Filament gcode LA 1.5
M900 K30 ; Filament gcode LA 1.0
;BEFORE_LAYER_CHANGE
G92 E0.0
;0.2


G1 E-0.80000 F2100.00000
G1 Z0.600 F10800.000
;AFTER_LAYER_CHANGE
;0.2
G1 X129.981 Y112.909
G1 Z0.200
G1 E0.80000 F2100.00000
M204 S1000
G1 F1200.000
G1 X130.422 Y112.945 E0.01386
G1 X130.834 Y113.056 E0.01337
G1 X131.191 Y113.221 E0.01235
G1 X131.407 Y113.356 E0.00800
G1 X131.725 Y113.623 E0.01300
G1 X131.990 Y113.939 E0.01293
G1 X132.118 Y114.140 E0.00747
G1 X132.292 Y114.514 E0.01293
G1 X132.402 Y114.924 E0.01333
G1 X132.439 Y115.348 E0.01333
G1 X132.402 Y115.771 E0.01333
G1 X132.292 Y116.182 E0.01331
G1 X132.127 Y116.539 E0.01235
G1 X131.991 Y116.755 E0.00800
G1 X131.733 Y117.063 E0.01260
G1 X131.558 Y117.223 E0.00745
G1 X131.235 Y117.450 E0.01236
G1 X130.836 Y117.640 E0.01386
G1 X130.424 Y117.750 E0.01339
G1 X130.000 Y117.787 E0.01333
G1 X129.576 Y117.750 E0.01333
G1 X129.166 Y117.640 E0.01333
G1 X128.780 Y117.460 E0.01333
G1 X128.443 Y117.224 E0.01293
G1 X128.267 Y117.063 E0.00747
G1 X128.002 Y116.747 E0.01293
G1 X127.796 Y116.390 E0.01293
G1 X127.705 Y116.170 E0.00745
G1 X127.602 Y115.790 E0.01236
G1 X127.561 Y115.350 E0.01386
G1 X127.597 Y114.937 E0.01299
G1 X127.648 Y114.705 E0.00745
G1 X127.782 Y114.334 E0.01236
G1 X128.001 Y113.950 E0.01386
G1 X128.275 Y113.623 E0.01339
G1 X128.601 Y113.350 E0.01333
G1 X128.969 Y113.137 E0.01333
G1 X129.357 Y112.996 E0.01293
G1 X129.589 Y112.945 E0.00745
G1 X129.922 Y112.915 E0.01048
G1 E-0.80000 F2100.00000
G1 Z0.800 F10800.000
G1 X129.642 Y117.377
G1 Z0.200
G1 E0.80000 F2100.00000
G1 F1200.000
G1 X129.295 Y117.284 E0.01126
G1 X128.970 Y117.133 E0.01126
G1 X128.679 Y116.929 E0.01112
G1 X128.540 Y116.802 E0.00592
G1 X128.312 Y116.530 E0.01112
G1 X128.135 Y116.223 E0.01112
G1 X128.062 Y116.048 E0.00592
G1 X127.974 Y115.722 E0.01059
G1 X127.939 Y115.349 E0.01177
G1 X127.970 Y114.995 E0.01114
G1 X128.011 Y114.810 E0.00592
G1 X128.126 Y114.493 E0.01059
G1 X128.311 Y114.166 E0.01177
G1 X128.543 Y113.891 E0.01128
G1 X128.818 Y113.660 E0.01126
G1 X129.129 Y113.480 E0.01126
G1 X129.462 Y113.359 E0.01112
G1 X129.646 Y113.318 E0.00592
G1 X129.983 Y113.288 E0.01059
G1 X130.357 Y113.318 E0.01177
G1 X130.705 Y113.411 E0.01128
G1 X131.011 Y113.553 E0.01059
G1 X131.185 Y113.662 E0.00644
G1 X131.457 Y113.891 E0.01114
G1 X131.685 Y114.162 E0.01112
G1 X131.787 Y114.322 E0.00592
G1 X131.937 Y114.643 E0.01112
G1 X132.029 Y114.990 E0.01126
G1 X132.061 Y115.348 E0.01126
G1 X132.029 Y115.706 E0.01126
G1 X131.937 Y116.052 E0.01126
G1 X131.795 Y116.359 E0.01059
G1 X131.686 Y116.533 E0.00644
G1 X131.460 Y116.802 E0.01100
G1 X131.321 Y116.929 E0.00592
G1 X131.045 Y117.123 E0.01059
G1 X130.705 Y117.284 E0.01177
G1 X130.358 Y117.377 E0.01128
G1 X130.000 Y117.409 E0.01126
G1 X129.702 Y117.383 E0.00938
G1 X129.411 Y117.653 F10800.000
G1 E-0.80000 F2100.00000
G1 Z0.800 F10800.000
G1 X120.351 Y117.756
G1 Z0.200
G1 E0.80000 F2100.00000
G1 F1200.000
G1 X120.000 Y117.787 E0.01106
G1 X119.576 Y117.750 E0.01333
G1 X119.166 Y117.640 E0.01333
G1 X118.781 Y117.461 E0.01331
G1 X118.458 Y117.236 E0.01235
G1 X118.268 Y117.065 E0.00800
G1 X118.010 Y116.757 E0.01260
G1 X117.882 Y116.556 E0.00745
G1 X117.715 Y116.199 E0.01236
G1 X117.598 Y115.773 E0.01386
G1 X117.561 Y115.348 E0.01339
G1 X117.598 Y114.924 E0.01333
G1 X117.704 Y114.526 E0.01293
G1 X117.795 Y114.306 E0.00745
G1 X117.992 Y113.964 E0.01236
G1 X118.274 Y113.624 E0.01386
G1 X118.601 Y113.350 E0.01339
G1 X118.969 Y113.137 E0.01333
G1 X119.357 Y112.996 E0.01293
G1 X119.589 Y112.945 E0.00745
G1 X119.981 Y112.909 E0.01236
G1 X120.422 Y112.945 E0.01385
G1 X120.822 Y113.052 E0.01299
G1 X121.041 Y113.143 E0.00745
G1 X121.383 Y113.340 E0.01236
G1 X121.724 Y113.622 E0.01386
G1 X121.990 Y113.939 E0.01299
G1 X122.118 Y114.139 E0.00745
G1 X122.285 Y114.496 E0.01236
G1 X122.402 Y114.922 E0.01386
G1 X122.439 Y115.348 E0.01339
G1 X122.403 Y115.759 E0.01293
G1 X122.352 Y115.991 E0.00745
G1 X122.218 Y116.362 E0.01236
G1 X121.999 Y116.746 E0.01386
G1 X121.725 Y117.073 E0.01339
G1 X121.409 Y117.338 E0.01293
G1 X121.209 Y117.465 E0.00745
G1 X120.852 Y117.633 E0.01236
G1 X120.411 Y117.751 E0.01430
G1 X120.286 Y117.384 F10800.000
G1 F1200.000
G1 X120.000 Y117.409 E0.00902
G1 X119.642 Y117.377 E0.01126
G1 X119.295 Y117.284 E0.01126
G1 X118.970 Y117.133 E0.01126
G1 X118.693 Y116.940 E0.01059
G1 X118.540 Y116.802 E0.00644
G1 X118.315 Y116.533 E0.01100
G1 X118.213 Y116.374 E0.00592
G1 X118.070 Y116.068 E0.01059
G1 X117.971 Y115.706 E0.01177
G1 X117.939 Y115.348 E0.01128
G1 X117.971 Y114.990 E0.01126
G1 X118.062 Y114.648 E0.01112
G1 X118.134 Y114.473 E0.00592
G1 X118.303 Y114.180 E0.01059
G1 X118.542 Y113.891 E0.01177
G1 X118.818 Y113.660 E0.01128
G1 X119.129 Y113.480 E0.01126
G1 X119.462 Y113.359 E0.01112
G1 X119.646 Y113.318 E0.00592
G1 X119.983 Y113.288 E0.01059
G1 X120.357 Y113.318 E0.01177
G1 X120.700 Y113.410 E0.01114
G1 X120.875 Y113.482 E0.00592
G1 X121.168 Y113.651 E0.01059
G1 X121.457 Y113.890 E0.01177
G1 X121.685 Y114.162 E0.01114
G1 X121.787 Y114.321 E0.00592
G1 X121.930 Y114.627 E0.01059
G1 X122.029 Y114.989 E0.01177
G1 X122.061 Y115.348 E0.01128
G1 X122.030 Y115.701 E0.01112
G1 X121.989 Y115.885 E0.00592
G1 X121.874 Y116.203 E0.01059
G1 X121.689 Y116.529 E0.01177
G1 X121.457 Y116.805 E0.01128
G1 X121.186 Y117.033 E0.01112
G1 X121.026 Y117.134 E0.00592
G1 X120.721 Y117.278 E0.01059
G1 X120.346 Y117.378 E0.01215
G1 X120.186 Y117.653 F10800.000
G1 E-0.80000 F2100.00000
G1 Z0.800 F10800.000
G1 X125.000 Y119.511
G1 Z0.200
G1 E0.80000 F2100.00000
G1 F1200.000
G1 X116.087 Y119.511 E0.27946
G1 X116.087 Y112.161 E0.23045
G1 X118.337 Y106.998 E0.17659
G1 X118.337 Y93.384 E0.42687
G1 X120.321 Y93.384 E0.06220
G1 X121.103 Y94.662 E0.04697
G1 X119.563 Y94.662 E0.04828
G1 X119.563 Y110.809 E0.50630
G1 X130.437 Y110.809 E0.34095
G1 X130.437 Y94.662 E0.50629
G1 X128.897 Y94.662 E0.04828
G1 X129.679 Y93.384 E0.04697
G1 X131.663 Y93.384 E0.06220
G1 X131.663 Y106.998 E0.42687
G1 X133.913 Y112.161 E0.17659
G1 X133.913 Y119.511 E0.23045
G1 X125.060 Y119.511 E0.27758
G1 X125.000 Y119.888 F10800.000
G1 F1200.000
G1 X115.710 Y119.888 E0.29128
G1 X115.710 Y112.082 E0.24473
G1 X117.960 Y106.919 E0.17659
G1 X117.960 Y93.006 E0.43623
G1 X120.532 Y93.006 E0.08065
G1 X121.775 Y95.039 E0.07469
G1 X119.940 Y95.039 E0.05755
G1 X119.940 Y110.432 E0.48265
G1 X130.060 Y110.432 E0.31731
G1 X130.060 Y95.039 E0.48265
G1 X128.225 Y95.039 E0.05755
G1 X129.468 Y93.006 E0.07469
G1 X132.040 Y93.006 E0.08065
G1 X132.040 Y106.919 E0.43623
G1 X134.290 Y112.082 E0.17659
G1 X134.290 Y119.888 E0.24473
G1 X125.060 Y119.888 E0.28940
G1 X124.725 Y119.597 F10800.000
G1 E-0.80000 F2100.00000
G1 Z0.800 F10800.000
G1 X127.165 Y119.398
G1 Z0.200
G1 E0.80000 F2100.00000
G1 F1200.000
G1 X122.686 Y114.918 E0.19990
G1 X122.723 Y115.348 E0.01360
G1 X122.712 Y115.481 E0.00422
G1 X126.459 Y119.228 E0.16722
G1 X125.922 Y119.228 E0.01694
G1 X122.649 Y115.956 E0.14604
G1 X122.519 Y116.362 E0.01346
G1 X125.385 Y119.228 E0.12792
G1 X124.848 Y119.228 E0.01694
G1 X122.340 Y116.719 E0.11196
G1 X122.232 Y116.908 E0.00684
G1 X122.123 Y117.039 E0.00540
G1 X124.312 Y119.228 E0.09770
G1 X123.775 Y119.228 E0.01694
G1 X121.868 Y117.321 E0.08508
G1 X121.577 Y117.566 E0.01202
G1 X123.238 Y119.228 E0.07416
G1 X122.702 Y119.228 E0.01694
G1 X121.238 Y117.764 E0.06533
G1 X120.861 Y117.924 E0.01292
G1 X122.165 Y119.228 E0.05821
G1 X121.628 Y119.228 E0.01694
G1 X120.433 Y118.033 E0.05332
G1 X119.928 Y118.065 E0.01597
G1 X121.091 Y119.228 E0.05191
G1 X120.555 Y119.228 E0.01694
G1 X119.294 Y117.967 E0.05626
G1 X119.069 Y117.907 E0.00736
G1 X118.639 Y117.707 E0.01495
G1 X118.282 Y117.457 E0.01376
G1 X118.064 Y117.262 E0.00923
G1 X117.782 Y116.924 E0.01388
G1 X117.634 Y116.693 E0.00866
G1 X117.449 Y116.298 E0.01378
G1 X117.382 Y116.055 E0.00793
G1 X116.370 Y115.043 E0.04517
G1 X116.370 Y114.506 E0.01694
G1 X117.283 Y115.420 E0.04075
G1 X117.315 Y114.915 E0.01597
G1 X116.370 Y113.970 E0.04217
G1 X116.370 Y113.433 E0.01694
G1 X117.423 Y114.486 E0.04698
G1 X117.583 Y114.109 E0.01291
G1 X116.370 Y112.896 E0.05412
G1 X116.370 Y112.360 E0.01694
G1 X117.783 Y113.773 E0.06307
G1 X118.026 Y113.479 E0.01203
G1 X116.490 Y111.943 E0.06855
G1 X116.653 Y111.570 E0.01287
G1 X118.309 Y113.225 E0.07389
G1 X118.438 Y113.117 E0.00531
G1 X118.628 Y113.008 E0.00692
G1 X116.816 Y111.196 E0.08085
G1 X116.979 Y110.822 E0.01287
G1 X118.987 Y112.830 E0.08960
G1 X119.392 Y112.699 E0.01345
G1 X117.142 Y110.448 E0.10042
G1 X117.305 Y110.074 E0.01287
G1 X119.866 Y112.636 E0.11431
G1 X119.980 Y112.626 E0.00361
G1 X120.429 Y112.662 E0.01422
G1 X117.339 Y109.572 E0.13791
G1 E-0.80000 F2100.00000
G1 Z0.800 F10800.000
G1 X121.910 Y110.922
G1 Z0.200
G1 E0.80000 F2100.00000
G1 F1200.000
G1 X130.215 Y119.228 E0.37066
G1 X129.679 Y119.228 E0.01694
G1 X121.543 Y111.092 E0.36309
G1 X121.006 Y111.092 E0.01694
G1 X129.142 Y119.228 E0.36309
G1 X128.605 Y119.228 E0.01694
G1 X120.469 Y111.092 E0.36309
G1 X119.933 Y111.092 E0.01694
G1 X128.069 Y119.228 E0.36309
G1 X127.532 Y119.228 E0.01694
G1 X117.631 Y109.327 E0.44186
G1 X117.794 Y108.953 E0.01287
G1 X119.280 Y110.440 E0.06634
G1 X119.280 Y109.903 E0.01694
G1 X117.956 Y108.579 E0.05907
G1 X118.119 Y108.205 E0.01287
G1 X119.280 Y109.366 E0.05180
G1 X119.280 Y108.829 E0.01694
G1 X118.282 Y107.832 E0.04453
G1 X118.445 Y107.458 E0.01287
G1 X119.280 Y108.293 E0.03726
G1 X119.280 Y107.756 E0.01694
G1 X118.608 Y107.084 E0.02999
G1 X118.620 Y106.559 E0.01657
G1 X119.280 Y107.219 E0.02946
G1 X119.280 Y106.683 E0.01694
G1 X118.620 Y106.022 E0.02946
G1 X118.620 Y105.486 E0.01694
G1 X119.280 Y106.146 E0.02946
G1 X119.280 Y105.609 E0.01694
G1 X118.620 Y104.949 E0.02946
G1 X118.620 Y104.412 E0.01694
G1 X119.280 Y105.073 E0.02946
G1 X119.280 Y104.536 E0.01694
G1 X118.620 Y103.876 E0.02946
G1 X118.620 Y103.339 E0.01694
G1 X119.280 Y103.999 E0.02946
G1 X119.280 Y103.462 E0.01694
G1 X118.620 Y102.802 E0.02946
G1 X118.620 Y102.265 E0.01694
G1 X119.280 Y102.926 E0.02946
G1 X119.280 Y102.389 E0.01694
G1 X118.620 Y101.729 E0.02946
G1 X118.620 Y101.192 E0.01694
G1 X119.280 Y101.852 E0.02946
G1 X119.280 Y101.316 E0.01694
G1 X118.620 Y100.655 E0.02946
G1 X118.620 Y100.119 E0.01694
G1 X119.280 Y100.779 E0.02946
G1 X119.280 Y100.242 E0.01694
G1 X118.620 Y99.582 E0.02946
G1 X118.620 Y99.045 E0.01694
G1 X119.280 Y99.705 E0.02946
G1 X119.280 Y99.169 E0.01694
G1 X118.620 Y98.509 E0.02946
G1 X118.620 Y97.972 E0.01694
G1 X119.280 Y98.632 E0.02946
G1 X119.280 Y98.095 E0.01694
G1 X118.620 Y97.435 E0.02946
G1 X118.620 Y96.898 E0.01694
G1 X119.280 Y97.559 E0.02946
G1 X119.280 Y97.022 E0.01694
G1 X118.620 Y96.362 E0.02946
G1 X118.620 Y95.825 E0.01694
G1 X119.280 Y96.485 E0.02946
G1 X119.280 Y95.949 E0.01694
G1 X118.620 Y95.288 E0.02946
G1 X118.620 Y94.752 E0.01694
G1 X119.280 Y95.412 E0.02946
G1 X119.280 Y94.875 E0.01694
G1 X118.620 Y94.215 E0.02946
G1 X118.620 Y93.678 E0.01694
G1 X119.320 Y94.379 E0.03126
G1 X119.857 Y94.379 E0.01694
G1 X119.145 Y93.666 E0.03179
G1 X119.681 Y93.666 E0.01694
G1 X120.563 Y94.548 E0.03937
G1 E-0.80000 F2100.00000
G1 Z0.800 F10800.000
G1 X129.322 Y94.183
G1 Z0.200
G1 E0.80000 F2100.00000
G1 F1200.000
G1 X129.518 Y94.379 E0.00872
G1 X130.054 Y94.379 E0.01694
G1 X129.649 Y93.974 E0.01807
G1 X129.838 Y93.666 E0.01138
G1 X129.879 Y93.666 E0.00130
G1 X131.380 Y95.168 E0.06700
G1 X131.380 Y94.631 E0.01694
G1 X130.415 Y93.666 E0.04305
G1 X130.952 Y93.666 E0.01694
G1 X131.550 Y94.264 E0.02667
G1 E-0.80000 F2100.00000
G1 Z0.800 F10800.000
G1 X131.550 Y95.874
G1 Z0.200
G1 E0.80000 F2100.00000
G1 F1200.000
G1 X130.720 Y95.044 E0.03704
G1 X130.720 Y95.581 E0.01694
G1 X131.380 Y96.241 E0.02946
G1 X131.380 Y96.778 E0.01694
G1 X130.720 Y96.118 E0.02946
G1 X130.720 Y96.654 E0.01694
G1 X131.380 Y97.315 E0.02946
G1 X131.380 Y97.851 E0.01694
G1 X130.720 Y97.191 E0.02946
G1 X130.720 Y97.728 E0.01694
G1 X131.380 Y98.388 E0.02946
G1 X131.380 Y98.925 E0.01694
G1 X130.720 Y98.264 E0.02946
G1 X130.720 Y98.801 E0.01694
G1 X131.380 Y99.461 E0.02946
G1 X131.380 Y99.998 E0.01694
G1 X130.720 Y99.338 E0.02946
G1 X130.720 Y99.875 E0.01694
G1 X131.380 Y100.535 E0.02946
G1 X131.380 Y101.071 E0.01694
G1 X130.720 Y100.411 E0.02946
G1 X130.720 Y100.948 E0.01694
G1 X131.380 Y101.608 E0.02946
G1 X131.380 Y102.145 E0.01694
G1 X130.720 Y101.485 E0.02946
G1 X130.720 Y102.021 E0.01694
G1 X131.380 Y102.682 E0.02946
G1 X131.380 Y103.218 E0.01694
G1 X130.720 Y102.558 E0.02946
G1 X130.720 Y103.095 E0.01694
G1 X131.380 Y103.755 E0.02946
G1 X131.380 Y104.292 E0.01694
G1 X130.720 Y103.631 E0.02946
G1 X130.720 Y104.168 E0.01694
G1 X131.380 Y104.828 E0.02946
G1 X131.380 Y105.365 E0.01694
G1 X130.720 Y104.705 E0.02946
G1 X130.720 Y105.242 E0.01694
G1 X131.380 Y105.902 E0.02946
G1 X131.380 Y106.438 E0.01694
G1 X130.720 Y105.778 E0.02946
G1 X130.720 Y106.315 E0.01694
G1 X131.380 Y106.975 E0.02946
G1 X131.380 Y107.057 E0.00258
G1 X131.732 Y107.863 E0.02776
G1 X130.720 Y106.852 E0.04515
G1 X130.720 Y107.388 E0.01694
G1 X132.146 Y108.815 E0.06365
G1 X132.561 Y109.766 E0.03274
G1 X130.720 Y107.925 E0.08215
G1 X130.720 Y108.462 E0.01694
G1 X132.975 Y110.717 E0.10065
G1 X133.390 Y111.668 E0.03274
G1 X130.720 Y108.998 E0.11914
G1 X130.720 Y109.535 E0.01694
G1 X133.630 Y112.445 E0.12988
G1 X133.630 Y112.982 E0.01694
G1 X130.720 Y110.072 E0.12988
G1 X130.720 Y110.609 E0.01694
G1 X133.630 Y113.519 E0.12988
G1 X133.630 Y114.055 E0.01694
G1 X130.666 Y111.092 E0.13226
G1 X130.130 Y111.092 E0.01694
G1 X133.630 Y114.592 E0.15621
G1 X133.630 Y115.129 E0.01694
G1 X129.593 Y111.092 E0.18016
G1 X129.056 Y111.092 E0.01694
G1 X130.688 Y112.724 E0.07283
G1 X130.470 Y112.665 E0.00712
G1 X130.060 Y112.632 E0.01299
G1 X128.520 Y111.092 E0.06873
G1 X127.983 Y111.092 E0.01694
G1 X129.555 Y112.664 E0.07015
G1 X129.277 Y112.724 E0.00896
G1 X129.131 Y112.777 E0.00489
G1 X127.446 Y111.092 E0.07520
G1 X126.910 Y111.092 E0.01694
G1 X128.753 Y112.935 E0.08227
G1 X128.416 Y113.135 E0.01236
G1 X126.373 Y111.092 E0.09119
G1 X125.836 Y111.092 E0.01694
G1 X128.125 Y113.380 E0.10212
G1 X127.872 Y113.664 E0.01200
G1 X125.299 Y111.092 E0.11479
G1 X124.763 Y111.092 E0.01694
G1 X127.656 Y113.985 E0.12910
G1 X127.524 Y114.215 E0.00838
G1 X127.478 Y114.344 E0.00431
G1 X124.226 Y111.092 E0.14512
G1 X123.689 Y111.092 E0.01694
G1 X127.348 Y114.751 E0.16328
G1 X127.317 Y114.894 E0.00463
G1 X127.287 Y115.227 E0.01053
G1 X123.153 Y111.092 E0.18452
G1 X122.616 Y111.092 E0.01694
G1 X127.548 Y116.024 E0.22010
G1 E-0.80000 F2100.00000
G1 Z0.800 F10800.000
G1 X129.324 Y117.800
G1 Z0.200
G1 E0.80000 F2100.00000
G1 F1200.000
G1 X130.752 Y119.228 E0.06375
G1 X131.289 Y119.228 E0.01694
G1 X130.121 Y118.060 E0.05210
G1 X130.473 Y118.030 E0.01114
G1 X130.595 Y117.997 E0.00398
G1 X131.826 Y119.228 E0.05493
G1 X132.362 Y119.228 E0.01694
G1 X131.006 Y117.872 E0.06052
